P3
400 225
255
174 197 0
174 198 0
173 196 0
174 197 0
173 196 0
174 198 0
173 197 0
174 198 0
173 197 0
174 197 0
173 196 0
173 196 0
173 196 0
173 196 0
172 196 0
174 197 0
173 197 0
173 197 0
173 197 0
174 197 0
173 196 0
174 197 0
174 197 0
175 198 0
175 198 0
172 196 0
174 198 0
175 198 0
172 196 0
172 196 0
175 198 0
174 197 0
172 196 0
173 197 0
173 197 0
174 197 0
175 198 0
174 197 0
173 196 0
174 197 0
174 197 0
173 197 0
174 197 0
173 197 0
173 197 0
175 198 0
174 197 0
175 198 0
174 197 0
173 197 0
174 197 0
174 197 0
173 197 0
174 197 0
172 196 0
174 197 0
174 198 0
174 197 0
171 196 0
171 195 0
172 195 0
173 197 0
173 196 0
175 198 0
173 196 0
173 196 0
172 195 0
172 196 0
174 196 0
175 198 0
173 196 0
174 197 0
174 197 0
173 197 0
173 197 0
174 197 0
175 198 0
172 195 0
173 197 0
175 198 0
174 197 0
174 197 0
174 197 0
173 197 0
174 198 0
173 197 0
175 198 0
175 198 0
174 197 0
173 197 0
175 198 0
174 198 0
175 198 0
172 196 0
173 197 0
173 197 0
175 198 0
174 197 0
174 196 0
175 198 0
174 197 0
173 197 0
173 197 0
174 198 0
174 197 0
174 197 0
172 195 0
174 196 0
171 194 0
173 197 0
173 196 0
173 197 0
170 193 0
174 197 0
175 198 0
174 197 0
174 197 0
174 197 0
175 198 0
172 195 0
173 196 0
174 197 0
174 197 0
172 195 0
172 196 0
173 197 0
172 196 0
173 196 0
171 194 0
173 196 0
173 196 0
173 197 0
174 197 0
174 197 0
173 197 0
173 196 0
173 196 0
173 197 0
174 197 0
173 196 0
172 196 0
173 196 0
172 196 0
172 195 0
175 197 0
175 198 0
174 197 0
173 196 0
172 196 0
173 196 0
175 198 0
173 196 0
171 195 0
173 196 0
173 196 0
172 195 0
174 197 0
173 195 0
172 195 0
175 198 0
172 195 0
175 197 0
173 197 0
173 197 0
172 196 0
173 197 0
174 197 0
172 196 0
174 198 0
174 197 0
171 194 0
174 197 0
172 195 0
172 195 0
173 196 0
172 196 0
174 197 0
174 197 0
173 196 0
172 196 0
174 197 0
174 197 0
173 197 0
174 197 0
173 196 0
173 196 0
174 198 0
173 197 0
173 197 0
172 196 0
174 197 0
173 196 0
173 197 0
175 197 0
173 196 0
172 196 0
173 197 0
171 195 0
173 197 0
174 197 0
172 196 0
173 197 0
172 196 0
175 198 0
170 194 0
174 198 0
172 195 0
171 194 0
171 195 0
173 196 0
174 197 0
172 195 0
173 196 0
174 197 0
174 197 0
172 195 0
173 195 0
173 196 0
174 197 0
172 196 0
172 195 0
174 197 0
173 197 0
174 196 0
172 195 0
174 196 0
172 196 0
170 194 0
174 197 0
172 196 0
172 195 0
173 196 0
171 194 0
174 197 0
170 193 0
173 195 0
173 197 0
173 195 0
174 197 0
172 195 0
174 197 0
172 194 0
174 197 0
173 196 0
174 197 0
172 196 0
173 196 0
173 195 0
149 159 48
113 109 52
142 136 75
148 141 80
137 132 75
140 136 76
146 139 81
137 131 78
154 148 88
146 141 86
149 144 87
153 147 90
140 136 82
149 144 86
153 147 93
156 151 94
152 147 91
154 149 93
159 153 95
159 153 98
150 146 93
157 152 98
162 157 101
157 153 98
152 148 95
168 162 103
151 147 96
159 155 102
158 155 101
155 152 98
155 151 99
149 145 97
159 155 101
162 158 103
160 156 102
158 155 103
160 156 104
157 154 103
160 157 104
158 155 102
159 157 105
160 156 104
160 158 105
159 157 105
163 160 106
163 160 107
162 160 107
162 160 107
167 165 110
162 159 106
166 163 108
164 162 108
162 160 107
163 161 108
164 162 108
156 154 103
162 160 107
162 161 108
167 165 110
163 160 106
164 162 108
163 161 108
166 164 110
162 160 107
165 163 109
164 162 109
166 163 109
161 158 105
165 163 109
163 160 107
162 161 108
163 161 108
161 159 107
159 158 106
166 164 109
166 164 109
163 160 107
162 158 105
161 158 105
159 157 106
163 161 108
167 164 109
170 167 112
160 158 105
166 163 109
161 159 106
163 160 106
163 160 107
160 157 104
160 158 105
158 156 103
166 163 108
152 150 99
165 162 106
158 154 103
159 155 102
163 159 106
161 157 104
163 160 106
162 159 106
170 165 108
162 159 105
164 159 104
161 158 104
164 160 105
159 155 100
163 158 103
157 153 100
161 155 101
156 151 97
165 160 103
154 150 94
155 149 94
167 162 104
153 149 95
159 154 97
159 154 97
148 142 90
151 146 90
145 141 87
154 148 91
145 139 86
164 157 98
153 147 91
144 139 85
145 140 84
145 139 82
137 131 80
138 133 75
143 138 77
137 131 74
132 134 58
171 192 11
175 198 0
174 197 0
175 198 0
173 197 0
175 197 0
174 197 0
173 196 0
175 198 0
175 197 0
173 196 0
175 198 0
173 196 0
175 197 0
173 197 0
172 196 0
173 197 0
174 197 0
173 196 0
175 198 0
175 197 0
176 199 0
173 197 0
175 198 0
174 198 0
171 194 0
174 197 0
174 197 0
173 197 0
174 198 0
173 197 0
173 197 0
171 195 0
174 197 0
172 196 0
173 197 0
173 197 0
175 198 0
175 198 0
174 198 0
175 197 0
173 197 0
174 197 0
173 197 0
173 197 0
173 196 0
175 198 0
176 198 0
174 198 0
174 197 0
173 196 0
174 197 0
172 196 0
174 197 0
174 198 0
174 198 0
173 196 0
173 196 0
173 196 0
173 196 0
174 198 0
173 197 0
174 198 0
174 198 0
173 197 0
174 197 0
173 196 0
173 197 0
173 196 0
175 198 0
175 197 0
172 195 0
175 198 0
174 198 0
175 198 0
172 195 0
173 196 0
174 197 0
174 197 0
175 197 0
173 197 0
174 197 0
174 197 0
174 197 0
174 197 0
174 197 0
173 197 0
174 197 0
175 198 0
173 197 0
172 196 0
174 197 0
173 197 0
174 197 0
173 197 0
174 197 0
171 195 0
174 197 0
174 197 0
175 198 0
175 198 0
174 198 0
175 198 0
173 197 0
173 196 0
174 197 0
173 196 0
173 196 0
172 196 0
173 196 0
172 196 0
174 197 0
173 196 0
172 196 0
173 196 0
172 195 0
175 198 0
173 197 0
172 196 0
175 198 0
171 195 0
174 197 0
171 194 0
174 197 0
173 196 0
174 197 0
174 198 0
174 197 0
171 195 0
171 194 0
173 196 0
175 197 0
173 197 0
174 196 0
172 196 0
173 196 0
172 196 0
173 196 0
174 198 0
174 197 0
173 196 0
174 197 0
171 195 0
174 198 0
174 197 0
171 195 0
172 196 0
174 198 0
173 197 0
172 195 0
173 196 0
173 196 0
174 197 0
171 195 0
173 197 0
172 195 0
172 196 0
173 196 0
173 196 0
171 195 0
173 197 0
171 195 0
174 197 0
173 196 0
174 197 0
175 198 0
174 197 0
173 196 0
175 198 0
173 195 0
171 195 0
173 196 0
173 196 0
173 196 0
173 197 0
172 195 0
172 196 0
173 196 0
172 194 0
172 196 0
172 195 0
173 197 0
174 196 0
175 198 0
173 196 0
173 196 0
173 196 0
172 196 0
173 196 0
174 197 0
175 198 0
174 196 0
173 197 0
174 197 0
173 197 0
173 196 0
173 197 0
174 197 0
172 195 0
172 195 0
176 198 0
175 198 0
172 195 0
174 197 0
173 196 0
173 197 0
172 195 0
174 197 0
172 195 0
171 195 0
175 198 0
173 196 0
173 197 0
171 195 0
174 198 0
174 197 0
169 194 0
172 196 0
173 196 0
172 196 0
173 196 0
172 196 0
170 194 0
171 194 0
175 197 0
173 196 0
173 196 0
173 196 0
172 195 0
172 196 0
172 195 0
173 197 0
174 196 0
173 196 0
172 195 0
174 197 0
173 194 0
173 197 0
172 194 0
173 196 0
171 193 0
174 197 0
174 197 0
175 198 0
176 198 0
174 197 0
174 196 0
171 194 0
173 196 0
171 194 0
172 195 0
173 196 0
174 197 0
173 196 0
173 196 0
173 195 0
174 197 0
173 196 0
172 195 0
175 197 0
173 196 0
174 197 0
175 197 0
169 193 0
173 196 0
173 195 0
173 196 0
162 180 22
141 137 69
140 134 75
127 122 67
135 129 71
134 129 74
136 131 72
132 127 72
137 132 77
154 147 88
155 149 88
148 143 86
139 134 78
153 149 90
147 142 89
161 156 96
149 144 92
150 144 87
153 148 96
156 152 98
150 147 95
156 151 97
154 149 96
151 147 94
161 155 101
156 152 97
156 152 98
165 161 106
161 157 102
157 153 99
165 160 105
162 158 104
155 151 101
162 157 102
166 163 108
156 152 101
167 163 106
161 158 105
158 155 102
159 157 103
161 158 106
160 158 105
163 161 107
167 164 110
164 160 106
165 162 108
164 162 107
166 163 109
165 163 109
167 164 110
164 162 108
158 156 103
169 166 110
167 164 110
162 160 107
161 159 107
164 162 109
162 161 108
166 163 109
167 165 110
160 158 106
159 157 105
161 160 107
164 163 109
164 162 109
161 159 106
166 164 110
164 162 108
167 164 110
166 164 110
164 161 108
164 162 109
163 160 106
165 162 108
164 162 109
162 159 106
168 165 110
167 164 109
165 164 110
159 157 105
166 163 109
163 161 108
162 160 108
165 162 108
160 158 106
167 164 110
157 155 104
164 161 108
163 161 108
157 156 104
165 161 107
159 157 104
162 158 104
161 157 103
167 163 109
166 162 106
156 153 102
157 154 103
163 159 106
163 159 105
161 157 103
158 155 102
160 157 104
166 162 107
166 162 106
157 153 100
167 162 106
160 156 101
168 163 106
162 156 100
159 153 98
159 155 100
162 157 101
160 154 99
160 155 99
150 147 93
162 157 99
145 141 90
160 155 99
150 146 92
162 155 94
157 150 93
147 141 88
147 141 84
154 148 92
151 147 91
148 142 85
148 142 84
145 139 81
134 128 74
148 141 80
138 132 75
143 137 74
142 150 51
173 196 0
173 197 0
173 197 0
173 197 0
172 195 0
174 196 0
174 197 0
174 197 0
173 196 0
172 196 0
173 196 0
173 196 0
176 199 0
175 198 0
174 197 0
175 198 0
174 197 0
175 197 0
174 197 0
174 197 0
173 197 0
171 195 0
174 198 0
175 198 0
174 197 0
173 197 0
174 197 0
176 198 0
174 197 0
174 197 0
176 199 0
171 196 0
173 197 0
176 198 0
171 195 0
176 198 0
173 197 0
173 197 0
174 198 0
175 198 0
171 195 0
172 196 0
176 199 0
174 197 0
175 198 0
174 197 0
174 197 0
173 196 0
171 195 0
173 197 0
172 197 0
176 198 0
174 197 0
173 196 0
173 197 0
172 196 0
172 195 0
173 197 0
174 197 0
174 197 0
173 197 0
174 197 0
175 198 0
174 198 0
173 196 0
173 197 0
175 198 0
173 197 0
175 198 0
175 198 0
175 198 0
172 195 0
173 196 0
174 198 0
175 198 0
173 197 0
173 197 0
172 195 0
172 197 0
174 198 0
174 197 0
174 198 0
173 197 0
175 198 0
172 196 0
170 194 0
172 196 0
172 196 0
175 198 0
174 198 0
174 197 0
174 196 0
174 197 0
174 198 0
175 198 0
171 195 0
173 197 0
175 198 0
173 197 0
175 197 0
172 196 0
173 197 0
174 197 0
173 197 0
172 195 0
172 195 0
171 195 0
171 194 0
174 198 0
173 197 0
172 195 0
174 197 0
173 196 0
174 197 0
173 196 0
175 198 0
173 195 0
173 197 0
174 198 0
174 197 0
174 197 0
174 197 0
172 196 0
172 196 0
173 197 0
171 195 0
168 192 0
174 197 0
173 197 0
174 197 0
175 198 0
173 197 0
174 197 0
173 196 0
174 198 0
174 197 0
173 196 0
171 194 0
175 198 0
172 196 0
173 197 0
174 197 0
174 197 0
172 196 0
174 197 0
174 197 0
172 195 0
172 196 0
170 193 0
173 197 0
174 197 0
173 197 0
173 197 0
173 197 0
171 195 0
173 196 0
174 197 0
172 195 0
174 197 0
175 198 0
174 198 0
172 196 0
174 197 0
173 197 0
174 197 0
172 196 0
174 197 0
174 197 0
172 196 0
173 196 0
171 194 0
172 195 0
175 198 0
175 198 0
173 197 0
176 198 0
175 198 0
174 197 0
170 194 0
173 196 0
173 195 0
172 196 0
175 198 0
174 197 0
174 196 0
175 198 0
171 195 0
173 196 0
172 196 0
172 196 0
172 196 0
173 196 0
174 197 0
173 197 0
174 197 0
174 197 0
172 195 0
172 197 0
174 196 0
171 195 0
173 196 0
174 197 0
173 196 0
172 196 0
171 194 0
173 197 0
174 197 0
174 197 0
170 193 0
172 196 0
170 194 0
171 194 0
173 196 0
171 194 0
175 197 0
173 196 0
173 197 0
176 198 0
170 194 0
175 198 0
174 196 0
174 197 0
174 198 0
173 196 0
171 194 0
173 197 0
175 198 0
172 196 0
173 196 0
173 197 0
173 197 0
173 197 0
170 194 0
173 196 0
173 197 0
173 196 0
174 197 0
174 197 0
172 194 0
170 195 0
171 196 0
173 196 0
174 197 0
174 197 0
172 196 0
174 197 0
174 195 0
173 197 0
172 195 0
173 196 0
174 197 0
171 195 0
176 198 0
171 195 0
171 195 0
171 193 0
170 194 0
174 197 0
174 197 0
174 197 0
173 197 0
174 197 0
171 195 0
173 196 0
172 195 0
170 193 0
136 134 61
136 130 75
135 129 74
139 133 75
130 126 72
153 146 84
145 140 80
143 137 81
141 136 82
150 145 88
147 141 87
154 149 92
161 155 95
149 144 89
150 145 90
153 148 96
152 146 89
148 144 90
160 154 98
153 148 95
156 152 96
158 154 99
155 151 99
155 149 94
162 157 101
158 154 103
158 154 100
164 160 104
162 157 102
162 158 103
159 155 101
160 156 101
163 159 105
158 155 103
162 158 104
161 158 104
161 158 105
163 160 106
154 151 101
159 155 102
165 162 108
166 163 108
160 158 105
165 161 107
161 157 104
160 158 105
165 162 108
161 159 106
166 163 108
164 161 107
162 159 106
166 163 108
161 159 106
163 161 108
160 158 105
164 162 108
164 161 108
167 164 110
164 162 108
165 163 109
169 167 112
164 162 109
162 160 107
169 166 111
162 160 108
162 160 107
164 162 108
167 165 110
163 161 108
162 159 106
167 165 110
168 166 110
164 162 109
165 163 109
159 158 106
167 165 110
167 165 110
168 166 111
166 164 110
168 166 110
166 163 108
161 158 106
166 163 109
161 158 106
167 165 110
164 162 108
157 154 103
158 156 104
166 162 107
164 162 108
165 161 106
163 159 106
169 165 109
168 165 110
163 161 106
160 157 104
163 159 104
163 160 106
161 158 104
165 162 108
164 159 104
159 156 102
164 159 104
156 153 100
162 158 103
162 157 102
159 154 101
159 154 101
155 151 99
162 157 100
163 158 102
162 157 101
155 150 98
160 155 101
163 157 99
151 146 93
161 155 100
155 149 95
155 150 95
152 147 93
150 144 91
146 141 86
159 154 95
152 146 86
149 144 88
150 144 89
149 143 88
147 141 87
137 131 77
142 136 81
146 140 84
139 135 75
140 133 75
145 139 72
166 183 36
174 197 0
175 198 0
172 197 0
174 198 0
174 197 0
173 197 0
174 197 0
172 196 0
174 197 0
173 196 0
174 197 0
174 197 0
172 196 0
176 199 0
173 196 0
174 197 0
173 196 0
172 197 0
174 198 0
175 198 0
172 196 0
174 198 0
173 197 0
171 195 0
172 196 0
174 197 0
174 197 0
173 197 0
173 196 0
172 195 0
173 196 0
174 197 0
172 197 0
173 197 0
176 199 0
173 197 0
173 197 0
171 194 0
174 198 0
174 197 0
175 198 0
173 196 0
175 198 0
174 197 0
175 198 0
175 198 0
175 197 0
173 196 0
174 197 0
174 197 0
175 198 0
173 197 0
174 198 0
173 196 0
172 197 0
174 197 0
173 197 0
173 197 0
172 196 0
174 197 0
175 198 0
174 197 0
174 197 0
174 197 0
171 195 0
174 197 0
175 197 0
174 197 0
173 196 0
172 196 0
174 197 0
174 197 0
172 195 0
173 197 0
174 197 0
173 196 0
171 195 0
174 197 0
172 196 0
173 196 0
174 198 0
172 196 0
172 195 0
174 198 0
174 198 0
174 197 0
174 198 0
174 198 0
170 194 0
174 198 0
174 197 0
173 196 0
173 196 0
175 198 0
172 196 0
173 197 0
172 196 0
176 199 0
173 196 0
173 197 0
173 197 0
174 197 0
173 197 0
172 196 0
171 194 0
173 197 0
171 195 0
174 197 0
172 196 0
174 197 0
176 198 0
174 197 0
175 198 0
172 194 0
172 195 0
172 196 0
173 196 0
173 197 0
174 197 0
173 197 0
173 197 0
172 197 0
171 195 0
171 195 0
175 198 0
173 197 0
172 196 0
174 197 0
173 196 0
174 198 0
172 196 0
173 196 0
174 197 0
173 196 0
174 198 0
172 196 0
172 196 0
173 197 0
174 197 0
171 195 0
175 198 0
175 198 0
174 197 0
170 193 0
175 197 0
172 195 0
173 196 0
173 197 0
173 196 0
172 196 0
173 196 0
170 195 0
175 198 0
172 195 0
174 197 0
172 195 0
173 197 0
174 197 0
173 196 0
175 198 0
174 197 0
174 197 0
172 196 0
173 196 0
173 197 0
173 196 0
174 197 0
174 198 0
173 195 0
174 196 0
175 198 0
172 195 0
172 196 0
174 198 0
171 194 0
171 195 0
175 198 0
173 197 0
175 198 0
170 193 0
173 197 0
171 194 0
171 196 0
173 196 0
172 195 0
173 196 0
173 197 0
172 195 0
173 196 0
173 196 0
173 197 0
173 196 0
174 197 0
174 197 0
171 195 0
172 196 0
173 196 0
173 196 0
174 198 0
174 197 0
173 197 0
176 198 0
174 197 0
173 196 0
170 194 0
174 197 0
173 196 0
171 195 0
174 198 0
172 195 0
174 197 0
174 197 0
175 198 0
171 195 0
173 196 0
173 197 0
174 197 0
173 196 0
172 196 0
175 198 0
173 197 0
173 196 0
172 195 0
174 197 0
172 195 0
172 195 0
174 197 0
173 196 0
171 194 0
174 197 0
175 197 0
173 197 0
170 194 0
170 195 0
172 196 0
173 197 0
171 194 0
172 196 0
172 196 0
173 197 0
174 197 0
175 198 0
170 193 0
174 197 0
173 196 0
173 196 0
173 196 0
175 197 0
174 197 0
170 193 0
174 197 0
173 196 0
172 196 0
172 194 0
173 195 0
173 196 0
173 196 0
174 198 0
172 195 0
173 197 0
173 196 0
174 197 0
172 196 0
173 197 0
158 167 53
128 124 60
138 133 68
140 134 72
141 135 75
146 141 79
138 132 79
149 144 87
137 132 77
151 145 84
141 136 82
143 138 83
152 146 90
141 136 84
151 147 91
160 153 93
159 154 96
160 154 96
155 150 98
161 156 98
155 151 96
152 148 95
158 154 99
159 155 101
147 142 92
158 154 100
158 153 101
162 158 105
162 158 103
155 151 99
157 154 101
157 154 100
166 163 107
164 161 105
148 145 95
156 153 101
161 158 105
162 159 105
167 163 107
164 161 107
160 158 105
163 160 105
164 160 107
161 158 105
164 162 108
158 155 103
167 164 109
165 162 108
163 160 107
164 163 108
160 157 105
167 164 110
165 162 108
161 158 105
164 163 109
167 164 110
160 157 105
165 162 108
168 165 110
168 166 111
163 162 108
167 165 110
166 164 109
164 162 108
170 167 112
167 165 110
166 164 109
163 161 108
165 163 109
164 161 108
166 163 109
168 166 111
161 160 108
167 164 110
164 162 108
164 162 109
166 163 109
171 168 112
166 164 110
161 161 108
162 159 106
166 162 108
157 155 104
167 165 110
164 161 107
167 163 108
162 160 107
164 160 106
167 164 109
165 162 108
159 157 104
167 165 110
167 164 109
161 157 104
161 157 104
170 167 111
160 157 104
156 153 101
168 165 110
164 160 105
167 163 108
169 165 109
164 161 106
164 160 104
156 152 100
165 160 103
164 160 105
165 161 104
156 153 99
160 156 101
165 160 102
159 155 100
153 150 98
157 153 99
156 150 97
154 149 95
148 144 93
153 148 95
156 151 97
158 152 96
151 146 92
156 150 93
148 143 92
150 146 91
154 148 90
151 145 88
151 146 86
140 134 78
142 137 83
140 135 80
148 142 83
144 137 80
143 137 80
138 131 75
137 131 72
147 145 73
174 197 0
173 196 0
174 198 0
172 196 0
173 197 0
173 197 0
173 196 0
174 197 0
174 198 0
174 197 0
170 193 0
174 197 0
173 197 0
174 197 0
174 197 0
174 197 0
174 198 0
173 196 0
172 195 0
175 198 0
173 196 0
173 197 0
175 198 0
175 198 0
174 198 0
175 198 0
174 197 0
173 197 0
174 198 0
172 196 0
174 197 0
174 198 0
174 197 0
175 198 0
175 198 0
172 195 0
174 197 0
172 196 0
174 197 0
173 196 0
174 197 0
174 197 0
174 198 0
173 196 0
174 197 0
174 197 0
174 197 0
173 197 0
170 195 0
175 197 0
175 198 0
173 197 0
173 197 0
173 197 0
173 196 0
173 197 0
172 196 0
175 198 0
171 194 0
174 197 0
173 197 0
173 197 0
171 196 0
172 196 0
174 198 0
173 197 0
173 196 0
175 198 0
176 198 0
173 197 0
173 197 0
176 198 0
174 197 0
173 197 0
174 197 0
175 198 0
174 198 0
173 196 0
173 196 0
171 195 0
170 193 0
172 196 0
174 197 0
175 198 0
172 195 0
177 199 0
173 196 0
174 197 0
173 196 0
173 197 0
174 198 0
173 196 0
174 198 0
173 197 0
173 196 0
172 196 0
175 198 0
174 197 0
176 198 0
174 198 0
172 196 0
173 197 0
173 197 0
172 196 0
175 198 0
173 197 0
173 197 0
173 197 0
173 197 0
174 197 0
175 198 0
173 196 0
174 197 0
173 196 0
175 197 0
174 197 0
172 196 0
173 196 0
174 197 0
173 197 0
176 198 0
174 197 0
172 196 0
173 196 0
173 197 0
174 197 0
174 197 0
175 198 0
174 196 0
173 197 0
172 196 0
170 194 0
173 196 0
173 197 0
174 197 0
174 197 0
173 196 0
174 197 0
174 197 0
173 197 0
174 196 0
173 197 0
172 196 0
173 196 0
171 195 0
172 195 0
171 195 0
174 197 0
173 197 0
174 197 0
170 193 0
173 197 0
172 196 0
172 196 0
174 198 0
176 198 0
172 195 0
172 195 0
173 197 0
175 198 0
173 196 0
174 196 0
173 196 0
173 197 0
173 197 0
173 195 0
173 196 0
173 196 0
174 197 0
171 195 0
173 197 0
174 198 0
172 196 0
172 195 0
172 195 0
174 197 0
172 195 0
175 198 0
173 196 0
175 198 0
172 195 0
172 195 0
171 194 0
174 196 0
172 196 0
172 195 0
173 197 0
171 195 0
175 198 0
175 198 0
173 197 0
174 196 0
175 197 0
173 196 0
172 195 0
171 194 0
175 198 0
177 199 0
174 197 0
170 194 0
174 197 0
172 195 0
173 196 0
175 198 0
172 195 0
173 196 0
172 194 0
174 198 0
172 195 0
173 196 0
172 195 0
174 197 0
170 193 0
174 197 0
173 195 0
174 197 0
173 197 0
174 197 0
173 195 0
173 196 0
172 195 0
172 194 0
172 195 0
170 193 0
173 195 0
173 196 0
173 197 0
173 197 0
174 197 0
173 196 0
172 195 0
174 196 0
173 197 0
174 197 0
174 196 0
173 196 0
174 198 0
172 195 0
174 197 0
172 196 0
172 195 0
174 197 0
172 196 0
174 198 0
172 196 0
175 197 0
173 196 0
172 196 0
172 194 0
172 196 0
172 196 0
172 197 0
172 195 0
174 197 0
175 198 0
172 196 0
175 198 0
174 197 0
173 195 0
175 197 0
173 195 0
174 197 0
173 196 0
161 179 32
126 120 64
147 141 73
135 129 73
136 130 77
142 137 78
136 132 78
154 148 89
136 133 77
138 133 78
151 145 86
150 144 87
142 136 84
158 153 94
147 144 88
153 147 88
155 149 92
150 146 91
149 145 94
160 155 96
151 147 92
153 149 96
154 149 95
157 152 97
164 159 104
152 149 96
153 149 97
157 153 100
151 148 97
156 153 99
159 156 103
158 155 102
158 154 102
163 160 105
163 160 107
155 153 103
154 151 101
164 161 107
164 161 106
162 159 105
157 155 103
163 160 105
167 164 109
164 161 108
165 161 107
162 160 108
164 160 106
162 159 107
166 164 110
166 163 108
171 166 110
162 159 106
165 162 108
162 160 106
169 166 110
159 157 105
167 164 109
164 161 108
168 165 110
165 162 109
166 164 109
162 160 107
161 159 107
168 165 110
166 163 109
167 164 109
164 162 108
165 163 109
168 165 110
167 163 109
168 166 110
161 159 106
162 159 106
164 162 109
165 162 108
166 163 109
166 163 109
165 162 108
165 162 108
164 161 108
161 159 106
161 159 106
167 165 110
164 161 107
168 166 110
169 167 112
166 163 108
164 160 106
169 165 109
165 162 108
164 162 107
170 167 110
164 161 108
166 162 108
167 165 110
167 164 109
170 166 110
164 161 107
163 161 107
162 159 105
160 158 104
161 158 104
162 157 103
165 161 106
158 155 102
162 158 104
164 159 104
161 158 104
163 159 101
152 148 97
153 149 96
161 156 101
166 162 104
163 157 100
158 153 98
156 151 97
168 163 106
158 153 97
158 153 99
164 158 100
159 153 99
147 142 86
156 151 97
154 148 93
156 150 94
149 144 88
145 141 87
159 152 94
143 138 87
155 147 90
152 146 85
142 136 77
147 141 84
143 137 77
142 136 78
143 137 76
134 129 65
150 160 54
174 197 0
171 194 0
174 197 0
175 198 0
175 196 0
172 196 0
173 197 0
174 197 0
174 197 0
173 197 0
175 198 0
174 197 0
174 197 0
174 198 0
173 197 0
176 198 0
174 198 0
174 197 0
175 198 0
174 197 0
174 197 0
174 198 0
174 198 0
175 198 0
173 196 0
173 197 0
175 198 0
174 198 0
173 197 0
174 198 0
173 197 0
173 196 0
174 197 0
175 198 0
173 197 0
173 197 0
173 196 0
175 198 0
174 197 0
175 198 0
174 197 0
171 195 0
176 198 0
174 198 0
172 196 0
175 198 0
171 196 0
176 198 0
176 198 0
175 198 0
172 195 0
172 196 0
174 197 0
174 197 0
175 198 0
174 197 0
174 197 0
173 196 0
174 197 0
173 196 0
174 197 0
175 198 0
173 197 0
175 198 0
174 196 0
174 197 0
171 195 0
174 197 0
172 196 0
172 196 0
175 198 0
173 197 0
174 197 0
173 197 0
176 198 0
174 197 0
175 198 0
173 196 0
173 197 0
174 197 0
174 198 0
173 197 0
174 198 0
174 198 0
174 196 0
173 196 0
172 195 0
174 198 0
174 198 0
174 197 0
173 196 0
174 197 0
171 195 0
174 197 0
175 198 0
175 198 0
173 196 0
174 198 0
174 197 0
173 196 0
174 197 0
175 198 0
171 196 0
175 198 0
174 197 0
173 196 0
174 197 0
171 195 0
172 195 0
173 197 0
174 198 0
174 197 0
173 195 0
172 195 0
173 196 0
175 198 0
170 194 0
171 195 0
175 198 0
174 197 0
173 196 0
173 196 0
175 198 0
173 196 0
174 196 0
173 197 0
174 197 0
172 196 0
175 198 0
174 197 0
175 198 0
172 195 0
174 197 0
176 198 0
172 195 0
172 195 0
172 195 0
171 194 0
174 197 0
174 197 0
174 197 0
176 198 0
175 198 0
172 196 0
175 198 0
175 197 0
172 196 0
174 197 0
173 196 0
171 194 0
172 195 0
171 195 0
172 196 0
172 195 0
173 197 0
174 197 0
172 196 0
173 197 0
172 196 0
175 197 0
173 197 0
171 195 0
172 196 0
172 196 0
174 197 0
172 195 0
173 197 0
175 198 0
173 196 0
171 195 0
174 198 0
172 195 0
173 196 0
173 196 0
172 196 0
173 196 0
175 198 0
171 195 0
174 197 0
174 197 0
174 197 0
174 197 0
174 197 0
172 196 0
172 195 0
169 191 0
174 197 0
174 197 0
172 196 0
174 197 0
175 198 0
172 197 0
173 197 0
173 196 0
173 196 0
175 198 0
169 193 0
173 197 0
170 193 0
175 198 0
173 197 0
171 194 0
172 196 0
174 197 0
175 198 0
173 197 0
173 196 0
172 194 0
174 197 0
172 195 0
175 198 0
175 197 0
172 196 0
170 194 0
169 193 0
174 197 0
171 195 0
173 196 0
174 197 0
173 196 0
173 197 0
175 197 0
172 196 0
175 198 0
173 196 0
173 196 0
173 197 0
172 195 0
173 197 0
172 195 0
173 196 0
172 196 0
173 196 0
170 195 0
175 197 0
172 196 0
173 196 0
176 198 0
174 196 0
173 196 0
173 196 0
171 194 0
172 195 0
174 197 0
171 195 0
175 198 0
172 196 0
173 196 0
173 195 0
172 195 0
172 195 0
173 197 0
173 196 0
170 193 0
173 196 0
175 197 0
172 195 0
171 194 0
174 197 0
171 194 0
174 197 0
171 193 11
133 132 61
134 128 73
138 132 73
140 135 75
131 126 71
147 142 81
145 141 82
149 144 84
146 140 86
155 149 88
149 143 89
144 139 86
161 154 96
152 148 88
152 146 91
154 148 93
154 149 90
156 152 96
149 145 93
146 142 88
153 147 94
152 148 96
155 151 100
149 146 94
156 153 96
163 158 103
155 152 99
157 153 99
166 161 105
151 148 96
154 151 99
155 152 102
159 155 102
169 165 109
157 154 101
162 158 103
159 156 101
162 159 105
160 157 103
163 160 107
165 162 108
169 165 109
159 157 106
161 158 106
158 155 104
165 161 107
164 162 108
162 160 107
165 162 108
160 158 105
160 157 104
168 165 110
168 165 110
168 165 110
161 158 106
165 162 108
169 166 111
162 160 107
164 160 106
160 158 106
166 164 110
164 161 108
170 166 110
170 166 110
163 161 108
166 164 109
165 163 109
164 162 109
167 165 111
164 162 109
164 161 107
169 166 110
167 164 110
163 161 108
170 167 112
164 162 109
164 162 108
169 166 110
169 167 112
165 162 108
167 165 110
169 167 112
170 167 111
161 159 106
166 164 109
169 166 110
163 161 107
166 164 109
171 167 111
169 165 108
164 162 108
165 162 107
164 161 107
167 163 108
166 163 109
168 164 109
163 159 106
164 161 106
159 156 104
164 160 106
157 154 102
166 163 107
162 159 104
167 163 106
166 162 107
169 165 108
163 160 104
164 159 105
154 151 97
162 158 104
165 161 104
160 156 103
154 151 99
157 154 100
160 155 101
158 153 99
151 145 91
162 156 98
163 158 100
154 149 95
165 159 103
160 154 97
151 147 90
157 151 94
140 135 84
152 147 90
159 153 95
152 146 87
154 149 91
146 140 82
159 151 93
151 145 85
152 146 85
140 135 75
145 139 76
135 129 76
130 125 71
132 127 65
167 187 22
174 197 0
172 195 0
173 197 0
174 198 0
173 196 0
173 196 0
173 197 0
172 196 0
174 198 0
172 196 0
173 197 0
174 197 0
173 197 0
173 196 0
173 196 0
172 196 0
172 196 0
173 196 0
174 198 0
175 198 0
175 198 0
174 197 0
173 197 0
174 198 0
172 195 0
174 198 0
174 197 0
174 197 0
172 195 0
174 198 0
172 196 0
174 197 0
173 197 0
170 194 0
175 198 0
173 197 0
174 197 0
174 197 0
173 196 0
175 198 0
174 197 0
174 198 0
174 197 0
175 198 0
173 197 0
172 196 0
176 199 0
174 197 0
172 195 0
173 197 0
173 196 0
175 198 0
173 196 0
175 198 0
174 197 0
174 198 0
171 196 0
173 197 0
175 198 0
173 196 0
173 196 0
175 198 0
172 196 0
174 197 0
173 197 0
174 197 0
174 197 0
175 198 0
173 197 0
176 199 0
173 197 0
175 198 0
174 197 0
174 198 0
172 195 0
173 196 0
172 196 0
171 196 0
172 195 0
171 195 0
172 197 0
174 197 0
172 196 0
174 197 0
174 197 0
173 197 0
173 197 0
174 196 0
173 197 0
173 196 0
172 196 0
173 196 0
174 198 0
171 195 0
173 197 0
172 196 0
173 197 0
173 197 0
174 197 0
172 195 0
172 196 0
176 199 0
172 196 0
174 197 0
174 197 0
174 198 0
174 197 0
173 196 0
174 197 0
172 195 0
171 194 0
175 198 0
171 193 0
172 196 0
172 195 0
173 196 0
175 198 0
174 197 0
174 197 0
174 198 0
173 197 0
173 197 0
173 196 0
175 198 0
175 198 0
174 197 0
170 194 0
174 198 0
172 196 0
172 196 0
172 195 0
175 198 0
173 197 0
174 197 0
173 196 0
174 197 0
172 196 0
174 197 0
174 198 0
174 198 0
174 197 0
173 196 0
173 197 0
172 196 0
174 197 0
173 196 0
171 195 0
175 198 0
173 195 0
175 197 0
174 197 0
172 195 0
172 195 0
174 197 0
173 196 0
175 198 0
171 194 0
172 196 0
170 193 0
174 197 0
173 197 0
171 195 0
173 197 0
173 196 0
171 194 0
170 194 0
175 198 0
175 198 0
173 196 0
172 195 0
175 198 0
174 198 0
171 194 0
173 196 0
174 197 0
174 197 0
174 198 0
172 195 0
171 195 0
173 196 0
172 196 0
171 194 0
171 194 0
173 196 0
175 198 0
172 195 0
174 197 0
174 197 0
174 197 0
173 195 0
172 195 0
174 197 0
171 194 0
173 196 0
173 197 0
171 195 0
171 194 0
171 194 0
173 196 0
173 196 0
174 196 0
173 196 0
171 195 0
173 197 0
172 196 0
172 196 0
172 196 0
176 198 0
172 195 0
174 197 0
173 195 0
173 197 0
172 195 0
174 197 0
173 196 0
172 195 0
173 197 0
173 196 0
173 197 0
174 197 0
174 198 0
175 197 0
171 194 0
171 195 0
173 196 0
174 197 0
174 197 0
172 195 0
174 197 0
171 194 0
172 196 0
174 197 0
173 196 0
173 196 0
174 197 0
174 197 0
173 196 0
175 198 0
172 196 0
172 195 0
170 193 0
171 195 0
173 196 0
169 192 0
173 197 0
173 196 0
173 196 0
170 194 0
176 198 0
173 197 0
170 193 0
172 196 0
173 196 0
172 196 0
173 195 0
172 196 0
173 196 0
171 194 0
173 197 0
175 198 0
157 168 49
136 130 67
137 131 75
136 129 73
132 127 72
141 135 78
146 140 79
153 147 84
141 136 76
146 141 82
151 145 86
143 138 80
142 136 81
150 145 86
147 142 90
159 154 96
146 141 89
153 149 95
148 143 90
150 145 91
154 150 98
160 156 101
146 142 90
155 150 95
155 151 99
156 152 100
152 149 96
163 158 103
156 152 100
161 156 100
158 154 102
155 152 100
162 159 104
153 151 100
155 151 99
162 158 105
162 158 102
162 158 104
156 153 103
162 159 106
165 160 106
162 158 105
160 157 103
158 155 103
164 161 107
162 159 105
162 160 108
164 161 108
160 158 106
166 163 109
162 159 106
163 160 107
158 156 105
166 164 110
166 163 108
165 163 110
158 156 105
171 168 111
165 163 109
171 167 111
162 160 106
167 165 110
166 163 109
167 164 109
167 165 110
164 161 108
171 168 112
165 163 109
167 165 110
167 165 110
164 163 110
166 163 109
165 163 109
166 164 109
169 166 110
167 165 110
164 163 109
168 165 110
168 165 110
169 166 110
167 164 109
169 166 110
170 166 110
167 163 108
172 168 112
169 167 111
169 165 110
163 160 106
165 163 109
169 166 111
163 160 107
165 162 108
161 159 106
165 162 107
164 162 108
159 156 103
163 160 106
162 158 104
166 163 109
171 167 110
167 163 107
168 164 109
165 161 107
163 159 105
166 162 106
163 159 104
166 163 108
163 159 103
165 161 106
155 151 99
161 157 101
164 161 104
160 155 100
164 158 101
164 159 103
165 159 103
163 158 103
166 161 101
157 152 97
162 157 99
160 154 99
158 152 98
162 157 99
157 151 95
153 147 93
157 151 92
148 142 87
147 142 86
154 148 92
150 145 90
151 146 90
153 146 87
149 143 87
149 142 81
138 133 84
138 134 76
131 125 74
141 135 77
115 110 61
146 152 57
172 196 0
175 198 0
172 195 0
172 196 0
174 197 0
173 197 0
174 197 0
174 197 0
174 197 0
175 198 0
173 196 0
173 197 0
174 198 0
173 197 0
174 197 0
174 197 0
173 197 0
175 198 0
174 197 0
174 198 0
174 197 0
173 197 0
173 197 0
174 198 0
175 198 0
173 196 0
175 198 0
176 198 0
175 197 0
173 197 0
173 197 0
172 196 0
173 196 0
175 198 0
174 197 0
173 197 0
174 197 0
175 197 0
173 196 0
174 198 0
175 198 0
174 197 0
175 198 0
174 197 0
172 196 0
172 195 0
174 197 0
175 198 0
174 197 0
175 198 0
174 198 0
174 197 0
172 196 0
175 198 0
172 196 0
172 196 0
172 197 0
171 195 0
174 197 0
172 195 0
174 197 0
172 196 0
174 197 0
173 197 0
175 198 0
174 197 0
175 198 0
174 197 0
173 197 0
172 196 0
174 197 0
175 198 0
175 198 0
173 197 0
174 198 0
172 195 0
174 197 0
174 197 0
173 196 0
173 197 0
172 196 0
175 198 0
172 196 0
170 193 0
171 195 0
173 197 0
173 197 0
175 198 0
172 195 0
173 196 0
173 197 0
173 196 0
172 196 0
172 196 0
173 197 0
175 198 0
173 196 0
175 198 0
174 198 0
173 197 0
171 195 0
172 196 0
176 198 0
174 197 0
174 197 0
172 195 0
173 196 0
172 196 0
177 199 0
173 197 0
174 197 0
175 197 0
174 197 0
174 197 0
174 197 0
174 196 0
171 194 0
172 195 0
174 197 0
170 194 0
171 195 0
173 196 0
172 196 0
174 197 0
173 196 0
175 198 0
173 196 0
174 197 0
174 198 0
174 197 0
172 196 0
174 197 0
173 197 0
174 197 0
175 198 0
174 197 0
171 195 0
174 197 0
172 196 0
174 197 0
173 196 0
172 196 0
170 194 0
173 197 0
172 195 0
174 197 0
174 197 0
173 196 0
173 196 0
174 197 0
173 197 0
174 197 0
173 196 0
174 197 0
173 197 0
175 198 0
174 197 0
172 194 0
176 199 0
173 196 0
173 196 0
173 196 0
175 198 0
171 194 0
174 197 0
171 195 0
171 194 0
173 197 0
173 196 0
176 198 0
173 196 0
173 197 0
174 197 0
174 197 0
174 197 0
171 195 0
170 194 0
173 196 0
173 197 0
171 193 0
172 195 0
175 198 0
170 193 36
159 183 67
160 184 74
153 177 89
151 175 92
142 166 105
147 172 97
147 171 100
141 166 110
142 166 113
149 173 102
144 167 107
156 181 82
150 174 95
160 185 65
168 191 41
173 196 0
173 196 0
172 195 0
174 197 0
173 197 0
174 197 0
171 194 0
175 197 0
172 196 0
173 197 0
174 196 0
172 195 0
172 195 0
172 194 0
172 196 0
173 196 0
172 196 0
169 192 0
174 197 0
173 196 0
169 192 0
174 197 0
171 195 0
171 195 0
173 196 0
171 195 0
171 193 0
172 194 0
172 195 0
173 195 0
173 196 0
172 194 0
173 196 0
172 194 0
173 197 0
171 194 0
170 194 0
173 196 0
174 196 0
172 196 0
174 197 0
171 194 0
175 198 0
173 196 0
171 194 0
172 195 0
171 194 0
173 197 0
173 196 0
171 195 0
172 195 0
174 197 0
173 196 0
172 196 0
173 195 0
174 196 0
173 196 0
174 197 0
174 197 0
172 196 0
174 197 0
167 187 16
137 132 69
135 129 69
136 130 75
131 126 71
134 130 72
143 138 80
153 147 87
142 137 80
148 143 84
150 145 84
146 140 84
150 144 88
150 145 91
144 139 85
146 142 83
153 147 92
155 150 91
149 145 91
148 144 90
149 145 94
151 147 94
150 146 94
160 156 100
154 150 98
157 153 99
155 152 100
158 155 103
150 147 97
154 151 99
159 155 102
159 156 101
162 158 104
159 155 103
160 155 103
152 149 99
162 159 105
161 158 104
163 160 105
163 159 104
160 157 103
161 157 104
157 155 103
166 162 108
157 155 103
158 155 103
157 155 103
161 158 105
156 155 105
158 156 105
169 165 110
164 162 109
165 162 108
162 160 107
166 163 109
160 158 106
167 163 108
158 156 104
162 159 106
163 161 108
166 163 108
167 164 110
167 164 109
166 164 109
161 159 106
164 161 108
158 156 105
164 162 108
170 167 111
170 167 111
167 164 109
174 170 113
169 166 111
163 160 107
163 160 106
166 164 109
166 164 110
164 162 108
166 163 109
165 162 108
166 165 110
164 162 109
166 164 109
167 163 109
170 167 111
170 167 111
168 164 109
165 163 109
159 157 105
162 159 106
169 166 110
166 163 108
167 163 109
171 166 109
167 164 109
170 166 110
162 159 105
164 160 106
166 163 108
159 157 104
166 162 106
168 164 108
164 160 106
168 164 106
158 155 103
165 162 106
168 163 107
164 160 104
160 156 103
162 158 103
164 161 104
159 155 99
162 158 103
164 160 104
159 155 101
167 162 104
152 147 93
166 160 104
161 156 99
162 158 100
157 152 99
157 151 97
162 156 97
150 146 92
155 150 93
156 150 92
153 147 93
165 159 101
147 143 88
147 143 87
147 141 84
153 147 89
145 140 85
147 141 84
136 131 79
141 135 81
143 137 81
138 132 75
134 128 74
135 128 71
134 127 71
168 184 42
174 197 0
173 197 0
174 197 0
175 197 0
175 198 0
174 197 0
171 195 0
174 197 0
171 195 0
175 198 0
174 197 0
173 197 0
174 197 0
171 195 0
174 197 0
175 198 0
173 197 0
174 197 0
172 196 0
174 197 0
175 198 0
174 198 0
174 198 0
173 197 0
174 197 0
174 198 0
174 198 0
173 197 0
175 198 0
174 197 0
173 196 0
176 199 0
175 198 0
172 196 0
174 198 0
175 198 0
174 197 0
174 197 0
173 197 0
174 197 0
173 197 0
173 197 0
176 199 0
174 197 0
173 197 0
175 198 0
172 196 0
172 196 0
174 197 0
173 197 0
173 196 0
172 195 0
176 199 0
173 197 0
173 197 0
174 197 0
172 196 0
173 197 0
173 196 0
173 195 0
173 197 0
173 197 0
173 196 0
173 197 0
176 198 0
172 195 0
175 198 0
174 198 0
174 198 0
173 197 0
172 195 0
173 197 0
169 192 0
172 196 0
174 197 0
172 196 0
173 197 0
174 197 0
173 197 0
174 197 0
174 198 0
174 198 0
174 197 0
174 197 0
171 195 0
173 196 0
173 197 0
172 196 0
173 196 0
174 198 0
172 196 0
174 197 0
173 197 0
172 196 0
173 196 0
171 195 0
175 198 0
174 197 0
174 197 0
175 198 0
173 197 0
171 196 0
172 196 0
174 197 0
174 198 0
174 197 0
175 198 0
174 198 0
174 198 0
175 198 0
174 197 0
173 197 0
173 196 0
170 194 0
174 197 0
174 197 0
173 196 0
175 197 0
172 195 0
174 197 0
175 198 0
172 196 0
173 196 0
173 196 0
176 199 0
173 196 0
172 195 0
171 195 0
171 194 0
175 198 0
171 195 0
174 197 0
172 195 0
173 196 0
171 194 0
175 198 0
173 196 0
174 196 0
174 196 0
168 192 0
173 196 0
173 196 0
171 195 0
173 196 0
172 196 0
172 194 0
173 196 0
174 197 0
174 196 0
174 197 0
174 197 0
175 198 0
173 196 0
174 196 0
175 197 0
173 196 0
174 198 0
175 198 0
174 197 0
173 197 0
174 197 0
173 196 0
172 195 0
175 198 0
171 195 0
172 196 0
174 197 0
173 196 0
172 195 0
171 194 0
174 197 0
173 197 0
175 198 0
169 193 18
154 178 86
153 176 89
133 160 120
117 144 142
92 122 162
90 121 162
75 108 174
63 99 180
61 99 181
61 98 181
61 99 181
61 99 181
62 99 180
62 99 181
62 99 181
62 99 181
62 99 180
62 99 180
62 99 181
61 98 176
62 99 181
61 99 180
62 99 181
61 98 180
80 112 170
100 128 157
117 144 140
132 157 117
133 159 117
155 179 84
166 188 48
172 196 0
173 197 0
173 196 0
172 196 0
171 195 0
173 195 0
174 196 0
174 197 0
172 195 0
173 196 0
173 196 0
171 194 0
174 196 0
173 196 0
173 197 0
173 197 0
174 197 0
174 197 0
173 196 0
175 198 0
173 196 0
173 197 0
175 197 0
172 194 0
173 196 0
172 195 0
174 197 0
174 196 0
174 197 0
172 194 0
170 193 0
173 195 0
174 197 0
176 198 0
172 195 0
172 195 0
174 198 0
171 194 0
174 197 0
173 197 0
172 195 0
171 193 0
173 195 0
171 195 0
172 196 0
171 194 0
172 196 0
172 194 0
174 197 0
172 195 0
176 198 0
172 195 0
172 196 0
149 155 54
124 120 63
134 128 68
148 141 78
135 130 66
135 130 76
142 137 78
137 132 73
134 128 74
151 146 87
153 147 89
156 151 90
154 148 88
153 147 91
147 142 84
148 143 92
150 146 88
155 150 92
154 149 91
147 143 89
150 146 93
152 148 97
164 159 101
160 156 100
157 153 99
155 151 99
160 155 102
159 154 99
154 150 98
159 155 103
159 156 103
153 150 99
157 153 101
154 150 98
156 153 101
163 159 104
155 151 101
159 156 104
159 157 104
161 158 106
165 161 107
163 161 107
162 159 106
163 160 107
159 156 104
171 167 110
169 165 110
168 164 109
166 162 108
162 160 107
168 164 109
162 160 107
163 160 106
164 162 108
160 158 105
164 162 108
164 161 108
166 163 109
165 162 108
167 164 109
170 167 112
167 165 110
164 162 108
170 166 110
167 164 109
170 167 111
166 164 109
166 163 108
165 163 109
168 165 110
164 163 109
171 168 112
166 164 110
170 168 112
171 168 112
169 166 110
168 164 110
168 166 110
165 162 108
165 162 108
166 163 109
167 164 109
167 165 110
168 166 110
164 162 108
169 167 111
167 164 109
164 161 108
174 170 113
166 163 109
164 161 108
167 164 109
166 163 108
164 161 107
164 160 106
165 162 107
159 156 103
171 167 110
165 162 107
165 162 107
169 165 109
160 157 103
169 165 109
167 164 108
167 163 107
165 161 105
165 161 104
160 156 102
166 162 104
161 157 103
170 165 108
159 155 98
164 159 103
162 157 101
163 158 100
160 156 100
169 164 107
161 155 99
157 154 99
163 157 99
153 148 95
167 161 102
159 153 96
155 150 95
163 157 97
154 148 92
163 156 96
157 154 97
156 150 93
161 155 98
154 148 86
152 147 89
149 143 87
156 150 93
154 148 89
150 144 84
148 141 81
148 141 80
142 136 74
141 135 75
129 124 67
134 138 44
174 198 0
176 197 0
173 195 0
173 197 0
172 195 0
173 197 0
173 196 0
173 196 0
174 197 0
173 197 0
174 196 0
174 197 0
175 198 0
176 198 0
174 197 0
175 198 0
173 197 0
173 197 0
175 198 0
174 198 0
172 196 0
175 198 0
173 196 0
173 197 0
174 198 0
173 197 0
174 198 0
173 197 0
174 197 0
175 198 0
170 194 0
176 199 0
173 197 0
173 196 0
172 197 0
173 197 0
175 198 0
175 198 0
175 198 0
175 198 0
173 196 0
175 198 0
173 196 0
172 197 0
174 197 0
174 198 0
173 197 0
174 197 0
172 196 0
175 198 0
175 198 0
172 196 0
174 197 0
173 197 0
174 197 0
173 197 0
175 198 0
173 196 0
174 198 0
174 198 0
173 197 0
173 197 0
172 196 0
174 197 0
175 198 0
174 198 0
174 197 0
174 197 0
173 196 0
172 196 0
170 194 0
172 196 0
173 196 0
173 197 0
172 196 0
172 196 0
171 196 0
174 197 0
175 198 0
173 196 0
173 196 0
174 197 0
174 198 0
171 195 0
172 196 0
175 198 0
172 195 0
174 197 0
171 195 0
173 196 0
175 197 0
174 198 0
175 198 0
174 198 0
175 198 0
173 197 0
175 198 0
173 196 0
173 196 0
175 198 0
175 198 0
170 194 0
173 197 0
174 198 0
175 198 0
172 195 0
171 196 0
175 198 0
173 197 0
174 198 0
176 198 0
173 197 0
174 197 0
175 198 0
174 197 0
174 197 0
174 196 0
173 197 0
172 196 0
174 196 0
174 197 0
173 197 0
174 198 0
174 197 0
172 196 0
173 196 0
170 194 0
171 195 0
175 198 0
173 197 0
173 196 0
171 194 0
172 196 0
174 197 0
172 196 0
172 196 0
173 196 0
174 197 0
175 198 0
170 194 0
173 197 0
172 195 0
174 197 0
173 197 0
172 196 0
174 197 0
172 195 0
173 197 0
174 197 0
172 195 0
175 198 0
172 195 0
173 197 0
172 195 0
171 195 0
172 195 0
174 197 0
171 195 0
173 196 0
174 198 0
174 197 0
174 196 0
173 197 0
174 197 0
173 197 0
175 197 0
172 196 0
174 197 0
172 196 18
152 177 90
140 166 111
121 146 134
95 124 160
66 102 178
61 99 179
62 99 181
61 99 179
62 99 180
62 99 181
62 99 181
62 99 181
62 99 181
62 99 181
62 99 181
61 99 181
61 98 181
62 99 181
61 99 181
61 98 178
61 99 181
61 98 181
61 98 181
62 99 181
62 99 180
61 98 180
62 99 181
61 98 178
62 99 179
62 99 179
61 98 179
62 99 181
61 99 181
61 98 179
62 99 180
61 98 178
84 116 168
110 137 147
123 148 128
156 178 87
168 192 40
172 195 0
172 195 0
171 194 0
173 196 0
174 197 0
173 196 0
172 195 0
174 197 0
170 194 0
173 197 0
175 198 0
174 195 0
171 194 0
172 196 0
172 195 0
173 196 0
174 197 0
173 197 0
173 197 0
173 197 0
173 196 0
174 197 0
173 197 0
171 193 0
173 196 0
171 194 0
173 196 0
174 196 0
173 196 0
172 195 0
173 196 0
173 196 0
171 194 0
175 198 0
174 197 0
173 196 0
174 196 0
171 194 0
172 195 0
172 195 0
171 195 0
173 196 0
173 196 0
172 196 0
173 196 0
174 197 0
173 196 0
161 180 32
131 126 63
128 123 64
136 130 74
129 124 69
143 137 75
144 138 80
139 134 78
144 138 79
126 122 76
148 142 90
151 145 84
148 142 86
152 147 89
147 142 89
154 149 91
142 139 85
154 148 94
158 153 95
153 149 96
152 147 95
158 154 99
154 150 96
156 150 93
155 150 95
154 150 98
154 150 98
154 152 101
141 139 89
161 157 104
160 157 103
155 152 98
160 156 103
157 154 101
161 157 104
154 151 101
159 156 103
163 159 105
163 159 105
160 158 106
163 159 106
161 158 105
159 156 104
163 161 106
160 157 105
160 158 106
162 159 106
155 153 103
166 162 108
164 160 106
157 155 103
165 162 108
164 162 108
164 161 107
165 163 109
166 163 108
170 167 112
164 161 107
163 161 108
166 163 109
167 164 110
163 160 106
169 166 111
166 164 109
167 165 110
167 164 109
162 159 106
165 164 110
171 168 112
167 164 109
170 166 110
171 168 112
165 164 110
169 166 110
166 163 109
166 164 110
165 163 109
169 166 110
168 166 110
171 168 112
168 165 110
169 165 110
167 165 110
171 168 112
170 168 112
169 165 110
164 161 108
172 169 112
168 165 110
168 165 110
169 165 109
162 160 107
169 166 110
167 164 109
166 163 109
164 160 106
170 166 109
167 164 109
169 165 110
165 162 107
167 163 108
163 159 106
161 158 104
169 165 109
168 164 108
171 167 110
167 163 108
166 162 106
164 160 106
161 156 102
168 163 108
165 160 105
156 151 97
167 162 106
163 158 101
162 158 103
160 156 101
160 156 101
147 144 92
160 156 100
164 159 102
161 157 101
163 158 103
165 160 101
161 156 99
163 157 98
160 155 98
156 150 95
148 144 91
154 148 90
158 152 94
153 146 84
155 149 91
142 137 79
151 144 84
155 149 86
151 144 87
151 144 86
151 143 87
145 138 83
144 139 80
145 138 79
128 123 63
154 169 34
174 197 0
174 197 0
173 196 0
173 197 0
175 198 0
173 197 0
173 196 0
172 196 0
173 196 0
173 197 0
175 198 0
176 198 0
174 196 0
175 197 0
176 199 0
173 197 0
173 197 0
172 195 0
172 196 0
175 198 0
173 197 0
176 199 0
176 198 0
173 196 0
175 198 0
173 197 0
174 197 0
172 196 0
175 198 0
173 196 0
175 198 0
173 197 0
172 196 0
176 199 0
174 197 0
173 197 0
173 197 0
174 197 0
173 196 0
174 198 0
176 199 0
174 197 0
175 198 0
174 197 0
173 197 0
173 197 0
174 196 0
177 199 0
174 198 0
174 198 0
172 195 0
174 197 0
172 196 0
174 197 0
173 196 0
174 197 0
173 196 0
174 197 0
173 197 0
174 197 0
174 197 0
172 196 0
175 198 0
174 197 0
173 196 0
173 196 0
173 196 0
172 196 0
172 194 0
174 197 0
174 197 0
174 197 0
175 198 0
173 197 0
174 197 0
173 196 0
172 196 0
174 197 0
173 196 0
173 197 0
173 196 0
173 197 0
174 197 0
174 197 0
174 197 0
174 198 0
173 196 0
175 197 0
175 198 0
175 198 0
171 195 0
173 197 0
174 197 0
173 197 0
172 196 0
173 196 0
175 198 0
173 197 0
174 197 0
173 196 0
171 195 0
174 197 0
173 197 0
173 197 0
173 196 0
172 196 0
172 196 0
176 198 0
173 196 0
173 196 0
173 197 0
173 197 0
170 194 0
173 197 0
171 195 0
173 197 0
174 196 0
175 197 0
173 196 0
172 196 0
173 197 0
173 196 0
170 194 0
174 197 0
172 196 0
175 198 0
172 196 0
173 197 0
174 197 0
173 196 0
169 193 0
172 196 0
173 197 0
174 196 0
173 197 0
174 197 0
173 197 0
174 197 0
173 197 0
172 195 0
174 197 0
173 196 0
172 196 0
172 195 0
173 196 0
174 197 0
173 196 0
174 196 0
171 194 0
175 198 0
175 198 0
172 195 0
171 195 0
173 197 0
174 197 0
175 198 0
174 197 0
173 196 0
172 195 0
173 196 0
175 198 0
170 195 0
175 198 0
172 196 0
160 184 72
145 169 108
95 125 158
72 106 174
62 99 179
61 99 180
62 99 180
61 99 181
62 99 179
62 99 181
61 99 181
62 99 181
61 99 181
62 99 181
61 99 181
62 99 181
62 99 180
61 99 181
61 99 181
61 99 181
62 99 181
62 99 181
62 99 181
61 98 181
61 99 181
61 99 181
61 99 181
62 99 180
62 99 181
61 98 181
62 99 181
62 99 181
62 99 181
61 99 180
61 98 181
61 99 181
61 99 181
61 98 178
62 99 179
61 98 177
62 99 180
61 98 178
61 98 181
61 98 178
66 102 176
92 122 164
119 146 138
145 170 107
170 193 40
172 195 0
176 198 0
173 197 0
169 193 0
173 196 0
173 196 0
175 198 0
169 192 0
175 197 0
173 197 0
174 197 0
175 198 0
173 196 0
171 194 0
173 196 0
170 194 0
173 197 0
173 196 0
172 196 0
171 195 0
171 194 0
173 196 0
174 196 0
174 197 0
173 196 0
173 197 0
172 195 0
171 194 0
175 198 0
174 197 0
173 196 0
173 195 0
173 195 0
172 195 0
173 196 0
172 194 0
169 191 0
173 196 0
173 195 0
173 197 0
173 195 0
173 196 0
175 198 0
133 134 57
144 138 75
132 127 67
137 131 67
140 134 75
143 137 82
145 139 82
141 135 80
140 136 78
143 137 81
145 140 82
156 150 89
152 146 89
143 139 86
141 136 83
147 142 88
154 149 94
147 143 90
152 149 94
154 149 95
150 146 93
142 140 93
159 155 98
161 156 101
151 148 96
159 155 101
159 155 101
151 148 97
156 152 100
161 158 104
158 155 103
155 150 98
160 156 103
147 145 98
159 155 102
150 149 99
151 149 99
163 160 106
156 154 101
159 156 103
163 160 107
155 154 104
158 155 105
162 159 107
162 159 106
165 161 107
161 159 105
162 159 107
168 164 108
166 164 109
165 163 108
163 161 108
172 169 113
164 161 108
165 162 109
161 159 106
166 163 109
166 164 109
171 167 111
167 164 110
162 160 106
168 164 109
166 163 109
166 164 109
169 165 110
170 167 111
166 163 109
168 165 109
166 163 108
171 168 112
167 165 110
169 166 111
167 165 110
170 168 112
162 160 107
166 163 109
166 164 110
169 166 110
169 166 111
167 164 109
170 167 111
168 166 111
167 165 110
166 163 108
170 167 110
170 167 110
169 167 112
168 166 110
168 165 110
168 165 110
170 166 109
169 166 110
168 165 109
170 166 109
167 165 110
159 156 103
170 166 110
168 164 107
166 162 107
165 161 106
166 162 106
159 157 104
169 165 106
166 161 105
164 161 107
160 156 103
162 157 103
166 162 106
168 163 107
164 160 105
169 164 106
162 158 103
167 161 106
167 163 106
158 154 101
159 156 100
163 159 103
164 159 102
153 149 97
161 156 100
160 156 100
159 154 99
160 154 96
157 152 97
163 158 100
145 141 85
163 157 99
155 148 92
154 148 91
162 156 95
161 155 92
151 146 85
158 152 92
149 144 85
156 150 89
150 145 82
151 145 85
149 143 86
139 133 74
143 136 80
140 135 75
130 125 74
130 124 64
134 136 52
171 194 0
174 197 0
175 198 0
174 196 0
175 198 0
174 198 0
174 197 0
172 196 0
173 196 0
175 198 0
174 197 0
173 197 0
175 198 0
175 198 0
173 197 0
174 197 0
172 196 0
175 198 0
173 197 0
173 196 0
172 196 0
176 198 0
173 197 0
175 198 0
174 197 0
175 198 0
172 197 0
173 196 0
175 198 0
174 197 0
176 198 0
174 197 0
173 196 0
172 195 0
174 197 0
174 198 0
173 197 0
172 196 0
174 197 0
174 198 0
173 197 0
172 196 0
173 196 0
173 197 0
174 197 0
174 198 0
174 198 0
171 195 0
174 197 0
173 196 0
173 196 0
173 196 0
174 197 0
173 197 0
173 196 0
174 198 0
174 197 0
174 197 0
173 197 0
172 195 0
172 197 0
174 197 0
173 197 0
175 198 0
173 197 0
175 198 0
173 196 0
176 198 0
172 196 0
175 198 0
173 196 0
175 198 0
173 196 0
171 195 0
173 196 0
175 198 0
171 195 0
173 197 0
173 197 0
173 196 0
172 196 0
174 197 0
172 195 0
174 197 0
172 196 0
172 196 0
173 196 0
173 197 0
174 196 0
170 193 0
174 197 0
172 195 0
172 196 0
174 197 0
174 197 0
172 196 0
174 198 0
175 197 0
171 195 0
173 197 0
172 196 0
170 193 0
173 197 0
174 197 0
172 195 0
172 196 0
174 197 0
174 197 0
172 196 0
175 198 0
172 196 0
174 197 0
174 197 0
173 197 0
174 198 0
174 197 0
173 196 0
172 196 0
173 197 0
174 197 0
171 195 0
173 196 0
174 196 0
173 197 0
173 196 0
173 196 0
173 196 0
173 196 0
173 196 0
173 197 0
175 198 0
172 195 0
172 195 0
173 197 0
174 197 0
173 197 0
173 196 0
176 198 0
174 197 0
174 197 0
172 196 0
170 194 0
174 197 0
172 196 0
172 196 0
175 198 0
172 195 0
172 194 0
172 196 0
172 195 0
171 195 0
175 198 0
174 198 0
172 195 0
173 197 0
174 197 0
172 195 0
175 197 0
171 194 0
172 195 0
166 190 47
152 175 99
117 144 139
73 107 171
62 99 179
62 99 180
61 99 179
62 99 180
62 99 181
62 99 181
61 99 181
61 99 181
61 99 180
62 99 181
61 99 180
61 99 181
61 99 180
61 99 181
62 99 181
61 99 181
62 99 181
61 99 181
61 99 181
62 99 181
61 99 181
62 99 181
61 99 181
61 99 181
61 99 181
62 99 181
61 98 181
62 99 181
61 99 181
62 99 181
61 99 181
62 99 181
62 99 181
61 98 181
61 99 181
61 99 180
61 98 181
61 99 181
62 99 181
61 98 179
62 99 180
62 99 180
62 99 180
61 98 179
61 98 180
62 98 177
61 98 179
61 98 179
68 103 175
115 142 139
136 161 113
161 185 65
173 197 0
174 197 0
171 194 0
173 196 0
172 196 0
171 194 0
173 196 0
175 198 0
171 194 0
173 196 0
173 197 0
173 196 0
171 194 0
172 195 0
173 196 0
172 196 0
173 194 0
175 197 0
173 196 0
170 194 0
172 195 0
171 194 0
171 193 0
172 194 0
173 195 0
173 196 0
172 195 0
174 197 0
172 195 0
173 196 0
172 195 0
173 196 0
172 194 0
170 193 0
171 195 0
173 196 0
171 194 0
173 195 0
173 196 0
160 174 34
117 113 57
139 133 77
133 128 67
143 137 75
150 144 80
135 131 71
140 134 79
147 142 84
140 135 82
135 131 78
151 145 89
153 148 88
141 138 85
162 156 99
141 137 86
144 139 86
157 152 93
145 141 90
143 139 87
150 146 94
150 145 94
157 153 99
162 157 103
149 145 96
156 152 98
155 150 99
159 154 101
158 155 103
158 154 101
150 146 95
154 151 99
153 151 101
156 152 99
167 163 106
165 160 103
160 155 103
155 152 101
166 163 109
162 158 105
155 153 101
161 158 105
161 159 107
155 153 103
164 160 107
162 160 108
160 158 106
163 161 108
159 156 104
156 154 103
162 159 105
164 162 108
164 161 108
165 162 107
165 162 108
161 159 107
167 164 110
168 165 110
168 165 110
171 168 112
161 159 106
166 163 109
163 161 108
172 168 112
162 160 108
170 166 110
169 167 111
171 169 113
172 168 112
169 166 110
169 166 111
169 167 111
166 164 109
169 167 111
166 163 109
169 166 111
167 165 110
165 163 109
165 162 108
169 166 111
167 164 110
165 162 108
169 167 111
167 165 110
171 167 110
164 161 108
167 164 109
169 166 110
167 164 109
162 159 106
168 165 108
165 162 108
168 164 109
168 166 110
165 163 108
168 164 109
169 165 108
168 164 108
163 160 106
169 166 110
166 162 108
163 160 105
163 161 107
168 164 107
166 163 108
166 162 107
158 155 101
163 159 101
167 163 106
163 159 105
165 160 104
160 157 101
168 163 107
163 158 102
164 160 104
161 157 102
169 163 106
166 161 104
168 163 106
158 153 98
160 154 95
161 157 98
158 153 95
160 154 99
167 162 101
162 156 100
157 153 96
153 149 92
159 153 97
153 147 93
157 152 95
153 147 93
147 142 84
155 149 93
159 152 95
153 146 85
161 154 93
144 139 84
144 139 81
147 141 84
146 141 81
140 134 76
138 131 76
132 127 62
132 127 68
159 176 32
172 196 0
174 197 0
174 196 0
173 196 0
174 198 0
174 196 0
174 197 0
173 196 0
173 196 0
173 197 0
173 197 0
174 197 0
176 198 0
174 197 0
175 198 0
171 195 0
174 196 0
173 197 0
173 196 0
174 197 0
173 197 0
174 198 0
172 196 0
172 195 0
173 196 0
174 198 0
175 197 0
172 196 0
172 196 0
174 197 0
171 195 0
174 197 0
172 196 0
174 197 0
172 196 0
172 195 0
174 197 0
172 196 0
173 196 0
177 199 0
174 198 0
174 197 0
173 196 0
171 195 0
175 198 0
172 196 0
173 197 0
175 198 0
172 195 0
173 197 0
174 198 0
173 196 0
174 197 0
173 197 0
175 198 0
173 197 0
173 197 0
172 195 0
174 198 0
174 197 0
173 197 0
176 198 0
175 198 0
175 198 0
173 197 0
175 198 0
174 197 0
173 196 0
173 196 0
173 197 0
173 196 0
175 197 0
173 197 0
173 196 0
175 198 0
174 197 0
173 196 0
175 198 0
174 197 0
175 198 0
173 197 0
174 198 0
174 197 0
174 198 0
173 197 0
173 197 0
173 197 0
172 196 0
174 197 0
174 197 0
175 198 0
172 195 0
173 197 0
174 197 0
172 196 0
171 194 0
174 197 0
175 197 0
174 198 0
174 196 0
174 197 0
175 198 0
174 198 0
174 197 0
174 197 0
172 195 0
172 196 0
174 196 0
169 194 0
175 198 0
171 196 0
176 198 0
173 197 0
173 197 0
171 195 0
172 195 0
173 196 0
173 197 0
172 196 0
174 198 0
176 198 0
175 197 0
176 198 0
173 196 0
171 194 0
172 195 0
173 197 0
171 195 0
174 197 0
171 195 0
173 196 0
173 196 0
172 195 0
174 198 0
171 194 0
172 196 0
171 196 0
170 193 0
172 195 0
175 198 0
173 196 0
173 197 0
172 195 0
174 197 0
173 196 0
172 195 0
172 194 0
170 195 0
174 197 0
173 195 0
175 198 0
171 196 0
174 197 0
173 196 0
174 196 0
173 196 0
171 194 25
145 169 103
115 142 143
72 106 176
62 99 181
62 99 180
62 99 180
62 99 181
62 99 181
62 99 181
61 98 180
62 99 181
62 99 180
62 99 180
62 99 181
62 99 181
62 99 181
61 99 181
62 99 181
61 99 181
61 98 181
61 99 181
61 98 181
61 99 181
62 99 181
62 99 181
61 99 181
61 99 181
61 98 181
61 99 181
62 99 181
62 99 181
61 98 180
61 99 181
61 98 181
61 99 181
61 99 181
61 98 180
62 99 180
62 99 181
61 98 180
61 98 180
61 98 181
61 98 180
62 99 181
61 98 179
63 100 181
61 98 179
62 99 180
62 99 180
61 98 180
62 99 179
62 99 179
62 99 181
62 99 179
61 99 181
61 98 178
62 98 178
62 99 180
92 122 164
134 159 117
163 186 60
175 197 0
174 197 0
172 195 0
172 195 0
172 196 0
172 195 0
172 195 0
170 193 0
170 193 0
170 194 0
173 196 0
172 195 0
173 196 0
172 195 0
173 197 0
173 196 0
170 193 0
173 196 0
172 195 0
172 194 0
172 195 0
173 195 0
174 197 0
173 195 0
173 195 0
174 197 0
171 195 0
172 195 0
172 196 0
174 197 0
173 197 0
174 197 0
170 194 0
174 197 0
173 196 0
173 196 0
138 139 57
121 116 58
134 130 70
137 132 72
147 141 84
138 133 78
139 133 75
145 139 80
147 142 86
138 134 77
151 145 84
157 152 90
140 135 82
150 145 85
146 140 87
143 139 84
153 148 93
146 141 87
138 135 84
154 149 93
148 144 94
153 149 95
150 147 98
148 145 95
160 156 102
156 152 102
162 157 100
154 150 100
157 153 100
155 152 99
153 149 99
157 153 101
165 161 107
160 156 104
154 151 102
152 149 99
158 154 104
161 158 103
159 156 104
159 156 105
163 160 105
162 159 107
161 158 104
164 161 106
163 160 106
167 164 109
167 163 108
173 168 112
160 158 106
163 160 107
162 160 107
165 162 108
167 163 108
161 159 107
167 164 110
167 164 110
164 162 108
165 162 107
162 160 108
167 164 109
170 167 111
165 163 109
170 166 110
165 163 109
166 163 110
170 167 111
165 163 109
168 164 109
168 165 110
164 162 109
165 162 108
169 167 112
170 167 111
170 167 111
168 165 110
166 163 108
167 164 109
168 165 110
170 166 110
170 166 110
170 167 110
172 169 112
169 166 110
172 168 111
170 167 111
169 166 110
164 162 108
170 166 110
168 165 110
165 163 109
168 165 109
172 168 110
168 165 110
169 166 110
171 167 110
167 164 109
169 166 109
167 164 108
169 166 109
168 164 108
172 168 109
165 162 108
173 168 110
161 158 103
166 163 107
163 159 105
168 164 108
170 166 109
165 161 106
165 161 105
164 160 103
165 160 103
161 158 103
165 160 103
165 161 104
164 159 103
164 159 103
163 158 102
165 160 103
161 154 97
159 154 98
161 156 97
159 155 97
159 154 96
168 163 102
160 155 99
164 159 99
155 150 94
158 152 94
160 155 95
150 147 90
159 153 97
154 148 90
160 153 90
148 142 85
159 152 95
134 130 74
146 141 84
151 145 83
154 147 84
134 129 71
142 136 76
151 144 84
144 137 73
144 137 74
140 141 62
176 198 0
173 197 0
172 195 0
173 196 0
174 197 0
172 197 0
175 198 0
170 193 0
173 196 0
174 197 0
173 197 0
173 196 0
173 196 0
174 197 0
173 197 0
172 196 0
172 196 0
173 197 0
173 197 0
174 198 0
173 197 0
174 197 0
173 196 0
175 198 0
174 198 0
171 195 0
173 197 0
176 199 0
175 198 0
175 198 0
174 197 0
175 197 0
173 197 0
174 198 0
174 197 0
174 197 0
173 196 0
170 193 0
172 196 0
172 196 0
174 197 0
173 196 0
171 195 0
173 196 0
173 196 0
173 196 0
173 197 0
172 197 0
173 197 0
173 196 0
175 198 0
172 197 0
173 196 0
172 196 0
175 198 0
173 196 0
176 198 0
171 195 0
173 197 0
173 196 0
173 196 0
173 197 0
175 198 0
174 197 0
171 195 0
172 196 0
173 196 0
174 197 0
174 197 0
173 197 0
174 197 0
172 196 0
173 197 0
174 197 0
174 197 0
173 196 0
170 194 0
172 195 0
173 196 0
173 196 0
172 196 0
174 197 0
172 196 0
172 196 0
173 197 0
173 196 0
171 195 0
172 196 0
172 196 0
173 196 0
174 198 0
175 197 0
173 196 0
173 197 0
172 196 0
174 197 0
174 197 0
174 197 0
173 196 0
173 197 0
173 197 0
173 196 0
173 197 0
173 197 0
171 194 0
174 196 0
171 195 0
175 198 0
172 195 0
172 195 0
173 197 0
173 196 0
176 198 0
173 196 0
173 196 0
171 194 0
172 196 0
173 197 0
174 198 0
174 197 0
173 196 0
171 196 0
173 197 0
172 196 0
173 196 0
174 196 0
174 196 0
175 198 0
172 196 0
170 193 0
175 198 0
175 198 0
173 197 0
171 194 0
174 198 0
173 197 0
174 197 0
173 196 0
173 197 0
172 196 0
174 197 0
174 198 0
174 197 0
172 195 0
174 198 0
172 196 0
172 196 0
172 195 0
173 196 0
174 197 0
175 198 0
172 195 0
170 194 0
172 195 0
151 175 92
114 142 144
73 106 173
62 99 178
62 99 179
61 98 178
61 98 179
61 98 180
62 99 181
62 99 179
61 99 180
62 99 181
62 99 180
62 99 181
61 99 180
62 99 181
62 99 181
61 99 181
61 99 181
61 99 181
61 99 181
62 99 181
62 99 181
61 98 181
61 99 181
62 99 181
61 99 181
61 98 181
61 99 181
62 99 181
61 99 181
61 99 181
61 99 181
62 99 181
62 99 181
61 99 181
61 98 181
62 99 181
62 99 181
61 99 181
62 99 181
62 99 181
62 99 181
62 99 181
61 99 181
61 99 181
61 99 181
61 98 178
62 99 181
62 99 180
62 99 180
62 99 180
62 99 181
62 99 179
61 98 180
61 98 179
61 99 181
62 99 179
62 99 181
61 98 180
62 99 178
61 98 176
60 97 174
64 100 176
90 120 163
141 165 108
170 193 31
172 194 0
171 195 0
171 195 0
173 196 0
173 197 0
169 192 0
174 197 0
172 195 0
171 195 0
173 196 0
173 196 0
174 196 0
172 195 0
173 196 0
174 197 0
172 196 0
173 196 0
169 192 0
173 196 0
172 195 0
173 197 0
174 197 0
174 196 0
172 196 0
174 197 0
171 193 0
172 195 0
172 195 0
175 198 0
171 194 0
174 197 0
173 196 0
157 172 39
136 130 68
137 131 67
142 137 73
141 136 77
143 138 78
139 135 74
140 135 73
154 148 89
139 134 78
147 141 82
147 141 83
143 138 83
152 147 90
146 141 88
144 141 89
149 145 86
148 145 92
146 142 89
159 154 97
148 146 93
159 155 102
154 150 97
148 144 94
153 149 96
147 144 92
152 149 98
157 153 100
159 154 100
144 142 93
152 149 97
160 158 106
159 156 104
156 152 99
148 146 98
154 151 101
164 160 106
151 149 100
159 156 105
160 156 103
160 157 103
159 156 104
159 157 105
165 161 106
166 163 109
164 160 107
157 155 105
158 155 103
155 153 103
160 157 105
160 158 107
163 161 108
161 158 106
165 162 108
169 166 111
167 164 110
161 158 106
166 163 109
166 164 110
167 165 110
166 163 110
168 165 110
166 163 109
165 162 108
164 161 108
169 165 110
169 166 110
167 165 110
168 165 111
170 167 111
167 163 109
170 167 111
169 166 110
171 168 111
170 166 110
170 167 112
174 170 113
168 165 110
173 169 113
168 166 110
168 166 110
170 167 111
171 167 111
171 168 112
169 166 110
170 167 112
173 169 112
168 164 109
168 164 109
171 168 112
171 168 112
170 167 110
171 168 112
168 165 109
169 165 109
165 162 108
165 162 107
168 165 109
173 169 111
172 168 110
165 162 107
164 161 106
172 168 109
169 165 109
173 169 111
170 166 110
166 162 107
167 163 106
167 164 108
162 159 104
167 162 103
166 162 106
164 160 104
169 164 106
165 160 103
161 156 97
157 153 98
169 164 106
158 155 100
152 148 95
160 155 99
163 158 99
159 154 97
159 155 99
160 156 96
161 155 97
158 153 96
157 153 95
162 156 95
160 154 95
158 151 94
161 156 96
155 149 91
150 145 88
148 143 89
149 144 88
157 152 91
152 146 90
153 147 88
142 136 78
143 138 75
149 143 83
144 138 82
143 136 79
134 129 74
131 126 64
131 126 68
164 183 25
173 195 0
172 195 0
173 197 0
174 197 0
173 196 0
172 195 0
175 198 0
175 198 0
174 197 0
174 197 0
172 196 0
175 198 0
174 197 0
174 197 0
171 195 0
173 196 0
174 197 0
172 196 0
173 197 0
175 198 0
174 197 0
173 197 0
173 197 0
174 197 0
173 196 0
172 196 0
173 197 0
176 198 0
174 197 0
175 198 0
171 195 0
173 197 0
173 196 0
172 195 0
174 197 0
173 197 0
175 198 0
174 198 0
175 198 0
175 198 0
174 198 0
173 197 0
172 195 0
172 196 0
172 195 0
173 197 0
172 195 0
175 198 0
171 194 0
172 196 0
172 195 0
173 197 0
171 194 0
174 197 0
174 197 0
173 196 0
172 195 0
173 196 0
174 197 0
174 197 0
173 197 0
174 197 0
173 196 0
173 197 0
174 198 0
173 197 0
175 198 0
174 198 0
170 194 0
174 197 0
173 196 0
172 195 0
171 195 0
172 197 0
172 196 0
173 196 0
174 197 0
175 198 0
172 195 0
174 197 0
173 196 0
172 195 0
174 197 0
173 196 0
174 197 0
175 197 0
173 196 0
172 195 0
174 197 0
173 197 0
173 196 0
174 197 0
173 197 0
174 197 0
174 197 0
173 197 0
173 196 0
171 195 0
175 198 0
171 193 0
174 197 0
171 195 0
174 198 0
172 196 0
172 196 0
172 195 0
173 197 0
173 196 0
174 197 0
172 196 0
174 196 0
172 196 0
174 197 0
173 196 0
175 198 0
174 197 0
174 197 0
173 197 0
173 196 0
171 195 0
173 196 0
174 197 0
174 197 0
172 196 0
174 197 0
170 194 0
173 195 0
172 196 0
174 197 0
171 195 0
171 195 0
172 196 0
171 195 0
172 196 0
172 195 0
172 195 0
173 196 0
172 196 0
177 199 0
174 197 0
174 196 0
173 196 0
172 195 0
170 193 0
174 197 0
174 198 0
174 198 0
172 195 0
174 197 0
174 197 0
167 190 40
143 168 107
95 125 160
61 98 178
61 99 178
62 99 179
62 99 179
62 99 179
62 99 181
62 99 181
62 99 181
61 99 180
62 99 180
62 99 181
61 99 181
62 99 181
62 99 181
62 99 181
62 99 181
61 99 181
61 99 181
61 99 181
62 99 181
62 99 181
62 99 181
61 98 181
62 99 181
61 99 181
62 99 181
61 98 181
61 98 181
62 99 181
61 98 181
61 98 181
61 99 181
62 99 181
61 99 181
61 99 181
61 98 181
61 99 181
62 99 181
61 98 181
61 99 181
62 99 181
61 98 181
61 98 180
61 99 181
61 99 181
62 99 181
61 98 181
61 99 180
62 99 181
62 99 180
61 99 180
62 99 180
61 99 181
62 99 181
62 99 181
62 99 181
62 99 181
62 99 180
61 99 180
62 99 181
61 98 176
62 99 178
61 98 179
61 98 176
61 98 178
61 98 178
68 104 177
118 144 139
159 183 72
171 194 0
170 193 0
172 194 0
172 195 0
172 195 0
174 196 0
172 195 0
170 192 0
173 196 0
173 196 0
175 198 0
171 194 0
171 195 0
172 195 0
172 194 0
173 196 0
171 193 0
174 197 0
171 195 0
170 195 0
172 194 0
173 197 0
173 196 0
174 196 0
172 196 0
172 195 0
175 198 0
172 195 0
174 197 0
172 196 0
129 132 52
132 126 70
144 139 76
139 133 71
141 136 74
149 142 82
141 136 78
137 131 75
148 142 84
149 144 82
144 139 85
143 138 83
153 148 91
145 140 88
148 144 85
148 143 87
147 143 87
141 137 84
148 144 90
152 148 93
149 146 96
152 147 95
158 153 98
150 146 96
145 143 96
153 149 97
155 152 99
159 156 101
154 151 100
151 148 99
147 145 93
152 150 101
150 148 101
159 156 103
153 149 99
165 161 104
161 157 104
158 155 104
154 150 101
157 154 102
156 154 104
156 154 103
159 156 104
157 155 104
165 161 108
163 161 107
166 163 109
157 155 103
164 161 108
159 156 105
169 166 110
163 160 107
161 158 105
159 157 105
158 156 105
159 157 106
168 165 110
168 165 110
162 161 108
167 164 110
160 158 106
169 166 110
170 167 111
169 167 111
163 161 108
169 166 111
166 163 109
171 168 112
170 167 111
174 170 113
171 168 112
167 163 108
172 168 112
168 166 111
170 167 111
165 162 108
168 165 110
169 167 112
172 168 112
170 168 112
170 166 110
167 164 109
171 168 112
169 166 110
172 168 111
170 166 110
172 169 112
171 168 112
170 166 110
169 165 109
169 166 109
174 170 112
171 167 111
171 167 110
168 166 110
169 166 109
171 166 109
167 164 108
164 161 107
159 155 101
170 167 110
167 163 108
173 169 110
162 159 103
167 163 106
168 163 104
168 165 109
168 164 106
165 160 103
171 166 106
158 153 97
169 164 106
163 159 103
165 160 104
170 166 109
160 157 100
169 164 106
170 165 109
163 158 100
165 159 100
171 164 104
160 154 99
163 158 101
165 159 98
159 153 94
158 153 96
161 156 99
166 161 101
158 152 94
159 153 95
152 147 88
152 147 91
157 151 93
160 155 96
156 150 92
157 151 92
152 147 89
149 144 88
153 146 85
157 150 89
140 135 76
147 140 87
150 144 82
137 132 74
132 127 73
137 130 74
131 126 71
136 143 48
175 198 0
173 196 0
175 197 0
174 197 0
174 197 0
174 196 0
176 199 0
174 197 0
173 197 0
174 198 0
174 197 0
174 197 0
175 198 0
174 197 0
174 198 0
173 196 0
173 197 0
175 198 0
172 196 0
173 196 0
172 195 0
174 198 0
175 198 0
174 197 0
173 197 0
171 195 0
174 198 0
173 197 0
173 197 0
174 197 0
175 198 0
175 197 0
173 197 0
172 195 0
175 198 0
173 197 0
172 195 0
175 197 0
173 197 0
174 197 0
172 196 0
174 198 0
173 197 0
173 197 0
171 194 0
172 196 0
173 196 0
173 197 0
176 198 0
172 196 0
172 196 0
172 196 0
172 196 0
173 197 0
174 197 0
172 196 0
171 195 0
173 196 0
174 197 0
172 197 0
174 197 0
174 197 0
171 195 0
170 194 0
174 197 0
176 199 0
173 197 0
172 195 0
172 195 0
173 196 0
172 196 0
174 197 0
174 197 0
174 197 0
174 198 0
175 198 0
174 197 0
172 196 0
172 196 0
171 195 0
173 197 0
171 195 0
172 195 0
173 195 0
176 198 0
173 197 0
173 197 0
173 196 0
172 195 0
174 197 0
174 197 0
173 196 0
175 198 0
172 196 0
175 197 0
175 198 0
173 197 0
173 197 0
170 193 0
174 196 0
173 196 0
172 197 0
174 197 0
172 195 0
173 197 0
173 196 0
173 197 0
170 194 0
172 195 0
171 195 0
171 194 0
173 196 0
172 195 0
171 194 0
173 196 0
174 197 0
173 197 0
172 195 0
173 196 0
173 196 0
172 195 0
172 196 0
174 197 0
174 197 0
173 196 0
176 198 0
173 197 0
173 196 0
173 196 0
174 196 0
175 198 0
172 195 0
172 196 0
173 196 0
173 197 0
165 189 0
172 196 0
172 195 0
172 196 0
172 195 0
172 196 0
174 197 0
170 193 0
173 196 0
174 196 0
172 195 0
172 195 0
172 195 0
162 185 72
131 156 122
72 106 175
62 99 179
62 99 179
63 100 181
61 98 180
62 99 180
61 99 180
61 99 180
62 99 180
62 99 180
61 98 179
61 99 181
62 99 181
62 99 181
61 99 181
62 99 181
61 98 181
62 99 181
62 99 180
62 99 181
62 99 181
61 99 181
61 99 181
61 98 181
61 99 181
61 98 181
61 98 181
61 99 181
62 99 181
62 99 181
62 99 181
61 99 181
61 98 181
61 98 181
61 99 181
61 98 181
61 98 181
61 99 181
61 99 181
61 99 181
61 98 181
61 99 181
61 98 181
61 99 181
61 98 181
61 99 181
61 98 181
61 98 181
61 98 179
61 98 181
61 99 181
61 98 180
61 99 181
61 98 181
62 99 181
61 98 180
62 99 180
61 98 179
62 99 181
61 99 181
61 98 179
61 98 180
61 99 181
60 97 178
62 99 180
62 99 179
62 99 179
61 98 179
61 97 175
62 99 180
61 98 178
62 99 180
98 126 158
146 170 104
172 195 0
174 198 0
171 194 0
173 196 0
174 196 0
167 189 0
173 197 0
170 193 0
172 196 0
173 196 0
169 193 0
169 192 0
171 193 0
173 196 0
170 193 0
170 192 0
171 195 0
172 195 0
172 195 0
175 197 0
173 195 0
172 196 0
172 195 0
172 195 0
173 196 0
171 194 0
174 196 0
159 175 34
138 131 68
143 136 74
139 133 68
133 128 69
146 140 76
134 130 69
146 141 82
148 143 80
142 138 82
137 133 78
144 140 83
153 148 91
143 138 84
147 142 86
147 143 87
138 134 84
153 149 94
141 137 89
144 139 85
151 148 96
146 143 93
144 141 90
147 145 92
156 151 96
148 145 93
155 151 97
150 147 95
153 150 99
152 148 98
157 154 102
158 155 103
151 149 98
154 151 100
150 148 98
157 153 100
159 156 104
159 156 104
151 148 100
155 153 102
164 160 106
156 153 102
160 157 104
157 155 105
160 158 106
164 161 108
165 163 108
163 160 108
159 157 106
162 159 106
159 157 106
152 150 102
164 162 108
165 162 109
162 159 107
157 155 105
166 163 109
164 161 108
163 161 108
169 166 111
166 163 109
164 161 108
167 164 110
168 165 110
169 166 111
165 162 108
168 165 110
165 162 108
168 165 110
171 168 112
171 167 111
166 164 109
167 165 110
171 168 111
168 165 110
171 168 112
171 168 112
171 168 112
173 170 112
171 168 112
174 170 112
167 164 109
167 164 109
169 166 110
171 166 109
174 171 113
172 169 112
172 169 112
170 166 109
171 166 109
171 167 111
166 163 108
172 169 112
167 163 108
173 170 113
171 167 110
171 167 109
169 166 110
163 160 105
172 168 111
167 163 108
167 164 107
169 166 109
171 167 106
167 164 107
168 164 107
168 165 109
169 164 106
168 164 105
160 156 101
166 162 105
168 164 106
166 162 106
169 165 108
167 162 106
162 158 101
158 154 98
163 159 101
164 159 101
163 159 100
162 157 98
173 167 106
166 161 103
161 156 103
164 159 100
162 157 97
155 149 92
159 154 96
157 152 94
154 149 92
152 146 89
156 151 95
153 148 91
152 147 93
154 149 91
150 146 90
157 150 90
156 151 94
153 148 92
153 146 82
156 149 89
141 135 76
143 138 75
136 131 75
142 135 78
140 133 72
134 128 65
145 139 72
128 123 64
167 187 19
174 197 0
174 198 0
174 197 0
172 195 0
171 194 0
174 197 0
176 199 0
173 196 0
173 196 0
174 197 0
173 197 0
174 198 0
174 198 0
172 195 0
172 195 0
172 196 0
174 198 0
172 195 0
173 195 0
172 195 0
175 198 0
174 197 0
173 196 0
170 194 0
173 197 0
174 197 0
173 197 0
172 195 0
171 194 0
173 196 0
174 198 0
175 198 0
174 198 0
173 197 0
173 196 0
175 198 0
172 196 0
172 195 0
173 197 0
174 198 0
173 197 0
175 198 0
172 196 0
172 196 0
176 198 0
174 198 0
171 195 0
173 197 0
174 198 0
175 198 0
174 197 0
174 197 0
172 195 0
173 196 0
172 195 0
174 197 0
174 198 0
174 197 0
173 196 0
170 194 0
172 196 0
173 197 0
175 198 0
173 196 0
175 198 0
173 197 0
173 196 0
175 197 0
173 196 0
176 198 0
172 196 0
173 197 0
173 196 0
172 196 0
174 197 0
173 196 0
173 197 0
173 196 0
172 196 0
175 197 0
171 194 0
174 197 0
172 195 0
172 196 0
173 196 0
174 197 0
173 197 0
174 197 0
174 197 0
174 197 0
173 196 0
172 196 0
173 197 0
173 196 0
172 196 0
173 196 0
172 195 0
173 196 0
175 198 0
171 195 0
173 197 0
174 197 0
173 197 0
171 195 0
172 195 0
173 196 0
171 195 0
173 196 0
173 197 0
174 197 0
174 196 0
171 195 0
172 196 0
174 197 0
171 195 0
172 195 0
172 195 0
172 196 0
175 197 0
173 196 0
174 197 0
172 195 0
172 196 0
174 196 0
173 196 0
172 196 0
172 196 0
171 195 0
173 196 0
172 196 0
173 197 0
173 196 0
172 195 0
174 197 0
172 196 0
173 196 0
172 196 0
176 198 0
171 195 0
173 196 0
172 196 0
171 195 0
174 197 0
171 195 0
174 198 0
160 184 67
121 147 136
65 101 175
62 99 178
62 99 179
62 99 181
61 98 179
62 99 181
62 99 178
62 99 181
62 99 181
62 99 181
62 99 181
62 99 181
62 99 181
62 99 180
61 99 181
61 99 181
62 99 181
61 99 181
61 99 181
61 98 181
61 99 181
61 99 181
62 99 181
61 99 181
61 98 181
62 99 181
61 98 181
62 99 181
61 99 181
61 99 181
62 99 181
61 99 181
62 99 181
61 98 181
61 99 181
61 99 181
61 99 181
61 98 181
61 99 181
61 99 181
62 99 181
61 99 181
61 99 181
61 98 181
62 99 181
61 98 181
61 99 181
62 99 181
61 98 180
61 99 181
62 99 180
62 99 181
62 99 181
61 99 181
61 98 180
62 99 181
61 99 181
61 99 181
61 98 179
61 99 181
62 99 181
62 99 180
62 99 181
61 99 180
61 98 181
62 99 181
61 98 179
61 98 178
62 99 180
61 98 178
61 98 177
61 98 178
61 98 177
62 99 181
61 98 176
61 97 175
88 119 164
140 164 107
169 192 25
172 195 0
174 197 0
174 196 0
174 196 0
173 196 0
172 195 0
172 195 0
174 196 0
173 195 0
172 196 0
171 194 0
171 193 0
172 196 0
173 197 0
171 195 0
171 194 0
174 196 0
174 197 0
172 196 0
174 197 0
174 197 0
172 195 0
173 196 0
171 194 0
134 137 49
132 127 60
137 131 71
140 136 70
135 130 71
147 140 75
136 132 75
147 142 80
145 140 83
143 138 82
138 133 76
148 143 86
151 145 89
148 145 90
155 150 91
136 131 80
146 141 88
145 141 88
143 141 90
146 142 88
143 140 90
147 144 94
143 139 91
149 145 95
154 150 99
150 146 94
148 144 93
147 144 98
151 148 97
149 146 94
142 140 95
154 150 99
149 146 97
158 155 103
153 149 100
152 148 100
160 157 104
156 152 101
155 151 102
153 151 101
160 156 104
159 156 104
149 147 100
157 155 104
159 157 105
160 157 105
153 151 102
159 155 103
165 162 108
165 162 108
158 155 104
155 154 104
165 163 109
167 164 109
161 158 105
162 159 106
168 165 111
166 163 109
162 159 107
167 164 110
170 167 111
167 163 109
169 166 111
171 168 112
170 167 112
173 169 112
171 168 112
171 169 112
170 167 111
171 167 112
167 164 109
172 168 111
169 166 110
167 163 109
170 168 111
173 170 113
170 167 110
169 166 111
172 169 113
172 169 113
173 169 112
167 165 109
169 166 110
170 167 112
167 164 110
172 169 112
168 165 109
169 165 110
166 163 107
174 170 112
169 166 110
170 166 110
171 168 110
174 170 113
172 168 111
171 167 111
172 168 112
168 165 108
170 166 109
169 166 109
171 166 109
171 168 110
167 164 108
171 166 109
169 164 106
170 166 109
166 162 107
166 163 107
166 163 108
165 161 103
166 161 104
166 162 106
171 165 107
165 161 101
166 162 105
166 162 104
167 163 106
169 165 106
169 164 104
162 158 98
159 157 101
168 163 103
166 162 100
162 158 100
165 159 101
157 153 94
160 155 101
160 155 95
162 156 97
155 151 95
159 154 97
156 150 93
161 155 97
160 154 93
158 152 91
152 147 88
149 144 87
146 141 82
154 148 93
155 149 90
149 143 80
156 149 87
145 138 79
153 147 80
138 133 77
139 133 71
138 131 73
132 126 64
137 131 71
152 164 42
175 198 0
171 195 0
174 197 0
172 196 0
175 197 0
173 196 0
175 198 0
174 197 0
174 197 0
175 197 0
175 197 0
173 197 0
172 195 0
173 196 0
175 198 0
174 198 0
174 197 0
175 198 0
173 197 0
174 197 0
173 197 0
173 196 0
175 198 0
174 197 0
174 197 0
173 196 0
175 198 0
175 198 0
175 198 0
175 198 0
172 196 0
172 196 0
175 198 0
174 197 0
172 196 0
176 199 0
174 198 0
174 196 0
174 197 0
174 197 0
176 198 0
174 197 0
174 197 0
173 196 0
173 196 0
176 198 0
172 196 0
172 196 0
173 197 0
174 198 0
173 197 0
171 195 0
174 198 0
174 198 0
173 196 0
173 196 0
173 196 0
171 195 0
173 197 0
172 196 0
174 197 0
174 197 0
174 197 0
178 200 0
174 197 0
173 196 0
173 196 0
175 198 0
172 197 0
173 196 0
175 198 0
172 196 0
172 195 0
172 196 0
172 195 0
173 197 0
172 195 0
176 199 0
173 196 0
174 198 0
172 196 0
172 196 0
173 197 0
174 197 0
172 195 0
174 197 0
170 194 0
173 196 0
172 196 0
171 195 0
174 198 0
175 198 0
174 197 0
173 197 0
174 197 0
174 196 0
172 197 0
173 196 0
174 198 0
171 195 0
175 198 0
172 196 0
172 196 0
172 195 0
171 194 0
175 198 0
172 196 0
174 197 0
174 197 0
172 196 0
176 198 0
169 192 0
175 197 0
170 194 0
173 196 0
172 195 0
175 198 0
173 196 0
175 197 0
173 196 0
171 195 0
175 197 0
174 197 0
173 196 0
173 197 0
173 195 0
170 193 0
173 196 0
172 196 0
173 196 0
172 195 0
173 196 0
172 196 0
174 197 0
172 196 0
170 194 0
175 198 0
172 196 0
173 196 0
171 195 0
172 195 0
172 196 0
174 196 0
159 183 70
115 142 145
68 104 176
62 99 178
61 99 180
61 98 178
62 99 179
61 99 180
61 99 180
62 99 181
62 99 180
63 99 180
62 99 181
62 99 181
62 99 181
61 99 181
61 98 181
62 99 180
62 99 181
61 99 181
62 99 181
61 99 181
61 99 181
62 99 181
60 98 181
61 98 181
61 99 181
61 99 181
61 99 181
62 99 181
61 99 181
62 99 181
61 99 181
62 99 181
62 99 181
61 99 181
61 99 181
61 99 181
62 99 181
62 99 181
61 99 181
61 98 181
62 99 181
61 98 181
61 98 181
61 99 181
61 99 181
61 98 181
61 98 181
61 99 181
62 99 181
62 99 181
61 98 180
61 99 181
61 98 181
62 99 181
62 99 181
61 98 179
62 99 181
61 98 181
62 99 181
61 99 181
62 99 179
61 98 180
62 99 180
62 99 181
62 99 179
61 98 180
62 99 180
61 98 178
61 98 179
62 98 178
62 99 181
61 98 179
62 99 179
62 99 178
62 99 181
61 98 178
61 98 178
62 99 179
62 98 176
61 97 176
96 125 158
146 170 96
172 195 0
171 195 0
173 197 0
174 196 0
173 196 0
173 196 0
171 194 0
170 194 0
175 198 0
175 196 0
174 197 0
175 197 0
171 195 0
169 192 0
173 196 0
172 195 0
173 196 0
173 196 0
172 195 0
174 197 0
175 196 0
171 195 0
164 183 25
126 120 63
134 127 73
136 129 73
133 128 69
145 139 76
134 129 70
141 136 78
147 143 81
143 138 78
144 138 82
147 142 83
149 143 88
148 144 89
148 144 89
150 144 86
144 140 86
145 141 88
140 136 88
151 148 97
148 144 90
146 143 94
157 152 97
155 151 98
152 148 98
156 152 100
146 144 97
155 151 99
143 140 90
155 152 99
149 146 97
147 144 97
155 152 103
152 149 99
148 146 99
154 150 97
150 147 98
151 149 100
160 157 104
156 152 101
151 148 100
163 159 106
158 156 105
157 154 104
160 157 105
156 154 104
162 159 106
158 155 104
160 157 106
162 159 107
165 161 107
164 161 108
164 160 107
161 159 107
164 160 106
165 162 109
159 158 106
166 163 109
166 163 109
167 164 110
168 164 109
169 166 110
168 164 108
167 164 110
166 163 109
171 168 111
166 163 108
170 167 111
169 166 110
167 165 110
167 164 110
168 166 110
172 169 113
173 168 112
172 168 112
172 169 112
172 169 112
172 167 110
174 170 113
168 165 110
174 170 113
172 168 112
171 168 110
173 168 110
171 168 112
166 163 108
168 166 110
171 167 110
174 170 112
169 166 110
175 171 113
169 166 110
174 170 112
167 163 108
168 165 108
167 162 106
167 163 108
169 165 108
170 167 110
168 164 107
169 165 109
170 166 110
173 169 110
173 169 112
169 165 108
171 167 109
171 167 110
166 162 104
170 166 109
173 168 109
167 163 106
169 165 108
167 163 107
165 161 104
164 160 103
169 164 108
166 161 101
164 160 103
164 158 100
166 161 104
165 160 103
166 161 104
167 161 103
164 159 103
165 160 103
164 159 101
161 156 97
164 158 97
166 161 100
161 156 96
162 156 98
162 157 98
159 155 94
156 151 94
152 147 92
153 148 88
151 145 88
156 150 89
157 152 89
159 153 91
154 149 85
156 150 86
155 148 88
161 155 90
148 141 82
145 139 79
140 134 75
132 126 68
139 133 73
141 134 76
130 128 54
173 196 0
174 197 0
173 197 0
172 196 0
174 196 0
173 196 0
172 196 0
174 197 0
174 197 0
174 197 0
173 196 0
172 196 0
172 196 0
174 196 0
171 195 0
174 198 0
174 198 0
174 197 0
173 197 0
172 196 0
174 198 0
174 198 0
174 198 0
174 198 0
172 196 0
174 197 0
170 194 0
175 198 0
173 197 0
175 198 0
173 197 0
173 196 0
173 196 0
173 197 0
174 198 0
172 196 0
171 195 0
174 198 0
171 195 0
173 197 0
174 197 0
173 197 0
174 197 0
174 197 0
173 196 0
171 195 0
173 196 0
173 196 0
173 197 0
173 196 0
172 195 0
173 197 0
173 197 0
174 197 0
175 198 0
172 197 0
172 197 0
173 196 0
172 195 0
173 197 0
174 196 0
173 197 0
173 196 0
172 196 0
171 195 0
172 196 0
173 197 0
173 196 0
174 197 0
173 197 0
176 199 0
173 196 0
172 195 0
172 196 0
174 197 0
171 194 0
172 195 0
172 196 0
171 195 0
175 198 0
173 197 0
173 197 0
172 196 0
171 195 0
173 197 0
175 197 0
172 196 0
175 198 0
173 196 0
174 197 0
173 196 0
174 197 0
175 198 0
174 197 0
173 196 0
173 197 0
171 195 0
173 196 0
172 195 0
175 198 0
173 197 0
175 198 0
170 194 0
174 197 0
171 196 0
173 197 0
172 196 0
172 196 0
172 196 0
173 196 0
174 197 0
172 195 0
175 198 0
172 196 0
171 194 0
173 196 0
173 195 0
172 196 0
171 194 0
172 195 0
173 196 0
170 194 0
171 194 0
172 195 0
172 195 0
173 196 0
173 196 0
175 197 0
174 197 0
172 195 0
172 196 0
173 196 0
172 194 0
174 196 0
173 197 0
173 197 0
172 196 0
171 195 0
168 190 0
172 196 0
173 196 0
165 189 44
118 145 135
64 100 175
62 99 178
62 99 180
62 99 180
62 99 181
62 99 181
62 99 181
62 99 181
62 99 180
62 99 180
62 99 180
62 99 181
61 98 180
62 99 181
62 99 181
61 99 181
61 99 181
62 99 181
62 99 181
61 99 181
61 99 181
62 99 181
62 99 181
61 99 181
62 99 181
61 99 181
61 99 181
61 98 181
61 99 181
62 99 181
62 99 181
62 99 181
62 99 181
62 99 181
61 99 181
61 98 181
62 99 181
61 99 181
61 98 181
61 98 181
61 98 181
61 99 181
61 98 181
61 99 181
62 99 181
61 99 181
61 98 181
61 99 181
61 99 181
61 99 181
61 98 181
62 99 181
61 99 181
61 99 181
61 99 181
61 98 181
61 99 181
62 99 181
62 99 181
62 99 180
61 98 180
62 99 181
62 99 181
61 98 180
62 99 179
62 99 179
62 99 181
62 99 181
62 99 181
62 99 180
61 98 179
62 99 179
62 99 179
61 99 181
62 99 179
62 99 180
62 98 177
61 99 180
62 99 180
61 98 177
61 98 178
61 98 176
62 98 176
61 98 176
87 117 164
147 171 99
173 197 0
170 194 0
173 197 0
173 195 0
173 197 0
171 194 0
171 195 0
172 196 0
171 194 0
173 196 0
171 193 0
173 196 0
171 194 0
171 194 0
173 195 0
171 195 0
172 195 0
170 194 0
173 195 0
172 196 0
149 162 41
120 115 56
130 125 70
143 137 76
142 136 75
140 134 75
147 141 82
134 131 69
157 150 85
141 137 80
146 140 81
151 146 85
144 140 87
138 134 81
146 142 88
147 143 90
137 134 77
145 141 87
142 139 85
151 147 91
147 143 93
155 150 95
146 142 92
148 146 96
147 143 97
151 148 96
144 141 93
145 143 96
154 149 95
154 150 99
143 141 94
148 146 95
148 146 99
160 157 102
156 153 101
155 152 103
153 149 98
153 150 102
154 150 99
153 152 102
149 147 99
160 157 104
151 149 101
161 158 105
156 153 103
156 153 103
165 162 108
159 156 105
156 154 104
168 165 111
166 163 108
166 163 108
164 160 107
163 160 108
163 160 108
166 162 107
161 158 107
167 164 108
166 163 110
169 166 111
171 167 111
171 168 112
161 159 107
169 165 110
169 166 110
167 165 111
169 167 111
173 169 112
171 168 110
167 164 110
170 167 110
171 168 111
172 168 112
168 166 111
169 166 110
170 167 111
171 167 109
175 170 112
166 163 108
174 170 112
171 168 112
175 171 113
171 168 112
168 164 109
171 167 111
171 167 110
172 168 112
169 166 110
169 166 110
173 169 110
169 165 109
171 167 110
171 168 110
171 168 110
171 167 110
169 166 109
171 168 110
167 164 108
170 166 110
168 165 108
168 164 108
174 169 110
174 169 112
166 162 106
171 166 107
171 167 108
172 168 109
172 166 108
169 165 105
169 166 107
167 162 104
166 162 106
171 166 108
167 164 105
166 161 104
168 164 103
162 158 101
169 163 104
161 156 98
170 165 106
164 160 99
164 160 102
155 151 98
160 156 99
157 151 93
168 163 103
164 158 99
164 158 101
161 156 96
158 153 95
162 157 96
165 159 97
159 154 93
160 154 93
155 151 93
154 148 90
158 152 95
153 147 88
151 145 87
156 150 90
140 135 76
152 145 85
155 148 87
148 141 83
145 140 80
148 142 79
140 135 69
142 136 75
139 133 72
139 133 71
123 118 65
160 178 28
173 196 0
172 195 0
172 196 0
174 198 0
174 196 0
175 198 0
175 197 0
174 197 0
171 195 0
173 197 0
172 196 0
174 197 0
174 198 0
175 198 0
175 198 0
170 194 0
173 197 0
173 197 0
175 198 0
174 197 0
173 197 0
173 197 0
174 198 0
170 193 0
172 196 0
173 197 0
174 198 0
170 194 0
173 197 0
173 196 0
172 197 0
174 198 0
175 198 0
173 197 0
173 197 0
168 193 0
173 196 0
174 198 0
172 196 0
173 197 0
172 196 0
174 197 0
174 197 0
172 196 0
174 197 0
172 195 0
175 197 0
173 196 0
174 197 0
173 196 0
173 197 0
171 194 0
171 195 0
173 197 0
172 195 0
172 195 0
172 196 0
171 195 0
174 197 0
174 197 0
174 197 0
174 197 0
174 198 0
173 196 0
171 194 0
172 195 0
173 197 0
173 197 0
173 196 0
171 195 0
171 195 0
174 197 0
171 195 0
174 197 0
173 197 0
173 196 0
175 198 0
172 195 0
173 197 0
170 193 0
172 196 0
175 198 0
173 197 0
173 196 0
173 196 0
174 197 0
175 198 0
175 198 0
175 198 0
172 196 0
173 196 0
172 196 0
171 195 0
171 195 0
173 196 0
171 195 0
172 195 0
174 197 0
170 193 0
172 196 0
173 197 0
172 196 0
174 197 0
174 197 0
172 196 0
172 196 0
173 196 0
173 196 0
174 196 0
174 197 0
172 196 0
173 196 0
175 198 0
175 198 0
172 196 0
174 197 0
175 197 0
174 197 0
174 197 0
174 197 0
174 197 0
173 196 0
172 195 0
173 197 0
172 194 0
173 196 0
172 195 0
172 195 0
173 195 0
171 195 0
174 196 0
175 197 0
174 198 0
172 195 0
172 195 0
172 197 0
172 196 0
174 197 0
170 193 31
135 160 115
71 105 170
61 98 177
62 99 178
62 99 178
61 99 180
62 99 178
62 99 180
62 99 178
62 99 181
63 100 181
62 99 180
61 98 180
62 99 178
62 99 181
62 99 181
62 99 180
61 99 180
61 99 181
62 99 181
61 99 181
61 99 181
61 99 181
62 99 181
61 99 181
61 99 181
62 99 181
61 98 181
61 99 181
61 98 181
61 99 181
62 99 181
61 99 181
62 99 181
61 99 181
61 98 181
62 99 181
61 98 181
61 98 181
61 99 181
61 98 181
61 98 181
62 99 181
61 98 181
61 98 181
61 99 181
61 99 181
61 98 181
61 99 181
61 98 181
62 99 181
61 99 181
62 99 181
61 99 181
62 99 181
61 99 181
62 99 181
62 99 181
62 99 181
61 99 181
61 99 181
61 98 181
61 99 181
62 99 181
62 99 181
61 99 181
61 99 181
61 99 181
62 99 181
61 99 180
62 99 181
62 99 181
62 99 179
61 99 180
62 99 180
61 98 178
61 98 176
61 98 178
62 99 178
61 98 176
61 98 176
62 99 178
61 98 177
61 97 175
61 98 176
61 98 177
62 99 176
61 98 176
62 99 178
96 125 153
155 179 82
173 195 0
173 196 0
172 195 0
173 196 0
173 195 0
173 195 0
172 196 0
172 195 0
173 195 0
171 194 0
172 195 0
172 195 0
173 196 0
170 193 0
171 194 0
175 198 0
173 195 0
170 192 0
133 131 61
135 128 64
132 127 64
140 134 71
130 125 69
141 136 76
136 131 69
137 132 76
141 136 79
142 137 80
146 142 85
144 138 84
139 135 79
142 138 86
138 134 87
142 137 85
150 146 95
144 140 89
141 136 83
144 140 91
141 139 88
144 140 89
140 138 91
150 147 97
148 144 94
147 144 95
147 144 97
150 147 96
152 149 99
138 137 90
150 148 99
142 141 95
157 154 102
149 146 99
155 151 99
159 156 103
157 154 103
150 147 97
151 149 100
162 159 106
149 147 98
159 156 105
160 157 106
157 155 105
153 151 102
164 162 108
160 157 105
155 153 103
160 158 106
156 154 105
158 156 106
156 154 103
160 158 107
167 163 108
164 160 107
167 163 109
164 161 107
167 164 110
167 163 108
167 164 109
169 166 110
166 163 109
166 163 109
163 160 107
168 164 109
166 163 109
171 167 111
172 168 111
169 166 110
168 165 111
171 168 112
171 167 110
168 165 110
168 165 110
171 169 113
170 166 111
170 167 112
167 164 109
165 162 109
172 168 111
169 166 110
172 168 112
177 172 112
170 167 110
173 169 112
170 166 110
171 168 112
172 168 110
171 167 110
170 168 112
170 166 109
173 168 110
169 166 108
170 167 110
170 166 109
166 163 106
169 165 109
168 164 107
167 164 107
171 167 107
172 167 109
169 166 110
169 166 108
171 167 110
173 168 110
167 164 108
172 168 108
170 165 108
167 163 104
164 160 103
171 167 106
164 159 104
170 165 109
161 157 102
169 164 106
169 164 106
165 161 102
166 162 105
167 163 104
166 161 103
160 155 97
163 158 101
169 163 106
158 154 99
167 162 98
166 160 100
166 159 99
168 162 101
162 157 101
161 154 94
156 151 95
161 155 95
163 158 98
159 153 94
159 154 93
154 149 92
159 154 95
157 153 93
160 154 95
152 145 87
147 141 86
156 150 90
156 151 90
145 139 78
147 141 83
140 134 77
130 125 70
146 140 79
139 133 69
143 138 71
142 135 79
156 165 52
171 194 0
175 198 0
173 196 0
174 197 0
174 198 0
174 197 0
173 196 0
173 196 0
172 195 0
174 197 0
173 197 0
175 198 0
173 196 0
172 196 0
174 197 0
174 197 0
174 197 0
175 198 0
174 197 0
173 197 0
174 197 0
174 197 0
174 197 0
173 197 0
173 196 0
175 198 0
171 195 0
174 197 0
174 197 0
171 194 0
170 194 0
175 198 0
174 198 0
172 196 0
174 197 0
173 196 0
171 195 0
172 196 0
174 198 0
175 198 0
175 198 0
173 197 0
171 195 0
173 196 0
171 195 0
172 196 0
174 197 0
172 196 0
173 196 0
175 198 0
173 196 0
172 195 0
171 194 0
174 198 0
172 195 0
175 198 0
175 198 0
173 196 0
173 196 0
174 198 0
172 195 0
171 196 0
174 197 0
174 197 0
173 196 0
173 197 0
174 197 0
176 198 0
176 198 0
174 197 0
174 197 0
174 198 0
172 196 0
172 196 0
171 195 0
170 194 0
174 197 0
174 198 0
170 194 0
171 195 0
174 197 0
173 196 0
173 196 0
173 196 0
175 198 0
173 196 0
171 195 0
173 196 0
174 197 0
174 197 0
171 195 0
171 195 0
172 196 0
176 198 0
172 196 0
170 194 0
172 195 0
173 197 0
172 195 0
171 194 0
172 195 0
173 197 0
175 198 0
173 197 0
174 196 0
171 194 0
172 195 0
172 196 0
173 196 0
171 195 0
174 196 0
171 194 0
171 195 0
176 199 0
175 198 0
173 195 0
172 196 0
172 195 0
172 195 0
173 196 0
174 197 0
170 193 0
172 196 0
171 194 0
174 196 0
176 199 0
172 196 0
172 195 0
174 197 0
176 198 0
173 197 0
171 195 0
172 196 0
172 194 0
173 195 0
172 196 0
172 195 0
146 171 99
79 111 166
62 99 179
62 99 179
62 99 179
62 99 177
62 99 175
62 99 179
62 99 178
62 99 180
61 99 180
61 99 181
62 99 179
61 99 180
61 99 180
61 98 180
61 99 180
61 99 181
61 99 181
61 99 181
61 98 181
62 99 181
62 99 181
61 99 179
62 99 181
61 99 181
61 99 181
62 99 181
61 99 181
62 99 181
61 99 181
62 99 181
61 99 181
61 99 181
62 99 181
61 98 181
61 99 181
62 99 181
61 99 181
62 99 181
61 98 181
61 99 181
61 99 181
61 99 181
61 99 181
61 98 181
62 99 181
61 98 181
62 99 181
62 99 181
61 99 181
61 99 181
61 99 181
61 99 181
62 99 181
62 99 181
61 99 181
61 98 181
62 99 181
61 99 181
62 99 181
61 99 181
62 99 180
61 99 181
62 99 181
62 99 181
61 99 181
62 99 180
61 98 180
62 99 180
62 99 181
62 99 180
62 99 181
61 99 181
61 98 181
61 99 181
62 99 180
62 99 179
62 99 180
61 99 179
62 99 179
62 99 180
62 99 179
61 98 179
61 98 177
62 98 175
61 99 180
62 98 177
61 98 178
62 98 175
61 98 176
61 97 176
66 101 174
117 143 127
163 186 41
172 195 0
170 194 0
170 193 0
170 193 0
169 192 0
171 193 0
171 193 0
172 195 0
172 195 0
172 195 0
173 196 0
170 193 0
174 196 0
173 196 0
173 195 0
163 178 37
119 114 56
134 128 65
128 124 65
129 124 66
143 138 75
133 129 72
146 142 80
138 133 74
145 139 81
137 132 80
141 136 83
146 141 85
148 143 88
147 142 88
143 138 85
148 145 90
140 136 84
140 137 85
144 141 91
138 135 88
146 142 87
137 134 86
148 144 94
149 146 95
147 144 94
146 144 96
145 142 96
153 149 97
148 146 97
145 143 94
149 146 98
147 145 99
148 145 98
149 146 97
154 152 102
156 153 100
159 156 103
158 154 102
152 150 101
154 152 103
155 153 103
153 152 103
158 157 106
152 149 102
156 154 104
153 151 104
159 157 106
159 157 105
157 155 104
163 160 107
161 158 105
161 158 106
155 153 104
166 163 110
163 159 106
166 163 109
166 163 109
168 165 110
161 159 107
162 159 106
166 164 110
169 165 110
162 159 105
165 162 108
167 165 110
169 166 110
167 164 109
170 166 110
171 167 109
172 169 112
169 166 111
172 169 112
166 163 109
169 166 110
169 166 110
168 164 109
171 168 111
173 169 110
172 168 111
170 166 109
172 169 112
174 169 110
175 171 113
172 168 111
170 166 109
172 169 112
172 168 111
171 168 112
178 173 113
169 165 109
168 165 108
169 165 108
170 167 109
170 165 108
174 170 113
170 166 109
172 169 112
172 167 109
170 166 109
170 168 110
169 165 107
171 167 109
170 166 110
172 166 108
171 168 110
168 163 103
165 161 104
162 158 103
169 165 108
171 167 108
169 164 104
172 168 109
166 162 108
167 163 107
166 161 104
169 165 106
170 166 107
162 159 102
168 162 101
165 159 103
167 162 106
167 161 101
167 163 103
173 166 105
166 160 98
163 157 98
157 152 93
157 153 95
166 161 101
167 162 97
159 154 95
160 153 93
158 152 93
156 150 92
158 152 93
159 154 97
154 148 90
150 145 86
155 150 92
161 155 95
159 152 90
144 140 82
148 142 80
149 144 83
144 139 80
144 138 77
138 132 67
141 136 76
138 134 70
147 140 81
140 133 72
123 118 60
172 193 22
173 197 0
173 197 0
175 197 0
173 196 0
172 195 0
175 197 0
175 198 0
173 197 0
172 195 0
175 198 0
174 196 0
174 197 0
173 197 0
172 196 0
173 196 0
174 197 0
174 197 0
172 196 0
174 197 0
172 196 0
172 196 0
176 198 0
173 196 0
175 198 0
173 197 0
174 197 0
172 196 0
175 198 0
171 195 0
174 198 0
174 197 0
173 197 0
174 197 0
174 197 0
173 197 0
173 197 0
175 197 0
172 195 0
174 197 0
175 198 0
174 197 0
171 194 0
173 197 0
173 197 0
175 197 0
175 198 0
175 198 0
174 197 0
174 198 0
172 196 0
173 197 0
173 196 0
176 198 0
173 196 0
172 195 0
174 197 0
174 197 0
171 195 0
174 197 0
173 197 0
174 197 0
171 195 0
174 197 0
171 194 0
173 196 0
175 198 0
174 197 0
172 196 0
174 197 0
171 196 0
173 197 0
173 197 0
172 195 0
170 194 0
174 197 0
174 197 0
172 196 0
173 195 0
173 197 0
171 194 0
172 196 0
174 197 0
173 196 0
173 196 0
174 197 0
174 197 0
172 195 0
172 195 0
172 195 0
174 197 0
173 197 0
171 194 0
174 198 0
172 195 0
170 193 0
174 198 0
171 195 0
171 195 0
173 197 0
174 197 0
173 197 0
174 197 0
172 195 0
174 198 0
174 197 0
172 196 0
173 197 0
172 195 0
170 194 0
173 196 0
176 198 0
170 193 0
173 197 0
172 195 0
171 193 0
174 197 0
171 195 0
172 195 0
176 198 0
173 196 0
174 197 0
171 194 0
171 195 0
171 194 0
171 194 0
171 195 0
173 196 0
174 198 0
173 196 0
174 196 0
171 194 0
171 195 0
173 195 0
173 196 0
166 189 51
109 136 143
63 99 178
62 99 178
62 99 180
62 99 179
62 99 177
61 99 180
63 100 180
62 99 180
61 99 180
62 99 180
61 98 178
62 99 181
62 99 179
62 99 181
62 99 180
62 99 181
62 99 181
61 98 181
61 99 181
61 99 181
62 99 180
62 99 180
62 99 181
62 99 181
62 99 181
61 98 181
61 99 181
61 99 181
61 98 181
62 99 181
62 99 181
62 99 181
61 99 181
61 99 181
62 99 181
61 98 181
61 99 181
62 99 181
62 99 181
61 98 181
61 99 181
61 98 181
61 99 181
61 98 181
61 98 181
61 99 181
61 99 181
61 99 181
61 98 181
61 99 181
61 99 181
61 99 181
62 99 181
62 99 181
61 99 181
61 99 181
61 99 181
62 99 181
61 99 181
61 98 181
62 99 181
62 99 181
61 98 181
62 99 181
62 99 181
62 99 181
61 98 180
61 98 181
61 98 181
61 99 181
61 98 181
61 98 180
62 99 181
62 99 181
62 99 181
62 99 180
61 98 179
61 99 181
62 99 179
61 99 180
62 99 180
61 98 179
62 99 178
62 99 178
62 98 178
62 99 178
62 98 179
62 98 175
61 98 176
61 98 175
61 98 178
62 99 178
60 96 173
61 97 174
82 113 167
136 160 108
170 193 0
171 194 0
171 193 0
172 195 0
170 192 0
171 194 0
172 195 0
173 194 0
170 193 0
174 197 0
170 194 0
172 195 0
173 197 0
172 195 0
135 142 42
131 126 67
129 124 64
127 122 66
137 131 71
143 137 77
144 139 78
131 126 68
143 137 79
132 129 76
140 135 81
148 144 86
145 142 84
140 136 84
146 142 87
139 136 83
144 140 83
144 140 89
133 131 84
150 145 91
143 141 89
141 138 93
143 140 89
146 143 95
142 138 91
144 141 93
147 144 93
135 133 88
140 139 93
138 136 92
148 147 97
146 143 95
159 157 105
144 141 94
153 150 101
153 151 101
158 156 104
145 141 93
147 145 99
147 145 99
159 156 104
156 154 105
154 151 102
152 150 101
164 160 107
162 160 108
160 157 105
155 153 104
153 152 103
156 154 104
163 160 107
160 157 105
155 153 103
160 158 105
165 162 109
165 162 108
165 162 108
167 164 109
166 163 109
164 161 107
166 163 110
167 164 108
160 158 106
168 165 110
169 165 110
166 163 110
167 164 109
165 163 110
171 168 111
166 163 108
173 169 112
169 166 110
171 168 111
171 168 111
170 166 110
174 170 113
174 170 112
168 165 110
170 167 111
170 166 110
172 168 111
176 171 112
172 168 112
168 164 108
172 168 110
169 165 109
171 168 110
175 171 112
172 169 111
171 167 109
170 167 109
169 165 108
175 170 112
169 164 109
173 169 110
173 169 110
171 167 107
167 164 106
169 166 109
172 169 110
172 167 109
172 167 107
168 164 108
168 164 108
170 165 106
172 168 109
172 168 107
166 163 107
172 167 106
170 165 107
165 160 102
169 164 106
165 161 103
170 165 106
165 161 103
168 164 106
165 159 103
162 158 103
168 165 106
164 160 103
167 162 104
164 160 101
162 157 102
164 159 100
166 161 99
161 157 99
163 158 98
164 159 96
166 161 102
154 149 94
158 152 95
160 155 94
150 146 90
159 154 93
155 149 90
166 159 99
157 150 87
150 145 89
150 144 84
146 141 84
158 151 91
155 149 85
153 147 84
143 137 78
149 143 83
145 140 81
145 138 80
143 137 78
148 141 82
130 124 69
137 132 70
133 128 67
127 122 65
161 174 42
174 197 0
174 197 0
175 198 0
173 196 0
174 197 0
172 196 0
175 197 0
172 196 0
172 195 0
174 197 0
171 195 0
175 198 0
173 197 0
174 197 0
174 197 0
174 197 0
173 197 0
174 197 0
171 196 0
174 198 0
172 196 0
172 195 0
173 196 0
173 197 0
173 196 0
173 197 0
174 198 0
175 198 0
173 195 0
173 197 0
173 197 0
174 197 0
173 197 0
173 196 0
174 197 0
172 196 0
175 198 0
174 198 0
173 196 0
171 194 0
175 197 0
174 197 0
173 196 0
173 197 0
172 196 0
173 196 0
173 196 0
174 198 0
172 196 0
170 193 0
174 197 0
175 198 0
173 196 0
174 198 0
172 196 0
172 196 0
174 197 0
172 195 0
173 195 0
173 197 0
168 192 0
173 196 0
173 197 0
176 199 0
170 193 0
172 196 0
173 196 0
174 198 0
174 197 0
172 195 0
172 196 0
175 198 0
174 197 0
172 195 0
174 198 0
174 197 0
174 197 0
171 196 0
172 196 0
172 196 0
171 195 0
172 195 0
176 198 0
172 196 0
173 196 0
173 196 0
173 196 0
173 196 0
173 196 0
171 195 0
175 197 0
173 196 0
171 194 0
174 197 0
174 197 0
173 196 0
174 197 0
172 196 0
173 197 0
170 194 0
173 197 0
174 198 0
173 196 0
173 196 0
169 193 0
173 196 0
174 197 0
170 194 0
173 196 0
174 197 0
171 194 0
173 197 0
175 197 0
172 196 0
171 194 0
171 194 0
172 195 0
174 197 0
174 197 0
173 196 0
174 195 0
172 196 0
173 196 0
175 198 0
172 194 0
173 196 0
171 194 0
173 196 0
173 196 0
173 195 0
172 196 0
173 197 0
168 192 18
132 157 117
73 107 173
61 98 174
62 99 176
62 99 179
62 99 180
62 99 178
62 99 181
62 99 178
62 99 179
62 99 180
62 99 180
62 99 180
62 99 180
62 99 181
62 99 180
62 99 178
62 99 181
62 99 181
62 99 181
61 99 181
62 99 180
61 99 181
62 99 181
62 99 181
62 99 181
62 99 181
62 99 181
62 99 181
62 99 181
62 99 181
61 99 181
61 99 181
61 98 181
61 98 181
61 99 181
61 99 181
61 99 181
61 99 181
61 99 181
61 99 181
61 99 181
61 99 181
62 99 181
61 99 181
61 98 181
61 99 181
62 99 181
61 99 181
61 99 181
61 98 181
61 99 181
61 99 181
61 98 181
61 98 181
61 98 181
61 98 181
62 99 181
62 99 181
62 99 181
61 99 181
62 99 181
61 99 181
61 98 181
61 99 181
61 98 181
62 99 181
62 99 181
62 99 181
62 99 181
61 99 181
62 99 181
61 99 180
61 98 181
62 99 180
62 99 181
61 99 181
62 99 179
61 98 180
62 99 179
62 99 179
61 98 179
62 99 181
62 99 180
61 98 179
62 99 178
61 98 176
62 99 180
62 98 178
61 98 176
62 99 178
61 98 176
62 99 178
62 99 178
61 97 172
61 97 174
62 98 174
61 97 176
60 96 170
106 133 147
167 189 51
170 193 0
173 197 0
170 193 0
169 192 0
171 193 0
171 194 0
172 195 0
170 193 0
168 191 0
169 192 0
174 197 0
162 183 11
117 112 56
133 127 65
137 131 74
137 132 75
141 136 74
130 125 67
142 137 81
142 136 77
140 135 78
138 135 83
143 138 82
133 130 77
138 135 83
142 138 80
134 131 81
143 140 89
135 133 83
147 142 91
131 128 80
147 143 92
147 144 95
145 143 93
150 146 95
137 135 90
135 133 88
144 141 92
139 138 93
145 143 95
145 144 98
148 145 96
150 148 98
149 147 98
147 144 97
155 151 100
150 148 100
148 146 99
150 149 101
150 148 99
153 151 103
152 149 100
145 144 98
159 157 105
154 152 102
151 150 101
150 148 99
157 154 104
149 148 101
154 153 103
160 157 105
160 157 105
160 157 106
161 158 105
157 155 104
166 162 108
160 157 105
162 160 108
163 160 106
161 159 107
160 159 107
164 162 108
165 162 108
167 164 109
164 161 107
166 163 109
169 165 110
171 168 112
169 166 110
171 168 111
172 167 109
171 168 112
170 166 110
173 169 112
175 171 113
172 169 112
172 168 111
167 165 108
171 168 111
169 166 111
173 170 112
171 167 110
171 168 111
172 168 110
170 167 109
176 170 110
177 171 112
172 168 110
173 169 111
175 171 113
170 166 109
175 171 113
172 169 112
173 169 110
171 167 110
173 170 112
169 165 107
170 167 109
173 169 111
170 166 108
170 167 108
170 166 109
172 167 109
168 164 108
174 169 110
176 172 113
171 167 109
173 168 106
170 166 107
172 168 108
166 163 104
171 167 108
169 165 108
167 163 106
164 160 102
168 162 104
168 164 105
161 156 99
172 167 106
166 162 101
168 163 106
166 161 103
166 161 102
165 161 102
164 158 98
169 163 105
168 162 103
160 155 96
170 164 104
159 155 95
160 155 97
163 157 95
158 153 93
164 159 97
165 159 99
152 146 90
164 158 95
159 153 92
156 149 91
158 152 90
159 153 93
153 148 86
159 153 92
154 148 91
157 150 90
154 149 91
155 149 87
141 135 72
149 143 81
150 144 80
151 145 80
143 137 80
145 138 75
134 129 72
133 127 67
137 147 37
172 196 0
174 197 0
177 198 0
175 198 0
172 196 0
174 196 0
173 197 0
174 196 0
171 196 0
173 196 0
175 198 0
175 198 0
174 198 0
170 193 0
174 197 0
174 198 0
172 196 0
173 197 0
172 196 0
173 197 0
173 197 0
173 197 0
171 195 0
174 197 0
173 196 0
174 197 0
173 196 0
173 197 0
175 198 0
173 197 0
172 195 0
174 197 0
171 195 0
174 196 0
174 197 0
175 198 0
174 197 0
174 198 0
174 198 0
175 198 0
173 196 0
173 196 0
174 197 0
172 195 0
174 198 0
174 197 0
172 196 0
172 196 0
172 195 0
172 195 0
174 197 0
173 196 0
172 196 0
173 197 0
172 195 0
175 198 0
174 197 0
172 195 0
174 197 0
173 197 0
173 197 0
173 197 0
174 196 0
173 196 0
174 197 0
174 198 0
173 197 0
175 197 0
172 196 0
173 196 0
173 197 0
174 197 0
174 197 0
174 196 0
168 192 0
173 197 0
173 196 0
174 197 0
172 195 0
172 195 0
175 198 0
174 197 0
171 195 0
173 196 0
171 195 0
170 194 0
174 197 0
170 192 0
173 197 0
175 198 0
175 198 0
175 198 0
171 195 0
171 194 0
174 197 0
171 194 0
174 198 0
171 194 0
172 195 0
172 195 0
172 196 0
172 195 0
173 196 0
173 197 0
174 197 0
172 195 0
174 197 0
174 196 0
172 195 0
171 194 0
171 195 0
172 196 0
171 194 0
173 197 0
172 194 0
171 195 0
171 194 0
173 197 0
170 193 0
174 197 0
173 196 0
173 196 0
172 196 0
173 196 0
170 193 0
173 197 0
174 196 0
174 197 0
172 195 0
171 196 0
171 195 0
166 189 57
100 128 152
62 99 179
62 99 177
62 99 179
62 99 178
62 99 179
62 99 178
62 99 180
63 99 176
61 99 178
62 99 179
62 99 178
61 99 181
62 99 180
62 99 181
62 99 180
61 99 180
62 99 181
62 99 180
61 99 181
61 99 181
61 99 180
61 99 181
61 98 181
62 99 181
61 98 181
62 99 181
62 99 181
62 99 181
62 99 181
62 99 181
62 99 181
61 99 181
61 98 181
61 99 181
61 99 181
62 99 181
61 99 181
61 99 181
62 99 181
61 99 181
62 99 181
61 99 181
62 99 181
61 98 181
62 99 181
62 99 181
61 99 181
61 99 181
61 99 181
61 99 181
61 99 181
61 98 181
61 99 181
62 99 181
62 99 181
61 98 181
62 99 181
62 99 181
61 98 181
61 99 181
61 99 181
62 99 181
61 99 181
61 99 181
62 99 180
62 99 181
62 99 181
61 98 181
62 99 180
61 99 181
61 98 180
62 99 181
61 99 181
61 99 181
61 98 178
62 99 181
61 99 181
62 99 179
62 99 181
61 98 180
61 99 180
62 99 181
62 99 179
61 98 179
62 99 181
62 99 180
62 98 177
61 99 179
61 98 178
62 98 176
62 99 180
62 98 174
62 99 179
62 98 176
61 98 176
61 98 177
61 96 169
60 96 173
62 98 175
61 97 172
82 112 161
145 169 95
173 196 0
172 194 0
171 195 0
172 196 0
170 193 0
169 192 0
172 195 0
173 195 0
171 195 0
171 195 0
156 171 34
132 127 61
135 130 63
128 122 66
140 135 69
137 132 72
135 130 73
143 137 81
128 124 70
137 133 75
130 127 74
149 144 87
144 140 86
138 134 80
140 137 84
135 131 83
142 138 86
138 134 86
135 133 83
134 130 82
137 134 88
126 125 81
138 136 87
138 136 90
146 143 92
142 140 95
141 140 91
137 136 92
140 138 91
144 141 94
136 135 93
150 147 98
144 143 95
149 148 100
145 142 97
156 152 102
147 145 100
143 142 96
149 147 100
149 148 101
149 148 101
153 151 101
148 147 100
149 147 101
156 154 103
148 146 99
155 152 102
149 147 100
149 149 102
160 157 105
158 156 105
162 159 107
159 156 105
158 155 104
158 155 104
163 160 107
168 165 110
166 162 108
166 163 109
167 163 108
165 161 107
164 161 107
166 163 110
164 162 108
172 168 111
167 164 110
174 170 112
163 161 109
166 163 108
170 166 110
172 169 112
170 167 111
166 164 110
170 167 111
172 168 110
171 166 109
170 166 108
173 169 112
170 167 110
174 169 111
173 170 112
173 169 110
172 168 111
172 168 110
171 168 110
175 171 112
174 169 111
173 169 110
173 169 111
176 172 112
174 170 112
171 167 111
173 169 112
171 167 108
173 169 111
177 171 112
170 167 109
172 168 110
173 168 111
171 168 110
169 166 109
168 163 104
175 170 110
170 166 108
169 165 108
171 166 108
173 168 108
168 164 106
169 165 106
169 166 107
167 163 104
169 165 107
172 167 104
172 167 107
166 162 104
171 166 107
172 167 108
169 164 106
168 163 103
169 164 106
164 159 99
156 153 97
159 154 96
170 164 103
161 156 97
168 161 101
165 160 101
168 163 104
166 161 98
161 156 95
165 159 99
159 154 95
161 154 93
160 154 95
156 151 93
163 157 97
162 157 94
154 148 86
153 147 87
153 148 84
157 151 90
151 145 84
152 146 86
153 147 83
143 138 80
149 144 85
151 144 84
139 134 76
146 140 81
143 138 76
151 144 84
134 129 65
129 124 61
136 130 67
135 131 67
169 192 0
174 198 0
173 197 0
172 196 0
171 196 0
172 196 0
174 196 0
174 197 0
174 197 0
172 196 0
173 197 0
174 197 0
173 196 0
174 197 0
173 196 0
173 197 0
176 198 0
173 196 0
174 197 0
174 198 0
173 196 0
174 197 0
172 195 0
170 194 0
173 197 0
174 197 0
172 195 0
172 196 0
174 197 0
173 197 0
171 195 0
173 196 0
175 198 0
172 196 0
172 195 0
175 198 0
174 197 0
172 196 0
175 198 0
172 194 0
173 196 0
174 197 0
173 196 0
175 197 0
171 194 0
172 196 0
173 196 0
173 196 0
174 197 0
174 197 0
173 196 0
173 196 0
174 197 0
172 195 0
171 194 0
174 197 0
172 196 0
173 196 0
169 192 0
172 196 0
173 196 0
173 197 0
169 192 0
174 197 0
175 198 0
173 197 0
173 197 0
173 196 0
173 196 0
173 196 0
175 198 0
174 197 0
172 195 0
172 195 0
173 196 0
174 197 0
173 196 0
174 198 0
169 193 0
170 195 0
174 198 0
174 198 0
171 195 0
169 194 0
173 196 0
175 198 0
173 195 0
173 197 0
172 196 0
173 196 0
171 195 0
174 197 0
172 196 0
174 197 0
172 196 0
173 197 0
173 195 0
171 194 0
172 196 0
174 196 0
173 196 0
170 193 0
174 196 0
173 196 0
174 197 0
171 195 0
172 196 0
173 196 0
174 197 0
173 196 0
173 196 0
172 196 0
174 198 0
172 196 0
174 196 0
172 195 0
173 195 0
173 196 0
174 197 0
173 196 0
173 196 0
172 196 0
173 196 0
173 197 0
172 196 0
173 196 0
171 194 0
170 194 0
172 196 0
172 196 0
135 160 115
73 107 173
62 99 178
63 100 180
61 98 177
62 99 179
63 99 179
62 99 179
62 99 180
62 99 181
62 99 181
63 100 181
61 99 180
62 99 179
62 99 179
61 98 179
62 99 181
62 99 180
62 99 181
61 99 181
61 99 181
61 99 180
62 99 179
62 99 181
61 99 181
62 99 180
61 99 181
62 99 181
61 99 181
62 99 181
62 99 181
62 99 181
62 99 181
62 99 181
62 99 181
61 99 181
62 99 181
61 99 180
62 99 181
62 99 181
62 99 181
62 99 181
61 99 181
61 99 181
61 98 181
61 98 181
62 99 181
62 99 181
62 99 181
62 99 181
61 98 181
62 99 181
62 99 181
62 99 181
61 99 181
61 98 181
62 99 181
61 99 181
62 99 181
61 99 181
61 99 181
62 99 181
61 99 181
61 98 181
61 98 181
62 99 181
62 99 181
61 99 181
61 99 181
62 99 181
62 99 181
62 99 181
61 99 180
61 99 181
62 99 181
61 98 180
62 99 181
62 99 181
62 99 179
62 99 181
61 99 180
62 99 180
62 99 180
62 99 181
61 98 178
62 99 181
62 99 181
62 99 179
62 99 181
61 98 176
61 98 178
62 99 179
62 98 177
62 99 177
62 99 178
62 99 180
61 97 178
62 98 177
62 99 179
61 98 177
62 99 180
61 97 171
61 98 173
61 97 170
61 96 171
116 141 131
166 189 47
167 189 0
173 196 0
171 194 0
173 196 0
171 195 0
170 193 0
172 195 0
172 194 0
135 140 47
124 119 54
136 132 67
133 128 66
142 137 75
128 124 68
130 126 67
133 128 69
139 135 77
134 130 78
138 133 82
127 124 68
145 141 85
141 136 82
133 130 84
140 135 85
134 131 82
127 124 77
133 131 87
130 128 83
132 131 81
131 130 88
134 132 88
145 143 95
144 141 93
147 145 94
141 138 90
140 138 91
143 140 93
145 142 96
145 143 95
134 134 93
149 146 99
145 144 100
150 147 99
142 141 95
149 147 99
147 146 100
152 149 100
155 152 103
153 151 101
149 148 101
155 153 103
157 154 103
152 150 102
157 156 106
155 152 102
159 157 105
157 154 104
161 157 105
167 163 108
163 160 106
164 162 109
160 157 106
168 165 110
163 159 106
163 161 108
168 164 110
166 162 108
161 159 106
168 164 110
162 160 108
170 166 110
166 163 108
166 164 109
167 164 108
167 164 110
164 161 105
170 167 111
172 168 110
173 170 112
167 164 108
174 169 111
173 169 111
168 165 108
171 168 109
170 167 111
169 166 111
172 168 110
170 167 111
174 169 111
175 171 112
168 165 109
175 171 113
175 170 110
172 168 110
172 168 111
176 171 112
174 169 110
174 170 110
173 169 110
173 169 110
177 172 112
170 166 108
171 167 108
174 169 110
175 170 110
175 171 111
173 169 110
169 165 109
169 165 108
168 165 108
169 165 108
173 168 108
172 168 108
173 168 109
168 163 104
169 165 105
173 167 108
166 162 104
168 163 105
168 164 104
170 165 107
170 166 108
171 165 105
171 167 106
170 166 104
168 163 104
165 160 101
170 165 104
164 160 101
168 162 104
166 161 102
167 163 101
171 165 103
166 160 99
159 155 96
161 156 100
167 162 97
168 162 101
169 164 101
163 158 99
163 157 95
155 150 91
164 157 95
165 159 99
161 155 91
161 155 95
163 157 95
168 162 95
166 161 95
163 156 90
151 146 83
150 144 85
150 144 85
149 142 90
143 137 79
135 129 73
143 137 76
132 126 71
150 144 81
141 135 74
135 129 70
138 132 75
135 129 64
159 176 30
173 197 0
174 197 0
174 197 0
174 197 0
175 197 0
175 198 0
174 197 0
173 196 0
173 196 0
173 197 0
174 197 0
174 197 0
173 197 0
172 195 0
172 196 0
173 196 0
174 197 0
174 197 0
175 197 0
171 195 0
172 197 0
174 197 0
173 196 0
175 198 0
174 197 0
170 195 0
174 197 0
173 197 0
173 197 0
174 197 0
170 195 0
173 197 0
171 194 0
174 198 0
172 196 0
174 197 0
173 196 0
173 196 0
175 198 0
174 197 0
171 195 0
172 195 0
173 196 0
175 198 0
175 198 0
173 197 0
174 197 0
173 196 0
174 198 0
175 198 0
173 197 0
174 197 0
175 198 0
172 196 0
171 195 0
174 197 0
174 197 0
174 197 0
173 196 0
172 195 0
174 198 0
171 195 0
172 195 0
174 197 0
173 195 0
173 196 0
173 196 0
176 198 0
170 195 0
172 197 0
174 197 0
173 197 0
173 196 0
172 195 0
175 197 0
175 197 0
173 196 0
175 198 0
174 197 0
172 195 0
172 196 0
175 198 0
172 196 0
175 198 0
172 195 0
172 196 0
173 196 0
173 197 0
172 195 0
169 193 0
172 196 0
173 196 0
174 197 0
173 196 0
174 196 0
174 197 0
171 195 0
171 194 0
174 196 0
171 194 0
171 194 0
172 195 0
173 197 0
172 194 0
174 197 0
172 195 0
172 196 0
172 195 0
173 196 0
174 197 0
172 195 0
172 195 0
173 196 0
173 197 0
172 196 0
173 196 0
174 197 0
171 195 0
169 193 0
170 194 0
171 195 0
173 196 0
174 197 0
170 194 0
175 198 0
173 196 0
172 194 0
169 192 40
122 148 133
63 100 177
62 99 175
61 98 177
62 99 177
62 99 175
62 99 178
62 99 180
62 99 179
62 99 180
62 99 178
62 99 179
62 99 178
62 99 181
61 99 180
62 99 179
61 99 181
61 99 180
62 99 181
61 98 177
62 99 180
62 99 181
62 99 180
61 99 180
62 99 180
61 99 181
62 99 179
62 99 181
62 99 181
61 98 179
62 99 181
61 98 181
62 99 181
61 99 181
61 98 181
62 99 180
62 99 181
62 99 181
61 99 181
62 99 181
62 99 181
61 99 181
61 98 181
62 99 181
61 99 181
62 99 181
61 98 181
61 99 181
61 99 181
61 98 181
61 98 181
61 99 181
61 99 181
61 98 181
61 99 181
62 99 181
61 99 181
61 99 181
61 99 181
62 99 181
62 99 181
62 99 181
62 99 181
62 99 181
61 98 181
61 98 181
61 99 181
62 99 181
62 99 181
62 99 181
62 99 181
62 99 180
62 99 181
61 99 181
62 99 181
62 99 181
62 99 181
62 99 181
62 99 181
62 99 180
61 98 180
61 99 181
62 99 179
62 99 181
61 98 180
62 99 180
63 100 180
61 98 178
62 99 179
61 98 179
62 99 181
62 99 180
62 99 181
62 99 179
61 97 174
62 99 179
61 97 175
62 99 179
63 99 179
62 99 177
62 98 177
61 98 177
62 99 178
61 97 176
62 99 179
61 97 173
60 96 171
91 119 151
153 176 71
171 193 0
170 193 0
174 196 0
171 194 0
170 193 0
171 194 0
168 188 16
135 130 65
127 122 62
132 126 66
136 131 68
133 128 69
127 123 65
137 132 73
142 137 70
146 141 80
136 131 79
144 139 84
137 135 75
129 126 76
137 133 81
140 137 81
127 124 75
139 136 84
130 128 80
139 137 87
135 133 84
140 138 91
142 140 92
145 141 92
140 138 89
136 134 90
138 136 91
144 142 96
140 138 93
139 138 92
142 141 95
136 135 91
153 149 99
149 147 98
147 144 98
146 144 97
152 149 101
150 148 100
146 145 97
147 146 100
152 150 100
161 158 106
144 143 96
146 144 96
153 151 102
160 156 104
153 151 102
150 148 101
148 147 100
163 160 106
163 160 107
158 156 105
155 153 103
155 153 103
158 155 105
159 157 106
162 159 106
162 160 108
161 159 107
162 159 105
168 165 110
168 164 109
165 162 108
164 161 108
169 165 111
167 163 109
169 166 110
174 170 111
168 164 109
171 167 109
170 165 110
172 168 111
173 169 111
173 168 110
174 169 112
171 167 110
170 166 110
166 163 107
173 169 111
172 168 110
174 170 111
170 167 110
169 166 109
169 165 108
169 165 107
173 169 111
172 167 107
175 170 112
173 168 110
170 166 109
170 166 108
172 169 110
172 168 109
173 168 109
173 168 109
172 167 108
174 169 108
173 169 110
172 168 110
174 170 110
175 170 112
175 169 110
169 164 108
174 169 110
171 167 108
171 166 108
172 167 108
175 170 108
171 166 106
171 166 106
167 163 106
170 166 107
175 170 109
170 164 103
169 165 106
168 163 105
168 164 105
167 163 105
168 164 105
167 162 104
170 165 104
167 162 104
170 166 108
168 163 103
163 158 95
172 167 104
165 160 99
157 153 94
169 163 99
164 160 96
164 158 99
165 160 101
159 153 97
158 154 93
164 158 97
169 162 99
155 149 93
156 151 90
156 150 84
156 150 90
152 147 86
158 152 85
159 153 90
155 148 84
144 139 79
149 143 79
152 145 87
153 147 84
154 148 87
151 144 79
146 140 80
145 138 80
149 142 78
141 135 69
136 131 64
127 122 64
146 156 45
174 197 0
174 197 0
174 197 0
174 197 0
173 197 0
173 197 0
173 197 0
174 197 0
174 197 0
174 198 0
174 197 0
171 195 0
174 197 0
173 197 0
172 196 0
170 193 0
173 197 0
174 197 0
173 197 0
174 198 0
172 196 0
173 196 0
172 196 0
173 196 0
174 198 0
172 195 0
176 198 0
175 198 0
172 196 0
175 198 0
172 196 0
175 198 0
175 198 0
171 195 0
172 196 0
174 198 0
170 193 0
175 198 0
174 196 0
174 197 0
173 196 0
171 195 0
175 198 0
173 197 0
170 194 0
175 198 0
172 196 0
173 196 0
175 198 0
174 197 0
172 195 0
173 197 0
171 195 0
172 196 0
173 197 0
171 195 0
174 198 0
169 193 0
173 197 0
169 193 0
173 196 0
173 196 0
172 195 0
173 196 0
173 197 0
172 196 0
172 195 0
172 195 0
174 197 0
171 195 0
173 196 0
173 197 0
175 198 0
172 195 0
173 197 0
173 196 0
172 196 0
173 197 0
171 195 0
171 194 0
175 198 0
172 196 0
174 197 0
172 195 0
169 192 0
175 198 0
172 196 0
170 193 0
173 195 0
171 195 0
173 197 0
173 196 0
172 196 0
173 197 0
170 194 0
174 197 0
175 198 0
171 194 0
173 196 0
171 195 0
171 194 0
172 196 0
172 195 0
171 194 0
172 195 0
173 197 0
171 195 0
172 195 0
172 195 0
173 196 0
175 198 0
171 195 0
172 196 0
173 195 0
173 197 0
170 194 0
174 197 0
172 196 0
172 195 0
172 194 0
173 196 0
170 193 0
174 197 0
174 197 0
174 197 0
174 197 0
163 187 62
87 118 161
61 98 175
62 99 179
62 99 178
62 99 180
62 99 179
62 99 178
62 99 177
61 98 178
61 98 176
63 100 180
62 99 179
62 99 180
62 99 180
62 99 181
62 99 179
62 99 180
62 99 180
61 99 181
62 99 181
61 99 180
62 99 181
62 99 181
62 99 181
62 99 181
61 99 180
62 99 179
62 99 181
62 99 181
61 99 181
62 99 181
61 99 181
62 99 181
61 98 180
62 99 180
61 99 181
62 99 181
61 99 181
61 99 181
62 99 181
61 99 181
61 99 181
61 98 181
61 99 181
61 98 181
62 99 181
61 99 180
61 99 181
62 99 181
61 98 181
61 98 181
62 99 181
61 98 181
61 99 181
62 99 181
61 99 181
62 99 181
61 99 181
61 99 181
62 99 181
62 99 181
61 99 181
61 99 181
61 98 181
61 99 181
62 99 181
61 99 181
61 99 181
61 99 181
61 98 181
62 99 181
62 99 181
62 99 181
62 99 181
61 98 180
62 99 181
61 98 180
62 99 181
62 99 181
62 99 181
62 99 180
62 99 180
62 99 180
62 99 180
61 98 179
62 99 180
61 98 181
61 99 180
61 98 180
62 98 178
61 98 178
61 98 179
61 98 176
61 98 178
62 99 178
61 98 178
61 99 179
62 99 177
61 98 177
62 98 176
62 98 178
62 99 179
62 99 180
61 97 176
62 98 176
62 98 174
61 97 174
62 98 178
61 97 173
61 96 169
134 159 112
171 194 0
173 196 0
171 194 0
173 195 0
173 196 0
159 174 34
129 124 60
131 126 59
136 131 67
143 138 76
140 134 71
145 139 72
139 133 75
144 139 81
140 135 73
129 125 74
150 146 90
137 133 78
137 133 80
146 142 89
133 129 78
134 132 81
141 137 85
144 140 87
146 142 92
133 131 85
130 127 81
133 131 84
136 135 90
138 136 90
134 132 88
135 134 90
140 139 94
142 140 95
138 135 90
127 127 86
149 146 99
139 137 91
139 139 95
158 155 104
148 145 98
149 147 99
142 141 96
149 147 100
138 137 95
147 145 99
150 148 100
152 151 103
149 147 100
154 151 103
157 154 103
157 154 104
154 153 103
150 148 101
149 148 101
154 152 101
158 155 104
159 156 104
157 155 104
162 158 106
158 155 104
161 159 106
164 161 108
169 166 111
161 158 105
165 162 107
167 163 108
169 166 110
167 163 108
168 165 109
161 159 105
168 165 109
166 163 108
165 162 106
165 163 108
164 162 108
165 163 108
171 168 111
170 167 110
173 169 111
169 166 110
168 165 107
173 169 109
177 172 112
170 167 109
173 170 113
168 165 109
174 170 109
175 171 112
173 169 110
173 169 110
173 169 111
173 169 112
175 171 112
176 170 111
174 169 110
173 170 111
174 170 112
169 166 108
174 170 109
176 170 110
175 170 112
177 172 112
172 167 108
171 167 108
172 168 109
175 169 111
177 172 110
169 165 106
172 168 110
173 168 109
171 166 106
169 165 104
173 168 108
171 166 108
170 166 107
172 167 106
170 164 105
171 165 104
165 160 101
171 166 105
167 162 101
171 166 106
170 165 103
165 160 101
171 165 105
167 161 103
168 162 102
162 158 99
167 161 99
168 162 103
164 159 102
164 159 97
160 156 97
166 161 99
155 151 91
165 159 101
166 161 100
163 158 99
162 156 97
163 157 97
159 154 91
153 148 87
165 159 93
160 152 87
151 145 87
155 148 91
157 152 94
155 150 84
148 142 82
150 144 84
160 153 87
147 140 75
150 144 81
140 135 73
151 145 81
150 143 78
146 140 76
151 145 80
136 131 70
134 127 69
132 135 48
173 197 0
171 194 0
172 197 0
175 198 0
172 196 0
172 194 0
174 197 0
173 196 0
173 197 0
172 196 0
174 198 0
174 197 0
172 196 0
172 195 0
174 197 0
172 195 0
173 196 0
172 196 0
172 196 0
173 196 0
173 196 0
174 197 0
174 197 0
173 196 0
173 197 0
173 197 0
172 196 0
174 197 0
172 195 0
173 196 0
174 197 0
170 194 0
175 198 0
174 198 0
174 197 0
171 196 0
174 197 0
170 193 0
175 198 0
173 197 0
172 196 0
175 198 0
173 197 0
173 196 0
174 198 0
173 196 0
171 194 0
174 197 0
172 196 0
173 197 0
172 196 0
174 197 0
173 196 0
173 196 0
173 196 0
173 196 0
172 196 0
171 195 0
174 197 0
173 196 0
173 196 0
173 197 0
171 195 0
172 196 0
174 198 0
173 197 0
175 198 0
173 197 0
174 196 0
174 198 0
174 197 0
172 196 0
172 195 0
171 194 0
173 197 0
174 197 0
174 198 0
172 195 0
174 198 0
174 198 0
172 195 0
171 193 0
171 194 0
173 197 0
172 194 0
173 197 0
175 198 0
171 195 0
173 196 0
174 197 0
172 196 0
174 197 0
171 194 0
170 193 0
173 196 0
174 197 0
173 197 0
173 197 0
175 198 0
171 194 0
172 195 0
173 196 0
173 196 0
174 197 0
172 195 0
172 194 0
170 193 0
172 195 0
171 195 0
172 194 0
173 195 0
171 195 0
171 194 0
172 196 0
172 195 0
171 194 0
171 195 0
169 193 0
172 194 0
173 197 0
173 196 0
171 195 0
172 195 0
173 195 0
172 195 0
155 178 84
78 111 167
62 99 176
62 99 175
62 99 176
61 98 172
62 99 180
61 98 173
62 99 179
62 99 177
61 99 178
62 99 180
62 99 178
61 98 175
62 99 179
62 99 180
61 99 180
61 99 181
62 99 181
62 99 180
62 99 180
62 99 178
61 99 181
62 99 181
62 99 180
61 99 180
61 99 181
62 99 181
62 99 181
62 99 180
62 99 181
62 99 181
61 99 181
62 99 181
62 99 181
61 99 180
61 98 181
61 99 181
62 99 181
62 99 181
61 99 181
61 99 181
62 99 181
61 99 181
62 99 181
62 99 181
62 99 181
61 99 181
62 99 181
61 98 181
62 99 181
62 99 181
62 99 181
62 99 181
62 99 181
61 98 181
61 99 181
61 99 181
62 99 181
61 99 181
61 99 181
62 99 180
61 98 181
62 99 181
61 99 181
62 99 181
61 99 181
61 99 181
61 98 181
62 99 181
61 99 181
61 98 180
62 99 181
62 99 181
61 98 181
62 99 181
62 99 181
61 99 181
61 99 181
61 99 181
62 99 181
62 99 181
62 99 181
61 99 180
62 99 181
62 99 181
61 99 179
63 100 181
62 99 181
61 98 176
62 99 180
62 99 178
61 98 180
62 99 176
62 98 179
61 98 177
62 99 180
61 98 177
61 98 179
62 99 178
62 99 177
61 98 177
62 99 179
61 97 175
62 99 178
62 99 179
61 98 177
62 99 178
61 97 172
61 97 172
61 96 172
62 98 175
61 97 172
122 147 130
169 193 18
171 193 0
169 193 0
171 193 0
154 164 51
129 123 57
130 124 63
128 124 60
137 133 70
133 129 72
140 135 77
142 137 77
130 126 74
127 123 70
130 126 76
131 128 76
133 129 80
139 135 83
140 136 86
136 132 82
142 138 86
139 135 85
142 139 92
132 129 84
140 136 85
134 132 84
131 129 83
139 136 90
135 133 87
137 135 87
143 141 95
145 143 95
133 132 90
141 139 93
135 135 92
146 144 95
140 138 94
137 136 92
135 134 94
153 151 102
146 144 97
145 143 98
149 146 98
147 145 98
145 143 98
152 150 101
147 146 100
149 149 101
149 148 101
153 151 101
150 149 101
149 148 100
158 155 104
158 156 105
155 153 103
161 158 105
155 154 104
158 156 105
161 159 107
164 161 107
165 163 110
156 154 104
157 155 104
165 162 107
160 157 104
168 164 109
168 165 110
166 163 109
164 161 107
161 158 106
160 157 105
165 162 106
170 166 110
173 169 110
169 165 109
170 167 111
165 162 108
170 166 110
168 165 110
172 168 110
170 166 108
168 165 108
173 170 111
173 169 108
169 167 108
171 166 108
171 168 111
175 170 112
172 168 109
175 170 112
171 167 110
173 168 109
176 171 112
173 169 111
176 171 111
173 169 108
176 171 110
171 167 107
174 170 109
172 167 108
172 167 109
177 171 109
174 170 110
174 169 109
169 166 108
172 168 109
175 170 109
175 170 108
171 167 108
173 169 109
171 167 109
171 167 106
171 166 107
165 161 102
169 165 106
169 165 102
171 166 108
168 163 104
173 168 105
171 166 106
166 162 102
172 166 104
169 164 105
168 163 104
168 161 99
167 163 103
170 165 104
167 161 101
169 164 97
168 163 99
157 151 93
171 166 103
169 164 102
164 158 99
168 162 97
159 154 93
162 157 96
162 156 98
164 158 95
161 155 94
161 156 93
157 151 87
165 159 97
156 151 88
151 146 90
155 149 87
153 147 83
149 142 81
150 145 74
149 144 84
162 156 87
147 142 79
147 142 79
152 145 75
147 142 80
140 135 71
142 137 74
133 128 65
139 133 73
133 127 66
131 127 65
173 195 11
172 195 0
174 197 0
173 197 0
175 198 0
173 195 0
174 197 0
173 197 0
171 195 0
172 196 0
176 198 0
176 198 0
170 195 0
172 196 0
174 197 0
175 198 0
173 196 0
170 195 0
173 197 0
173 196 0
173 196 0
174 197 0
171 195 0
172 196 0
173 196 0
175 198 0
172 195 0
173 197 0
175 198 0
172 195 0
174 198 0
174 197 0
173 197 0
172 195 0
173 196 0
174 197 0
173 197 0
174 197 0
173 197 0
173 196 0
172 196 0
173 196 0
173 196 0
173 197 0
174 198 0
174 197 0
172 195 0
174 198 0
174 197 0
174 197 0
172 196 0
175 197 0
173 196 0
172 196 0
173 197 0
174 197 0
173 196 0
173 197 0
175 198 0
172 196 0
172 196 0
173 197 0
174 197 0
173 197 0
174 197 0
173 196 0
173 197 0
173 197 0
173 196 0
172 195 0
172 195 0
174 197 0
174 197 0
175 197 0
172 195 0
170 193 0
170 194 0
171 194 0
172 196 0
172 196 0
172 196 0
173 197 0
175 198 0
171 195 0
173 196 0
172 195 0
173 196 0
173 197 0
173 196 0
173 196 0
173 196 0
170 194 0
172 195 0
173 197 0
171 194 0
172 194 0
173 196 0
173 197 0
171 196 0
172 196 0
171 194 0
172 196 0
171 195 0
173 196 0
169 193 0
172 195 0
169 193 0
171 194 0
173 195 0
170 192 0
173 196 0
173 197 0
174 198 0
174 197 0
172 195 0
172 196 0
174 197 0
173 196 0
172 195 0
171 194 0
171 195 0
172 196 0
170 193 0
169 193 0
134 159 121
62 99 173
61 98 174
62 99 175
62 99 178
62 99 178
62 99 178
62 99 179
61 98 177
62 99 176
61 98 177
62 99 177
62 99 177
61 99 181
62 99 181
62 99 180
62 99 180
62 99 177
62 99 179
61 99 180
62 99 181
62 99 181
61 99 181
62 99 181
62 99 181
61 99 179
62 99 180
62 99 181
62 99 181
62 99 181
61 99 181
62 99 181
61 98 181
62 99 181
62 99 181
62 99 181
61 99 181
61 98 180
62 99 181
61 99 181
61 98 181
61 99 181
61 99 180
61 99 181
62 99 181
62 99 181
61 98 181
62 99 181
61 99 181
62 99 181
61 99 181
62 99 181
62 99 181
62 99 181
61 99 181
62 99 181
61 99 181
62 99 181
61 98 181
62 99 181
62 99 180
62 99 181
62 99 181
62 99 181
62 99 180
61 99 181
61 99 181
62 99 180
62 99 181
62 99 181
62 99 180
62 99 180
61 99 181
61 98 180
62 99 181
62 99 181
62 99 179
62 99 181
62 99 180
61 99 181
62 99 181
62 99 180
62 99 180
62 99 180
62 99 181
62 99 181
62 99 181
62 99 179
62 99 180
62 99 179
61 99 180
62 99 180
62 99 180
61 99 179
62 99 181
62 99 180
63 99 180
61 98 175
61 98 178
62 99 179
62 98 177
62 99 179
62 99 179
62 98 177
62 99 181
62 98 179
61 98 176
61 98 176
61 98 175
62 98 174
61 97 172
62 99 178
60 95 168
60 96 172
61 97 169
86 114 152
162 187 47
172 196 0
172 194 0
135 135 54
135 130 61
130 125 61
130 125 63
130 126 66
136 131 68
129 125 68
143 137 79
133 128 74
132 128 77
132 128 78
130 127 77
139 135 82
138 136 82
124 122 74
143 139 83
139 135 85
143 140 90
142 138 90
128 126 82
130 128 81
144 142 94
138 136 90
132 130 86
138 136 92
134 132 88
139 137 91
140 138 92
139 137 93
144 142 95
134 133 91
141 140 96
134 133 91
145 143 95
140 139 95
139 138 94
142 141 96
139 138 94
133 133 92
147 145 99
154 152 103
142 141 95
158 156 104
148 146 99
147 145 100
155 153 102
154 152 101
157 154 104
158 155 103
155 154 105
160 156 105
158 155 104
151 150 103
161 158 106
156 155 104
151 149 100
160 158 105
163 160 107
161 158 106
161 158 106
160 158 107
167 163 109
159 157 106
164 160 105
164 162 108
169 165 108
168 164 108
163 160 106
166 163 109
165 162 106
165 162 106
168 165 108
168 165 108
168 164 110
173 169 111
169 167 110
173 169 110
175 170 112
174 169 109
173 169 112
174 170 109
175 170 110
173 170 112
171 167 107
170 167 110
171 167 108
173 169 110
171 167 110
171 167 109
173 169 110
175 171 110
177 172 111
174 169 109
174 169 110
178 172 110
177 171 109
169 164 105
174 169 111
174 169 108
174 169 109
174 169 109
173 169 106
175 169 106
168 164 103
171 166 104
170 166 106
174 169 107
173 168 106
169 164 107
174 169 105
170 166 103
171 165 104
170 165 106
164 160 100
170 166 108
170 164 102
168 163 102
172 165 104
165 161 100
169 164 104
169 164 104
165 160 96
170 165 103
166 162 101
166 161 101
166 160 99
168 163 101
158 153 90
169 164 101
166 162 101
162 156 91
168 162 101
165 160 97
167 161 99
161 155 92
161 156 95
154 148 85
157 152 86
164 158 93
162 155 91
156 149 88
155 150 89
161 154 90
148 143 80
156 150 84
155 148 84
152 145 82
151 146 79
144 138 77
143 137 75
138 133 78
145 140 79
145 139 74
140 135 71
138 132 74
133 127 68
113 109 54
164 180 28
173 196 0
174 196 0
171 195 0
174 196 0
172 195 0
173 196 0
173 196 0
172 195 0
175 198 0
174 197 0
173 197 0
174 197 0
171 195 0
176 198 0
174 197 0
173 196 0
173 197 0
174 197 0
173 195 0
174 198 0
173 197 0
174 197 0
174 197 0
174 198 0
175 198 0
172 196 0
173 197 0
171 195 0
174 197 0
173 197 0
171 194 0
173 197 0
170 194 0
171 195 0
172 196 0
172 196 0
175 198 0
173 196 0
175 198 0
173 196 0
173 196 0
173 196 0
171 194 0
172 195 0
173 196 0
173 196 0
175 198 0
174 198 0
173 196 0
172 196 0
174 197 0
174 197 0
173 196 0
173 196 0
172 196 0
173 196 0
173 196 0
172 196 0
171 194 0
174 197 0
168 192 0
173 197 0
171 195 0
171 195 0
173 196 0
172 195 0
173 196 0
173 196 0
171 195 0
174 197 0
173 197 0
173 196 0
172 195 0
172 195 0
172 195 0
173 196 0
172 196 0
173 197 0
173 197 0
174 196 0
173 197 0
172 195 0
173 196 0
171 194 0
172 196 0
173 196 0
172 195 0
173 196 0
173 196 0
174 197 0
174 197 0
174 197 0
173 196 0
171 196 0
173 196 0
174 197 0
171 195 0
171 195 0
172 195 0
171 194 0
175 198 0
171 196 0
174 198 0
172 195 0
174 197 0
171 194 0
172 195 0
173 195 0
172 196 0
173 195 0
172 195 0
173 197 0
172 195 0
171 195 0
169 194 0
175 197 0
172 197 0
171 194 0
173 195 0
171 194 0
172 195 0
170 192 0
110 137 140
62 99 174
62 98 172
62 98 173
62 99 175
63 99 178
62 99 178
62 99 176
62 99 178
62 99 179
61 98 176
62 99 175
62 99 178
62 99 178
62 99 181
62 99 178
62 99 180
62 99 179
61 99 180
61 99 180
61 98 178
62 99 180
62 99 180
62 99 180
62 99 179
62 99 181
62 99 180
62 99 180
62 99 180
61 99 181
61 99 180
62 99 180
62 99 181
61 99 181
61 99 181
62 99 181
62 99 181
62 99 181
61 99 181
62 99 181
62 99 181
61 98 181
62 99 181
62 99 181
61 99 181
62 99 181
62 99 181
62 99 181
61 99 181
62 99 181
62 99 181
62 99 181
62 99 181
62 99 181
62 99 181
61 99 181
62 99 181
62 99 181
62 99 181
61 98 181
61 99 181
61 99 181
62 99 181
61 99 181
61 98 181
62 99 181
61 99 181
62 99 181
62 99 179
62 99 181
61 99 180
61 98 180
61 99 181
62 99 181
61 99 180
62 99 180
62 99 181
61 98 180
62 99 181
61 99 180
61 98 181
62 99 180
62 99 181
61 99 180
62 99 181
62 99 181
61 98 179
61 99 180
62 99 180
61 99 181
61 98 176
60 98 180
62 99 179
62 99 179
62 98 176
62 99 180
62 99 178
61 99 180
62 99 176
61 98 176
62 99 179
62 99 176
62 99 181
62 99 178
61 98 175
62 99 181
62 99 175
61 98 175
62 99 178
61 97 172
62 99 180
61 97 173
60 96 172
61 97 174
61 96 170
61 97 174
62 97 173
78 109 161
153 175 82
166 186 11
121 115 51
130 125 58
133 128 62
136 131 69
138 133 71
132 127 61
141 136 74
135 132 74
135 130 81
137 133 78
129 128 74
141 138 78
129 126 77
136 133 84
133 129 79
131 129 83
139 136 87
126 124 78
133 130 84
132 130 86
131 129 84
139 136 88
142 140 90
137 135 89
130 129 84
138 137 91
125 126 87
134 134 90
138 137 92
138 136 92
135 135 92
134 132 89
134 133 91
139 138 96
144 142 96
143 142 98
143 141 94
146 143 96
140 140 96
151 148 100
152 149 101
141 139 93
146 145 99
142 142 99
154 151 103
153 151 101
157 155 104
146 145 97
158 155 104
154 153 105
147 147 99
157 155 103
160 157 105
153 150 101
161 158 104
156 155 105
160 157 102
164 160 106
162 159 105
169 165 108
158 156 105
161 158 104
172 168 112
163 160 108
164 161 106
167 164 109
167 164 110
165 162 107
168 165 110
169 164 109
167 165 110
171 167 110
170 166 110
166 164 107
169 165 108
172 168 110
171 168 112
172 168 111
171 167 110
170 168 110
175 170 112
172 168 110
173 168 110
174 169 111
177 172 110
173 169 109
173 169 108
171 168 110
177 171 111
175 171 110
174 169 108
175 171 112
174 169 111
175 171 111
173 169 112
174 170 110
175 170 109
172 169 111
173 169 109
175 169 109
172 168 109
174 170 108
171 167 108
172 167 109
173 169 109
172 168 109
170 165 104
175 170 108
168 164 101
174 169 108
167 163 104
172 167 106
169 165 105
175 170 110
165 162 102
169 164 104
168 164 103
169 164 104
164 160 102
171 166 107
171 166 106
166 159 100
163 157 95
170 164 101
167 162 99
167 161 100
162 157 97
158 154 93
163 157 97
163 158 97
161 155 95
163 157 93
168 161 97
166 160 99
155 150 93
159 153 94
168 162 95
163 159 97
162 157 91
153 147 89
160 154 91
154 149 84
163 156 95
161 154 89
153 148 84
159 153 88
157 150 85
149 143 79
147 141 80
156 149 84
147 140 80
136 129 69
146 139 73
139 133 69
131 125 63
138 132 72
139 134 62
159 172 45
172 194 0
170 193 0
173 195 0
173 196 0
174 197 0
174 197 0
173 196 0
173 197 0
174 197 0
174 197 0
174 197 0
173 196 0
177 199 0
174 197 0
174 198 0
173 195 0
173 195 0
173 196 0
170 195 0
173 196 0
174 197 0
174 197 0
173 196 0
174 197 0
174 197 0
172 196 0
172 195 0
171 195 0
173 196 0
175 198 0
175 198 0
173 197 0
173 196 0
173 196 0
172 196 0
174 198 0
173 197 0
173 197 0
174 197 0
174 197 0
171 194 0
172 195 0
176 199 0
175 198 0
175 198 0
172 196 0
175 198 0
174 197 0
173 196 0
174 197 0
174 197 0
172 195 0
173 196 0
173 196 0
173 196 0
174 197 0
174 196 0
174 197 0
172 195 0
173 196 0
174 198 0
173 197 0
174 198 0
175 198 0
171 195 0
172 195 0
173 197 0
171 195 0
173 197 0
171 194 0
172 195 0
174 197 0
169 193 0
172 196 0
172 195 0
172 196 0
172 196 0
173 196 0
173 195 0
172 196 0
172 196 0
174 197 0
172 196 0
171 195 0
173 197 0
174 196 0
174 197 0
174 197 0
172 196 0
174 197 0
171 195 0
173 196 0
172 196 0
174 197 0
173 196 0
173 196 0
174 197 0
174 197 0
173 196 0
172 195 0
172 195 0
171 194 0
172 195 0
171 195 0
174 197 0
172 195 0
173 197 0
173 197 0
172 196 0
173 196 0
173 196 0
170 192 0
171 193 0
166 190 0
172 196 0
174 197 0
172 196 0
173 196 0
170 192 0
171 195 0
168 192 31
112 140 143
62 99 175
62 99 174
62 99 178
62 99 176
62 99 175
62 99 173
61 98 177
62 99 177
62 99 178
62 99 175
62 99 179
61 99 180
62 99 179
62 99 180
61 98 179
61 99 180
62 99 179
61 99 178
62 99 178
62 99 181
62 99 180
62 99 180
62 99 180
62 99 179
61 99 179
62 99 180
62 99 180
62 99 181
62 99 181
62 99 180
62 99 181
62 99 180
62 99 181
62 99 180
61 99 181
62 99 181
61 99 181
61 99 181
62 99 181
62 99 181
62 99 181
62 99 181
61 98 180
61 99 181
62 99 181
61 99 181
61 98 181
61 98 181
61 99 181
62 99 181
62 99 181
61 99 181
61 99 180
61 99 181
62 99 181
62 99 181
62 99 181
62 99 180
61 99 181
62 99 181
61 99 181
62 99 181
62 99 181
62 99 181
62 99 181
61 99 181
62 99 179
61 98 181
61 99 181
62 99 181
62 99 181
62 99 180
61 99 181
61 99 181
61 99 181
61 98 179
61 99 181
62 99 180
62 99 181
62 99 181
61 99 181
62 99 181
62 99 180
61 99 180
62 99 179
62 99 180
61 98 181
62 99 180
62 99 180
62 99 181
62 99 181
62 99 179
62 99 178
62 99 180
61 98 180
62 99 179
62 99 179
62 99 178
62 99 180
61 98 177
61 98 178
62 99 179
62 98 178
62 98 176
61 98 175
61 98 175
63 100 177
62 99 178
61 98 176
62 99 176
60 96 173
61 97 172
61 98 175
62 98 175
61 97 174
62 98 172
61 97 171
61 96 170
69 102 167
133 151 84
124 118 56
131 125 60
125 121 63
136 131 69
128 123 70
138 133 74
126 122 73
115 113 65
127 123 70
143 139 78
137 132 78
137 134 78
142 138 83
138 135 85
129 128 78
128 126 82
122 121 76
124 122 80
128 126 85
131 129 84
135 133 86
126 125 85
129 127 83
133 131 85
125 124 83
136 134 90
124 124 82
130 129 89
141 140 95
134 133 92
135 133 90
135 135 91
137 136 95
135 134 92
127 127 89
140 139 96
136 136 94
140 140 97
143 142 97
146 144 98
145 144 99
151 149 101
137 137 96
155 152 101
146 145 101
149 147 99
152 149 101
158 155 104
143 142 98
147 146 100
156 154 103
153 152 103
157 154 102
158 155 104
161 158 105
155 154 103
162 160 106
161 157 104
160 157 104
160 158 105
168 165 108
162 160 103
166 163 108
159 157 104
160 158 106
159 157 104
166 163 107
163 161 106
166 161 105
168 164 108
171 167 110
165 163 107
168 164 106
165 162 106
170 165 110
171 167 108
173 169 110
172 168 110
175 170 110
175 171 113
176 171 111
173 168 110
173 168 108
174 169 109
174 170 111
173 169 108
167 164 108
173 168 110
172 167 106
175 171 110
175 170 109
175 170 108
178 172 110
175 170 111
172 168 107
173 169 107
173 168 105
173 169 108
175 171 111
174 170 110
173 169 109
173 169 109
175 170 110
172 167 105
174 170 109
171 166 106
172 167 106
172 167 107
173 169 109
175 170 108
170 165 101
174 169 108
168 164 103
172 167 107
175 170 108
168 164 103
170 165 102
174 168 106
170 165 102
167 162 102
170 164 106
171 165 104
168 163 104
167 163 103
170 164 99
163 158 99
162 156 95
165 159 99
168 163 100
163 159 97
166 160 98
165 160 98
162 157 98
166 159 95
162 156 89
165 159 99
162 156 96
158 152 87
158 151 86
164 158 93
158 152 89
160 154 90
157 152 87
149 143 80
158 152 95
144 139 77
152 146 87
159 151 86
148 143 79
149 143 75
153 146 75
147 141 71
133 128 61
148 142 77
138 132 70
125 120 68
132 127 66
142 149 44
174 197 0
172 195 0
172 197 0
174 196 0
170 193 0
173 195 0
174 197 0
173 197 0
174 198 0
172 196 0
172 196 0
173 197 0
173 196 0
176 198 0
175 198 0
173 196 0
172 196 0
174 196 0
172 195 0
175 198 0
171 195 0
174 198 0
174 197 0
172 196 0
172 196 0
172 195 0
171 194 0
172 196 0
174 197 0
172 195 0
172 195 0
173 197 0
173 196 0
173 197 0
172 196 0
174 197 0
175 198 0
172 196 0
173 197 0
174 197 0
173 196 0
173 197 0
173 197 0
172 196 0
173 197 0
172 195 0
174 198 0
173 196 0
169 193 0
173 196 0
172 196 0
174 197 0
173 196 0
173 197 0
175 197 0
174 197 0
173 195 0
174 198 0
173 196 0
171 195 0
170 194 0
174 197 0
172 196 0
174 197 0
173 195 0
171 194 0
172 195 0
171 195 0
174 197 0
174 197 0
173 197 0
171 194 0
171 194 0
173 196 0
171 195 0
170 194 0
176 198 0
172 196 0
175 198 0
174 197 0
173 196 0
170 195 0
171 195 0
175 198 0
171 195 0
174 197 0
170 194 0
172 194 0
173 196 0
172 195 0
172 195 0
174 197 0
170 194 0
174 197 0
173 197 0
170 193 0
172 195 0
172 195 0
169 192 0
171 194 0
171 195 0
171 195 0
172 196 0
171 196 0
172 196 0
173 195 0
171 194 0
171 194 0
174 197 0
174 197 0
168 190 0
173 196 0
171 195 0
172 196 0
173 195 0
171 195 0
170 194 0
172 195 0
172 196 0
162 186 54
91 121 155
63 100 173
61 98 173
62 99 175
63 100 179
61 98 175
62 99 178
62 99 175
62 99 178
62 99 178
62 99 179
62 99 178
63 100 179
62 99 180
62 99 180
62 99 181
62 99 179
61 99 179
62 99 179
62 99 181
62 99 180
61 99 180
62 99 181
62 99 180
61 99 179
61 99 179
62 99 181
62 99 181
62 99 179
61 99 180
62 99 181
62 99 181
61 99 181
62 99 180
61 99 181
62 99 181
62 99 181
62 99 181
61 98 180
61 99 181
62 99 180
62 99 181
61 99 181
62 99 181
61 99 181
62 99 181
61 99 181
61 98 181
61 98 181
61 99 181
61 98 181
62 99 181
62 99 181
61 99 181
61 98 181
62 99 181
61 99 181
61 99 181
61 99 180
61 99 180
62 99 181
61 99 181
61 99 181
62 99 180
62 99 181
62 99 181
62 99 181
62 99 180
62 99 181
62 99 179
61 99 181
62 99 181
62 99 180
62 99 181
61 98 181
61 99 181
61 99 181
62 99 180
62 99 181
62 99 180
62 99 180
62 99 180
62 99 181
62 99 180
61 98 180
62 99 181
62 99 181
62 99 179
62 99 181
62 99 180
61 98 179
62 99 179
62 99 180
61 98 180
61 98 179
62 99 180
62 99 178
62 99 179
62 99 179
62 99 177
61 98 180
62 99 179
62 99 181
61 98 173
62 98 177
62 99 177
62 99 179
62 99 178
62 99 178
61 97 174
62 98 176
62 99 177
60 96 168
61 98 174
61 98 175
62 98 176
62 98 174
61 97 173
61 97 172
61 98 176
60 95 167
65 98 170
120 122 108
129 124 60
134 129 59
134 129 63
131 126 65
140 135 77
136 132 73
132 127 73
127 122 72
124 121 72
135 131 78
121 118 74
140 135 87
134 131 83
126 124 81
118 117 71
128 126 81
131 129 83
128 127 84
125 123 81
122 120 78
133 131 83
132 131 88
128 128 84
116 118 83
139 137 92
130 130 87
126 126 85
139 137 92
133 133 91
126 126 85
137 135 93
140 138 94
144 143 99
132 130 89
146 144 97
134 133 92
147 145 99
149 146 98
138 137 95
140 139 95
141 140 96
146 144 99
140 140 97
143 142 96
144 141 96
148 146 100
149 147 100
146 145 97
152 150 101
159 157 103
155 153 104
159 157 104
160 157 104
155 152 103
157 155 104
155 153 104
158 155 104
164 161 108
157 155 105
161 158 105
160 158 107
165 162 108
163 161 108
167 163 108
164 161 105
165 163 107
169 165 108
168 165 109
166 162 107
167 164 107
169 165 107
172 169 111
169 166 109
169 166 109
168 165 107
175 170 108
170 167 109
172 168 108
172 168 111
176 170 112
171 166 109
176 171 111
176 171 111
176 171 112
172 168 106
176 171 110
175 170 109
172 168 108
172 168 111
173 168 109
175 170 108
175 171 111
176 171 110
172 167 106
175 169 108
175 170 109
175 170 106
172 167 107
174 170 109
174 169 109
172 169 108
175 169 108
172 167 104
172 167 104
172 168 108
170 165 107
173 168 107
168 163 104
169 164 105
175 169 109
170 165 103
169 164 103
175 169 106
172 166 105
170 165 104
170 165 101
165 161 102
172 167 101
165 159 99
172 165 101
169 163 99
168 163 99
169 164 102
165 159 97
169 164 100
168 162 101
169 162 102
164 158 95
163 157 97
153 148 90
168 162 97
163 156 90
162 157 95
159 153 90
164 158 97
163 157 94
155 149 88
162 157 95
162 156 90
158 152 90
158 151 87
148 142 81
155 149 81
147 141 80
155 148 86
145 140 79
150 145 84
156 149 84
143 137 80
143 138 72
135 131 62
150 145 76
148 142 73
133 127 67
147 140 78
134 128 65
131 132 54
175 198 0
172 195 0
173 196 0
173 197 0
175 198 0
173 196 0
173 196 0
173 197 0
171 194 0
173 196 0
173 196 0
174 197 0
173 196 0
172 195 0
174 197 0
173 196 0
174 197 0
171 195 0
173 197 0
173 197 0
171 195 0
172 195 0
172 196 0
173 196 0
173 196 0
173 197 0
173 197 0
173 197 0
174 197 0
175 197 0
172 196 0
171 196 0
176 199 0
173 196 0
172 196 0
172 196 0
175 198 0
172 195 0
172 195 0
174 197 0
173 197 0
173 195 0
170 194 0
175 198 0
172 196 0
174 197 0
171 194 0
173 196 0
173 196 0
174 197 0
174 197 0
173 196 0
173 197 0
172 195 0
174 197 0
172 196 0
173 197 0
174 197 0
173 197 0
171 196 0
172 195 0
174 197 0
172 196 0
172 195 0
173 197 0
173 197 0
170 194 0
172 196 0
174 197 0
173 196 0
176 198 0
172 195 0
172 195 0
173 196 0
172 196 0
174 197 0
168 192 0
171 194 0
173 197 0
172 196 0
173 196 0
171 194 0
174 197 0
173 196 0
172 196 0
172 196 0
172 196 0
173 196 0
173 196 0
170 194 0
172 196 0
170 194 0
171 194 0
173 196 0
172 196 0
170 193 0
173 197 0
172 195 0
172 196 0
172 195 0
173 196 0
171 194 0
173 197 0
170 194 0
174 197 0
171 194 0
175 197 0
172 195 0
173 197 0
172 196 0
171 195 0
172 195 0
174 197 0
172 196 0
171 195 0
169 192 0
168 191 0
172 195 0
171 193 47
90 120 157
62 99 173
62 99 175
62 98 173
61 98 175
62 99 177
62 99 178
62 99 177
61 98 175
61 99 177
62 99 178
62 99 180
62 99 180
62 99 177
61 98 175
62 99 180
62 99 178
62 99 181
62 99 180
62 99 181
62 99 180
62 99 180
61 99 180
62 99 181
62 99 178
62 99 178
62 99 180
62 99 181
62 99 181
62 99 180
62 99 180
61 99 181
62 99 181
62 99 181
62 99 181
62 99 181
62 99 180
61 98 181
62 99 181
62 99 181
62 99 181
62 99 181
62 99 181
61 98 180
61 99 181
61 99 181
62 99 181
62 99 181
62 99 180
62 99 181
62 99 181
62 99 181
62 99 181
62 99 181
62 99 181
62 99 181
61 99 181
62 99 181
62 99 181
61 99 181
62 99 181
62 99 181
62 99 181
61 99 181
61 99 180
61 98 181
62 99 181
62 99 181
62 99 181
62 99 181
62 99 181
61 99 181
61 99 180
62 99 181
61 99 180
62 99 180
62 99 180
62 99 181
61 98 181
61 99 180
62 99 181
61 98 180
61 99 180
62 99 179
62 99 181
62 99 181
62 99 181
62 99 180
61 99 180
62 99 180
62 99 180
62 99 181
62 99 180
61 98 181
62 99 180
62 99 179
61 98 180
61 98 177
62 99 178
62 99 180
62 99 179
62 99 179
61 98 174
62 98 176
61 98 173
62 99 179
61 98 176
62 99 177
61 98 178
63 100 180
61 98 177
61 98 176
62 99 178
62 98 177
61 97 175
61 98 177
62 99 178
61 97 177
62 99 177
61 97 173
61 97 174
60 96 170
61 97 171
65 99 169
111 117 117
134 129 71
129 126 57
136 131 74
121 118 63
132 128 75
136 132 77
138 133 79
128 126 69
141 137 79
132 127 74
125 123 76
146 141 87
116 116 74
129 126 79
123 120 77
122 121 75
130 128 81
125 125 81
111 112 75
115 115 78
125 125 85
125 124 85
113 113 77
123 123 87
133 132 89
121 121 84
133 131 88
128 128 89
129 128 88
122 123 84
134 133 90
136 135 93
131 132 91
135 135 94
147 145 99
154 151 102
143 143 97
138 138 96
144 142 96
141 140 97
152 151 102
152 149 99
152 150 101
160 158 106
154 151 101
147 147 102
150 148 101
156 154 105
149 148 98
157 155 104
145 145 98
157 155 104
162 159 104
157 155 104
157 154 102
158 156 103
163 160 106
161 158 104
159 156 102
164 161 107
164 161 107
162 160 107
163 161 107
163 161 106
165 162 107
170 165 108
168 164 108
171 166 108
167 164 105
168 164 107
172 167 109
168 165 107
168 164 106
172 168 110
169 165 107
168 164 104
175 169 109
173 168 110
171 167 107
170 165 106
173 169 108
168 166 108
172 168 108
178 173 112
171 167 108
172 168 109
172 168 108
171 167 105
174 169 109
175 170 108
175 170 110
174 169 106
178 172 110
173 169 109
173 169 108
173 169 108
173 168 107
176 171 109
174 169 110
170 165 104
172 168 106
171 166 104
174 168 107
174 169 105
174 169 107
169 164 102
174 169 105
173 167 102
175 168 105
171 165 102
176 170 107
169 165 101
167 163 101
169 164 102
173 167 103
173 168 104
168 163 100
171 166 103
170 165 103
171 165 101
169 164 102
168 161 101
166 161 96
165 160 97
160 155 97
163 157 95
165 159 97
165 159 99
166 161 95
163 157 90
167 162 97
163 157 93
164 158 95
159 153 93
161 155 90
152 146 86
167 161 97
158 152 87
160 154 92
151 145 85
160 154 95
153 147 87
156 150 86
153 147 83
151 146 79
152 145 83
147 142 78
146 140 77
151 145 83
132 128 69
152 146 79
138 132 68
141 135 66
145 139 69
142 136 69
125 121 58
168 190 11
175 197 0
172 196 0
173 196 0
173 195 0
176 198 0
170 193 0
174 198 0
173 196 0
175 198 0
174 198 0
173 196 0
173 197 0
174 198 0
173 196 0
172 196 0
173 196 0
175 198 0
172 196 0
172 196 0
174 197 0
173 197 0
172 195 0
174 197 0
173 197 0
174 197 0
172 196 0
171 195 0
174 198 0
175 198 0
172 196 0
173 197 0
174 198 0
171 196 0
173 196 0
175 198 0
174 197 0
173 197 0
173 197 0
172 196 0
174 197 0
173 196 0
174 197 0
174 197 0
174 197 0
172 196 0
171 194 0
169 193 0
172 195 0
171 194 0
174 197 0
175 197 0
172 195 0
172 196 0
172 195 0
173 197 0
172 196 0
174 197 0
171 195 0
171 195 0
173 196 0
171 195 0
174 197 0
171 194 0
172 195 0
174 197 0
173 195 0
174 197 0
176 198 0
170 193 0
173 197 0
173 196 0
171 195 0
170 193 0
172 196 0
172 195 0
171 195 0
174 196 0
174 197 0
172 196 0
172 195 0
172 196 0
172 196 0
172 196 0
171 195 0
171 195 0
171 194 0
173 196 0
171 193 0
172 194 0
172 195 0
172 196 0
172 195 0
168 192 0
172 196 0
170 194 0
170 195 0
168 192 0
169 192 0
173 196 0
170 194 0
169 192 0
171 195 0
173 196 0
172 194 0
173 196 0
170 193 0
175 198 0
169 193 0
173 197 0
173 197 0
171 193 0
172 195 0
172 195 0
169 193 0
173 196 0
174 197 0
166 189 47
80 112 154
62 99 174
62 99 176
61 98 172
62 99 178
61 98 172
62 99 179
62 99 175
62 99 176
61 99 177
62 99 176
62 99 177
62 99 180
62 99 179
62 99 178
62 99 179
62 99 179
63 100 181
62 99 178
62 99 181
61 99 181
61 98 180
62 99 180
62 99 180
62 99 181
62 99 181
62 99 178
62 99 181
62 99 181
62 99 181
62 99 180
62 99 181
61 99 181
62 99 180
62 99 181
62 99 181
62 99 180
62 99 181
61 99 181
62 99 181
61 99 181
61 99 181
62 99 181
62 99 181
62 99 181
62 99 181
61 98 180
62 99 181
61 98 181
62 99 181
62 99 181
62 99 181
61 98 181
62 99 181
62 99 181
62 99 181
62 99 181
61 99 181
62 99 181
61 99 180
62 99 181
62 99 180
62 99 180
61 99 180
62 99 180
61 99 180
61 99 181
61 99 181
61 99 181
62 99 181
61 98 181
61 99 181
62 99 180
62 99 181
62 99 181
61 98 181
61 99 180
61 99 181
62 99 180
62 99 180
61 98 180
62 99 178
61 99 181
62 99 177
62 99 181
62 99 181
62 99 181
61 99 181
62 99 181
62 99 181
62 99 181
61 99 179
62 99 180
62 99 180
63 99 179
62 99 180
63 100 181
61 98 177
62 99 180
62 99 177
61 99 179
62 99 180
62 98 177
61 98 178
62 99 179
63 100 180
62 99 179
61 98 176
62 99 178
62 99 178
62 98 175
61 98 174
62 99 174
62 98 175
63 99 179
62 99 176
62 98 175
62 98 174
61 97 173
62 98 175
61 97 173
61 97 170
61 97 173
60 96 169
60 96 170
60 95 169
115 122 123
135 129 73
134 130 71
134 130 72
138 134 76
117 114 68
140 136 79
118 117 65
121 117 70
123 120 75
132 130 75
124 122 79
131 128 83
136 133 80
119 118 75
131 129 86
128 125 82
126 124 81
122 121 80
134 132 89
123 122 80
124 125 86
115 116 80
138 135 91
130 129 88
138 136 91
120 120 83
121 120 80
129 128 88
148 146 98
138 137 94
135 134 93
137 137 93
135 135 94
140 139 94
140 138 94
149 147 99
139 139 97
147 145 98
149 147 98
140 139 94
148 147 100
146 144 98
146 144 99
147 146 99
145 145 100
147 145 99
156 153 103
151 149 99
151 148 98
150 148 102
159 156 105
157 155 105
158 156 104
160 158 107
159 157 104
159 157 106
166 162 107
161 158 105
165 162 106
167 163 108
163 161 107
164 160 105
166 163 107
167 163 106
168 164 108
165 162 107
169 164 106
168 164 106
166 163 103
174 169 110
171 167 108
171 167 107
171 167 108
170 167 111
174 170 111
174 170 107
172 168 107
175 170 109
175 170 109
173 169 109
170 167 109
172 167 106
170 166 108
176 171 108
174 169 109
176 171 111
176 171 111
178 172 108
178 172 111
177 171 110
172 168 107
176 171 111
176 171 110
176 171 110
172 168 105
175 170 109
176 170 106
176 171 110
175 170 109
174 169 104
173 169 106
171 167 103
172 167 106
171 166 104
172 166 104
173 168 107
174 170 108
172 167 106
171 165 103
170 165 104
174 170 107
173 167 106
169 164 101
170 165 106
167 162 101
169 164 101
169 163 101
167 163 102
169 164 99
170 164 99
167 161 103
169 163 100
166 160 99
165 160 96
168 163 95
160 156 95
164 158 96
165 158 93
166 160 99
155 151 87
163 157 95
166 160 95
163 157 95
164 158 95
169 162 99
159 153 90
156 150 89
154 148 88
151 145 86
151 146 83
155 148 84
156 150 85
156 150 86
154 148 89
154 149 82
143 137 74
152 146 72
145 139 77
142 136 73
137 132 69
142 136 75
136 131 61
130 124 66
140 135 69
145 138 76
166 185 30
175 198 0
172 196 0
173 197 0
173 195 0
172 197 0
172 196 0
172 196 0
175 197 0
174 197 0
174 197 0
173 196 0
172 195 0
175 198 0
174 197 0
173 196 0
175 198 0
172 195 0
173 197 0
175 198 0
172 196 0
172 195 0
172 196 0
172 196 0
171 195 0
171 195 0
173 196 0
174 198 0
171 195 0
171 196 0
174 197 0
174 197 0
170 194 0
172 196 0
173 196 0
172 195 0
175 197 0
173 197 0
172 196 0
175 197 0
173 197 0
172 196 0
170 193 0
172 196 0
172 196 0
170 194 0
171 195 0
173 197 0
174 196 0
176 199 0
176 198 0
175 197 0
173 196 0
172 196 0
173 197 0
173 197 0
173 197 0
174 197 0
171 195 0
173 197 0
172 195 0
172 195 0
174 197 0
170 194 0
173 197 0
171 195 0
174 197 0
173 195 0
173 197 0
174 197 0
174 197 0
170 194 0
172 195 0
172 196 0
173 196 0
174 197 0
172 195 0
175 198 0
171 196 0
171 195 0
171 195 0
171 195 0
175 197 0
173 196 0
172 197 0
174 197 0
173 197 0
171 195 0
174 197 0
173 196 0
171 195 0
174 197 0
171 195 0
171 194 0
174 198 0
173 197 0
172 196 0
173 196 0
173 197 0
172 195 0
170 193 0
173 196 0
171 194 0
173 196 0
172 195 0
171 194 0
173 196 0
175 198 0
172 196 0
174 196 0
172 195 0
173 195 0
173 197 0
172 195 0
171 194 0
171 194 0
166 190 51
88 118 160
62 99 174
62 99 175
62 99 176
62 99 175
62 99 174
62 98 170
62 99 177
62 99 179
62 99 175
62 99 174
62 99 179
62 99 177
62 99 177
62 99 180
62 99 176
63 99 180
62 99 176
61 98 178
61 99 181
62 99 181
62 99 179
62 99 181
62 99 181
62 99 181
62 99 181
62 99 180
62 99 181
62 99 180
62 99 179
62 99 181
63 100 180
62 99 180
61 99 181
62 99 180
61 98 180
62 99 180
62 99 181
61 98 180
62 99 181
62 99 181
62 99 181
62 99 180
62 99 181
61 99 181
62 99 181
61 98 180
62 99 181
61 98 181
61 99 181
62 99 181
62 99 181
62 99 181
62 99 181
61 99 181
61 98 180
61 98 180
61 99 181
62 99 181
62 99 181
62 99 180
61 99 181
62 99 181
61 99 180
61 99 180
61 99 181
62 99 181
62 99 180
62 99 181
62 99 181
62 99 181
62 99 180
62 99 181
61 98 180
62 99 181
62 99 181
61 99 179
62 99 181
61 99 181
61 99 180
62 99 181
62 99 181
62 99 181
62 99 180
62 99 181
62 99 180
62 99 180
62 99 178
62 99 180
62 99 178
61 98 181
62 99 180
62 99 181
62 99 180
62 99 180
62 99 181
62 99 179
61 98 176
62 99 180
62 99 179
62 98 177
62 99 180
61 98 174
62 99 181
61 97 176
62 99 180
62 99 179
61 98 178
62 99 178
62 98 176
62 99 178
61 98 175
62 98 177
61 98 176
61 98 171
62 99 176
62 99 175
62 98 177
62 99 177
60 96 169
62 98 175
62 98 174
62 98 173
61 97 173
62 98 173
61 97 174
60 95 167
61 97 172
93 101 104
123 119 62
124 121 65
127 122 68
131 127 67
122 119 69
120 118 68
115 113 69
133 130 79
127 124 78
121 119 72
135 131 86
126 123 77
115 114 76
128 126 84
126 125 79
119 118 78
119 120 80
127 126 85
119 119 80
128 126 84
121 120 77
131 130 87
117 117 79
124 124 83
124 124 86
136 134 90
121 121 84
127 126 86
136 135 93
121 120 83
124 123 86
127 128 89
142 140 95
142 141 96
133 133 91
134 134 93
141 140 94
141 140 95
140 140 95
135 135 92
142 141 95
150 148 101
145 144 100
151 150 101
153 151 103
152 150 101
155 152 102
151 149 99
153 150 100
151 149 100
161 159 106
147 146 97
156 153 102
166 162 107
162 159 104
164 160 105
164 161 107
165 160 103
164 161 105
166 163 109
158 155 102
164 160 106
164 161 107
165 162 106
163 161 107
166 163 108
170 167 110
171 166 106
167 163 102
171 167 107
170 166 106
172 168 109
171 167 108
168 164 106
171 166 110
172 167 107
175 171 112
171 167 105
173 168 108
175 170 109
172 168 108
174 170 110
174 169 107
176 171 112
172 167 106
173 168 107
174 170 107
174 169 107
174 170 109
177 171 109
176 171 109
177 171 107
175 170 108
175 170 107
173 169 105
176 171 109
176 170 109
171 167 106
170 165 105
170 165 104
176 170 109
171 166 103
168 163 102
170 165 101
171 165 102
170 163 99
173 168 106
173 166 104
173 168 104
173 166 102
170 166 102
171 166 101
171 166 104
170 165 102
172 167 106
169 164 104
171 166 103
169 163 100
172 166 101
166 161 98
170 164 100
164 159 95
170 164 101
160 155 96
168 162 100
167 161 96
172 165 100
162 156 94
168 163 101
163 157 95
165 158 93
167 161 102
157 151 90
159 154 87
162 157 96
164 157 93
160 155 93
157 151 86
155 149 86
148 142 81
145 140 79
157 151 82
149 143 85
143 138 78
157 151 86
142 138 71
148 143 71
139 133 68
151 144 81
148 143 75
145 139 69
135 129 65
136 129 61
128 124 62
155 169 36
174 197 0
171 194 0
174 196 0
175 197 0
174 197 0
172 194 0
173 197 0
172 195 0
173 197 0
173 196 0
174 197 0
175 198 0
173 196 0
174 198 0
171 195 0
174 197 0
173 196 0
173 196 0
174 197 0
174 198 0
174 197 0
172 195 0
171 194 0
171 194 0
174 196 0
175 198 0
173 197 0
172 196 0
175 198 0
172 195 0
174 197 0
174 198 0
172 196 0
173 196 0
174 197 0
174 197 0
173 197 0
172 195 0
174 197 0
174 197 0
174 198 0
171 195 0
173 197 0
172 196 0
175 198 0
174 197 0
172 196 0
172 196 0
170 192 0
174 197 0
173 196 0
172 196 0
173 197 0
172 195 0
172 194 0
173 195 0
173 196 0
174 197 0
173 197 0
172 195 0
174 197 0
170 194 0
171 195 0
172 195 0
172 195 0
172 195 0
175 197 0
175 197 0
174 197 0
169 192 0
172 196 0
173 197 0
175 197 0
172 196 0
172 196 0
173 196 0
171 195 0
175 198 0
173 195 0
174 197 0
172 195 0
171 195 0
173 196 0
175 197 0
172 197 0
171 194 0
174 197 0
171 195 0
173 197 0
171 195 0
173 197 0
171 194 0
173 194 0
174 197 0
173 196 0
171 194 0
173 196 0
172 195 0
172 195 0
169 192 0
172 195 0
171 195 0
174 197 0
171 194 0
170 193 0
172 195 0
170 194 0
172 195 0
171 193 0
172 195 0
171 195 0
172 196 0
173 196 0
172 195 0
166 189 54
84 116 164
62 99 172
62 99 171
61 98 172
62 99 177
62 99 177
62 99 178
62 99 173
61 98 176
62 98 173
61 98 177
62 99 178
62 99 177
62 99 178
62 99 177
61 98 175
62 99 178
62 99 179
61 98 178
62 99 180
61 99 180
62 99 180
61 99 179
62 99 180
62 99 180
62 99 181
62 99 180
62 99 181
62 99 181
62 99 181
62 99 181
62 99 180
62 99 180
62 99 180
62 99 180
62 99 181
62 99 180
62 99 180
62 99 179
62 99 181
62 99 181
62 99 180
62 99 181
61 99 181
61 99 181
62 99 181
62 99 180
61 98 180
61 99 181
62 99 181
61 99 181
62 99 181
62 99 181
62 99 180
62 99 180
62 99 181
62 99 181
61 99 181
62 99 181
62 99 180
62 99 180
62 99 181
62 99 181
62 99 180
62 99 181
62 99 181
61 99 181
62 99 179
61 99 181
61 99 181
61 99 181
62 99 180
62 99 180
62 99 180
62 99 179
62 99 180
62 99 180
62 99 181
62 99 180
61 98 179
61 99 180
61 99 180
61 99 180
62 99 181
62 99 181
62 99 180
62 99 181
62 99 180
62 99 177
62 99 181
62 99 181
62 99 180
61 98 179
62 99 177
61 99 178
61 99 180
62 99 180
62 99 178
62 99 181
62 99 179
62 99 181
61 98 176
62 99 179
62 99 176
62 99 180
61 98 178
61 98 175
62 99 178
61 98 173
62 99 176
61 98 175
61 98 178
61 98 174
61 98 178
61 98 174
62 98 174
62 98 176
62 99 177
61 97 173
62 99 175
61 97 173
62 98 171
60 96 166
62 98 173
62 98 173
61 97 173
61 96 168
60 96 170
60 95 166
61 97 172
104 111 115
124 122 69
131 127 72
125 121 69
135 131 78
126 123 71
127 124 72
128 126 77
116 114 73
125 122 76
120 120 78
127 124 81
127 123 80
118 116 78
125 124 81
124 124 83
120 119 78
115 115 74
124 123 81
119 119 81
128 127 84
126 126 87
123 124 88
128 128 89
135 134 91
128 128 87
136 135 93
126 127 89
129 129 87
132 132 92
138 138 95
139 138 95
135 134 93
149 148 101
132 132 93
136 136 95
143 142 96
139 138 94
135 135 93
142 141 97
138 138 96
147 146 98
144 143 98
146 145 98
152 150 100
144 143 97
149 147 98
152 149 101
159 156 104
160 157 104
156 154 105
163 159 107
154 152 101
162 160 105
166 163 108
162 159 103
161 157 105
164 160 106
163 161 105
158 156 102
163 160 104
161 159 106
168 164 108
161 159 104
162 159 104
170 166 109
165 162 102
174 170 111
166 163 107
170 166 106
166 162 105
167 164 106
171 167 107
173 168 109
172 167 107
169 165 109
173 168 106
172 168 108
173 168 108
173 169 108
177 171 109
171 168 106
172 168 107
175 170 108
176 171 111
175 169 111
174 170 108
176 170 110
177 171 109
175 170 108
174 169 107
174 169 107
175 170 111
171 167 105
172 167 103
178 172 109
173 167 105
177 171 109
172 167 103
173 168 107
173 168 108
174 169 106
173 167 104
172 167 104
172 167 100
169 164 102
166 161 99
168 163 102
170 165 104
173 167 106
173 168 105
174 169 105
170 164 103
174 169 104
169 165 105
174 168 102
167 161 99
166 160 99
169 163 97
169 163 101
176 168 104
166 160 97
169 163 96
168 163 97
165 159 95
163 158 94
157 153 93
168 163 95
162 156 94
159 153 85
161 156 95
164 159 95
162 155 91
161 155 93
152 147 84
164 157 95
160 153 88
157 150 85
150 146 77
156 149 87
156 149 89
154 148 84
152 147 79
154 148 80
146 140 80
148 142 77
144 138 80
142 135 72
146 141 75
136 130 68
138 133 69
135 129 64
124 120 53
137 131 59
155 165 49
174 196 0
172 195 0
173 195 0
172 195 0
173 196 0
172 196 0
173 196 0
174 197 0
171 195 0
173 197 0
170 195 0
173 196 0
172 196 0
173 197 0
174 197 0
173 197 0
173 196 0
172 196 0
173 197 0
174 197 0
174 197 0
174 198 0
174 197 0
172 196 0
173 197 0
173 197 0
172 195 0
173 196 0
172 196 0
172 195 0
172 195 0
172 196 0
172 196 0
172 195 0
173 197 0
173 196 0
174 197 0
174 198 0
175 198 0
175 198 0
173 196 0
174 198 0
174 197 0
172 196 0
173 196 0
171 194 0
173 196 0
171 193 0
172 196 0
172 195 0
173 196 0
173 196 0
174 197 0
174 197 0
173 196 0
173 197 0
169 193 0
173 197 0
174 197 0
173 196 0
173 196 0
173 197 0
169 194 0
171 194 0
174 197 0
174 198 0
174 197 0
172 196 0
173 196 0
172 195 0
173 195 0
169 193 0
171 195 0
173 197 0
174 197 0
172 195 0
172 195 0
174 197 0
171 195 0
173 196 0
170 193 0
170 193 0
172 196 0
171 195 0
170 194 0
172 195 0
170 194 0
170 193 0
174 197 0
172 195 0
174 197 0
174 197 0
170 194 0
170 193 0
173 196 0
172 196 0
173 196 0
172 195 0
173 197 0
175 198 0
172 196 0
171 195 0
174 197 0
170 194 0
174 197 0
171 195 0
174 197 0
170 193 0
171 194 0
172 196 0
173 195 0
175 197 0
172 194 0
168 192 40
92 121 157
63 99 176
62 98 172
62 98 170
62 99 173
63 100 179
62 98 172
62 99 175
62 99 177
62 99 178
62 99 178
62 99 176
61 98 177
62 99 179
63 100 179
62 99 178
62 99 177
61 99 180
62 99 180
63 100 181
62 99 179
62 99 180
62 99 181
62 99 181
62 99 181
62 99 178
62 99 179
62 99 181
62 99 180
62 99 181
62 99 179
61 98 178
61 99 180
61 99 180
62 99 180
62 99 180
62 99 180
62 99 181
62 99 181
62 99 181
61 99 181
62 99 181
61 98 180
61 99 181
62 99 181
62 99 181
62 99 181
61 99 180
62 99 181
62 99 180
61 99 181
62 99 181
62 99 181
62 99 180
62 99 181
62 99 181
62 99 180
62 99 181
62 99 180
62 99 180
61 98 180
62 99 180
62 99 180
61 98 180
62 99 181
62 99 181
62 99 180
61 99 180
61 98 181
62 99 180
62 99 180
61 99 181
62 99 179
61 99 181
62 99 181
61 98 180
62 99 180
62 99 179
61 99 181
62 99 181
61 98 179
61 99 181
62 99 180
62 99 180
62 99 179
62 99 181
62 99 179
62 99 180
62 99 179
62 99 179
61 98 179
61 98 179
62 99 179
62 99 181
61 99 180
62 99 179
62 99 179
62 99 181
62 99 179
61 98 177
62 99 179
61 99 179
62 99 180
62 99 179
62 99 179
62 99 176
61 98 177
63 100 179
62 99 177
62 99 176
61 98 178
62 99 180
62 99 177
62 98 177
62 99 179
61 98 176
61 98 176
62 98 175
62 99 176
61 97 176
62 98 174
61 98 172
62 98 175
61 98 176
62 97 170
61 98 173
62 98 170
61 97 171
61 96 167
61 97 169
61 96 168
62 97 171
106 111 104
124 122 70
126 124 68
123 120 65
138 134 77
123 121 68
125 123 76
127 124 75
114 113 71
114 112 72
135 132 84
124 123 80
122 121 80
126 125 82
128 127 84
125 123 81
129 127 85
115 115 77
126 124 82
116 118 82
123 122 83
121 121 85
126 125 86
127 127 89
119 120 84
130 129 89
127 127 86
133 134 92
140 140 95
138 137 94
132 132 91
130 131 91
144 142 96
132 131 91
140 139 95
134 134 94
143 141 96
143 143 98
134 134 94
151 149 99
139 138 93
148 147 100
151 149 98
143 143 98
148 146 100
151 150 102
156 154 104
157 154 101
142 141 94
161 158 105
155 153 103
155 153 104
153 151 103
158 154 101
159 156 103
159 156 103
160 158 103
158 155 102
161 158 104
169 165 108
161 158 105
165 162 106
166 162 106
169 166 108
160 158 104
166 162 105
169 164 106
167 163 106
167 164 105
171 167 107
171 166 109
168 164 105
169 165 108
169 165 107
167 163 106
170 165 105
173 169 110
169 165 106
172 168 106
171 166 106
176 171 110
173 168 107
175 170 105
172 168 105
175 169 108
174 170 108
172 167 105
172 167 107
176 171 108
173 169 106
174 169 108
175 169 109
176 171 109
174 168 106
171 165 104
172 167 107
173 168 106
175 169 109
173 168 108
175 169 105
175 169 108
171 167 106
173 168 103
172 166 103
173 168 106
175 169 104
169 162 102
172 166 103
173 168 106
175 168 107
173 167 106
172 166 101
174 168 103
174 167 101
163 159 97
163 157 96
169 163 98
171 165 99
167 161 97
171 164 100
166 160 97
171 165 103
164 159 97
166 161 95
160 155 93
166 160 93
167 161 97
162 156 91
164 157 93
162 156 93
153 148 84
163 157 95
165 159 93
155 149 86
161 155 91
161 155 87
152 146 79
152 146 82
154 148 81
152 147 81
152 147 85
158 151 87
149 145 75
150 144 79
146 140 70
155 148 83
149 142 80
147 140 77
151 145 76
133 129 59
156 149 80
130 125 61
135 129 66
154 163 44
174 198 0
172 196 0
175 198 0
173 197 0
174 198 0
173 195 0
174 197 0
174 197 0
173 197 0
174 197 0
175 198 0
174 197 0
172 196 0
174 197 0
175 198 0
173 197 0
172 196 0
171 195 0
175 198 0
172 196 0
173 197 0
173 196 0
173 196 0
172 196 0
174 197 0
172 196 0
171 195 0
174 197 0
174 197 0
173 197 0
172 195 0
173 196 0
172 196 0
171 195 0
172 196 0
174 197 0
172 196 0
174 197 0
174 198 0
172 196 0
172 196 0
174 197 0
173 196 0
175 198 0
175 198 0
173 196 0
172 196 0
172 196 0
174 197 0
172 196 0
173 196 0
176 198 0
171 195 0
173 197 0
168 192 0
172 195 0
173 196 0
174 198 0
172 195 0
174 197 0
171 195 0
174 197 0
173 196 0
171 195 0
169 193 0
173 197 0
172 196 0
174 198 0
174 197 0
173 196 0
173 196 0
171 195 0
172 195 0
172 195 0
173 196 0
172 195 0
170 194 0
172 196 0
172 196 0
170 193 0
172 195 0
172 194 0
170 194 0
171 194 0
170 193 0
173 197 0
172 195 0
169 192 0
171 194 0
173 196 0
175 198 0
173 196 0
171 195 0
172 196 0
174 197 0
172 195 0
171 194 0
171 195 0
172 195 0
172 196 0
172 196 0
173 196 0
175 197 0
172 195 0
173 197 0
167 192 0
169 193 0
172 195 0
173 196 0
172 195 0
171 195 0
172 196 0
168 192 31
98 127 150
62 99 175
61 97 166
61 98 173
63 99 173
62 99 178
62 99 175
62 99 176
61 98 173
63 99 179
62 99 178
62 99 176
62 99 178
62 99 179
62 99 179
62 99 177
62 99 179
62 99 178
63 99 178
62 99 179
61 99 178
62 99 178
61 98 178
62 99 181
62 99 177
62 99 179
62 99 180
62 99 179
62 99 180
62 99 181
61 99 180
62 99 180
62 99 180
62 99 180
61 99 181
62 99 181
62 99 181
62 99 178
62 99 181
61 99 181
61 99 180
61 98 181
62 99 178
62 99 180
62 99 180
62 99 181
62 99 181
62 99 181
61 99 181
61 99 181
62 99 181
62 99 181
62 99 181
62 99 181
61 98 180
62 99 181
61 99 181
62 99 181
62 99 180
62 99 181
62 99 181
62 99 180
61 99 181
62 99 181
62 99 181
62 99 181
62 99 181
62 99 181
62 99 181
61 99 179
62 99 181
61 99 181
61 99 180
61 99 178
62 99 181
62 99 180
62 99 180
61 99 180
62 99 180
62 99 181
62 99 180
62 99 181
62 99 179
61 99 181
61 99 180
62 99 181
62 99 181
62 99 180
62 99 180
62 99 181
62 99 181
61 99 180
62 99 179
62 99 180
62 99 181
62 99 180
62 99 181
61 98 178
62 99 179
63 100 181
61 98 178
62 98 177
62 99 179
62 99 179
62 98 176
62 99 178
62 99 179
62 99 176
62 99 177
62 98 175
62 99 179
62 99 176
62 98 175
62 99 178
62 99 178
61 98 175
62 99 175
62 99 176
62 99 175
61 98 172
62 99 179
61 97 171
62 99 179
62 99 177
61 97 170
62 98 174
61 97 175
62 98 169
61 97 171
61 96 171
60 95 172
61 96 171
59 94 162
67 97 161
96 103 103
126 123 72
114 112 67
122 119 70
122 121 75
117 115 73
118 117 77
116 115 71
114 113 72
119 119 77
121 119 74
116 116 75
120 119 75
110 110 69
121 121 82
116 116 78
115 115 78
113 115 78
117 117 82
124 124 87
121 122 86
120 120 85
120 121 84
129 127 86
122 123 85
132 131 88
118 119 84
136 135 92
126 127 90
121 123 89
136 135 93
135 135 93
140 140 97
140 139 94
128 129 91
132 132 91
136 136 94
145 144 98
146 144 97
144 142 94
143 141 97
149 148 101
147 145 98
139 139 94
146 146 99
151 149 100
149 148 102
162 158 105
156 153 101
152 150 102
160 158 105
163 161 106
159 157 104
159 156 103
157 155 101
155 153 101
167 163 105
157 154 100
167 164 106
165 161 105
164 161 104
164 160 103
168 164 106
163 159 104
167 163 107
170 166 105
169 165 107
166 163 104
172 167 110
172 167 106
172 168 110
170 166 107
169 166 105
169 165 107
170 166 106
170 166 106
174 170 110
172 168 106
174 169 103
174 169 108
175 170 110
174 169 106
175 170 109
174 169 106
176 170 106
176 171 112
174 169 104
172 167 106
173 169 105
173 168 104
171 167 103
170 166 103
175 169 105
175 169 103
176 170 105
173 167 104
174 169 109
171 166 104
176 170 108
172 167 102
175 169 104
172 166 106
175 170 107
173 168 108
169 165 99
171 165 101
170 164 101
169 164 101
172 168 103
170 165 101
168 163 99
175 168 104
175 169 106
170 164 99
166 162 96
175 168 102
168 163 100
171 164 100
162 157 95
170 164 100
168 163 98
158 154 90
169 162 95
162 156 91
164 158 93
161 155 94
163 157 93
161 155 93
164 158 93
155 149 84
164 158 93
156 150 86
165 159 90
160 155 85
163 157 87
162 156 89
162 156 89
161 154 89
157 150 88
139 135 77
153 147 83
148 143 76
146 141 72
148 142 80
153 147 82
148 142 76
143 137 72
146 140 76
125 121 60
137 132 61
138 133 74
134 128 67
141 148 36
171 193 0
174 196 0
173 196 0
173 196 0
175 198 0
173 196 0
174 197 0
173 197 0
174 197 0
174 197 0
175 198 0
174 197 0
172 195 0
172 196 0
174 197 0
172 196 0
174 197 0
173 196 0
175 198 0
173 197 0
174 197 0
174 198 0
174 197 0
172 195 0
173 196 0
174 197 0
172 196 0
173 196 0
173 196 0
174 197 0
173 196 0
170 194 0
174 197 0
170 194 0
172 195 0
171 195 0
174 197 0
169 193 0
172 195 0
173 196 0
172 196 0
171 194 0
173 196 0
172 196 0
172 195 0
172 195 0
172 196 0
172 196 0
173 197 0
172 195 0
169 193 0
172 195 0
171 195 0
171 195 0
173 197 0
172 196 0
172 196 0
174 197 0
173 196 0
174 197 0
172 195 0
174 198 0
174 197 0
172 196 0
172 195 0
174 197 0
170 194 0
170 194 0
169 192 0
171 195 0
173 196 0
174 196 0
172 196 0
170 194 0
173 196 0
172 195 0
173 197 0
174 196 0
174 197 0
174 197 0
171 194 0
174 197 0
171 195 0
170 194 0
172 196 0
170 193 0
173 196 0
174 197 0
172 195 0
171 194 0
171 194 0
173 196 0
171 195 0
172 196 0
172 196 0
173 197 0
171 195 0
170 194 0
173 196 0
172 195 0
173 196 0
173 196 0
173 197 0
168 191 0
172 195 0
171 194 0
173 196 0
175 198 0
172 196 0
173 195 0
171 195 0
172 196 0
110 137 134
62 99 172
62 99 173
63 99 176
62 99 175
63 99 177
62 99 176
62 99 174
62 99 173
62 99 176
62 99 174
62 99 176
62 99 177
62 99 179
62 99 178
62 99 176
62 99 179
62 99 176
62 99 175
62 99 177
63 100 180
62 99 180
62 99 179
62 99 178
62 99 180
62 99 180
62 99 181
62 99 178
62 99 180
62 99 180
61 99 181
62 99 179
62 99 180
62 99 181
62 99 181
62 99 180
62 99 180
62 99 180
62 99 181
62 99 180
62 99 181
62 99 180
62 99 179
62 99 181
61 99 179
61 99 180
62 99 181
62 99 181
62 99 181
62 99 180
62 99 180
62 99 181
62 99 181
62 99 181
62 99 179
61 99 181
62 99 181
62 99 180
61 98 181
61 98 180
62 99 180
62 99 181
62 99 181
61 99 181
62 99 179
62 99 181
62 99 180
62 99 180
62 99 181
62 99 180
62 99 180
62 99 181
61 98 179
62 99 181
62 99 179
62 99 180
62 99 180
62 99 181
62 99 180
61 99 180
62 99 181
62 99 179
62 99 179
61 99 179
62 99 181
61 99 180
62 99 180
62 99 181
62 99 180
62 99 180
62 99 176
62 99 178
62 99 179
62 99 181
61 98 175
62 99 177
62 99 181
62 99 181
62 99 180
62 99 178
62 99 178
62 99 180
62 99 176
62 99 175
62 99 179
62 99 178
62 99 179
62 99 179
61 98 177
61 99 178
61 97 175
62 99 179
61 98 176
61 98 174
62 99 178
61 99 180
62 99 177
61 98 176
62 99 177
61 98 174
63 99 179
62 98 173
61 98 175
61 98 175
62 99 176
61 98 174
62 99 177
61 97 169
62 97 170
60 95 167
61 96 170
60 94 160
60 96 165
62 98 173
60 96 171
66 96 156
105 109 101
124 121 73
121 118 68
123 121 76
114 112 68
129 128 76
129 126 80
122 121 77
115 114 74
114 113 69
123 123 79
127 126 82
121 121 79
112 113 77
119 119 81
112 114 80
120 119 82
126 126 90
113 114 80
120 120 83
124 125 88
121 121 84
132 131 90
115 116 82
135 134 94
122 123 86
127 127 89
128 129 90
126 127 90
145 143 96
132 131 91
135 135 92
136 137 94
139 138 95
128 129 92
130 131 91
146 144 98
135 135 93
133 133 92
140 141 98
149 146 96
143 142 96
154 152 103
153 152 103
152 150 100
151 148 98
158 155 100
149 147 95
160 158 104
152 149 98
155 153 101
162 159 103
160 158 104
157 155 102
158 156 104
161 158 104
168 165 108
167 164 106
171 166 108
159 156 101
167 163 107
162 159 105
163 160 104
165 161 104
170 165 107
172 167 110
168 164 105
170 167 110
168 164 105
171 166 105
173 168 106
172 167 108
173 168 108
168 164 104
169 166 107
173 168 108
172 168 108
173 168 105
174 169 110
174 169 109
174 169 105
175 170 106
175 170 108
175 170 108
170 166 106
174 169 106
173 167 105
170 166 103
175 171 109
176 170 108
172 167 105
173 168 103
174 169 106
171 167 101
173 168 102
171 166 103
176 170 103
176 170 108
171 167 103
173 167 101
174 168 104
168 164 98
174 168 103
172 167 102
172 167 104
174 169 103
167 161 102
171 166 103
171 165 101
167 162 100
166 160 98
172 166 100
170 164 99
167 162 98
166 160 96
165 160 95
168 163 99
167 161 97
164 158 93
167 160 98
170 164 95
163 157 90
164 158 96
165 159 95
165 159 96
163 157 92
161 155 87
164 158 96
161 154 93
162 157 90
165 158 90
162 156 94
156 151 79
159 153 88
161 155 89
151 145 82
147 141 81
155 150 84
156 149 85
145 140 75
155 149 81
152 146 81
141 136 71
142 137 73
130 125 58
146 141 74
133 128 71
139 132 65
137 130 65
130 124 67
127 122 60
131 135 47
173 197 0
173 196 0
174 196 0
172 195 0
171 194 0
173 196 0
175 198 0
173 196 0
173 197 0
173 196 0
171 195 0
173 196 0
173 196 0
172 195 0
173 197 0
172 196 0
174 198 0
174 196 0
174 198 0
174 197 0
173 197 0
174 197 0
172 196 0
171 195 0
175 198 0
172 196 0
172 196 0
172 196 0
174 197 0
170 195 0
173 197 0
174 198 0
173 196 0
174 197 0
174 197 0
172 195 0
173 197 0
173 196 0
172 196 0
173 197 0
171 195 0
172 197 0
172 196 0
174 197 0
174 198 0
171 194 0
170 193 0
173 197 0
172 195 0
173 196 0
172 195 0
174 197 0
176 198 0
174 197 0
174 198 0
172 195 0
175 198 0
171 195 0
171 195 0
169 192 0
173 197 0
171 196 0
173 197 0
171 195 0
172 195 0
172 196 0
172 195 0
173 197 0
172 196 0
172 196 0
173 196 0
174 197 0
171 194 0
173 197 0
171 194 0
171 194 0
172 196 0
173 196 0
173 196 0
173 195 0
174 197 0
173 195 0
174 197 0
173 196 0
172 195 0
169 193 0
173 196 0
172 196 0
173 197 0
171 195 0
172 195 0
171 193 0
173 196 0
173 196 0
173 196 0
170 194 0
173 197 0
173 196 0
167 190 0
172 195 0
174 197 0
170 194 0
174 197 0
172 195 0
173 196 0
171 195 0
173 195 0
171 194 0
172 195 0
172 195 0
174 196 0
114 141 131
62 99 168
63 99 175
61 98 173
62 99 175
62 99 170
62 99 174
62 98 173
63 100 178
62 99 176
62 99 174
62 98 171
62 99 177
62 99 180
62 99 173
61 98 172
62 99 177
61 98 175
61 99 178
62 99 181
62 99 179
62 99 180
62 99 178
62 99 180
62 99 179
61 98 176
61 98 176
62 99 179
62 99 180
62 99 180
63 100 181
62 99 180
62 99 180
61 99 181
62 99 179
62 99 180
63 100 181
62 99 181
61 99 181
62 99 181
62 99 181
62 99 180
62 99 181
62 99 181
62 99 181
62 99 181
62 99 181
62 99 180
62 99 181
62 99 180
62 99 181
62 99 181
62 99 181
62 99 180
62 99 180
61 98 179
62 99 181
62 99 181
61 99 180
62 99 181
61 99 180
62 99 180
62 99 178
62 99 180
62 99 180
62 99 179
62 99 180
62 99 180
62 99 180
62 99 180
62 99 181
62 99 181
62 99 181
62 99 181
62 99 180
62 99 180
62 99 181
62 99 179
62 99 180
61 98 180
63 100 180
62 99 180
62 99 180
62 99 180
62 99 177
62 99 181
62 99 179
62 99 180
62 99 181
62 99 180
62 99 181
62 99 179
61 98 177
62 99 180
62 99 179
62 99 179
62 99 179
62 99 180
61 99 179
62 99 181
63 100 178
62 99 178
62 99 178
63 99 179
62 99 179
61 99 178
62 99 180
63 100 180
62 99 179
62 99 179
61 99 178
62 99 175
62 99 179
61 98 174
62 99 179
62 98 177
62 99 176
62 98 178
62 99 175
62 99 176
61 98 175
62 99 175
63 99 178
61 98 174
62 98 171
61 97 173
62 99 174
61 98 174
62 99 174
63 99 178
61 98 172
61 97 169
61 97 170
62 98 172
61 96 164
60 95 165
60 96 168
71 98 155
118 118 74
124 121 73
128 123 75
119 118 68
124 120 70
127 125 77
117 115 68
112 111 72
116 115 79
106 107 71
114 114 72
105 106 74
107 108 75
113 112 72
124 123 82
112 113 77
108 110 79
118 120 84
117 117 81
125 125 87
118 119 84
125 125 86
116 117 80
120 121 85
126 125 86
122 123 87
128 128 89
120 121 85
127 127 89
130 130 90
142 141 98
135 135 94
124 124 87
147 146 100
129 130 91
147 145 100
141 140 95
136 137 94
138 138 96
145 144 96
142 142 98
143 142 94
148 146 96
156 154 103
154 153 101
160 156 103
153 152 101
145 144 96
151 150 97
156 152 101
155 153 99
162 159 103
167 163 107
158 154 99
156 154 100
159 156 102
164 161 106
165 161 104
160 158 103
165 161 105
166 162 104
166 162 105
166 162 107
168 164 105
168 164 106
170 167 106
171 166 108
169 165 105
167 164 105
174 169 107
168 164 105
173 168 108
172 168 107
177 171 111
172 167 105
175 169 106
173 168 106
171 166 104
172 167 105
172 167 105
173 168 104
175 170 108
173 167 103
173 168 103
172 168 106
176 170 106
175 169 105
177 171 110
176 171 109
173 168 104
175 170 106
175 170 107
174 168 101
176 170 105
171 166 101
175 169 102
174 168 103
173 168 102
175 168 104
174 168 106
173 166 104
171 165 101
171 166 104
171 165 101
172 167 103
174 169 107
176 169 106
172 165 103
169 163 100
168 163 98
170 165 101
173 167 102
171 165 101
167 161 101
162 158 94
173 166 100
171 165 100
164 159 97
162 156 95
167 162 95
163 157 95
167 161 95
168 162 97
166 160 95
165 158 92
168 162 98
168 162 96
173 166 98
165 159 90
157 152 84
163 157 95
160 154 86
161 155 93
162 156 84
155 149 83
150 145 78
155 149 84
155 149 85
159 152 83
152 146 75
144 138 73
147 142 75
144 138 75
152 146 75
146 140 74
145 138 78
139 133 69
139 134 65
130 126 61
129 125 56
141 139 56
171 194 0
175 197 0
173 196 0
172 196 0
175 197 0
174 197 0
172 194 0
173 196 0
174 197 0
174 197 0
173 196 0
172 195 0
174 198 0
175 198 0
171 195 0
175 197 0
174 196 0
171 194 0
171 194 0
173 197 0
172 195 0
172 196 0
173 196 0
173 196 0
172 195 0
172 196 0
173 196 0
172 195 0
172 196 0
174 197 0
173 197 0
172 196 0
174 197 0
172 196 0
171 194 0
174 197 0
170 194 0
174 197 0
171 194 0
171 195 0
170 193 0
171 195 0
174 196 0
172 196 0
174 197 0
174 198 0
168 193 0
170 193 0
174 197 0
172 196 0
173 197 0
172 195 0
171 195 0
174 197 0
175 197 0
174 197 0
170 194 0
175 198 0
173 197 0
171 195 0
173 196 0
171 195 0
169 193 0
172 196 0
172 194 0
173 196 0
172 195 0
171 193 0
170 193 0
173 197 0
173 196 0
173 196 0
173 196 0
172 195 0
174 197 0
172 195 0
172 195 0
172 195 0
175 197 0
172 197 0
172 196 0
175 198 0
172 195 0
173 196 0
170 193 0
173 196 0
172 195 0
171 194 0
172 195 0
172 195 0
170 194 0
169 194 0
173 196 0
172 195 0
171 195 0
169 193 0
171 194 0
170 193 0
172 196 0
174 196 0
170 193 0
169 192 0
171 195 0
172 195 0
175 198 0
173 196 0
169 193 0
170 192 0
174 197 0
172 196 0
137 162 105
64 100 169
62 98 174
62 99 172
63 99 174
62 99 174
62 99 172
62 99 178
62 99 176
62 99 176
62 99 175
62 99 173
62 99 177
62 99 180
62 99 178
62 99 176
62 99 177
62 99 175
62 99 178
62 99 180
62 99 180
62 99 178
62 99 178
62 99 178
62 99 180
62 99 178
62 99 179
62 99 180
63 99 178
63 99 180
62 99 179
62 99 181
62 99 178
61 98 180
62 99 178
62 99 181
62 99 181
62 99 181
61 99 181
62 99 180
62 99 181
62 99 181
62 99 181
63 100 181
61 98 181
62 99 179
62 99 180
61 98 178
61 99 180
61 98 179
62 99 180
62 99 181
61 99 181
62 99 181
62 99 179
62 99 179
62 99 180
62 99 179
62 99 180
62 99 180
62 99 179
62 99 180
62 99 181
62 99 181
62 99 180
62 99 180
63 100 179
62 99 180
62 99 177
62 99 181
62 99 180
61 99 181
62 99 180
61 99 179
62 99 180
61 99 179
62 99 181
62 99 180
62 99 181
62 99 181
61 99 181
62 99 179
62 99 180
62 99 180
62 99 180
61 99 179
62 99 179
61 98 178
62 99 180
62 99 180
62 99 181
63 99 180
62 99 177
62 99 179
61 99 177
62 99 180
61 99 181
62 99 180
62 99 180
62 99 178
62 99 179
62 99 179
62 99 181
62 99 176
62 99 181
62 99 178
62 99 180
62 99 177
62 99 179
62 99 178
62 99 179
62 99 179
61 98 173
61 98 175
63 99 178
62 99 175
62 99 177
61 99 180
62 99 172
62 99 178
62 99 175
62 99 177
62 99 174
61 98 172
61 97 173
62 99 176
61 98 174
63 99 176
61 97 167
61 98 170
61 98 175
62 99 174
62 99 176
62 98 172
60 96 166
59 93 161
61 97 169
60 96 166
60 94 158
70 96 147
115 113 68
119 117 69
117 115 74
118 116 68
122 121 79
103 103 69
114 112 74
109 110 75
110 111 74
114 113 75
120 120 83
125 124 80
120 120 79
102 104 72
109 112 79
117 118 81
119 119 82
122 121 84
120 120 82
125 126 90
124 124 86
134 133 91
126 126 88
127 126 87
123 125 87
129 130 89
130 129 89
125 126 88
135 134 93
125 125 88
122 123 86
136 135 92
132 133 91
129 129 89
139 138 90
141 140 93
148 146 98
141 140 96
143 141 91
142 141 95
150 149 100
148 147 99
154 152 102
152 149 99
143 143 99
150 149 97
159 156 104
148 146 97
157 154 103
164 160 104
160 156 104
158 156 104
157 154 100
164 161 105
162 158 101
163 159 106
165 161 102
166 162 105
169 165 106
164 160 104
165 161 104
169 165 107
167 163 103
168 164 106
176 170 108
169 164 105
167 164 104
171 167 107
167 164 106
170 165 104
170 167 105
170 166 105
170 166 102
174 170 106
174 169 108
170 166 104
171 167 108
176 170 105
173 169 105
176 170 107
174 169 106
176 170 109
176 170 109
172 168 107
173 168 102
173 168 105
173 169 108
174 170 106
174 169 105
174 170 109
175 169 104
171 167 103
175 169 103
175 169 104
172 167 105
176 170 104
174 167 103
175 169 103
171 166 101
172 167 99
174 169 102
173 167 101
171 166 99
171 165 100
169 164 100
174 168 102
173 167 104
171 165 103
165 161 95
169 164 101
170 164 101
167 161 96
169 162 97
170 165 99
176 170 103
166 160 96
168 162 99
167 162 97
174 168 101
163 158 90
167 162 95
172 165 95
164 157 89
162 156 90
162 156 86
166 160 93
164 158 95
164 157 95
160 154 88
158 153 85
159 152 89
151 145 80
161 155 87
158 152 84
158 151 83
155 150 80
152 146 80
156 150 78
155 150 85
155 148 81
154 148 79
150 143 75
148 142 73
150 143 76
152 146 76
147 140 75
129 124 57
139 133 64
140 134 66
122 118 56
172 195 0
172 195 0
174 197 0
171 194 0
173 196 0
172 195 0
175 198 0
174 197 0
173 197 0
174 197 0
171 195 0
174 198 0
172 196 0
174 197 0
172 195 0
173 197 0
172 196 0
175 198 0
170 194 0
174 197 0
174 197 0
171 195 0
174 197 0
173 196 0
175 198 0
171 195 0
173 196 0
173 196 0
171 196 0
173 197 0
171 194 0
173 197 0
173 196 0
174 198 0
174 198 0
173 196 0
173 197 0
175 198 0
171 194 0
173 195 0
168 192 0
171 195 0
172 196 0
172 196 0
171 194 0
171 195 0
171 195 0
171 195 0
175 198 0
172 195 0
173 197 0
174 198 0
173 196 0
172 195 0
173 196 0
171 194 0
174 197 0
174 197 0
174 197 0
171 195 0
172 195 0
174 196 0
174 196 0
170 193 0
172 196 0
171 194 0
175 197 0
173 196 0
171 193 0
171 194 0
171 195 0
170 192 0
173 196 0
171 195 0
173 197 0
172 196 0
172 196 0
173 195 0
171 194 0
173 195 0
171 194 0
172 195 0
170 194 0
172 196 0
172 196 0
171 194 0
172 196 0
172 195 0
170 193 0
169 193 0
172 195 0
169 193 0
171 194 0
175 198 0
173 195 0
173 196 0
173 197 0
171 195 0
174 197 0
174 196 0
171 195 0
168 190 0
170 194 0
171 194 0
173 197 0
171 194 0
172 195 0
172 195 0
169 193 0
161 185 67
68 103 165
63 99 173
62 99 172
62 99 171
62 99 177
62 99 173
62 99 173
62 99 175
62 99 178
62 99 177
62 99 178
62 99 175
62 99 178
62 99 174
63 99 177
62 99 176
62 99 174
61 98 178
62 99 177
62 99 179
62 99 179
62 99 180
61 99 179
62 99 177
62 99 177
62 99 180
62 99 178
62 99 180
62 99 181
62 99 180
62 99 179
61 99 180
62 99 178
62 99 181
62 99 180
62 99 180
62 99 179
62 99 181
62 99 181
63 100 180
62 99 180
62 99 181
62 99 179
62 99 179
62 99 180
63 100 181
62 99 181
62 99 181
62 99 181
62 99 181
62 99 178
62 99 179
62 99 179
62 99 181
62 99 180
62 99 179
63 100 181
61 98 179
62 99 181
62 99 181
62 99 181
62 99 181
62 99 180
62 99 179
62 99 179
62 99 180
62 99 180
62 99 180
61 99 180
62 99 181
62 99 181
61 98 181
62 99 181
62 99 181
62 99 180
63 100 181
62 99 181
62 99 178
62 99 181
62 99 180
62 99 180
62 99 181
62 99 179
62 99 179
62 99 179
62 99 180
62 99 179
61 99 181
62 99 179
62 99 178
61 99 180
62 99 181
62 99 178
62 99 180
62 99 180
62 99 180
62 99 179
62 99 178
62 99 178
61 98 178
62 99 178
61 99 179
62 99 181
62 99 175
62 99 179
62 99 176
62 99 180
62 99 179
62 98 177
62 99 179
62 99 178
62 99 178
62 99 178
62 99 178
61 98 176
62 99 176
62 99 179
62 99 176
61 97 173
62 99 178
62 99 177
62 98 174
62 99 176
62 99 178
61 97 174
62 99 174
62 99 179
61 98 171
62 98 174
61 98 173
62 97 171
61 97 173
61 97 172
61 97 169
62 98 174
61 97 169
60 96 165
61 96 167
61 96 169
61 96 166
87 101 126
115 113 67
110 109 70
118 117 72
113 112 71
111 110 70
112 112 75
118 117 76
117 116 75
114 114 77
112 113 75
109 110 78
106 106 73
116 115 77
117 118 82
117 116 80
120 119 81
106 108 77
112 114 82
120 120 83
117 117 81
126 126 87
127 127 86
125 126 88
115 117 82
127 128 90
124 124 89
128 128 88
133 132 91
135 135 94
136 134 91
129 129 91
137 136 92
133 134 93
129 130 91
144 142 94
133 134 93
141 140 94
139 138 91
143 142 96
149 147 98
145 145 97
150 148 96
156 153 99
141 140 94
153 151 100
150 148 99
157 154 102
156 154 101
152 151 99
158 155 99
161 157 103
156 153 98
157 154 98
160 157 102
168 165 108
157 154 100
162 157 99
165 160 103
158 154 101
161 158 101
167 163 104
171 166 104
164 161 102
169 164 104
169 165 104
173 168 107
171 166 105
169 165 105
168 163 103
174 169 108
168 164 105
173 169 107
172 167 105
175 170 108
171 167 103
176 171 107
173 168 107
172 167 104
178 171 106
176 170 107
173 168 104
176 171 108
173 168 106
172 168 106
171 167 104
174 169 105
174 168 104
173 168 103
176 170 107
175 169 102
175 170 107
172 166 102
173 168 105
176 170 103
177 170 108
174 168 103
168 163 99
173 168 102
171 166 101
173 167 99
171 165 101
174 167 104
175 168 102
165 160 95
172 166 101
171 165 97
165 160 95
171 165 101
169 163 100
169 163 98
167 161 97
167 162 90
165 159 94
172 165 101
168 161 95
168 161 91
171 165 97
163 157 95
165 158 92
168 161 97
161 155 93
163 158 93
167 161 95
166 160 93
167 161 95
161 155 84
164 157 92
161 154 92
163 156 87
157 152 87
159 152 85
154 149 86
156 149 84
156 149 77
154 148 83
149 143 80
154 149 80
147 142 72
146 141 74
152 146 75
147 141 76
146 140 75
145 139 70
144 138 74
143 137 64
126 121 57
137 131 69
123 118 59
119 113 51
169 191 0
175 197 0
173 195 0
173 196 0
174 197 0
173 197 0
173 197 0
173 196 0
171 194 0
174 197 0
172 196 0
173 197 0
175 198 0
171 194 0
174 197 0
176 199 0
171 195 0
176 199 0
172 196 0
175 198 0
174 197 0
175 197 0
173 196 0
173 196 0
174 197 0
172 196 0
174 197 0
174 197 0
173 197 0
173 197 0
170 194 0
172 195 0
173 196 0
173 197 0
172 195 0
171 195 0
173 196 0
174 197 0
172 195 0
169 192 0
173 196 0
173 197 0
173 196 0
172 195 0
173 196 0
172 195 0
173 197 0
173 197 0
171 195 0
171 194 0
173 196 0
174 197 0
173 197 0
172 196 0
169 192 0
172 195 0
174 197 0
172 195 0
171 194 0
172 196 0
173 197 0
172 196 0
174 196 0
172 196 0
173 196 0
171 195 0
173 196 0
171 195 0
172 196 0
172 196 0
172 195 0
171 194 0
171 194 0
173 196 0
175 198 0
172 195 0
171 195 0
174 197 0
168 191 0
170 193 0
168 191 0
172 196 0
173 196 0
175 198 0
172 196 0
172 195 0
168 191 0
170 193 0
173 196 0
174 197 0
171 194 0
171 194 0
173 196 0
170 192 0
172 194 0
171 195 0
170 193 0
171 195 0
171 194 0
169 192 0
171 195 0
172 195 0
174 197 0
173 196 0
172 196 0
173 196 0
174 197 0
171 194 0
166 189 60
75 108 163
63 100 172
62 99 173
61 98 172
63 99 175
62 99 172
62 99 173
63 99 176
62 99 177
62 99 172
62 99 174
62 99 174
62 99 178
62 99 178
62 99 176
62 99 180
63 100 177
62 99 178
62 99 176
63 100 180
62 99 178
62 99 181
62 99 179
62 99 175
62 99 178
62 99 175
62 99 181
62 99 181
62 99 177
61 98 178
62 99 179
62 99 179
62 99 178
61 98 179
62 99 179
62 99 180
62 99 181
62 99 180
62 99 180
62 99 180
62 99 179
62 99 179
61 99 180
62 99 179
62 99 181
62 99 180
62 99 180
62 99 181
62 99 178
62 99 179
61 99 181
62 99 181
62 99 180
62 99 181
62 99 179
62 99 181
62 99 181
62 99 180
61 99 180
61 98 179
62 99 181
61 99 181
61 99 178
62 99 181
62 99 181
61 98 180
62 99 181
61 99 180
62 99 181
61 99 181
62 99 178
62 99 180
62 99 180
61 98 179
62 99 181
62 99 178
62 99 181
63 100 180
62 99 180
62 99 180
63 99 180
62 99 181
62 99 178
62 99 180
62 99 180
61 99 179
62 99 180
61 98 179
62 99 181
62 99 181
62 99 177
62 99 181
62 99 180
62 99 179
62 99 181
62 99 178
62 99 179
62 99 181
62 99 179
62 99 177
62 99 179
61 98 179
62 99 179
62 99 179
62 99 180
62 99 180
62 99 177
62 99 179
62 99 177
61 98 178
62 99 176
62 99 177
61 99 180
61 98 175
62 99 175
62 99 179
62 99 179
61 97 171
63 99 179
62 99 177
62 99 176
62 99 176
62 99 178
61 98 172
62 99 178
61 98 177
62 98 176
62 98 176
61 98 174
61 97 174
62 98 173
62 98 171
62 98 172
61 98 173
61 96 167
61 97 172
61 97 170
61 97 164
62 97 167
61 96 165
60 96 170
61 96 164
96 105 111
108 107 66
117 115 70
124 121 75
116 114 72
104 104 69
101 102 69
111 111 74
104 104 71
101 102 71
111 111 71
119 118 79
110 110 76
107 108 74
114 114 77
106 109 79
114 115 80
108 110 76
117 116 81
108 110 76
105 108 77
106 108 79
119 120 84
124 124 86
125 126 88
129 129 89
127 128 90
121 122 85
119 119 83
127 128 88
130 131 91
135 135 93
140 139 92
131 131 90
137 137 93
138 138 94
144 143 97
138 138 93
143 142 95
143 142 93
143 142 96
148 146 95
150 148 98
151 149 100
151 149 100
152 149 99
160 157 100
158 156 101
161 157 104
156 153 102
166 162 104
154 152 100
159 156 102
166 162 104
159 156 102
165 161 102
164 160 104
166 163 105
165 162 103
168 163 104
166 162 104
168 163 104
164 160 102
165 162 103
166 162 100
172 167 103
174 169 107
173 168 105
170 166 104
174 169 107
168 164 104
169 164 104
172 166 102
171 167 101
172 167 103
169 166 104
172 167 103
173 168 106
173 169 106
174 169 103
176 170 106
174 168 103
174 168 106
175 169 103
173 167 104
175 170 103
176 170 104
170 167 104
176 170 103
174 168 103
174 169 103
173 168 103
175 169 104
172 167 103
173 166 99
175 169 103
173 168 103
174 168 106
172 167 101
174 168 104
173 167 102
172 166 102
171 165 97
169 163 98
169 163 99
172 165 98
170 164 100
170 163 95
173 166 97
165 160 95
165 160 92
169 163 97
168 162 96
166 160 95
172 166 102
165 159 94
164 158 89
164 159 90
165 160 96
165 159 93
167 161 95
161 155 92
163 156 92
167 160 91
168 162 93
164 158 93
157 151 87
159 153 89
164 157 89
156 150 84
156 150 82
164 157 90
167 160 91
155 148 84
164 157 85
151 145 77
150 145 76
149 143 75
149 143 83
150 143 72
140 135 66
144 137 66
149 143 74
146 139 76
138 132 70
135 129 66
137 132 65
135 129 65
126 120 59
167 188 11
175 198 0
174 196 0
173 195 0
173 195 0
171 194 0
171 195 0
173 196 0
173 197 0
172 196 0
172 194 0
173 197 0
176 199 0
172 195 0
173 197 0
173 197 0
173 196 0
173 197 0
171 195 0
173 197 0
171 195 0
174 197 0
170 193 0
174 197 0
173 196 0
172 195 0
174 197 0
172 196 0
170 194 0
175 198 0
176 199 0
175 198 0
174 197 0
173 197 0
172 196 0
173 196 0
176 198 0
173 196 0
171 195 0
170 194 0
175 198 0
172 196 0
174 197 0
172 195 0
171 194 0
171 195 0
172 196 0
173 197 0
173 197 0
173 196 0
171 193 0
172 195 0
173 197 0
174 197 0
172 195 0
175 198 0
171 195 0
174 197 0
171 194 0
173 196 0
173 197 0
171 195 0
173 196 0
172 195 0
174 196 0
172 196 0
172 195 0
173 197 0
173 196 0
172 196 0
172 195 0
174 197 0
172 195 0
171 194 0
170 193 0
173 197 0
173 196 0
173 196 0
173 196 0
174 197 0
173 195 0
172 194 0
172 195 0
173 197 0
172 194 0
174 198 0
171 194 0
172 195 0
174 197 0
172 194 0
173 197 0
173 196 0
172 195 0
174 197 0
172 196 0
171 193 0
172 195 0
168 191 0
172 196 0
170 193 0
171 194 0
172 195 0
168 192 0
170 194 0
170 192 0
171 194 0
170 193 0
168 192 0
110 138 143
62 99 169
63 99 174
62 98 166
62 99 171
62 98 170
62 99 172
62 99 176
62 99 177
62 99 177
63 100 176
62 99 176
63 99 175
61 98 176
62 98 172
61 98 174
62 99 179
62 99 176
63 99 178
63 99 176
62 99 177
62 99 176
62 99 180
62 99 179
63 100 181
62 99 179
62 99 178
62 99 179
62 99 177
62 99 180
62 99 180
62 99 178
61 99 177
62 99 179
62 99 181
62 99 180
62 99 180
62 99 180
63 99 178
62 99 179
62 99 180
62 99 181
62 99 179
61 98 180
62 99 180
62 99 178
62 99 180
62 99 180
62 99 181
63 100 181
62 99 181
62 99 181
61 99 181
62 99 181
62 99 180
62 99 180
62 99 180
62 99 179
62 99 181
61 99 180
62 99 178
62 99 180
62 99 181
63 100 181
61 99 180
62 99 179
62 99 181
62 99 180
62 99 180
62 99 181
62 99 180
62 99 181
61 99 181
62 99 181
62 99 180
62 99 181
62 99 179
61 98 180
62 99 179
62 99 180
62 99 180
61 99 180
62 99 180
63 100 180
61 99 180
62 99 179
62 99 181
62 99 179
62 99 177
62 99 178
62 99 181
61 98 177
62 99 180
62 99 180
62 99 177
61 99 179
62 99 179
61 98 176
62 99 178
62 99 179
62 99 180
62 99 179
62 99 180
62 99 180
62 99 178
62 99 180
62 99 179
61 98 177
62 99 176
62 99 179
61 98 177
62 99 177
62 99 175
63 99 176
61 98 177
62 99 179
61 98 173
62 99 180
62 99 176
62 99 175
62 99 175
61 98 176
62 99 180
62 98 175
61 98 173
62 99 179
62 98 172
62 98 175
62 98 173
63 99 177
62 99 175
62 99 172
62 98 174
62 99 175
61 97 171
62 98 172
61 97 172
62 98 174
62 98 171
61 97 166
62 97 166
61 96 170
61 96 167
61 94 155
101 106 92
107 106 65
101 101 64
106 107 70
112 111 74
100 100 68
102 102 71
110 111 77
112 112 76
106 107 71
97 100 70
99 100 68
112 113 79
109 109 73
115 117 83
120 120 83
106 108 76
107 109 76
116 117 80
118 119 82
124 124 87
115 117 82
116 117 82
114 118 85
121 121 84
124 124 85
116 117 81
124 124 87
131 131 91
131 130 89
136 136 93
133 133 92
141 140 94
142 140 92
137 137 96
129 129 89
140 140 96
137 137 93
146 144 95
152 150 99
149 147 96
143 142 96
149 148 98
147 147 98
151 149 98
157 154 100
154 152 100
149 147 98
157 155 99
152 150 97
146 145 95
162 159 104
162 158 102
152 150 96
161 158 100
161 159 100
168 164 104
161 158 102
170 166 104
170 165 107
165 161 102
168 164 104
167 164 106
165 162 103
168 163 104
171 166 104
169 165 101
169 165 106
171 166 103
176 170 107
171 166 100
173 168 104
170 165 103
170 167 102
173 168 103
176 170 105
175 169 107
174 168 103
174 169 106
175 169 103
175 169 103
171 166 100
176 170 107
175 169 104
173 167 103
174 169 103
173 167 102
177 170 104
173 167 99
174 169 104
174 168 103
175 169 101
174 169 102
174 167 105
172 167 100
168 164 98
174 168 99
174 167 102
174 167 101
175 169 101
170 164 98
172 166 103
169 163 97
170 164 101
168 161 95
168 163 97
167 162 95
162 158 89
173 166 99
171 164 99
166 160 92
167 161 93
164 158 95
166 161 95
169 162 95
171 165 98
160 155 90
172 165 95
167 161 95
163 158 87
167 161 95
165 159 93
166 160 93
166 159 96
160 154 83
159 154 89
160 155 91
162 155 90
164 157 90
159 154 80
151 145 76
154 148 83
159 153 86
151 146 77
149 143 79
153 147 81
154 148 80
145 140 76
148 142 75
141 135 73
148 142 75
146 141 71
146 139 74
140 135 66
132 126 59
130 125 57
140 134 65
123 119 54
166 188 16
174 196 0
173 195 0
172 194 0
176 198 0
172 194 0
174 198 0
172 196 0
173 196 0
173 196 0
172 195 0
171 195 0
171 196 0
169 193 0
171 194 0
175 198 0
174 197 0
173 197 0
173 196 0
171 194 0
171 195 0
174 197 0
171 194 0
170 194 0
173 196 0
173 196 0
174 197 0
171 194 0
173 196 0
171 195 0
171 194 0
172 195 0
174 197 0
174 197 0
173 196 0
172 196 0
173 196 0
173 197 0
173 196 0
174 197 0
174 197 0
173 197 0
174 196 0
172 196 0
173 196 0
174 197 0
174 197 0
171 195 0
174 197 0
176 197 0
174 197 0
169 193 0
173 196 0
175 198 0
172 195 0
172 195 0
174 198 0
172 196 0
173 197 0
170 193 0
171 195 0
170 194 0
172 195 0
172 196 0
170 194 0
173 196 0
171 195 0
174 197 0
171 194 0
171 193 0
174 196 0
172 195 0
172 195 0
174 196 0
172 195 0
172 195 0
172 196 0
169 193 0
171 195 0
173 196 0
170 194 0
168 192 0
167 191 0
171 194 0
172 195 0
173 196 0
171 195 0
172 195 0
172 196 0
170 193 0
169 192 0
170 194 0
173 196 0
174 197 0
174 197 0
171 195 0
169 192 0
170 193 0
171 194 0
172 195 0
174 197 0
170 192 0
171 195 0
173 194 0
171 194 0
170 193 0
174 196 0
140 165 110
62 98 168
62 99 173
61 98 167
61 98 171
62 99 170
62 99 167
63 99 176
62 99 174
62 98 174
62 99 178
62 99 179
62 99 181
63 99 179
64 100 180
62 99 178
62 99 178
62 99 178
62 99 179
62 99 178
63 100 176
62 99 180
62 99 176
62 99 177
62 99 179
62 99 178
62 99 180
62 99 177
62 99 179
62 99 179
62 99 181
62 99 180
62 99 179
63 100 179
62 99 180
62 99 180
62 99 179
62 99 181
62 99 180
61 99 179
62 99 180
61 99 179
62 99 179
63 100 180
62 99 180
62 99 181
61 99 180
63 100 181
62 99 181
62 99 179
62 99 181
62 99 179
62 99 180
62 99 180
62 99 180
61 98 179
62 99 181
62 99 180
62 99 177
62 99 181
62 99 181
62 99 181
61 98 178
62 99 181
62 99 181
62 99 180
62 99 179
62 99 178
61 98 179
62 99 181
63 100 180
62 99 181
61 98 181
62 99 178
62 99 180
62 99 178
62 99 181
61 99 180
61 98 179
62 99 181
62 99 180
62 99 180
62 99 180
62 99 178
62 100 181
62 99 180
61 98 178
63 100 180
62 99 180
62 99 177
62 99 180
62 99 181
62 99 179
61 98 179
62 99 180
62 99 178
62 99 180
63 99 177
61 99 179
62 99 181
62 99 180
62 99 178
61 99 179
62 99 181
61 98 180
62 99 173
63 99 177
62 99 177
62 99 179
61 98 177
63 100 180
62 99 178
62 98 173
62 99 178
62 99 175
62 99 177
62 99 171
62 98 174
62 99 175
62 99 179
63 99 172
61 98 172
62 99 175
62 99 174
63 99 176
64 100 178
62 98 173
61 98 170
62 98 172
61 97 167
62 98 172
63 99 178
62 98 172
61 97 170
62 98 172
61 97 171
61 96 169
62 98 172
61 96 166
61 97 171
61 96 168
61 97 169
60 95 166
60 95 167
59 94 165
72 96 145
108 108 81
107 106 67
113 112 72
107 105 67
98 99 65
107 107 72
104 106 74
103 103 68
106 108 77
110 110 76
97 99 68
102 105 74
114 115 79
97 100 73
101 104 75
106 107 77
107 109 79
110 112 80
111 113 80
115 116 82
106 110 79
125 124 85
119 120 84
110 112 79
119 120 82
133 133 92
124 126 88
130 131 91
125 125 87
131 132 90
129 129 87
126 126 87
133 132 89
139 140 96
139 137 92
135 135 93
140 139 94
149 146 96
154 151 99
150 150 97
149 148 98
147 144 95
150 148 95
152 150 100
157 154 101
157 153 99
160 157 98
151 150 99
158 155 98
159 156 101
158 155 99
161 157 99
162 158 101
158 155 101
161 157 101
157 154 98
164 160 102
166 162 102
169 164 107
166 163 103
164 160 103
163 160 100
170 165 105
167 162 102
169 165 104
171 167 104
172 167 103
166 162 104
167 162 97
170 166 102
169 164 103
167 163 100
173 168 104
173 168 106
170 165 103
173 168 105
175 170 105
171 166 102
171 166 103
174 169 103
180 172 106
174 169 102
172 166 100
177 171 106
175 169 104
173 168 103
179 171 106
173 168 103
174 168 103
173 168 105
172 167 104
169 164 101
174 169 103
178 171 108
171 166 103
173 167 101
171 166 104
175 168 102
169 164 99
173 168 98
176 169 100
166 161 93
167 161 97
170 164 99
172 165 101
168 162 93
169 162 97
172 166 99
163 157 92
167 161 92
168 161 96
167 162 93
166 160 94
166 160 97
170 163 96
166 161 93
169 162 97
159 153 90
165 159 96
154 149 86
166 159 89
167 160 93
169 163 97
165 158 93
160 154 88
160 153 87
153 148 81
162 156 89
164 157 90
158 152 85
154 147 81
152 147 77
154 147 77
151 146 75
157 151 79
155 148 81
148 142 75
144 138 72
137 132 68
137 131 64
142 136 66
140 134 71
150 143 75
147 140 75
137 131 66
131 126 57
125 119 57
166 187 16
174 196 0
173 196 0
174 196 0
170 192 0
172 193 0
171 195 0
172 196 0
173 196 0
172 195 0
171 195 0
174 197 0
174 197 0
174 197 0
172 196 0
173 196 0
173 196 0
171 194 0
172 196 0
172 196 0
171 195 0
174 197 0
174 197 0
173 196 0
171 195 0
173 196 0
174 197 0
172 195 0
172 195 0
174 197 0
174 198 0
172 196 0
172 196 0
173 197 0
170 193 0
174 196 0
174 197 0
171 194 0
172 195 0
173 197 0
175 198 0
171 194 0
172 195 0
172 196 0
169 193 0
173 196 0
173 196 0
174 198 0
169 192 0
171 194 0
171 195 0
170 193 0
172 196 0
173 196 0
173 197 0
167 190 0
174 197 0
174 196 0
172 195 0
174 197 0
174 198 0
171 195 0
169 193 0
173 197 0
172 195 0
173 197 0
171 195 0
174 197 0
171 194 0
170 193 0
173 196 0
172 196 0
173 196 0
174 197 0
173 196 0
174 197 0
169 193 0
170 193 0
173 196 0
172 195 0
171 195 0
171 194 0
173 196 0
170 193 0
172 196 0
172 195 0
173 196 0
173 195 0
171 195 0
173 196 0
171 195 0
171 195 0
169 193 0
170 193 0
172 195 0
171 193 0
172 196 0
173 196 0
172 194 0
168 192 0
170 193 0
171 195 0
173 196 0
171 195 0
172 196 0
171 195 0
160 184 72
64 100 169
62 99 173
62 98 170
62 98 167
62 99 173
62 99 175
62 99 176
62 99 170
62 99 175
63 99 175
62 99 171
61 98 177
62 99 174
61 98 172
62 99 176
62 99 178
63 100 180
62 99 176
62 99 177
62 99 180
62 99 178
63 100 181
62 99 175
62 99 180
62 99 178
62 99 177
62 99 176
62 99 176
62 99 178
62 99 174
62 99 179
62 99 178
62 99 179
62 99 180
62 99 180
62 99 180
62 99 179
62 99 180
62 99 180
62 99 180
62 99 180
62 99 180
62 99 178
62 99 181
62 100 181
61 99 180
62 99 180
63 99 178
62 99 180
62 99 179
63 99 178
62 99 180
62 99 181
62 99 180
61 99 180
62 99 181
62 99 179
63 100 181
61 99 181
62 99 181
62 99 180
61 99 180
62 99 179
61 98 179
61 98 179
62 99 180
61 99 181
62 99 180
62 99 180
63 99 180
61 99 178
62 99 179
62 99 180
62 99 180
62 99 180
62 99 180
62 99 181
62 99 179
61 98 178
62 99 178
62 99 180
61 99 179
62 99 176
61 99 180
62 99 180
62 99 180
62 99 180
62 99 181
62 99 181
61 98 177
61 98 176
62 99 178
61 98 179
62 99 179
62 99 178
62 99 180
62 99 179
62 99 181
62 99 180
62 99 178
62 99 179
62 99 180
61 98 178
61 98 175
62 99 178
62 99 179
62 99 179
62 99 179
61 99 179
61 99 178
62 99 180
62 99 178
61 98 175
62 99 174
62 99 178
62 99 174
61 98 174
62 99 178
62 99 177
62 99 175
62 99 179
62 99 176
61 98 176
62 99 175
62 99 178
62 99 174
61 97 173
62 99 177
62 98 174
62 99 176
62 98 171
61 97 174
62 98 173
62 98 172
62 98 174
61 98 172
60 95 163
62 98 170
61 97 170
62 97 170
62 97 171
62 97 169
60 95 161
59 93 159
58 93 154
58 91 156
73 95 136
96 97 67
105 104 66
92 92 61
99 100 63
98 99 66
113 113 75
97 98 65
93 96 67
91 93 64
99 100 68
98 101 74
105 107 75
94 96 67
111 113 78
116 116 80
103 106 77
115 116 82
110 111 79
119 119 83
100 102 75
119 120 83
123 123 86
120 121 86
114 116 83
126 127 89
124 125 87
129 129 88
123 125 87
126 127 87
126 127 89
135 134 90
125 125 85
143 141 93
138 137 94
134 135 94
141 140 94
139 138 91
143 142 96
143 141 94
138 137 94
144 143 95
148 147 97
148 146 96
149 148 95
158 156 99
155 152 99
156 154 100
160 156 99
157 155 100
154 151 97
154 151 97
158 155 97
165 161 104
159 156 98
168 163 102
164 159 101
167 163 100
163 159 102
166 162 103
165 160 103
174 168 107
165 161 102
163 160 102
165 161 102
170 166 105
161 159 101
167 162 98
174 169 103
172 167 105
167 164 103
172 167 107
170 165 102
175 168 104
173 167 102
176 170 104
171 166 102
176 170 103
174 169 106
176 170 105
176 169 101
174 169 104
173 168 99
173 168 102
179 173 108
176 170 104
174 168 100
175 169 103
179 172 107
173 167 101
176 170 104
176 170 103
173 167 101
173 167 103
175 169 101
172 166 100
172 166 102
170 165 99
174 167 100
173 167 101
174 168 101
171 166 99
168 163 100
170 165 95
165 159 93
171 164 97
171 166 101
167 161 93
174 167 102
170 164 97
167 162 95
169 163 96
159 154 92
162 157 91
172 164 97
167 161 95
165 158 92
160 155 87
167 159 93
167 160 95
164 157 89
162 156 90
166 160 94
165 158 87
162 156 87
157 151 86
162 156 86
157 150 84
153 148 75
160 154 85
156 150 85
160 154 86
149 144 76
155 149 82
152 145 81
153 147 77
155 148 82
144 139 71
150 144 76
140 134 65
140 134 73
150 144 66
140 135 69
140 134 68
148 141 71
135 129 60
123 118 57
171 190 32
175 197 0
173 195 0
172 193 0
175 197 0
172 196 0
173 197 0
173 196 0
172 195 0
173 197 0
175 198 0
173 195 0
175 198 0
173 196 0
170 194 0
174 197 0
173 196 0
172 195 0
174 197 0
174 198 0
174 197 0
174 198 0
175 197 0
175 198 0
174 197 0
173 196 0
171 195 0
174 197 0
172 196 0
174 197 0
170 193 0
172 195 0
173 195 0
171 196 0
170 194 0
174 197 0
170 193 0
173 197 0
172 195 0
173 197 0
173 196 0
173 197 0
174 198 0
172 195 0
175 198 0
172 195 0
174 197 0
174 197 0
171 194 0
170 195 0
171 195 0
168 192 0
171 195 0
172 195 0
171 194 0
172 196 0
174 197 0
174 197 0
171 194 0
169 192 0
173 196 0
171 195 0
172 195 0
174 197 0
172 194 0
172 195 0
171 194 0
174 197 0
171 195 0
173 196 0
174 197 0
171 195 0
175 198 0
173 196 0
172 195 0
170 193 0
172 195 0
170 193 0
172 195 0
173 196 0
172 194 0
174 197 0
174 196 0
174 197 0
172 195 0
173 197 0
170 193 0
173 196 0
171 194 0
173 195 0
171 194 0
173 195 0
170 193 0
174 196 0
172 195 0
173 196 0
174 196 0
169 192 0
172 196 0
174 198 0
173 197 0
170 194 0
170 194 0
171 194 0
173 195 0
164 188 47
94 124 153
62 99 163
62 98 171
62 99 173
62 98 165
62 98 169
61 98 170
62 99 171
62 99 175
63 99 176
62 98 173
62 99 175
62 98 171
62 99 178
63 100 176
62 99 177
62 99 175
62 99 175
62 99 181
62 99 175
62 99 176
62 99 173
63 99 178
63 99 178
63 100 180
62 99 174
62 99 175
62 99 179
63 100 179
62 99 176
62 99 178
62 99 178
62 99 180
62 99 180
62 99 178
62 99 178
61 99 179
62 99 178
61 98 178
62 99 180
62 99 179
62 99 178
62 99 180
62 99 181
62 99 181
61 99 181
62 99 181
61 99 180
63 100 179
62 99 181
61 99 180
61 99 180
62 99 179
61 99 179
62 99 180
62 99 180
62 99 181
62 99 180
62 99 177
62 99 180
62 99 178
62 99 180
62 99 180
63 100 180
62 99 180
63 100 180
61 99 181
62 99 180
62 99 178
62 99 180
62 99 180
62 99 181
62 99 180
61 98 177
62 99 180
62 99 180
62 99 180
62 99 181
62 99 181
62 99 180
61 98 176
62 99 175
62 99 180
62 99 181
62 99 179
62 99 181
62 99 180
62 99 178
61 99 179
62 99 178
62 99 181
62 99 180
62 99 180
62 99 180
62 99 178
61 98 178
62 99 180
61 99 177
62 99 179
62 99 179
62 99 179
62 99 178
62 99 177
61 99 176
62 99 179
61 98 179
62 99 178
62 99 179
63 100 177
62 99 178
61 98 174
62 99 179
62 99 178
61 98 175
61 98 173
63 100 178
62 99 177
62 99 176
63 100 179
62 99 178
63 99 177
61 98 174
62 99 177
62 99 179
62 98 178
62 99 178
63 100 177
63 99 175
62 98 175
62 99 176
62 99 175
62 98 173
62 98 173
62 98 174
62 98 173
61 97 167
62 98 168
62 98 173
62 98 167
62 99 172
62 98 173
62 97 169
62 97 169
60 95 159
61 96 162
61 96 166
60 95 164
61 95 163
87 99 115
105 106 66
93 94 59
98 99 69
103 102 65
90 92 63
94 97 68
114 113 74
102 104 73
95 98 69
93 97 71
104 106 73
103 105 76
101 103 72
116 116 81
106 108 77
94 98 71
92 97 72
112 113 79
102 106 79
117 119 82
121 121 84
121 121 84
113 115 82
117 117 80
116 117 82
128 129 87
131 130 86
125 126 87
120 122 83
129 129 84
134 133 90
126 127 90
126 127 86
141 140 93
139 138 92
137 136 90
128 129 86
135 136 91
138 137 93
141 140 93
145 144 95
145 143 95
155 152 97
146 144 93
150 149 96
157 155 102
154 151 98
153 150 98
161 158 104
159 156 101
163 159 101
159 155 98
167 163 103
153 150 94
160 155 98
164 160 98
163 159 99
166 162 103
160 157 99
166 163 99
171 166 106
167 163 104
163 159 101
171 166 106
168 164 101
169 164 101
173 167 106
167 163 102
173 168 101
168 164 101
168 164 97
175 170 105
172 167 102
174 168 103
171 166 102
175 169 107
175 170 104
174 168 103
175 168 103
174 169 107
174 168 103
175 170 106
173 167 102
172 166 97
176 169 101
176 169 101
172 166 98
175 169 103
173 167 101
171 166 99
173 168 102
177 170 103
171 166 102
175 168 103
174 168 101
174 167 98
171 165 99
171 165 97
174 167 103
172 165 99
170 164 99
174 168 101
172 164 99
169 163 97
167 161 93
171 165 99
173 166 97
168 161 95
172 166 97
166 160 96
169 163 91
166 160 92
170 164 95
166 160 93
160 155 84
163 158 91
167 161 89
162 156 88
165 158 90
164 158 83
162 154 89
169 163 93
165 157 93
160 154 86
153 147 80
159 152 85
160 153 84
159 152 84
157 150 86
153 147 81
158 152 83
151 145 76
150 144 75
141 135 72
149 143 80
138 132 69
148 142 72
142 136 69
143 137 71
148 141 72
139 134 66
137 131 60
131 127 63
125 120 63
117 112 49
164 184 11
172 194 0
171 194 0
172 196 0
169 192 0
172 193 0
171 195 0
173 197 0
173 196 0
172 196 0
173 196 0
171 195 0
174 197 0
175 198 0
173 196 0
172 195 0
175 198 0
173 197 0
172 195 0
172 197 0
172 195 0
173 197 0
172 195 0
175 198 0
174 198 0
172 195 0
173 196 0
173 196 0
174 197 0
174 197 0
172 196 0
171 195 0
176 198 0
172 195 0
173 197 0
171 194 0
172 196 0
172 196 0
171 196 0
171 194 0
175 198 0
172 195 0
172 196 0
170 193 0
172 195 0
171 194 0
174 197 0
173 197 0
174 197 0
172 196 0
173 196 0
168 192 0
173 196 0
174 197 0
172 196 0
171 194 0
166 190 0
170 193 0
173 196 0
171 193 0
172 195 0
170 193 0
172 196 0
171 194 0
173 196 0
170 194 0
172 196 0
173 196 0
173 196 0
170 194 0
173 197 0
171 194 0
173 197 0
172 195 0
170 194 0
172 196 0
170 194 0
173 196 0
171 194 0
172 195 0
173 196 0
173 196 0
174 197 0
175 198 0
173 197 0
171 194 0
170 194 0
167 190 0
171 194 0
172 195 0
172 195 0
172 195 0
171 195 0
173 196 0
172 195 0
169 192 0
168 191 0
170 194 0
171 194 0
174 197 0
170 193 0
171 194 0
171 195 0
172 196 0
172 195 0
129 154 120
62 99 171
61 98 168
62 99 169
63 99 172
62 99 169
63 100 176
62 98 169
62 99 173
62 99 178
62 99 174
62 99 172
62 99 178
61 98 175
62 99 173
62 99 177
62 99 177
62 99 175
61 98 172
62 99 177
62 99 178
63 100 179
62 98 175
62 99 175
62 99 175
62 99 176
63 99 178
62 99 176
63 100 181
63 100 179
62 99 180
62 99 180
62 99 179
63 100 178
62 99 181
62 99 180
62 99 178
61 98 178
62 99 181
62 99 179
62 99 180
62 99 179
62 99 181
63 100 180
62 99 180
62 99 180
62 99 179
62 99 178
62 99 179
62 99 178
62 99 180
62 99 180
62 99 181
62 99 181
62 99 178
62 99 180
62 99 180
62 99 180
61 99 180
62 99 179
62 99 178
62 99 180
62 99 180
62 99 181
62 99 179
62 99 181
62 99 179
61 99 180
61 99 181
62 99 180
61 98 176
63 100 181
62 99 181
62 99 180
61 99 178
62 99 179
62 99 180
62 99 180
61 99 177
62 99 179
62 99 180
61 99 179
62 99 180
62 99 179
62 99 175
62 99 179
62 99 177
62 99 179
62 99 178
62 99 178
61 98 179
62 99 179
62 99 178
62 99 178
62 99 179
62 99 180
62 99 178
61 99 180
62 99 176
62 99 178
62 99 180
62 99 176
62 99 176
62 99 178
62 99 179
62 99 177
62 99 176
62 99 176
62 99 177
63 100 180
62 99 174
63 100 181
62 99 176
62 99 176
62 99 177
62 99 175
62 99 175
62 99 178
62 99 174
62 99 178
62 99 175
62 99 177
62 99 179
62 99 178
62 99 175
62 99 175
61 98 175
62 99 174
62 99 178
61 98 173
62 99 174
62 98 176
61 98 170
61 97 171
63 99 177
61 97 172
62 99 173
62 99 170
62 99 172
61 96 165
61 97 167
61 97 168
61 96 167
62 98 169
60 95 163
61 96 164
60 95 161
60 95 161
60 95 164
63 94 153
101 104 82
92 93 55
86 88 58
96 97 64
90 91 59
95 96 68
106 107 75
102 103 71
89 91 65
103 104 73
97 100 74
103 103 72
96 98 71
101 103 73
100 103 73
107 108 75
106 109 79
109 111 79
98 102 74
103 106 75
116 118 84
110 112 80
121 121 83
113 114 79
131 131 94
112 114 80
124 125 87
119 120 83
123 124 84
127 127 86
121 123 85
143 142 96
125 126 85
141 140 94
141 140 92
139 138 92
152 149 100
143 141 93
139 139 90
135 134 89
149 147 95
149 147 97
158 154 97
143 142 93
147 145 96
150 147 94
148 147 94
155 152 95
150 148 91
158 156 97
151 149 95
161 157 99
162 158 99
164 160 100
157 154 98
163 159 102
166 161 100
163 159 102
160 157 101
167 162 100
172 167 101
165 161 101
169 163 101
168 163 104
165 161 98
168 163 99
166 162 97
170 165 103
172 167 102
171 166 100
173 168 102
173 168 97
175 169 105
173 167 101
171 166 105
173 168 103
176 170 104
174 168 104
176 170 104
176 170 103
174 168 103
170 166 97
172 167 97
175 169 101
174 169 104
174 168 103
174 168 104
170 165 99
174 167 102
173 168 99
177 170 103
173 167 100
172 167 97
170 165 100
170 163 98
172 167 100
167 163 95
173 167 99
172 166 101
170 163 95
165 159 93
169 163 96
167 162 94
172 166 95
166 160 95
171 165 98
164 158 95
174 166 99
163 158 86
163 157 90
169 163 91
171 165 99
165 159 88
168 161 92
164 158 89
165 158 90
169 163 97
166 159 90
165 158 89
168 162 95
161 155 88
166 160 93
169 162 88
165 158 84
153 146 79
156 150 80
156 151 83
157 152 79
157 151 87
150 144 75
142 137 73
150 144 81
156 150 84
157 151 76
153 146 84
149 143 76
148 142 76
151 144 74
141 135 70
141 136 67
146 140 69
126 120 59
138 132 70
141 135 71
123 117 51
171 191 22
171 193 0
173 197 0
175 198 0
172 195 0
174 196 0
172 195 0
174 197 0
174 197 0
172 195 0
175 198 0
170 193 0
170 194 0
173 197 0
174 196 0
173 197 0
173 196 0
172 196 0
173 196 0
172 195 0
174 197 0
170 194 0
170 195 0
173 196 0
174 197 0
173 197 0
173 197 0
174 196 0
169 194 0
172 195 0
170 194 0
173 197 0
171 195 0
173 195 0
175 198 0
173 197 0
171 193 0
172 194 0
173 196 0
171 195 0
172 196 0
168 191 0
172 196 0
174 197 0
174 197 0
173 196 0
174 197 0
172 196 0
174 198 0
174 197 0
174 197 0
171 194 0
172 195 0
175 198 0
172 195 0
174 197 0
172 195 0
173 197 0
171 195 0
171 195 0
174 197 0
173 196 0
173 196 0
173 196 0
173 196 0
170 194 0
175 198 0
169 192 0
170 194 0
170 193 0
172 196 0
172 195 0
172 195 0
171 193 0
172 196 0
171 195 0
170 193 0
171 195 0
170 194 0
171 194 0
173 196 0
171 195 0
172 196 0
169 193 0
173 196 0
171 194 0
173 196 0
172 195 0
173 196 0
170 193 0
169 193 0
168 191 0
173 196 0
174 197 0
170 194 0
173 196 0
169 193 0
173 196 0
171 193 0
173 196 0
173 196 0
169 192 0
171 195 0
170 194 0
155 179 74
65 100 166
62 98 166
62 98 173
62 98 167
62 98 167
62 99 172
62 99 170
63 99 179
62 99 175
62 98 170
63 99 174
62 99 177
62 99 174
62 99 177
62 99 176
62 99 178
62 99 174
61 98 174
62 99 176
62 99 180
62 99 177
61 98 172
62 98 173
62 99 179
62 99 179
62 99 178
62 99 180
62 99 180
61 98 175
62 99 178
62 99 179
62 99 180
61 98 177
62 99 180
61 99 180
62 99 181
62 99 179
62 99 179
62 99 180
62 99 176
62 99 180
62 99 179
62 99 180
62 99 181
63 99 179
61 99 180
62 99 179
62 99 180
63 99 179
62 99 180
62 99 179
62 99 180
62 99 179
62 99 180
62 99 181
62 99 181
62 99 180
62 99 178
61 98 181
62 99 179
62 99 180
62 99 179
61 99 181
62 99 181
62 99 180
62 99 181
62 99 179
62 99 179
62 99 177
62 99 180
63 99 178
62 99 180
62 99 180
62 99 180
62 99 178
63 100 179
62 99 180
62 99 180
62 99 181
62 99 181
62 99 180
62 99 178
61 99 179
62 99 179
62 99 180
62 99 177
61 99 179
62 99 178
62 99 179
61 98 177
62 99 176
63 99 180
62 99 179
62 99 180
62 99 181
62 99 180
62 99 179
62 99 177
62 99 175
62 99 179
62 99 179
62 99 177
62 99 179
62 99 177
62 99 177
62 99 179
62 99 180
62 99 177
62 99 177
62 99 177
62 99 176
62 99 179
62 99 173
62 99 178
62 99 176
61 98 171
62 99 176
61 98 177
62 99 177
62 99 172
62 98 171
62 99 179
63 100 177
62 99 177
62 99 176
62 99 175
62 98 174
62 99 175
63 99 178
61 98 176
62 99 174
61 97 169
61 98 172
62 98 171
62 99 175
61 97 173
62 98 173
61 97 173
61 97 170
62 98 170
61 97 168
62 98 171
62 99 175
61 97 170
61 96 165
62 97 168
61 96 166
59 93 159
61 96 165
60 94 161
76 97 137
94 95 61
104 103 66
93 95 61
91 91 63
89 91 61
97 98 66
93 96 69
92 94 66
102 102 69
98 100 70
94 97 71
93 96 69
86 90 64
99 102 74
116 117 82
105 106 73
93 96 70
97 99 70
108 110 78
115 116 81
121 122 85
106 109 78
115 116 79
113 116 83
117 119 83
125 126 87
120 122 84
133 133 91
124 124 85
124 125 86
135 135 88
135 134 91
133 132 85
132 133 94
140 139 92
138 137 92
137 137 94
149 146 96
144 143 93
141 140 94
146 144 91
148 146 98
148 146 95
155 151 93
152 150 96
157 154 94
145 143 90
159 155 100
157 153 98
157 154 99
163 158 97
169 165 102
162 158 101
165 160 101
166 162 103
168 164 103
161 159 98
158 155 95
163 158 98
165 160 100
167 163 101
167 162 101
166 162 101
173 168 103
169 165 105
169 164 101
170 166 102
174 168 103
176 170 108
169 164 99
175 169 105
167 162 98
174 169 103
175 170 105
172 166 99
173 168 103
171 165 100
173 167 98
174 168 102
175 168 102
172 166 101
173 167 102
173 168 102
176 169 101
173 168 101
177 171 103
172 166 101
177 169 100
170 164 98
171 166 97
173 167 97
174 168 101
177 170 104
172 165 97
173 166 99
172 166 97
167 161 95
167 161 93
165 159 92
173 167 101
171 166 97
173 166 99
164 158 91
172 165 97
172 166 95
166 160 87
172 165 95
167 161 92
169 163 95
166 160 93
163 157 89
169 163 97
164 158 90
163 157 90
167 160 93
161 155 85
164 158 90
168 161 91
163 156 88
170 163 95
163 156 85
164 157 90
164 157 85
155 150 84
164 158 87
154 148 77
159 153 77
155 150 85
157 150 75
154 147 81
150 144 80
154 148 80
155 150 75
147 141 73
139 133 68
153 145 80
145 139 65
143 136 70
143 138 67
140 135 67
138 132 67
132 128 57
141 135 65
130 124 64
164 184 16
173 195 0
174 197 0
171 194 0
171 193 0
173 196 0
173 197 0
175 198 0
175 197 0
172 196 0
173 197 0
172 196 0
171 194 0
172 194 0
171 195 0
173 196 0
173 196 0
174 198 0
173 196 0
172 195 0
172 196 0
171 195 0
175 198 0
174 197 0
170 194 0
173 196 0
171 195 0
173 196 0
174 198 0
171 194 0
172 196 0
174 197 0
175 198 0
173 196 0
171 195 0
172 195 0
172 196 0
172 195 0
171 194 0
173 197 0
171 195 0
173 196 0
171 195 0
170 194 0
172 196 0
171 194 0
171 195 0
174 197 0
171 194 0
171 194 0
171 195 0
173 197 0
173 196 0
172 195 0
172 196 0
170 194 0
173 196 0
173 196 0
174 197 0
170 194 0
174 197 0
172 195 0
174 197 0
172 196 0
168 192 0
173 196 0
173 196 0
171 194 0
174 197 0
173 197 0
173 195 0
172 196 0
168 192 0
171 194 0
173 195 0
172 196 0
172 195 0
172 195 0
169 193 0
174 196 0
169 192 0
173 196 0
172 194 0
171 194 0
174 197 0
172 195 0
171 194 0
172 196 0
172 195 0
171 194 0
172 196 0
172 195 0
171 194 0
171 195 0
171 194 0
170 193 0
173 197 0
174 196 0
172 194 0
171 194 0
171 193 0
170 194 0
172 196 0
171 194 31
98 127 149
62 98 171
63 99 169
62 98 164
62 99 168
62 99 176
62 99 172
62 98 165
62 99 172
62 99 175
62 99 170
63 99 176
61 98 172
62 99 177
62 98 172
62 99 181
62 99 177
62 98 171
62 98 175
61 98 175
62 99 178
62 99 177
63 99 177
62 99 175
62 99 176
62 99 176
62 99 176
62 99 178
62 99 179
63 100 179
63 100 180
62 99 180
62 99 179
62 99 178
62 99 180
63 100 179
63 99 177
62 99 178
62 99 177
62 99 179
62 99 179
62 99 179
62 99 180
63 99 177
62 99 179
62 99 177
63 100 179
62 99 179
62 99 179
62 99 178
62 99 179
62 99 179
63 100 181
62 99 179
63 100 181
63 100 181
62 99 181
62 99 180
62 99 179
62 99 178
61 99 180
62 99 179
62 99 178
62 99 181
62 99 179
62 99 178
62 99 181
62 99 181
62 99 179
61 99 180
62 99 178
62 99 181
62 99 178
62 99 179
62 99 181
62 99 178
61 98 176
62 99 181
62 99 179
63 99 179
62 99 180
62 99 177
62 99 177
62 99 181
62 99 181
62 99 179
62 99 181
62 99 177
61 99 177
62 99 177
63 99 178
62 99 174
62 99 176
62 99 178
61 98 177
62 99 176
62 99 179
62 99 177
62 99 176
63 100 179
63 100 179
62 99 179
62 99 178
62 99 177
62 99 175
62 99 176
62 99 179
62 99 180
61 99 177
61 98 175
62 99 174
62 99 176
63 99 178
62 99 176
62 99 177
61 99 177
61 98 174
62 99 175
62 99 176
63 99 176
62 99 176
62 99 175
62 99 178
62 99 178
61 98 173
61 98 175
62 98 171
62 99 174
61 97 170
62 99 175
62 99 175
62 99 175
61 98 168
61 98 174
63 99 176
62 98 170
61 98 172
61 98 169
62 98 172
63 99 174
62 99 176
61 98 171
61 97 171
61 97 169
61 97 166
62 97 169
61 96 164
60 95 166
61 97 164
61 96 165
62 97 166
60 95 163
94 103 111
92 93 61
87 89 62
89 91 64
90 92 67
88 90 62
81 84 56
94 96 69
94 97 67
103 103 72
88 93 68
88 90 64
88 91 66
100 102 73
101 103 73
94 97 69
109 112 80
107 109 78
104 107 75
111 113 79
114 116 79
119 120 86
109 110 75
114 116 83
113 114 81
106 109 74
122 123 84
128 128 88
127 127 87
126 126 86
136 135 89
127 127 86
136 135 89
139 137 90
146 144 94
134 135 91
134 133 88
147 144 92
143 142 91
141 139 91
149 147 97
146 143 90
149 147 96
151 149 92
158 153 100
153 151 96
155 151 98
162 158 98
153 150 96
149 147 92
151 149 89
158 155 98
162 158 97
156 153 95
156 154 97
165 160 97
166 162 101
166 161 94
165 161 101
164 160 96
166 162 101
171 167 106
168 163 98
162 159 96
172 167 99
171 166 101
173 167 100
172 166 101
169 164 99
170 166 103
168 163 96
176 170 104
173 168 101
174 169 104
168 164 95
171 166 99
171 165 100
175 169 101
177 170 100
173 168 97
171 166 101
174 167 101
175 169 103
174 167 97
173 167 101
174 168 99
170 165 95
173 167 97
173 166 95
175 168 97
174 168 100
170 164 96
174 167 95
173 167 96
170 165 97
174 168 101
167 161 97
166 161 91
171 165 95
172 166 100
171 166 97
175 168 99
165 160 93
169 163 94
172 165 100
170 164 94
167 161 93
169 162 89
172 166 97
169 163 99
161 155 90
164 157 90
164 158 93
161 155 87
169 163 96
160 154 79
164 157 88
159 153 85
163 157 85
162 156 86
159 152 83
151 145 75
158 152 87
150 145 77
165 158 91
153 148 77
153 148 79
152 146 75
145 140 75
149 144 74
158 150 78
150 145 74
149 143 73
152 146 75
148 142 73
139 133 62
144 138 71
136 130 66
138 133 68
137 131 60
134 129 58
134 129 59
135 130 62
128 121 61
170 191 11
175 196 0
171 194 0
174 195 0
171 194 0
172 196 0
171 195 0
172 195 0
175 197 0
171 194 0
171 195 0
172 195 0
173 196 0
172 195 0
172 196 0
176 198 0
175 198 0
173 196 0
172 196 0
172 195 0
173 197 0
172 196 0
173 196 0
175 198 0
170 194 0
173 196 0
171 194 0
173 197 0
171 195 0
173 196 0
172 196 0
172 196 0
174 198 0
169 194 0
175 198 0
171 195 0
173 196 0
172 195 0
172 195 0
171 195 0
170 194 0
172 196 0
170 193 0
173 196 0
172 196 0
171 195 0
173 197 0
172 195 0
172 195 0
174 197 0
174 197 0
172 195 0
173 196 0
171 195 0
171 194 0
171 195 0
171 195 0
172 196 0
173 197 0
172 196 0
173 195 0
170 193 0
173 197 0
173 196 0
172 195 0
175 197 0
169 192 0
172 195 0
173 197 0
171 195 0
170 194 0
171 195 0
174 197 0
172 196 0
169 193 0
173 196 0
172 195 0
173 196 0
169 192 0
171 195 0
171 193 0
171 194 0
171 195 0
171 195 0
166 189 0
170 194 0
172 196 0
173 196 0
173 195 0
170 194 0
172 194 0
168 192 0
172 195 0
170 193 0
172 195 0
172 195 0
171 194 0
172 196 0
170 194 0
172 196 0
172 195 0
170 193 0
172 195 0
131 157 114
62 99 165
61 98 168
62 98 170
62 99 174
62 99 176
62 98 168
63 100 173
62 99 170
62 99 173
62 99 175
61 98 174
62 99 173
62 99 171
61 98 171
63 100 174
63 99 174
62 99 177
62 99 177
62 99 180
62 99 176
63 99 177
62 99 177
63 100 180
62 99 175
62 99 176
62 99 177
62 99 175
62 99 176
62 99 177
62 99 180
63 99 177
62 99 175
62 99 178
62 99 179
62 99 180
62 99 180
62 99 179
62 99 179
62 99 180
62 99 178
63 100 178
62 99 178
62 99 180
62 99 179
62 99 179
61 99 181
62 99 178
62 99 179
62 99 179
62 99 180
62 99 179
62 99 179
62 99 181
61 98 178
62 99 179
62 99 178
62 99 181
62 99 179
62 99 181
62 99 178
61 98 176
62 99 180
62 99 180
62 99 179
63 100 181
62 99 178
62 99 179
62 99 179
62 99 180
62 99 178
62 99 180
62 99 179
62 99 181
63 100 180
61 99 179
62 99 179
61 99 176
62 99 179
62 99 179
62 99 181
62 99 179
62 99 177
61 99 179
61 98 175
62 99 177
62 99 180
62 99 180
62 99 179
62 99 177
62 99 179
61 98 179
62 99 180
62 99 176
62 99 177
62 99 176
62 99 178
62 99 180
63 100 178
62 99 176
62 99 181
62 99 178
62 99 178
62 99 176
62 99 179
62 99 178
62 99 175
61 99 178
62 99 177
62 99 177
62 99 177
62 99 175
62 99 177
63 100 181
62 99 176
62 99 176
61 98 176
62 99 176
62 99 178
62 99 174
62 99 173
62 99 176
62 98 170
62 98 169
62 99 173
62 99 177
62 99 176
61 98 172
61 98 174
62 99 175
62 98 172
62 98 172
62 99 177
62 98 174
62 99 174
62 99 174
61 98 171
62 98 172
61 96 165
61 97 168
62 98 168
61 97 170
61 97 168
61 97 170
61 96 167
61 97 165
62 98 171
61 97 168
61 95 164
61 96 162
60 95 165
60 95 162
58 91 148
61 91 148
85 89 64
102 102 69
84 85 58
85 86 58
72 76 56
91 92 64
84 86 61
88 92 69
78 82 61
90 93 67
108 109 77
94 97 69
94 98 72
94 97 70
94 98 71
100 102 71
96 100 73
106 108 77
99 101 70
116 119 84
113 114 79
104 106 75
117 118 80
117 118 82
116 117 81
127 127 85
124 126 87
136 135 90
127 128 84
124 124 81
129 129 86
140 139 91
130 131 86
135 134 89
142 140 93
134 134 92
133 132 89
140 139 93
146 144 93
145 144 89
150 148 97
149 146 92
147 145 93
154 151 98
148 146 95
156 152 97
157 153 97
156 153 98
154 151 92
160 157 95
161 157 99
159 156 97
158 155 98
164 159 102
165 161 100
160 157 100
167 162 100
163 160 98
166 162 99
164 160 100
163 160 100
172 166 103
169 164 100
171 165 99
172 166 100
168 163 100
174 168 103
171 166 98
174 168 103
172 166 96
175 168 101
170 165 101
173 168 102
171 166 97
173 168 103
176 170 102
168 163 100
175 169 99
169 165 99
173 168 102
170 165 96
172 166 97
170 165 97
171 166 97
170 164 96
172 166 97
176 169 101
175 169 98
169 164 97
171 166 99
172 166 95
174 169 101
172 166 98
173 167 102
171 165 100
175 169 99
174 167 96
168 162 94
175 169 98
171 165 97
173 166 99
165 160 93
169 163 97
171 166 98
172 165 96
163 157 85
170 163 93
167 161 90
171 164 95
168 161 96
164 157 89
161 156 86
160 154 87
165 159 92
160 154 87
167 161 90
165 159 89
159 153 90
158 151 87
163 157 87
158 152 84
163 155 86
161 155 89
160 154 81
153 148 79
158 152 84
156 150 80
146 141 74
151 146 80
152 147 76
147 141 67
152 145 78
161 153 79
145 139 75
150 144 73
138 133 64
144 138 66
143 137 66
139 133 65
142 137 61
132 127 60
133 127 61
131 126 54
172 195 0
174 196 0
170 193 0
172 195 0
172 194 0
174 197 0
171 195 0
173 196 0
173 196 0
172 196 0
173 197 0
172 196 0
172 195 0
172 195 0
173 196 0
171 195 0
173 197 0
171 195 0
172 195 0
174 197 0
173 196 0
175 198 0
175 198 0
172 196 0
172 195 0
172 196 0
173 197 0
172 195 0
173 195 0
173 196 0
173 196 0
174 197 0
170 194 0
171 194 0
174 197 0
171 195 0
173 197 0
172 196 0
171 195 0
173 196 0
174 197 0
172 195 0
172 196 0
172 195 0
172 195 0
171 194 0
170 194 0
170 194 0
172 195 0
170 194 0
172 195 0
170 193 0
172 195 0
173 196 0
174 197 0
171 194 0
172 196 0
172 195 0
170 194 0
175 198 0
174 197 0
174 197 0
174 197 0
173 197 0
171 194 0
173 196 0
170 194 0
169 192 0
171 195 0
173 197 0
169 193 0
171 195 0
170 194 0
172 195 0
171 195 0
172 196 0
173 196 0
170 193 0
172 196 0
172 195 0
173 196 0
167 190 0
173 196 0
171 194 0
170 194 0
171 194 0
170 192 0
170 193 0
171 195 0
168 193 0
173 195 0
170 194 0
169 192 0
171 194 0
173 196 0
172 195 0
171 194 0
171 194 0
172 195 0
168 191 0
169 193 0
170 194 0
162 184 65
71 105 157
61 98 166
62 99 169
63 99 172
62 99 171
62 99 169
62 99 172
62 99 177
63 99 171
62 98 166
63 99 176
63 99 174
61 98 172
63 100 178
63 99 175
62 99 177
62 99 174
62 99 177
63 99 174
63 99 175
62 99 176
62 99 178
62 99 178
62 99 177
62 99 176
62 99 178
62 99 176
62 99 176
62 98 173
62 99 177
63 99 177
62 99 178
62 99 178
63 100 178
62 99 178
62 99 179
62 99 180
62 99 179
62 99 180
62 99 179
62 99 180
62 99 175
62 99 180
62 99 180
62 99 177
62 99 181
62 99 181
62 99 176
62 99 177
62 99 180
61 98 179
62 99 180
62 99 177
62 99 179
62 99 180
62 99 180
62 99 179
62 99 179
62 99 181
62 99 179
61 99 179
62 99 178
62 99 177
62 99 180
62 99 181
61 98 177
62 99 179
62 99 179
62 99 180
62 99 180
62 99 181
61 98 176
62 99 176
62 99 180
62 99 179
62 99 179
62 99 178
61 98 178
62 99 177
62 99 179
62 99 179
61 98 178
62 99 178
61 98 178
61 99 178
62 99 179
61 98 178
62 99 178
62 99 178
62 99 178
62 99 180
62 99 178
62 99 178
62 99 178
62 99 179
62 99 179
62 99 177
62 99 180
62 99 177
62 99 180
61 98 175
62 99 177
62 99 179
62 99 180
62 99 179
62 99 179
62 99 175
61 98 172
62 99 178
61 98 177
62 99 178
61 98 171
62 99 178
63 99 175
62 98 172
62 99 176
62 99 172
61 98 174
63 99 178
62 99 177
62 99 175
62 99 176
62 99 177
61 98 170
63 100 177
63 99 173
62 98 173
62 98 170
62 98 173
61 98 173
62 99 175
61 98 172
62 99 174
62 99 171
62 98 172
62 98 171
62 99 174
62 98 172
62 98 171
63 100 177
62 98 170
62 99 175
61 97 167
61 97 170
62 98 171
62 97 167
62 97 170
61 96 165
62 97 166
61 96 164
61 97 165
60 94 163
60 95 165
61 95 165
77 95 129
90 91 58
83 85 56
92 94 65
87 89 58
78 81 57
75 79 59
72 77 59
89 92 66
81 85 62
89 92 66
91 93 67
90 93 68
87 91 67
75 81 64
103 104 71
85 91 70
112 113 78
114 115 81
107 109 78
114 114 78
112 115 82
120 120 83
116 117 80
112 113 78
106 110 77
117 119 79
117 119 81
121 122 79
130 129 85
135 134 89
124 124 83
126 127 83
129 129 82
129 130 85
138 138 89
144 143 93
135 135 87
142 141 90
144 142 90
149 146 93
151 149 96
146 145 88
154 151 94
153 150 96
150 148 94
149 146 92
156 153 98
155 152 96
158 155 100
161 156 100
167 162 97
160 156 97
158 154 96
163 159 100
164 160 95
164 160 95
160 157 95
163 159 97
168 164 101
171 166 103
166 162 100
167 162 102
168 163 101
167 163 99
166 161 95
170 165 100
168 163 97
170 165 101
173 167 100
174 167 101
174 169 103
168 164 98
175 169 103
174 168 101
176 169 102
171 165 96
177 170 98
169 164 98
175 169 102
176 169 100
172 166 97
172 166 96
172 167 99
177 169 100
175 168 100
171 166 97
171 165 95
171 165 99
173 166 98
169 164 99
175 168 99
169 163 90
172 165 96
171 165 97
171 165 99
171 165 98
174 167 98
175 168 98
170 164 95
173 166 99
168 162 94
168 163 94
170 163 90
167 163 93
167 161 92
171 163 88
163 157 85
164 157 89
167 160 93
168 161 92
165 159 90
173 165 92
164 157 88
166 159 85
161 155 87
167 159 93
166 159 92
161 155 87
160 153 88
158 152 78
162 155 82
152 147 79
155 148 81
155 148 82
162 155 85
152 146 85
153 147 75
150 144 76
161 153 85
149 142 75
154 148 78
147 141 68
146 140 67
147 142 70
147 141 71
142 137 61
135 130 61
137 132 64
138 132 62
134 128 63
129 123 54
119 118 44
173 197 0
172 194 0
173 196 0
173 196 0
174 196 0
172 194 0
175 198 0
174 197 0
173 197 0
175 197 0
172 195 0
172 196 0
174 197 0
173 196 0
173 197 0
172 197 0
173 197 0
172 196 0
173 195 0
172 196 0
174 198 0
175 198 0
171 193 0
173 196 0
174 197 0
173 196 0
173 196 0
173 197 0
172 196 0
172 196 0
171 194 0
172 195 0
172 196 0
174 197 0
173 196 0
173 196 0
171 194 0
171 194 0
169 193 0
171 195 0
173 197 0
173 196 0
170 193 0
170 194 0
170 194 0
173 196 0
170 193 0
173 196 0
172 195 0
174 197 0
173 196 0
175 198 0
171 195 0
171 194 0
171 194 0
169 192 0
173 195 0
173 197 0
172 195 0
174 197 0
172 195 0
172 195 0
168 192 0
171 194 0
176 198 0
173 195 0
170 193 0
173 196 0
172 196 0
168 193 0
175 198 0
170 192 0
174 196 0
173 196 0
170 193 0
172 195 0
170 193 0
171 194 0
171 194 0
171 196 0
170 194 0
170 192 0
167 191 0
172 195 0
174 198 0
172 194 0
172 196 0
171 194 0
171 195 0
172 195 0
169 192 0
172 195 0
174 197 0
169 193 0
171 195 0
171 194 0
173 196 0
166 190 0
174 197 0
173 196 0
165 188 0
170 195 0
120 145 131
62 98 162
61 97 164
63 99 172
63 99 171
63 99 172
62 99 169
62 98 172
62 99 173
62 99 168
62 99 174
62 99 171
62 99 174
62 99 175
62 99 173
62 99 173
61 98 171
63 99 173
62 99 176
62 99 176
62 99 173
62 99 175
62 99 176
62 99 174
61 98 177
62 98 172
62 98 171
62 99 173
62 99 177
62 99 177
62 99 176
63 99 177
62 99 177
62 99 178
63 100 179
62 99 176
62 99 180
62 99 181
63 100 180
63 100 180
62 99 178
62 99 179
63 100 180
63 99 180
62 99 178
62 99 180
62 99 177
62 99 177
63 100 179
62 99 180
61 99 181
62 99 179
63 100 179
62 99 178
61 98 179
62 99 179
62 99 179
62 99 176
62 99 180
61 99 180
62 99 179
62 99 181
62 99 180
62 99 179
62 99 179
62 99 180
62 99 178
62 99 178
62 99 180
61 98 175
62 99 181
61 99 180
62 99 178
61 98 176
62 99 181
61 99 180
62 99 175
61 99 180
61 99 179
62 99 175
62 99 179
62 99 180
62 99 177
62 99 179
62 99 175
62 99 178
62 99 177
62 99 177
61 99 177
62 99 179
62 99 177
61 99 178
62 99 178
62 99 180
62 99 177
62 99 175
62 99 178
62 99 179
62 99 179
62 99 177
62 99 178
62 99 178
61 98 176
62 99 178
62 99 177
62 99 179
61 98 172
63 100 179
61 98 174
61 99 177
61 99 176
63 99 179
62 99 178
61 98 174
62 99 174
62 99 179
62 99 177
62 99 175
63 99 174
62 99 177
62 99 179
61 98 175
63 99 177
62 99 173
62 99 175
62 99 178
61 97 170
62 99 173
62 99 174
62 99 173
62 99 174
62 99 175
62 99 176
61 98 174
62 99 176
61 98 171
62 98 170
61 97 171
62 98 171
63 100 177
62 98 174
62 99 172
61 97 169
62 98 172
61 96 167
61 97 171
61 97 173
61 97 169
61 97 170
61 96 161
61 96 165
61 96 167
60 94 159
60 95 159
60 94 158
59 92 154
88 95 94
85 86 61
88 88 59
91 94 63
85 88 62
89 92 66
67 74 59
84 86 61
83 87 66
94 96 69
100 101 71
92 95 68
95 97 68
85 88 64
89 93 67
98 101 72
99 102 73
99 102 75
105 107 76
98 103 75
121 121 81
116 117 81
104 108 76
109 112 79
118 119 83
129 128 85
110 112 76
113 115 77
129 128 87
123 124 80
134 134 86
133 133 91
134 133 85
136 136 90
136 134 89
139 139 90
148 146 96
140 139 90
133 132 83
145 144 93
148 145 95
153 149 90
147 144 89
155 151 94
154 151 93
150 147 95
152 149 93
151 149 94
160 156 100
158 154 96
161 156 97
161 157 95
162 158 96
158 155 93
156 153 95
164 159 98
159 155 93
166 161 102
167 161 96
166 163 103
167 162 98
167 162 93
162 158 97
169 163 100
168 162 93
170 165 98
172 167 99
171 166 98
172 166 97
173 167 103
170 164 94
172 166 96
175 169 103
171 166 98
175 169 101
172 166 98
176 170 102
176 170 104
171 165 98
173 166 100
178 172 106
176 170 99
172 166 97
174 168 99
170 164 93
174 168 98
171 165 96
172 166 97
175 168 97
174 168 96
168 163 96
172 167 97
175 168 97
170 164 98
170 164 96
170 164 93
168 162 93
167 162 85
169 163 95
173 166 99
168 162 90
169 163 90
171 165 93
165 160 90
167 160 92
170 164 96
166 160 87
167 161 90
164 157 88
165 159 87
168 161 89
164 158 90
159 153 84
163 156 87
162 156 84
156 150 83
159 153 84
160 153 85
153 147 81
156 150 80
157 151 80
159 153 82
157 151 81
159 152 82
162 156 87
146 140 74
163 155 84
151 145 75
152 147 72
159 153 84
152 144 77
147 140 74
143 137 68
148 142 76
143 137 68
131 125 62
144 138 70
119 114 56
131 126 57
141 135 67
143 138 69
138 139 48
173 195 0
171 192 0
173 195 0
172 194 0
171 192 0
174 196 0
172 196 0
174 197 0
170 193 0
173 197 0
172 195 0
173 196 0
171 195 0
170 193 0
174 198 0
173 196 0
175 197 0
173 197 0
174 197 0
173 196 0
172 195 0
170 194 0
172 195 0
172 196 0
170 194 0
172 196 0
170 195 0
173 196 0
174 197 0
171 195 0
171 195 0
171 196 0
174 197 0
172 195 0
172 195 0
171 194 0
174 198 0
170 194 0
170 194 0
175 197 0
170 194 0
170 194 0
172 195 0
171 195 0
174 197 0
172 195 0
174 197 0
172 195 0
170 194 0
173 196 0
172 196 0
170 194 0
171 194 0
169 192 0
173 196 0
171 194 0
173 196 0
172 195 0
173 196 0
172 196 0
169 194 0
168 191 0
171 195 0
172 195 0
172 195 0
170 194 0
171 194 0
171 194 0
167 191 0
174 197 0
170 194 0
172 196 0
171 194 0
170 193 0
169 192 0
170 194 0
173 196 0
174 197 0
171 194 0
173 196 0
171 194 0
171 195 0
173 197 0
172 195 0
171 195 0
172 196 0
171 194 0
172 195 0
171 195 0
173 195 0
171 194 0
171 195 0
171 195 0
167 191 0
172 195 0
171 194 0
173 196 0
171 194 0
170 194 0
169 192 0
170 193 0
149 174 72
61 98 165
62 99 166
63 99 167
62 99 168
62 99 173
63 99 172
62 98 164
62 99 174
62 99 173
62 98 172
62 99 175
62 99 172
62 99 175
63 100 177
62 99 171
62 99 171
62 98 171
62 99 175
62 99 177
62 99 176
62 99 173
62 99 177
62 99 174
62 99 177
62 99 177
62 99 171
63 100 180
63 99 178
62 99 180
62 99 178
61 98 176
62 99 180
62 99 176
62 99 179
62 99 177
62 99 178
63 100 180
62 99 178
61 98 175
61 98 176
62 99 178
62 99 177
62 99 180
62 99 179
63 100 179
62 99 180
63 100 180
62 99 178
62 99 179
62 99 178
62 99 180
62 99 179
62 99 178
62 99 178
62 99 178
62 99 180
62 99 179
62 99 178
62 99 180
63 100 180
62 99 178
62 99 178
63 100 181
62 99 180
62 99 178
62 99 175
62 99 179
62 99 180
61 99 178
62 99 179
62 99 179
62 99 179
61 98 177
63 99 179
61 99 177
62 99 180
61 99 179
61 98 177
61 98 176
62 99 180
62 99 181
61 98 178
62 99 180
62 99 181
62 99 179
62 99 175
62 99 181
63 100 178
62 99 176
62 99 180
62 99 178
62 99 176
61 98 177
61 99 177
62 99 175
62 99 177
62 99 177
63 99 179
61 98 176
62 99 178
62 99 176
62 99 178
62 99 177
61 99 178
63 100 177
62 98 175
62 99 178
63 100 178
62 99 177
62 99 179
62 99 173
62 99 178
62 99 177
62 99 178
62 99 177
62 99 175
62 99 173
62 99 178
62 99 176
63 100 180
62 98 169
62 99 174
62 99 177
62 99 172
62 99 176
62 99 174
62 98 171
63 100 178
62 99 173
61 97 170
62 99 177
61 97 167
62 99 175
63 100 177
62 99 174
61 97 170
62 98 171
62 98 175
61 98 170
62 99 174
61 97 170
61 97 165
61 97 170
61 97 166
62 98 169
61 97 169
62 98 169
61 97 168
62 98 168
61 97 171
61 96 165
62 98 171
60 95 158
60 95 159
60 95 163
59 93 159
62 90 139
85 85 59
74 77 54
82 85 57
87 90 64
79 81 55
98 99 65
73 76 55
85 87 64
85 89 62
93 96 68
67 74 57
82 86 62
83 89 65
93 97 70
81 88 69
108 108 75
99 101 69
113 115 79
108 111 78
110 111 74
109 109 74
113 115 80
116 117 77
109 110 75
119 120 82
120 121 81
128 128 84
124 126 85
130 130 85
133 133 90
129 128 82
138 137 85
136 135 89
141 140 92
145 144 94
144 142 90
139 137 88
151 148 95
149 146 91
145 143 91
153 151 97
145 142 91
155 151 92
153 151 95
149 148 93
156 153 95
159 156 97
160 156 96
157 153 93
156 152 89
160 156 97
167 161 96
165 161 100
154 151 97
158 154 93
161 157 93
167 163 101
162 157 90
161 158 96
172 167 99
169 163 93
165 161 97
164 159 96
170 164 100
165 160 96
169 164 97
170 165 100
171 165 97
169 163 95
170 164 92
171 165 97
176 170 101
173 167 97
171 166 98
167 162 93
174 167 98
173 167 97
170 164 94
175 169 101
169 163 94
173 167 93
174 168 95
174 167 99
172 166 100
172 166 96
172 166 98
171 165 94
169 163 93
171 165 89
166 161 95
170 164 91
173 167 96
168 162 95
171 165 98
169 162 93
167 161 88
168 163 93
173 167 93
168 162 91
165 159 89
168 161 89
170 163 97
169 163 95
165 159 86
172 165 95
172 166 93
169 164 96
172 165 98
165 158 87
163 157 87
169 162 91
163 158 87
168 162 95
163 156 88
165 158 87
158 151 84
158 153 83
162 155 89
155 149 80
161 154 86
161 155 81
154 148 81
159 154 79
148 142 75
152 146 76
158 151 81
153 147 75
156 149 80
154 147 76
143 137 73
146 139 75
152 145 77
156 149 82
143 137 71
140 134 67
135 129 69
130 125 58
134 130 59
136 130 60
118 112 53
132 135 42
173 196 0
171 193 0
172 195 0
172 195 0
172 194 0
172 195 0
173 196 0
172 196 0
171 194 0
171 194 0
172 196 0
173 196 0
170 194 0
174 197 0
173 197 0
174 197 0
172 197 0
170 194 0
172 195 0
171 195 0
172 195 0
173 197 0
169 194 0
171 195 0
172 196 0
170 193 0
170 194 0
171 195 0
169 194 0
169 192 0
173 197 0
173 196 0
173 196 0
172 195 0
172 196 0
172 196 0
172 195 0
172 195 0
170 193 0
171 195 0
171 194 0
172 195 0
168 192 0
172 196 0
172 196 0
171 194 0
172 195 0
172 196 0
173 197 0
172 195 0
172 195 0
172 196 0
171 194 0
170 193 0
174 197 0
171 195 0
172 196 0
171 194 0
171 195 0
172 196 0
173 196 0
172 195 0
171 195 0
169 192 0
169 192 0
170 194 0
172 196 0
171 194 0
168 192 0
169 194 0
172 195 0
171 194 0
173 196 0
172 196 0
172 195 0
168 191 0
169 193 0
172 195 0
169 193 0
171 194 0
171 194 0
171 195 0
168 191 0
172 195 0
167 191 0
174 197 0
171 194 0
169 194 0
171 195 0
171 193 0
172 196 0
172 195 0
169 192 0
170 193 0
169 193 0
172 194 0
169 193 0
171 195 0
171 194 0
170 193 0
168 192 0
101 129 144
63 99 172
63 99 171
62 98 169
62 99 172
62 99 171
63 100 177
61 98 165
62 98 169
62 99 172
63 99 174
62 99 173
62 99 175
62 99 173
62 98 170
62 99 177
63 99 179
63 100 174
62 99 173
62 99 176
61 98 168
62 99 177
62 99 173
62 99 173
63 99 177
62 99 175
62 99 176
63 99 175
62 99 176
63 100 181
63 99 178
61 98 176
61 98 175
63 99 178
62 99 179
62 99 179
62 99 178
62 99 180
62 99 178
62 99 178
63 99 177
62 99 176
62 99 180
62 99 176
62 99 178
63 100 180
62 99 177
62 99 180
62 99 179
62 99 178
62 99 180
62 99 178
62 99 181
62 99 178
62 99 176
62 99 180
62 99 176
63 99 178
62 99 181
62 99 179
62 99 178
61 99 180
63 100 180
62 99 179
61 98 177
62 99 179
62 99 181
62 99 175
62 99 175
62 99 178
62 99 179
62 99 177
62 99 179
62 99 181
63 99 175
62 99 180
62 99 176
62 99 179
61 98 178
63 99 176
63 100 181
62 99 178
63 100 179
62 99 175
62 99 176
62 99 176
62 99 177
62 99 175
62 99 180
62 99 180
62 99 177
62 99 179
62 99 178
62 99 177
62 99 179
62 99 179
63 100 178
62 99 176
63 99 178
62 99 177
62 99 176
63 100 180
62 99 177
62 99 181
62 99 177
62 99 178
63 100 179
62 99 178
63 99 178
63 100 175
62 99 179
62 99 176
62 99 176
62 99 175
62 99 174
62 99 177
61 98 175
63 99 176
62 99 175
62 99 176
63 99 176
62 98 175
62 99 172
61 98 172
62 98 174
62 99 177
61 98 175
62 98 169
62 99 176
61 98 170
62 99 174
62 98 175
61 98 163
63 99 174
62 99 175
61 98 173
61 97 167
63 100 175
62 98 170
62 99 173
62 98 173
61 97 168
62 98 173
61 98 170
62 98 172
61 97 167
61 97 161
62 98 170
60 96 162
61 97 164
61 97 169
61 97 166
62 97 163
61 97 168
61 96 164
60 93 154
60 94 156
58 92 155
72 84 102
80 84 62
74 78 56
66 73 56
58 66 54
86 89 65
73 77 57
80 84 60
78 82 62
81 84 59
100 102 72
79 84 62
84 90 67
96 100 72
94 98 70
95 99 72
94 98 72
91 95 64
105 107 72
110 112 76
119 121 81
118 119 79
120 120 82
110 112 73
109 113 82
105 107 73
127 127 84
127 127 87
112 114 77
122 123 81
136 135 88
124 124 79
127 128 83
139 138 88
140 140 91
143 141 90
143 143 92
141 139 91
148 145 92
141 139 87
144 141 92
150 148 93
153 149 94
151 149 91
148 146 92
152 148 92
159 155 92
158 155 96
154 151 95
163 158 98
156 151 89
165 161 98
158 154 93
161 158 98
160 157 96
165 159 95
166 161 95
164 160 97
164 159 94
165 160 95
172 166 102
167 162 97
168 163 96
172 168 103
170 164 97
172 166 99
170 164 95
164 160 91
171 165 97
170 165 100
169 164 92
166 162 97
172 166 99
174 168 100
170 165 97
173 167 99
172 167 100
171 166 98
173 166 100
170 164 94
171 164 93
173 167 103
174 168 100
170 165 97
170 163 91
174 168 97
167 161 93
169 164 90
175 169 99
175 168 99
168 162 86
169 163 90
170 163 90
167 161 93
170 164 90
169 161 95
168 162 93
169 162 95
172 165 92
167 161 94
174 167 95
166 161 90
167 161 93
172 165 94
162 157 90
158 152 79
167 161 90
171 163 93
165 159 87
162 156 86
165 158 87
164 157 84
165 158 86
162 157 82
156 151 80
158 153 78
158 152 84
156 151 79
166 158 85
163 156 86
154 148 79
156 150 69
162 155 86
155 148 73
159 152 80
150 144 79
155 150 78
144 138 71
154 146 79
148 142 67
146 141 67
146 140 72
147 141 75
139 133 61
138 132 65
139 134 65
140 134 65
137 131 61
125 120 52
120 117 44
144 153 37
171 194 0
171 193 0
173 195 0
174 196 0
171 194 0
172 195 0
173 196 0
173 196 0
173 196 0
174 197 0
172 196 0
172 195 0
172 195 0
173 197 0
172 196 0
172 196 0
172 196 0
172 195 0
173 196 0
172 196 0
172 196 0
174 197 0
174 198 0
175 198 0
174 198 0
172 195 0
173 197 0
170 193 0
171 195 0
172 195 0
174 197 0
170 194 0
174 196 0
173 197 0
170 194 0
173 196 0
174 197 0
173 197 0
172 196 0
174 196 0
172 196 0
172 196 0
171 194 0
171 194 0
174 198 0
174 198 0
171 194 0
174 198 0
175 198 0
170 193 0
173 196 0
171 195 0
170 194 0
171 195 0
168 193 0
171 195 0
171 195 0
170 194 0
173 197 0
171 196 0
171 195 0
170 194 0
171 194 0
171 195 0
170 193 0
168 192 0
173 197 0
169 193 0
171 194 0
173 196 0
173 196 0
170 193 0
175 198 0
172 196 0
172 195 0
173 195 0
172 195 0
171 195 0
170 194 0
172 195 0
172 196 0
170 194 0
170 193 0
172 195 0
170 194 0
173 195 0
172 195 0
169 193 0
170 194 0
171 194 0
170 194 0
170 194 0
169 192 0
170 195 0
170 193 0
166 189 0
172 195 0
172 195 0
171 194 0
172 195 0
143 167 95
63 99 168
62 98 167
63 99 170
62 98 170
62 98 162
62 98 171
63 99 170
62 98 166
61 98 170
63 99 174
63 99 176
62 99 171
62 99 174
62 99 173
63 99 173
62 99 177
62 99 177
62 99 175
62 99 176
62 99 174
62 99 176
62 99 179
62 99 180
62 99 177
62 99 177
63 99 176
62 99 174
62 98 171
62 99 177
62 99 174
62 99 175
62 99 175
62 99 177
61 98 176
62 99 179
62 99 180
62 99 180
62 99 179
63 99 179
62 98 176
63 100 180
62 99 176
62 99 178
62 99 178
62 99 176
62 99 179
63 100 181
62 99 177
63 100 181
62 99 180
62 99 178
63 100 178
61 98 176
62 99 180
62 99 180
62 99 179
62 98 173
62 99 178
62 99 180
62 99 181
62 99 178
62 99 177
62 99 176
62 99 179
62 99 178
61 99 179
61 98 176
62 99 178
62 99 179
63 99 179
62 99 178
61 98 180
62 99 177
62 99 179
62 99 176
62 99 178
62 99 179
62 99 181
62 99 176
62 99 180
62 99 178
63 99 178
62 99 174
62 99 178
62 99 178
62 99 177
62 99 179
62 99 180
62 99 179
62 99 179
62 99 176
62 99 176
62 99 175
62 99 178
62 99 178
63 99 179
62 99 178
63 99 177
62 99 177
62 99 175
62 99 179
62 99 178
61 98 177
62 99 176
62 99 177
63 100 175
62 99 174
62 99 177
61 98 174
62 99 176
62 98 173
62 99 180
62 99 172
62 98 172
62 98 171
62 99 178
62 99 177
61 98 171
61 98 174
62 99 175
62 99 176
62 99 173
62 99 179
62 99 174
62 99 175
62 98 172
62 99 174
62 99 176
62 98 176
62 98 172
62 99 173
62 99 176
63 99 174
62 99 171
62 98 169
62 99 175
62 98 167
63 99 174
62 99 173
61 98 173
62 98 174
62 98 169
63 99 177
62 98 171
61 97 165
62 99 172
61 97 163
62 99 172
61 96 170
62 97 166
62 97 167
61 96 163
61 95 161
61 97 168
60 95 162
61 96 161
60 94 156
61 96 163
55 87 148
71 74 54
67 72 52
69 73 53
78 81 55
77 81 56
70 75 56
86 89 65
81 85 63
84 87 60
88 91 64
86 90 65
93 95 67
82 87 62
99 102 70
91 95 66
102 104 74
90 95 69
97 101 71
114 115 78
110 111 74
110 112 75
123 124 83
118 119 81
118 119 80
113 115 78
110 111 75
125 126 82
131 131 85
107 110 72
134 132 88
136 135 88
129 129 87
141 140 91
140 138 89
135 134 84
138 138 90
144 142 91
143 141 88
153 150 90
149 146 93
141 139 91
155 151 93
151 149 88
157 154 94
158 155 99
155 151 94
156 153 88
155 151 94
157 154 92
156 152 94
160 155 89
160 155 95
158 155 95
159 155 92
167 162 99
167 162 97
159 155 88
168 162 97
170 164 100
169 163 99
166 162 94
167 162 98
169 164 94
175 168 100
173 168 103
167 162 96
167 161 90
169 164 101
173 166 96
171 164 94
174 167 99
171 165 93
169 164 97
174 168 100
172 166 98
172 166 97
175 168 102
170 164 93
169 163 91
170 164 97
166 161 90
173 166 96
170 164 93
172 166 99
174 167 95
173 166 96
167 162 93
165 159 90
172 166 95
172 165 95
170 163 96
170 163 91
174 167 95
168 161 91
171 165 93
169 163 93
166 159 88
175 167 95
167 162 90
170 164 90
166 159 89
169 164 94
171 164 95
166 159 90
167 161 93
161 155 82
165 159 87
164 159 84
167 161 86
165 159 90
159 154 84
163 158 90
160 153 79
161 154 84
168 161 90
167 159 87
163 157 88
157 150 81
158 151 78
164 156 85
147 142 70
158 151 84
156 149 80
155 149 76
162 155 83
150 144 72
157 151 80
140 134 63
148 142 67
145 140 69
147 141 67
145 139 68
137 131 62
136 131 61
139 134 58
140 133 62
142 136 65
142 136 65
127 121 56
158 167 37
171 194 0
174 197 0
175 196 0
172 194 0
172 192 0
172 194 0
174 197 0
172 196 0
174 197 0
171 194 0
175 198 0
173 196 0
173 197 0
172 196 0
173 196 0
173 196 0
172 196 0
172 195 0
172 196 0
173 196 0
174 197 0
174 197 0
173 196 0
173 196 0
171 194 0
172 195 0
173 197 0
169 193 0
174 197 0
173 196 0
172 196 0
173 197 0
172 196 0
172 195 0
173 195 0
172 195 0
174 197 0
172 196 0
172 196 0
170 194 0
173 196 0
170 193 0
173 197 0
170 194 0
173 196 0
173 196 0
173 197 0
171 194 0
170 194 0
172 196 0
173 197 0
171 194 0
169 192 0
173 196 0
171 195 0
169 193 0
170 193 0
173 196 0
171 195 0
171 194 0
172 195 0
169 192 0
171 195 0
172 196 0
170 193 0
173 196 0
172 195 0
172 195 0
173 196 0
171 194 0
172 195 0
171 194 0
173 195 0
172 195 0
172 195 0
173 197 0
170 193 0
168 191 0
167 191 0
170 194 0
174 196 0
170 193 0
168 191 0
164 186 0
173 196 0
168 191 0
173 196 0
169 193 0
171 195 0
172 195 0
171 194 0
171 195 0
170 193 0
171 193 0
171 194 0
172 196 0
172 194 0
172 194 0
173 196 0
169 191 0
92 121 148
62 98 165
62 99 170
62 99 168
62 99 174
62 98 163
62 99 170
62 99 169
63 99 172
63 99 167
61 98 168
63 99 173
62 99 171
63 99 177
62 98 171
63 100 178
63 99 175
62 99 173
62 99 172
63 100 177
62 99 175
62 98 171
63 100 178
63 99 177
62 98 174
61 98 175
62 98 174
62 99 176
62 98 173
62 99 177
62 99 176
62 99 179
62 99 178
62 99 179
62 99 177
62 99 177
62 99 176
62 99 179
63 99 179
61 98 174
62 99 178
62 99 172
62 99 180
62 99 179
62 99 176
62 99 177
62 99 178
62 99 178
62 98 174
62 99 180
62 99 180
62 99 175
63 100 181
62 99 173
62 99 177
62 99 176
62 99 179
63 99 177
62 99 180
62 99 178
61 98 175
63 99 179
61 99 179
62 99 175
62 99 178
62 99 177
62 99 179
61 99 177
62 99 180
62 99 178
62 99 178
63 100 181
62 99 178
62 99 179
62 99 180
62 99 179
62 99 181
62 99 177
62 99 177
62 99 181
62 99 176
63 99 179
62 99 180
62 99 180
62 99 177
62 99 176
62 99 176
62 99 174
62 99 177
61 98 177
63 100 180
62 99 178
62 99 180
62 99 177
62 99 179
63 99 177
62 99 180
62 99 179
62 99 174
62 99 179
62 99 177
62 99 178
62 99 177
62 99 179
63 100 178
63 99 175
62 99 174
62 99 177
62 99 179
63 100 177
62 99 174
62 99 178
62 99 177
63 99 174
63 99 175
62 99 176
62 99 175
62 99 176
62 99 175
62 99 177
63 100 179
62 99 173
62 99 173
62 98 175
63 100 173
62 99 177
62 99 175
62 99 172
62 99 174
62 98 176
62 99 177
62 98 167
62 99 175
63 100 178
61 97 162
61 98 171
62 99 174
62 99 175
62 98 170
61 98 174
62 98 173
63 99 174
62 98 172
62 98 167
62 98 168
62 99 171
61 97 169
62 98 170
63 98 171
61 97 167
61 96 164
62 98 171
62 97 167
62 97 169
61 96 159
60 95 165
61 97 163
61 95 162
60 94 158
58 92 156
70 82 100
78 82 59
70 73 55
78 83 60
78 82 58
82 87 63
75 78 56
78 83 59
80 84 61
87 89 60
81 85 62
81 85 60
95 99 69
93 97 71
85 90 64
86 90 66
90 94 71
102 104 70
105 108 74
114 115 76
98 102 73
111 113 74
117 119 82
125 124 80
112 114 80
112 113 74
118 119 76
133 131 84
129 129 83
127 127 85
126 127 85
141 140 88
136 135 86
132 131 82
136 135 88
138 137 82
140 138 88
145 143 88
148 146 87
144 142 85
146 143 93
144 142 88
156 153 92
154 151 92
151 149 90
159 156 97
155 152 94
160 156 94
159 155 89
156 153 93
158 154 88
154 152 95
165 160 95
166 161 98
163 159 91
164 159 96
159 156 95
167 162 95
166 161 96
162 157 90
163 158 91
171 165 96
163 160 94
162 157 89
171 166 97
167 162 93
173 166 102
174 168 98
169 164 95
173 166 99
174 167 99
173 167 96
170 165 96
170 164 97
173 167 94
167 163 90
174 168 97
177 170 99
173 168 97
174 168 96
175 168 95
169 164 92
170 165 95
172 166 97
173 167 94
171 165 94
172 166 97
172 165 96
169 162 89
173 166 95
170 163 90
171 165 95
170 164 95
165 160 84
169 162 90
169 163 95
175 169 99
168 162 95
166 160 90
168 161 90
168 161 91
169 161 90
173 167 93
168 161 92
166 160 92
167 160 91
165 159 87
163 156 89
158 153 80
164 159 87
163 156 86
167 160 89
162 156 84
159 153 81
158 152 80
157 151 80
152 145 81
152 147 75
161 155 82
159 152 80
157 151 78
149 143 77
152 146 76
153 146 79
149 143 73
145 140 70
145 139 70
157 150 75
142 137 62
143 138 61
157 150 75
139 133 64
138 133 61
141 135 62
134 129 63
134 129 61
125 120 49
129 124 53
120 116 47
151 163 37
170 191 0
167 187 0
172 195 0
171 195 0
171 194 0
169 191 0
174 198 0
172 196 0
174 197 0
173 195 0
175 198 0
172 195 0
172 195 0
173 196 0
173 197 0
172 196 0
174 197 0
175 197 0
171 195 0
170 194 0
173 197 0
174 197 0
172 196 0
170 194 0
172 196 0
174 196 0
175 198 0
173 197 0
172 196 0
173 196 0
172 196 0
171 194 0
169 193 0
173 196 0
172 196 0
173 196 0
173 197 0
169 192 0
172 195 0
173 197 0
172 195 0
174 197 0
171 194 0
172 196 0
173 197 0
172 195 0
170 194 0
172 195 0
175 198 0
171 194 0
175 197 0
170 193 0
172 195 0
173 195 0
174 197 0
172 195 0
171 195 0
171 194 0
170 194 0
173 197 0
172 195 0
173 196 0
173 197 0
171 195 0
171 195 0
171 195 0
166 189 0
171 195 0
170 193 0
171 194 0
172 196 0
169 193 0
174 196 0
172 196 0
171 195 0
171 194 0
170 194 0
172 195 0
169 192 0
171 194 0
172 194 0
170 193 0
170 194 0
170 193 0
171 194 0
173 196 0
173 197 0
170 192 0
172 195 0
173 195 0
166 190 0
166 190 0
171 194 0
171 194 0
169 193 0
170 193 0
172 195 0
171 193 0
171 194 0
148 173 88
62 98 163
62 98 161
62 98 168
62 99 171
62 99 173
62 98 168
62 99 174
62 98 169
62 99 171
62 99 170
62 99 175
63 99 173
62 99 169
62 99 173
63 99 177
62 99 171
62 99 176
62 99 175
62 99 176
62 99 176
62 98 171
62 99 175
63 99 175
61 98 176
62 98 175
62 99 175
62 99 176
62 99 176
62 99 176
62 99 176
62 99 177
62 98 173
62 99 178
62 99 178
63 99 179
62 99 178
62 99 179
62 98 175
62 99 176
62 99 175
62 99 177
62 99 177
63 100 181
62 99 179
62 99 179
62 99 180
62 99 179
62 99 179
62 99 177
63 99 179
62 99 177
63 100 179
62 99 178
62 99 179
62 98 173
62 99 176
62 99 179
62 99 176
62 99 179
62 99 179
62 99 177
62 99 174
62 99 178
62 99 179
62 99 174
61 98 175
62 99 177
62 99 180
62 99 179
63 100 178
62 99 179
62 99 179
62 99 180
62 99 177
62 99 177
62 99 177
62 99 180
62 99 179
62 99 177
62 99 176
62 99 179
62 99 177
62 99 178
62 99 178
62 99 178
62 99 179
62 99 176
62 99 178
62 99 176
62 99 175
62 99 177
61 98 176
62 99 179
62 99 176
62 99 176
62 98 174
62 98 175
62 99 176
62 99 178
62 98 173
62 99 176
61 98 176
62 99 178
62 99 176
63 100 180
62 99 175
62 99 176
63 99 177
61 98 178
61 98 173
62 98 174
63 99 174
62 99 174
62 99 175
63 99 172
63 100 178
63 99 177
62 99 179
63 100 179
62 99 175
63 100 176
62 99 175
62 99 173
62 99 178
63 99 178
62 99 174
62 99 172
61 99 177
62 99 170
62 99 173
62 99 175
62 99 176
62 98 170
62 99 174
61 98 168
61 98 172
62 99 173
62 99 178
61 98 170
62 99 174
62 98 171
62 99 173
62 97 168
63 99 173
63 99 174
61 97 165
61 98 172
62 98 170
62 98 169
62 98 171
61 97 167
61 97 163
62 98 165
61 96 161
61 97 167
60 94 160
60 95 161
59 93 156
61 96 164
60 95 162
59 90 148
67 73 59
76 79 53
79 82 57
75 79 59
80 83 59
64 70 53
74 79 54
87 89 65
84 88 65
78 82 59
80 84 62
83 89 63
96 99 68
101 103 70
93 97 68
95 97 65
106 108 74
94 97 67
108 109 71
105 108 73
101 105 75
109 111 76
118 119 78
114 115 78
110 112 75
128 128 84
118 119 77
118 121 84
131 131 87
125 125 82
127 127 81
122 123 79
134 134 87
128 128 82
143 141 86
143 141 88
144 142 88
128 128 77
143 142 90
139 137 80
156 152 93
142 141 88
150 147 90
160 156 97
162 158 98
154 151 92
155 151 88
159 154 92
158 154 90
155 151 91
162 158 94
161 158 93
159 154 94
157 154 94
162 158 95
162 158 94
165 160 97
165 160 94
163 159 99
167 161 96
169 164 94
168 162 97
170 164 95
167 161 96
171 165 97
168 162 95
168 163 99
168 163 96
168 163 95
171 165 94
176 169 100
168 162 91
169 164 94
171 165 95
173 167 96
172 165 94
175 169 97
174 168 95
174 168 99
168 163 86
173 166 91
174 168 97
171 165 93
172 165 89
170 164 94
175 168 95
172 165 95
175 169 97
172 165 93
172 166 95
172 165 90
173 166 97
171 164 91
165 159 91
173 166 90
167 161 87
170 163 92
166 160 84
164 158 87
168 161 92
167 160 90
165 159 87
170 163 89
162 156 86
161 155 83
168 162 94
167 160 83
165 159 87
159 152 84
162 155 84
160 154 82
166 159 80
155 148 80
164 158 90
155 150 77
163 156 82
151 145 74
153 148 74
157 151 73
156 150 81
154 148 74
162 155 84
153 147 73
155 149 74
158 151 78
151 144 69
151 145 70
147 141 65
141 135 69
143 138 70
144 137 66
139 134 65
144 138 63
135 129 61
137 131 57
133 129 58
128 121 56
125 120 51
166 185 25
174 197 0
169 190 0
174 196 0
172 195 0
174 195 0
174 197 0
172 196 0
172 196 0
174 197 0
174 197 0
172 196 0
171 195 0
172 195 0
173 196 0
173 196 0
171 195 0
171 194 0
171 195 0
174 197 0
174 197 0
174 197 0
174 197 0
169 192 0
172 196 0
173 197 0
173 196 0
174 198 0
172 195 0
170 194 0
171 194 0
171 194 0
174 197 0
172 196 0
171 193 0
170 194 0
172 196 0
172 195 0
172 195 0
172 195 0
170 193 0
171 195 0
174 197 0
171 195 0
174 198 0
172 195 0
173 197 0
174 197 0
174 197 0
173 196 0
168 192 0
170 194 0
170 193 0
174 197 0
170 193 0
171 195 0
172 196 0
172 195 0
171 194 0
173 197 0
174 197 0
171 193 0
174 197 0
170 192 0
169 192 0
172 195 0
169 193 0
172 195 0
170 193 0
173 196 0
172 195 0
173 195 0
171 194 0
175 198 0
171 194 0
171 195 0
172 196 0
173 196 0
172 195 0
171 194 0
172 196 0
171 194 0
169 193 0
170 194 0
171 194 0
169 193 0
171 194 0
169 193 0
172 196 0
169 191 0
173 197 0
172 196 0
170 193 0
174 197 0
170 193 0
170 193 0
172 196 0
172 196 0
173 196 0
169 193 18
92 122 142
62 98 168
62 98 164
63 99 174
62 99 166
62 98 164
61 98 171
62 98 162
61 98 166
63 99 172
62 99 172
63 99 172
63 99 173
62 98 166
62 99 171
62 99 175
63 100 177
61 98 167
62 99 175
62 99 175
62 99 174
63 99 176
61 98 173
62 99 178
63 99 174
62 99 176
62 99 174
63 99 178
62 99 178
62 99 177
62 99 176
62 99 176
63 100 178
62 99 175
62 98 174
62 99 176
62 99 178
61 98 174
62 99 176
61 99 178
63 99 175
62 99 178
62 99 177
63 99 175
62 99 176
62 99 178
62 99 178
62 99 176
63 100 180
63 100 177
62 99 177
62 99 177
61 98 172
62 99 177
62 99 180
62 99 179
62 99 181
62 99 178
62 99 180
62 99 175
62 99 175
63 99 178
62 99 179
61 98 178
61 98 174
62 99 176
62 99 177
62 99 179
62 99 177
61 99 176
62 99 179
63 99 178
62 99 181
62 99 180
63 100 180
62 99 176
62 99 180
62 99 177
63 100 179
61 98 174
62 99 177
62 99 177
63 99 176
62 99 177
61 98 178
62 99 178
63 100 179
62 99 177
62 99 175
62 99 178
62 99 176
62 99 177
62 99 176
62 99 177
62 99 178
62 99 179
62 99 174
62 99 177
62 99 178
62 99 176
62 99 176
62 99 176
62 99 177
62 99 177
62 99 175
62 99 174
62 99 175
62 99 175
63 99 178
62 99 175
61 98 173
62 99 175
62 99 178
62 99 177
61 98 175
62 99 178
62 99 177
62 99 179
61 98 171
62 99 170
61 98 171
62 99 175
62 99 178
63 100 180
62 99 179
62 99 174
61 98 171
62 99 173
62 99 170
63 99 174
62 98 170
63 99 172
62 99 173
62 99 175
62 99 175
62 99 171
62 98 169
61 98 170
62 99 176
61 98 168
61 98 166
61 98 168
62 98 168
62 98 167
62 98 174
62 98 173
62 98 170
62 98 170
61 97 168
61 97 161
62 98 169
62 98 163
61 97 165
61 97 166
62 97 163
62 97 165
61 95 158
61 96 161
61 96 164
60 94 157
60 95 155
58 90 148
64 80 109
62 68 51
63 68 48
72 77 56
71 73 52
68 73 51
65 72 53
77 81 60
78 82 60
81 87 67
77 83 61
95 96 65
88 91 60
100 102 72
92 96 63
97 102 73
90 93 62
88 94 62
103 106 70
101 105 70
116 116 77
116 117 78
109 110 74
125 124 81
126 126 81
128 127 81
129 129 81
111 112 73
119 120 81
133 131 82
124 125 80
132 131 83
134 133 85
139 136 87
144 141 88
141 140 88
140 138 85
151 147 92
141 139 86
142 140 86
142 140 82
150 147 89
147 145 84
145 143 86
149 147 88
159 155 93
157 154 92
155 151 93
151 148 86
151 149 82
149 147 87
164 159 95
157 154 86
164 159 97
161 157 89
165 161 96
170 163 92
166 161 96
165 161 91
170 163 97
167 162 94
168 163 96
166 161 91
170 165 98
170 165 95
172 166 98
168 163 96
171 165 94
171 166 97
173 166 96
169 163 95
169 163 87
169 163 96
173 167 98
168 163 93
169 164 94
173 167 97
171 165 96
170 165 93
170 165 95
173 166 95
172 166 93
171 164 93
172 165 92
171 165 96
178 170 99
167 161 87
174 167 90
172 165 89
167 160 85
170 164 91
169 163 95
169 162 87
170 164 95
169 163 94
166 159 87
162 157 83
162 157 88
162 157 84
166 160 84
174 166 94
166 159 87
162 156 88
160 153 85
166 159 87
169 162 89
164 158 87
166 159 88
161 155 81
165 158 87
158 152 83
160 154 82
161 155 77
155 149 79
163 156 83
160 153 80
156 150 74
159 153 83
165 158 85
161 153 84
163 156 81
155 148 75
155 148 77
150 144 69
153 147 74
148 142 71
147 142 68
145 140 70
145 139 67
151 145 64
144 138 75
139 133 62
153 146 80
137 131 60
148 141 69
123 118 49
123 118 58
129 123 60
168 189 0
171 193 0
171 194 0
171 193 0
172 194 0
171 194 0
172 195 0
172 196 0
172 195 0
173 197 0
172 195 0
174 197 0
173 197 0
174 197 0
173 197 0
172 195 0
172 196 0
173 196 0
173 197 0
172 196 0
173 197 0
173 196 0
172 195 0
171 195 0
172 195 0
172 195 0
171 193 0
173 196 0
173 196 0
175 198 0
170 195 0
170 194 0
171 195 0
173 196 0
171 195 0
174 197 0
173 196 0
173 197 0
173 196 0
173 197 0
170 193 0
170 194 0
172 195 0
173 196 0
170 193 0
173 197 0
174 197 0
171 194 0
171 193 0
173 196 0
171 195 0
173 197 0
168 192 0
172 196 0
174 197 0
172 195 0
170 194 0
170 192 0
171 195 0
171 195 0
172 195 0
173 197 0
172 195 0
171 194 0
174 197 0
170 194 0
174 197 0
172 195 0
173 196 0
170 193 0
172 195 0
172 195 0
170 193 0
168 192 0
171 194 0
170 193 0
169 193 0
172 196 0
171 195 0
171 194 0
172 195 0
174 196 0
172 195 0
167 191 0
169 192 0
170 193 0
172 195 0
170 194 0
172 196 0
169 192 0
171 194 0
169 191 0
171 194 0
173 195 0
169 192 0
174 197 0
174 196 0
172 195 0
169 192 0
147 171 92
61 97 161
63 99 167
61 97 163
63 99 162
61 98 167
62 98 170
63 99 173
62 99 169
61 98 167
62 99 174
62 98 170
63 99 170
61 98 173
62 99 173
62 98 173
62 99 177
63 99 172
63 100 175
62 99 176
63 99 177
62 99 177
62 99 175
62 99 178
63 99 176
62 99 175
62 99 175
62 99 178
63 99 176
63 100 178
62 99 175
62 98 174
62 99 177
62 99 178
62 99 179
61 99 179
62 99 175
62 99 177
63 99 175
62 99 179
62 99 179
61 98 174
62 99 178
62 99 178
62 99 179
63 99 178
63 100 181
61 99 179
62 99 178
62 99 174
62 99 179
62 99 179
62 99 181
63 100 178
62 99 179
62 99 180
62 99 180
62 98 175
62 99 176
62 99 180
62 99 177
63 99 177
61 99 179
62 99 178
62 99 179
62 99 177
62 99 174
63 100 181
62 99 175
62 99 178
62 99 176
61 99 178
62 99 175
62 98 172
62 99 178
62 99 179
62 99 178
62 99 174
62 99 178
62 99 181
62 99 176
62 99 176
62 99 175
62 99 175
62 99 179
62 99 176
62 99 177
62 99 180
61 99 178
61 98 175
62 99 178
62 99 179
62 99 175
62 99 176
62 99 174
62 99 176
62 99 176
62 99 181
62 99 180
62 99 172
63 99 177
62 99 176
62 99 178
62 99 177
62 99 176
62 99 176
62 99 177
62 99 179
62 99 175
63 99 177
62 99 179
61 98 176
63 99 177
62 99 177
62 99 177
62 99 177
62 99 178
61 98 176
62 98 173
62 99 176
62 99 170
62 99 174
63 99 176
61 98 166
62 98 172
61 98 175
61 98 171
62 99 174
62 99 175
62 99 173
62 99 173
62 99 172
62 99 172
62 99 176
62 99 174
62 99 174
62 99 173
62 98 168
63 99 173
61 98 170
61 98 168
62 98 168
62 99 170
61 98 170
61 98 170
63 99 173
62 98 168
62 98 169
61 97 167
61 97 168
62 98 168
61 97 167
63 99 174
61 97 168
61 97 157
61 96 159
61 97 168
61 97 172
61 96 163
61 96 162
59 93 154
60 94 154
60 94 160
56 83 127
61 66 50
57 61 46
68 71 52
72 75 54
64 70 51
70 73 52
71 76 56
68 73 52
79 83 58
73 78 57
84 88 62
89 93 64
93 97 66
90 94 67
88 92 65
98 100 66
95 97 64
89 93 67
88 92 63
114 116 75
115 117 78
116 118 77
108 110 72
116 117 75
122 121 80
117 118 79
123 122 76
126 125 81
131 130 80
132 131 81
134 133 85
127 126 79
128 128 79
136 134 84
133 132 84
137 136 82
138 137 85
140 137 79
142 140 88
140 138 88
149 146 86
154 150 90
154 150 89
152 149 89
155 151 91
148 145 88
157 152 89
145 144 89
153 150 88
160 156 93
152 149 87
166 160 99
158 155 89
166 161 97
168 163 94
163 158 96
163 158 93
168 162 90
165 160 90
168 162 88
164 159 90
168 162 89
168 163 93
167 162 94
170 165 96
169 162 91
168 164 94
171 164 94
169 164 92
172 166 98
170 163 91
170 164 91
175 168 100
171 164 95
168 163 91
169 163 91
177 169 97
176 169 100
169 163 93
170 164 92
173 166 92
174 167 95
172 167 95
169 164 90
170 165 93
169 163 87
169 163 95
170 164 96
167 161 91
171 165 92
172 165 96
167 161 86
167 161 88
170 163 91
169 162 84
164 158 92
169 163 90
168 162 92
170 162 93
174 166 94
167 160 88
167 160 84
162 157 81
165 157 87
161 155 83
163 156 83
160 153 80
159 152 81
164 158 86
165 158 87
159 151 80
162 156 81
164 157 87
157 151 80
156 149 75
155 149 71
150 144 71
160 153 80
157 151 79
148 144 72
149 142 68
152 145 70
152 146 74
155 148 79
150 145 69
156 149 74
137 131 60
144 137 73
141 135 66
145 140 57
151 145 69
137 132 63
126 122 48
132 127 56
134 128 57
127 123 49
140 137 57
172 195 0
174 195 0
173 194 0
171 193 0
172 194 0
172 194 0
172 194 0
172 196 0
175 197 0
170 193 0
170 194 0
173 196 0
171 195 0
171 195 0
173 196 0
173 196 0
173 197 0
173 197 0
172 195 0
173 197 0
171 194 0
173 196 0
172 196 0
174 198 0
169 193 0
172 195 0
173 197 0
171 195 0
172 196 0
173 195 0
173 197 0
171 195 0
172 196 0
172 195 0
174 197 0
172 196 0
168 192 0
172 195 0
172 196 0
170 194 0
172 196 0
171 194 0
174 196 0
173 197 0
175 198 0
167 190 0
166 190 0
170 193 0
170 194 0
172 195 0
171 194 0
171 194 0
170 194 0
174 198 0
168 192 0
171 194 0
174 197 0
171 195 0
170 194 0
173 195 0
171 195 0
171 194 0
172 196 0
174 197 0
173 197 0
174 197 0
172 196 0
172 195 0
169 193 0
172 196 0
171 194 0
170 193 0
169 193 0
165 189 0
170 193 0
168 190 0
170 193 0
169 191 0
173 196 0
172 195 0
170 193 0
170 194 0
172 195 0
170 193 0
171 194 0
170 193 0
171 193 0
168 191 0
169 193 0
173 195 0
172 195 0
169 193 0
169 192 0
172 195 0
171 195 0
170 194 0
170 193 0
171 194 0
169 192 0
93 123 148
62 98 160
62 98 166
63 99 167
62 98 168
61 97 164
61 97 164
62 98 161
62 99 174
62 99 168
63 99 174
62 98 167
62 99 172
61 98 166
63 99 174
62 98 165
62 98 169
63 99 176
63 99 177
62 99 173
63 99 174
62 99 172
62 99 175
62 99 177
62 98 172
62 99 174
62 99 175
62 99 173
62 99 177
62 99 178
62 99 175
62 99 173
63 99 175
62 98 176
62 99 176
63 100 179
62 98 172
62 99 176
63 100 179
62 99 176
62 99 176
62 99 178
62 99 177
62 99 179
63 99 174
62 99 179
63 100 178
62 99 176
63 99 180
62 99 177
63 99 178
61 98 179
62 99 179
62 99 179
63 99 178
62 99 177
62 99 175
63 99 176
63 99 176
62 99 179
63 100 181
62 99 175
62 99 177
62 99 173
63 100 178
62 99 179
62 99 179
62 99 175
62 99 177
61 98 176
62 99 177
63 100 179
62 99 173
62 99 178
62 99 180
62 98 175
62 99 177
62 99 178
62 99 177
62 99 173
62 99 174
62 99 177
62 99 178
62 99 177
62 99 175
62 99 178
62 99 173
62 99 180
62 99 175
62 99 174
62 99 180
63 99 178
62 99 177
62 99 181
62 99 176
62 99 175
62 99 171
62 99 177
62 99 180
63 100 178
62 99 177
62 99 177
62 99 174
62 99 179
62 99 177
62 99 176
63 100 179
63 99 174
62 99 178
62 99 179
62 99 174
63 100 179
62 99 173
62 99 178
62 99 176
62 99 174
62 99 178
63 100 178
62 99 176
61 98 174
62 99 175
62 99 173
62 99 173
62 99 176
62 99 176
62 99 171
62 99 175
62 98 168
62 99 169
62 98 171
63 100 176
62 99 172
63 99 176
62 99 175
62 99 174
63 99 174
62 99 173
62 98 170
62 99 172
62 98 172
61 98 170
62 99 172
62 99 178
62 99 172
61 97 162
62 99 172
61 97 166
62 98 170
62 99 175
61 97 165
61 97 166
61 96 166
62 97 166
61 98 170
60 95 160
61 97 167
60 96 158
62 97 160
61 96 164
61 96 161
61 97 161
58 92 147
59 93 152
58 91 144
62 74 86
62 66 45
62 66 48
66 73 60
72 75 54
58 62 45
77 80 59
74 79 59
70 74 53
76 81 60
80 85 60
85 87 59
94 97 65
90 93 59
82 86 58
87 91 62
90 94 66
94 97 64
107 109 76
105 107 70
119 120 80
99 102 69
112 113 71
111 112 74
114 116 75
126 125 78
114 115 72
125 126 81
136 135 85
132 131 82
127 126 75
130 130 80
135 133 83
132 132 83
136 136 87
136 135 82
134 133 77
146 145 89
144 142 83
151 147 88
157 152 89
151 147 89
151 147 87
137 136 83
159 155 92
152 149 84
155 150 90
152 149 89
159 154 90
162 157 89
159 154 88
155 151 86
160 156 89
162 157 91
159 155 94
162 158 94
164 158 89
158 154 81
167 162 99
165 160 90
166 161 91
165 160 94
171 164 97
165 160 90
172 166 95
170 164 96
169 164 93
169 164 99
167 162 90
166 162 93
172 165 91
172 165 97
170 164 94
173 167 90
166 161 86
170 164 92
171 165 90
171 165 95
173 166 94
174 167 100
173 166 94
173 166 95
168 161 92
166 161 92
169 163 89
171 165 93
170 164 89
167 160 88
172 166 90
170 164 89
171 164 93
167 160 90
167 161 86
169 163 87
169 162 88
168 162 88
164 158 84
170 164 91
169 162 90
166 160 88
167 160 91
166 160 90
167 160 90
164 158 80
160 154 84
167 159 86
169 163 87
166 159 81
163 156 83
160 154 79
160 155 73
163 156 82
160 153 77
159 153 83
149 143 74
155 148 80
154 148 66
161 155 77
158 151 77
151 145 75
158 151 80
147 141 76
151 145 74
155 149 69
146 140 69
144 139 67
151 145 72
145 139 66
147 141 69
133 128 58
135 130 53
130 126 51
145 138 64
133 126 60
134 128 61
127 122 51
130 133 37
169 191 0
170 192 0
170 191 0
170 192 0
172 193 0
171 193 0
171 193 0
174 197 0
171 195 0
171 195 0
173 196 0
173 197 0
170 193 0
174 196 0
173 196 0
173 196 0
173 197 0
173 196 0
173 195 0
173 197 0
172 196 0
172 195 0
173 196 0
171 195 0
172 196 0
173 196 0
170 194 0
173 196 0
173 196 0
172 196 0
173 196 0
172 195 0
171 195 0
174 197 0
171 195 0
170 194 0
172 196 0
172 195 0
173 197 0
169 192 0
174 197 0
170 193 0
171 195 0
173 196 0
171 194 0
172 195 0
171 195 0
171 195 0
170 194 0
174 197 0
173 197 0
169 192 0
171 195 0
171 193 0
172 195 0
172 196 0
170 194 0
171 195 0
173 196 0
171 194 0
170 193 0
171 195 0
173 197 0
173 197 0
172 194 0
170 194 0
172 195 0
172 195 0
173 197 0
172 195 0
169 192 0
168 191 0
172 196 0
171 194 0
172 195 0
172 195 0
171 194 0
172 194 0
174 196 0
174 197 0
169 193 0
170 192 0
171 194 0
170 193 0
170 194 0
171 193 0
171 196 0
168 191 0
171 194 0
173 195 0
171 194 0
169 193 0
170 192 0
173 197 0
170 192 0
173 196 0
171 193 0
172 195 0
157 180 67
62 98 164
62 98 162
62 98 162
62 99 170
62 98 167
62 98 169
63 99 169
62 98 170
62 99 171
63 99 170
61 98 161
63 99 173
63 99 170
62 98 167
62 99 172
62 99 173
62 99 171
62 99 175
62 99 170
63 99 175
61 98 171
63 99 175
63 100 178
61 99 177
62 99 176
62 99 177
62 99 171
62 99 171
62 99 178
62 98 172
62 99 175
62 99 177
62 99 174
62 99 174
62 99 177
62 99 178
62 99 175
63 99 176
62 99 172
61 98 175
62 99 172
62 99 179
62 99 177
62 99 179
63 99 175
62 99 178
62 99 175
62 99 177
62 99 179
63 100 180
62 99 177
63 100 180
62 99 176
62 99 176
62 99 179
62 99 176
62 98 170
63 100 180
62 99 179
62 99 179
62 99 179
62 99 174
62 99 176
62 99 177
61 98 175
62 99 176
62 99 175
62 99 180
62 99 177
62 99 176
62 99 178
62 99 178
61 98 173
63 99 179
62 99 175
62 99 176
62 99 179
62 99 179
61 99 177
62 99 177
63 100 180
62 99 174
62 99 177
62 99 177
62 98 175
62 99 175
62 99 177
62 99 174
62 99 178
63 100 179
62 99 175
62 99 178
62 99 178
62 99 176
62 99 174
62 99 177
62 99 177
62 99 175
62 99 178
62 99 179
62 99 172
61 99 178
62 99 176
62 99 177
62 99 178
62 99 176
63 100 178
62 99 174
62 99 174
62 99 178
62 98 171
62 98 171
62 99 174
63 99 176
62 99 175
62 99 175
62 99 178
62 99 175
62 99 173
62 99 173
62 99 174
63 100 176
62 99 174
63 99 173
62 99 170
63 99 174
62 99 174
62 99 173
61 98 170
61 98 172
62 98 172
62 98 169
62 99 174
62 98 173
62 99 173
62 98 172
62 99 170
62 99 173
62 99 170
62 99 172
62 98 169
62 98 170
61 97 163
61 98 167
62 98 169
62 98 170
61 98 170
62 98 168
61 97 161
62 98 167
62 98 167
61 97 165
62 98 174
61 97 162
61 97 166
61 96 161
62 97 163
61 97 162
61 97 167
60 95 155
60 94 152
59 93 154
59 93 149
59 92 148
57 82 122
48 54 40
61 65 46
61 66 51
58 62 41
74 79 57
62 69 52
64 70 52
74 79 56
64 69 52
89 92 63
79 84 60
79 84 63
97 98 65
81 87 62
82 86 58
102 104 70
99 102 69
107 108 73
100 104 70
111 111 72
119 118 79
109 110 74
121 122 76
110 112 66
120 121 76
134 133 80
129 128 78
129 128 79
129 128 85
129 128 75
136 135 81
146 144 85
136 135 81
132 132 82
143 140 88
139 138 78
144 141 85
148 145 87
140 138 86
152 148 90
142 139 81
151 147 90
159 155 93
148 145 87
159 155 90
152 149 89
151 148 85
154 150 89
163 157 94
164 159 90
161 155 88
161 155 89
160 156 90
162 157 91
159 155 93
168 162 89
163 159 91
165 160 96
161 157 84
161 156 85
168 162 95
167 163 91
165 159 88
167 162 93
167 161 86
171 164 90
167 162 90
164 160 91
174 167 94
172 166 96
171 164 95
171 166 95
169 163 93
167 161 89
170 163 90
171 164 91
172 164 95
168 162 93
170 164 88
170 164 91
173 167 95
172 166 95
170 163 90
170 164 93
171 164 88
164 159 85
171 164 90
173 166 87
174 166 97
167 160 88
164 159 87
169 162 92
168 163 90
166 159 84
165 159 82
163 157 85
168 162 89
166 160 87
171 164 89
167 160 84
165 159 86
161 156 84
163 156 80
164 158 85
164 157 83
164 158 86
160 153 80
167 160 88
165 158 84
158 152 84
155 149 73
153 147 78
158 151 83
157 151 82
157 150 75
159 153 84
161 154 80
151 144 77
156 148 77
147 142 70
152 146 72
153 147 75
151 145 75
149 143 69
145 140 68
140 135 57
137 132 59
149 143 65
142 136 60
140 135 64
144 136 69
129 124 58
138 132 61
130 124 58
131 125 51
145 157 30
169 190 0
170 194 0
171 193 0
172 194 0
172 195 0
170 192 0
173 196 0
171 195 0
173 196 0
172 196 0
171 195 0
174 197 0
172 196 0
172 195 0
172 195 0
173 197 0
171 195 0
174 197 0
172 196 0
170 194 0
171 194 0
173 196 0
173 196 0
171 195 0
171 195 0
172 195 0
170 194 0
173 197 0
173 197 0
171 195 0
173 196 0
173 196 0
172 196 0
172 196 0
172 195 0
170 193 0
170 194 0
173 196 0
174 197 0
173 197 0
174 198 0
172 195 0
169 192 0
172 195 0
171 195 0
172 194 0
173 196 0
172 195 0
167 191 0
175 198 0
172 195 0
172 196 0
173 197 0
174 197 0
171 194 0
171 195 0
170 193 0
166 190 0
172 195 0
171 194 0
172 196 0
172 196 0
169 193 0
169 193 0
173 196 0
172 196 0
168 192 0
170 194 0
172 195 0
170 194 0
174 197 0
172 195 0
174 196 0
167 192 0
173 196 0
172 195 0
171 194 0
169 193 0
167 191 0
171 194 0
170 193 0
171 194 0
168 192 0
173 196 0
168 191 0
168 191 0
170 193 0
167 190 0
170 194 0
172 195 0
172 196 0
168 192 0
170 194 0
172 195 0
172 196 0
171 194 0
171 195 0
168 192 0
113 140 136
61 97 160
62 98 161
62 98 167
62 98 167
62 98 165
63 99 168
62 98 166
63 99 166
62 98 166
63 100 176
62 98 170
62 99 169
62 99 171
62 99 170
62 99 170
63 99 173
62 98 170
62 98 169
62 99 169
62 99 177
62 99 175
61 98 173
63 99 175
63 100 179
62 99 176
62 99 177
62 99 173
62 99 178
63 100 178
62 99 176
62 99 175
62 99 175
63 100 181
63 100 178
62 99 177
62 99 177
62 99 177
62 99 176
62 99 179
62 99 175
62 99 177
62 99 176
62 99 175
62 98 175
63 100 180
63 99 176
62 99 176
63 99 177
62 99 176
61 98 177
61 98 176
63 100 179
63 99 177
62 99 174
63 99 176
62 99 177
62 99 180
62 99 176
62 99 179
62 99 177
63 100 176
62 99 178
63 100 180
62 99 177
62 99 178
62 99 178
62 99 177
62 99 178
62 99 174
62 99 180
62 99 176
62 99 179
62 99 177
62 99 178
62 99 179
62 99 180
62 99 179
63 100 177
62 99 177
62 99 177
63 99 177
62 98 172
62 99 178
62 99 178
62 99 179
62 99 177
62 99 174
63 99 178
62 99 180
62 99 176
61 98 172
62 99 175
63 100 179
63 99 175
62 99 177
62 99 176
63 99 176
62 99 177
62 99 177
61 98 175
62 99 177
62 99 174
62 99 177
62 99 177
63 100 177
62 98 171
62 99 176
63 99 178
62 99 174
62 99 177
62 99 174
62 99 175
62 99 175
63 100 176
62 98 172
62 99 174
62 99 176
62 99 175
62 99 175
63 99 174
62 99 175
63 99 176
62 99 174
62 98 172
61 98 172
63 99 175
62 99 172
62 99 175
61 98 166
62 99 170
61 97 164
62 98 171
62 99 169
63 99 178
62 99 177
63 99 170
62 98 168
62 98 167
63 99 170
62 99 172
62 98 170
62 98 167
61 98 167
61 97 166
63 99 171
62 99 171
62 98 169
61 97 164
62 98 167
62 97 167
61 97 168
61 97 169
62 98 167
62 98 167
61 97 167
62 97 166
61 96 163
62 98 169
60 95 159
60 95 160
61 96 155
61 96 164
59 94 154
59 93 157
58 90 148
58 69 74
53 59 45
65 69 49
60 67 51
75 78 52
68 75 56
60 66 47
63 70 54
76 81 57
83 87 62
77 81 56
85 90 64
92 95 65
90 94 64
95 98 67
99 101 65
99 102 69
110 110 71
96 100 67
103 106 67
106 108 68
120 120 76
114 114 71
121 121 76
129 128 81
117 117 71
116 116 75
117 117 71
130 129 79
131 130 81
135 135 79
139 137 80
137 135 88
137 136 85
143 142 83
140 138 81
128 127 75
144 140 87
146 144 87
148 145 87
148 145 83
149 146 87
156 152 90
151 147 90
153 150 90
154 151 88
165 159 92
158 153 90
155 150 86
157 153 87
163 158 92
162 156 94
165 160 91
153 149 88
164 159 89
166 160 94
159 155 87
165 160 90
168 162 92
172 166 95
155 151 90
167 161 90
167 162 90
167 161 93
166 161 94
166 161 88
164 159 90
169 164 87
161 156 86
170 164 91
171 164 91
171 165 93
169 162 87
170 164 95
172 166 90
173 166 95
173 166 93
169 162 85
172 165 93
170 164 91
170 163 93
165 159 85
168 162 80
171 165 90
166 160 91
163 157 84
174 167 93
169 162 90
166 160 84
167 161 87
164 157 88
169 163 93
165 158 89
166 159 90
163 157 84
169 163 90
169 162 86
166 160 83
170 164 90
169 162 92
168 160 92
169 161 90
161 156 84
164 157 86
163 156 80
162 156 81
167 159 87
165 157 83
164 158 80
168 161 80
163 157 81
152 145 80
158 151 74
155 148 79
158 153 75
151 146 72
156 149 71
150 144 67
150 143 75
154 147 75
155 148 72
151 145 75
147 141 72
155 148 79
148 142 67
150 145 70
139 134 52
146 141 71
140 134 62
147 142 63
142 137 62
143 137 63
138 132 52
125 120 54
129 125 51
158 170 37
172 192 0
171 193 0
173 195 0
172 196 0
172 194 0
172 194 0
168 190 0
171 195 0
171 195 0
173 197 0
171 194 0
171 195 0
170 193 0
172 195 0
170 193 0
172 196 0
173 196 0
172 196 0
174 197 0
172 195 0
175 198 0
172 196 0
175 198 0
170 194 0
172 196 0
172 196 0
172 196 0
172 196 0
173 196 0
174 198 0
171 194 0
171 194 0
171 195 0
171 194 0
175 198 0
173 196 0
173 197 0
172 196 0
174 197 0
173 195 0
172 196 0
167 190 0
174 197 0
169 193 0
170 193 0
169 192 0
171 195 0
171 195 0
171 194 0
172 195 0
166 190 0
172 195 0
172 196 0
173 196 0
173 197 0
172 195 0
173 197 0
170 194 0
170 193 0
172 196 0
172 194 0
169 193 0
169 193 0
172 196 0
172 195 0
166 190 0
173 196 0
171 196 0
170 194 0
172 196 0
170 194 0
173 195 0
168 192 0
173 197 0
170 192 0
172 195 0
173 195 0
168 191 0
173 196 0
172 194 0
171 194 0
170 194 0
172 195 0
170 194 0
169 191 0
168 192 0
171 194 0
173 196 0
170 194 0
169 192 0
172 196 0
171 195 0
171 195 0
172 195 0
171 195 0
168 192 0
172 194 0
161 184 54
67 102 158
62 99 166
62 98 163
62 98 165
62 98 165
61 98 167
62 99 170
62 98 168
62 99 175
62 99 170
62 98 165
62 99 171
62 99 170
62 99 173
62 98 169
62 99 169
62 99 171
62 99 174
61 98 170
61 98 172
62 99 172
62 98 174
62 98 173
61 98 173
62 99 176
62 99 171
62 99 172
62 99 175
62 99 178
62 99 177
63 100 179
62 99 173
62 99 176
63 99 177
62 99 175
62 99 177
62 99 179
62 99 178
63 99 176
62 99 175
64 100 178
62 99 174
62 99 176
62 99 177
62 99 178
62 99 176
62 99 177
61 99 177
62 99 179
62 98 173
62 99 178
63 100 181
62 99 177
62 99 176
63 100 180
62 99 176
62 98 172
62 99 175
62 99 174
62 99 181
62 99 179
62 99 178
64 100 177
62 99 177
62 99 179
62 99 178
62 99 177
62 99 177
62 99 177
63 100 179
62 99 177
63 100 177
62 99 178
62 99 179
62 99 174
64 100 180
62 99 179
62 99 176
63 100 178
63 99 177
62 99 174
62 99 179
61 98 177
62 99 176
62 99 173
62 99 177
62 99 176
62 99 176
62 99 177
63 99 178
61 98 175
62 99 176
62 99 174
62 99 176
62 99 176
61 98 175
62 98 173
62 99 173
62 99 178
62 99 178
62 99 175
62 99 175
62 99 174
62 99 179
62 99 178
62 99 175
62 99 176
62 99 174
61 98 175
63 99 178
62 99 177
62 98 172
62 99 175
63 99 178
62 99 173
62 99 180
61 98 173
62 99 175
62 99 174
61 98 169
62 98 170
62 99 174
62 99 174
62 98 172
61 98 169
62 99 173
63 100 176
62 99 172
61 98 169
62 98 169
62 99 174
63 100 178
62 99 172
62 99 176
62 99 171
62 99 172
62 98 167
62 99 171
62 99 169
63 99 174
61 97 166
62 98 166
62 97 167
62 98 169
63 99 175
62 98 164
61 97 163
61 98 168
62 99 174
62 98 170
62 99 170
61 97 169
62 98 170
62 98 166
61 97 165
62 98 163
61 97 168
60 95 159
60 96 163
62 98 171
60 95 152
60 95 152
60 95 156
60 95 159
60 93 153
58 92 150
56 80 120
48 55 44
46 54 42
67 72 51
53 58 40
61 66 49
69 74 49
68 74 52
70 76 52
68 73 53
82 85 60
79 83 59
79 84 61
87 91 58
95 97 62
93 97 65
96 98 64
100 103 64
86 89 59
109 110 71
104 107 68
114 115 74
108 110 72
105 107 69
109 112 73
119 119 68
110 111 71
128 127 79
122 123 80
132 131 78
138 137 86
140 137 86
128 128 79
139 137 79
137 135 80
137 135 82
138 137 81
142 140 83
146 142 86
143 141 82
151 148 83
148 145 85
152 149 87
153 150 88
153 150 88
158 153 88
152 149 83
157 152 89
155 152 87
153 149 83
154 151 84
164 159 92
165 160 89
162 157 90
161 157 85
169 164 95
165 159 91
162 157 88
169 162 94
169 162 93
164 159 90
172 166 100
168 163 93
166 160 89
166 160 84
170 163 91
169 162 94
167 162 94
165 159 88
165 160 91
165 159 91
171 165 90
166 161 85
166 161 86
170 165 95
169 162 89
173 166 93
170 164 91
169 163 90
172 165 90
174 166 96
174 166 95
170 163 88
172 165 90
170 164 87
173 166 93
168 162 86
168 161 89
165 160 82
170 163 91
166 158 88
174 166 90
170 163 89
170 163 90
169 162 87
167 160 88
159 154 81
167 160 88
167 160 84
159 153 76
164 157 81
164 158 84
163 156 84
163 157 83
167 161 86
162 156 84
169 162 85
159 152 77
160 154 86
161 155 82
158 152 80
161 153 82
161 155 78
163 156 80
154 147 75
155 148 78
160 154 80
150 144 66
148 141 71
159 153 78
152 146 70
148 141 72
142 136 62
147 140 66
144 138 66
155 148 75
151 145 70
148 141 75
146 140 67
135 129 61
140 135 53
141 134 60
138 132 60
129 124 56
132 127 56
167 188 0
171 194 0
172 195 0
174 196 0
172 195 0
172 195 0
170 191 0
170 191 0
173 196 0
171 195 0
174 197 0
171 195 0
173 196 0
171 195 0
173 196 0
173 195 0
173 196 0
173 196 0
174 197 0
174 198 0
173 196 0
173 197 0
173 197 0
172 195 0
172 196 0
169 192 0
172 195 0
174 195 0
171 195 0
171 195 0
172 196 0
172 195 0
170 193 0
170 194 0
172 194 0
174 198 0
170 194 0
173 197 0
174 197 0
171 195 0
172 196 0
171 195 0
172 195 0
174 197 0
173 196 0
171 194 0
173 196 0
174 197 0
171 195 0
171 194 0
169 193 0
172 195 0
169 194 0
172 196 0
172 195 0
172 195 0
171 195 0
173 196 0
171 195 0
173 195 0
173 196 0
169 192 0
172 195 0
173 196 0
169 192 0
171 196 0
170 193 0
169 192 0
171 193 0
172 195 0
170 194 0
172 196 0
170 193 0
171 196 0
172 195 0
171 196 0
173 196 0
172 196 0
170 194 0
171 194 0
166 190 0
171 194 0
172 195 0
170 193 0
171 194 0
170 193 0
173 196 0
175 197 0
169 193 0
168 191 0
172 196 0
170 193 0
169 192 0
170 193 0
171 194 0
173 196 0
167 191 0
169 192 0
126 152 103
61 97 160
62 98 162
61 98 166
62 99 168
62 98 164
62 98 168
62 98 171
63 99 172
62 99 172
62 99 174
63 99 174
63 99 170
62 99 172
62 99 172
61 98 168
62 98 166
61 98 169
62 98 169
63 99 174
62 99 175
63 99 177
62 99 175
62 99 175
62 99 172
62 99 174
62 98 172
62 99 175
62 99 176
62 98 175
62 99 175
62 99 177
63 99 177
62 98 173
63 99 174
62 99 177
62 99 175
63 99 178
62 99 175
62 99 175
62 99 178
62 98 174
63 99 179
62 99 177
63 99 175
62 99 172
62 99 178
63 99 177
63 100 179
62 99 177
63 100 180
62 99 175
61 98 174
62 99 176
62 99 176
63 99 179
62 99 180
62 99 175
63 100 180
62 99 178
62 99 178
62 99 177
62 99 174
62 99 177
62 99 174
62 99 174
62 99 178
62 99 178
62 99 175
62 99 174
62 99 171
62 99 175
62 99 176
62 99 178
62 99 179
62 99 178
62 99 173
62 99 180
62 99 176
62 98 172
62 99 177
62 99 174
62 99 174
61 98 177
62 99 176
62 99 174
62 99 174
63 99 175
63 99 177
62 99 175
63 100 175
62 99 174
62 99 174
62 99 179
62 99 176
62 99 177
63 99 177
62 99 176
62 99 173
62 99 178
63 99 177
62 99 173
61 98 176
62 99 174
62 99 176
62 99 177
62 99 175
62 99 177
62 99 175
62 99 178
61 98 170
63 99 177
63 99 177
62 99 173
62 99 171
62 99 173
62 99 175
61 98 171
62 99 177
62 98 171
62 99 174
62 98 171
63 99 171
62 99 173
61 98 167
63 99 173
61 98 170
62 99 172
63 99 175
62 99 174
62 98 171
62 98 174
63 99 175
62 98 172
62 99 173
62 98 172
62 99 170
62 98 173
63 99 172
62 98 173
61 98 168
62 98 173
61 97 166
62 99 171
62 98 168
62 98 170
62 98 164
62 98 170
63 99 170
62 98 168
61 97 164
61 96 167
62 98 167
61 98 161
62 99 171
62 97 162
61 97 167
61 97 160
61 97 159
62 98 164
62 97 163
61 96 160
61 96 164
61 96 164
60 95 156
59 93 151
59 93 151
58 88 139
48 56 49
58 62 44
52 60 45
49 55 42
63 68 50
46 54 40
59 65 47
71 76 54
81 85 58
74 79 55
73 80 57
75 80 58
84 87 60
87 90 52
89 92 61
106 106 64
91 94 59
97 100 67
108 109 69
101 103 71
115 116 77
118 119 74
107 109 75
119 119 71
118 118 74
108 109 70
109 110 71
122 122 71
127 127 80
124 124 71
140 138 83
134 132 79
124 124 78
135 134 81
146 143 83
140 137 78
139 136 80
151 147 86
133 131 75
149 146 84
143 140 82
154 150 87
142 139 72
148 145 83
148 145 81
154 151 91
160 156 82
155 150 85
154 149 91
162 157 90
162 158 92
163 157 95
156 153 87
168 162 88
160 154 88
170 164 98
169 163 91
161 156 84
165 159 89
166 161 91
169 163 95
174 167 95
170 163 92
166 161 83
165 159 89
164 159 85
169 162 89
161 156 84
164 159 89
171 165 94
171 165 90
169 163 90
168 162 86
167 161 87
171 164 89
166 160 86
168 162 84
172 165 93
168 162 90
162 157 80
168 162 89
168 161 86
170 164 89
170 164 88
171 165 91
167 161 86
173 167 96
165 159 87
167 161 87
168 162 90
169 162 87
166 160 82
165 159 84
160 155 82
165 158 81
164 157 80
165 159 84
165 158 81
167 161 83
165 157 83
169 161 87
164 157 83
165 159 83
158 152 80
166 159 84
161 155 82
166 160 84
155 148 80
161 155 80
162 155 82
160 153 80
158 151 78
150 143 75
162 155 77
152 146 73
161 154 77
161 154 76
148 142 70
151 145 71
160 153 79
156 148 77
147 141 65
151 146 71
141 135 63
149 143 70
141 136 62
144 137 63
149 143 66
144 138 59
146 141 63
122 117 52
133 128 56
126 121 53
138 137 49
169 190 0
171 191 0
171 193 0
171 194 0
171 191 0
171 192 0
170 192 0
170 192 0
173 197 0
171 195 0
172 195 0
173 196 0
175 198 0
173 196 0
172 196 0
172 196 0
170 193 0
171 196 0
172 194 0
171 195 0
172 196 0
173 196 0
172 196 0
172 196 0
172 196 0
173 197 0
169 194 0
174 197 0
173 196 0
172 195 0
171 195 0
174 198 0
174 197 0
171 195 0
174 197 0
169 193 0
172 195 0
171 195 0
173 197 0
173 196 0
172 196 0
172 195 0
169 193 0
174 197 0
174 197 0
170 194 0
171 194 0
173 196 0
170 194 0
172 196 0
170 194 0
174 196 0
170 193 0
171 196 0
173 196 0
171 195 0
169 193 0
170 194 0
171 195 0
172 195 0
173 196 0
169 193 0
171 194 0
168 192 0
173 196 0
173 195 0
168 192 0
172 195 0
171 195 0
171 196 0
168 192 0
170 194 0
168 191 0
170 193 0
171 194 0
172 195 0
173 197 0
172 196 0
172 195 0
170 194 0
170 194 0
171 194 0
173 195 0
169 192 0
170 193 0
175 197 0
173 196 0
171 194 0
173 195 0
169 192 0
172 195 0
171 195 0
171 194 0
170 193 0
169 193 0
172 195 0
171 193 0
167 190 18
87 117 147
62 98 160
61 97 157
61 97 162
63 99 167
62 98 163
62 98 168
62 98 159
63 99 171
61 97 159
62 99 172
62 99 172
62 99 175
62 98 165
61 97 162
62 99 172
62 98 164
62 99 170
61 98 168
61 97 166
62 99 174
62 98 167
62 98 173
62 99 176
62 99 177
61 98 170
62 98 171
62 98 168
62 99 175
62 99 175
62 99 175
61 98 172
62 98 175
62 99 175
61 98 174
62 99 178
62 99 176
62 98 174
63 99 178
62 98 175
62 99 174
62 99 175
62 99 177
62 99 179
62 99 174
62 99 178
62 99 174
62 99 176
62 99 179
62 98 174
62 99 177
62 99 176
62 99 174
63 99 177
62 99 174
62 99 178
62 99 181
62 99 176
61 98 175
62 99 176
62 99 176
62 99 178
63 100 180
62 99 176
62 99 177
62 99 178
62 99 179
62 99 177
62 99 176
62 98 175
62 98 173
63 100 179
63 100 176
62 99 178
63 100 178
63 100 179
62 99 175
62 99 177
62 99 175
63 99 177
62 99 172
62 99 176
62 99 175
62 99 175
62 99 174
62 99 179
62 99 174
61 98 171
62 99 176
62 99 174
61 98 172
62 99 176
62 98 172
62 99 175
61 98 173
62 99 179
62 99 175
63 99 177
62 99 175
62 99 176
62 99 176
62 98 174
61 98 170
63 99 178
62 99 174
63 99 175
62 99 173
63 99 174
63 100 180
62 99 175
61 98 173
63 100 180
62 99 176
63 100 180
62 99 172
62 99 175
62 99 174
62 98 172
63 99 175
62 99 171
62 99 174
63 100 180
63 99 176
62 99 177
63 99 174
62 99 170
62 99 176
63 100 174
62 99 173
62 99 175
63 99 166
63 99 176
62 99 174
62 98 167
63 99 175
61 98 177
61 98 170
63 99 173
62 99 170
62 99 170
61 97 168
62 98 171
61 98 170
62 99 170
62 98 167
62 98 172
62 99 168
62 98 167
62 99 170
61 98 165
63 99 169
62 98 170
62 97 161
62 98 170
62 97 162
61 96 159
61 97 163
61 96 163
61 97 164
62 97 165
63 99 170
60 94 153
62 98 165
61 96 162
61 96 160
60 95 153
60 95 158
58 91 149
56 73 95
48 55 39
60 66 44
57 63 47
60 64 46
59 66 52
73 77 54
58 66 47
69 74 50
80 82 50
79 83 54
90 92 57
79 83 54
82 86 54
85 89 55
104 106 66
101 102 66
103 105 69
98 100 65
109 111 68
108 108 66
107 109 71
105 107 67
123 122 74
113 114 74
114 114 67
123 124 73
121 121 69
119 119 75
124 123 73
131 131 79
126 125 77
133 132 78
136 134 81
142 140 81
136 134 77
139 136 80
148 145 80
138 135 75
141 138 83
146 143 85
154 150 86
161 155 87
156 152 86
159 154 87
152 148 86
149 145 86
153 149 87
152 148 82
153 149 83
158 154 87
154 150 79
163 158 88
158 153 83
161 156 87
162 157 89
159 154 83
160 155 86
167 161 90
160 155 86
167 161 89
168 163 90
167 162 92
163 158 91
168 163 86
164 159 90
165 160 87
170 163 91
166 160 88
166 160 81
167 161 90
169 163 84
164 158 84
169 162 87
167 162 86
169 163 87
170 163 86
168 162 88
169 163 87
174 166 93
172 165 90
168 161 84
164 157 81
171 164 88
167 160 87
165 159 79
170 164 90
164 159 83
170 163 86
167 160 88
161 156 81
164 159 86
170 162 83
165 158 85
163 156 85
166 159 86
160 154 78
164 157 77
162 155 86
163 157 83
164 158 83
171 163 91
167 160 83
164 157 84
158 152 78
161 154 77
159 153 78
164 158 83
149 143 70
159 152 70
156 149 80
156 151 73
157 151 77
153 147 71
146 140 64
148 142 76
154 148 74
153 146 75
151 146 72
150 145 67
148 142 64
141 135 65
154 147 71
143 138 70
149 142 71
144 139 60
134 129 54
137 131 57
140 134 60
136 129 60
126 121 47
137 131 53
129 124 51
143 150 39
171 191 0
172 194 0
171 193 0
171 194 0
167 188 0
172 194 0
171 193 0
174 195 0
171 195 0
175 197 0
173 196 0
172 195 0
174 197 0
172 196 0
174 198 0
172 195 0
172 195 0
173 196 0
171 195 0
170 194 0
171 195 0
173 196 0
171 194 0
173 196 0
172 195 0
172 196 0
171 195 0
172 195 0
167 191 0
174 198 0
173 196 0
169 192 0
174 197 0
171 194 0
173 197 0
172 195 0
172 195 0
169 193 0
170 193 0
173 197 0
170 193 0
170 194 0
172 196 0
172 195 0
169 192 0
170 194 0
172 196 0
170 194 0
172 195 0
171 194 0
169 192 0
171 195 0
173 196 0
172 195 0
169 191 0
171 195 0
170 194 0
173 196 0
170 193 0
168 191 0
175 197 0
174 197 0
173 196 0
173 196 0
170 194 0
172 195 0
171 194 0
172 195 0
172 196 0
173 195 0
170 193 0
166 189 0
171 194 0
171 194 0
169 192 0
171 194 0
173 196 0
170 193 0
173 195 0
170 192 0
169 193 0
173 196 0
174 197 0
169 193 0
172 195 0
173 196 0
169 193 0
170 194 0
172 194 0
172 196 0
172 195 0
170 194 0
171 194 0
172 195 0
171 194 0
167 190 0
169 193 0
157 181 62
61 97 159
62 98 157
62 98 158
62 98 163
62 98 168
63 99 167
62 99 165
61 98 171
63 99 171
63 99 175
62 99 169
62 99 171
62 98 167
62 99 172
62 99 169
62 98 173
62 99 175
62 99 174
61 98 170
62 99 171
61 98 169
63 99 172
62 99 174
63 99 175
62 99 172
63 99 176
63 99 170
62 99 175
62 99 174
63 99 177
63 99 176
61 98 172
61 98 170
62 99 178
62 99 175
62 99 178
62 99 172
63 99 176
62 99 176
62 99 174
62 99 175
62 99 173
63 99 176
62 99 179
63 100 178
62 99 176
62 99 175
62 99 176
62 99 178
63 100 178
63 99 175
62 99 178
62 99 176
62 98 172
61 98 171
62 99 175
62 99 175
63 99 177
61 98 176
62 99 173
63 100 179
62 99 178
62 99 177
62 99 177
62 99 175
62 99 178
61 98 174
62 99 178
62 99 176
63 99 178
62 99 175
62 99 176
61 98 175
62 99 175
62 99 174
62 99 175
62 99 174
62 99 177
62 99 179
62 99 177
62 99 180
62 99 176
62 98 175
62 99 178
62 99 177
63 100 177
62 99 178
61 98 175
63 99 177
63 99 178
63 99 178
62 99 176
62 99 178
63 99 176
62 99 177
61 98 174
62 99 174
63 100 178
62 99 176
62 99 177
62 99 175
62 99 177
62 99 177
62 99 176
63 99 175
62 99 174
63 100 178
62 99 176
63 99 173
61 98 169
62 99 175
62 99 176
62 98 172
62 99 175
63 99 173
62 98 171
63 100 179
61 98 172
62 99 174
62 99 177
62 99 175
62 99 172
62 99 176
63 99 176
63 99 175
62 99 172
63 99 175
62 99 173
62 98 168
63 99 173
62 99 173
62 98 169
62 99 173
62 99 174
62 98 170
62 99 172
62 99 174
62 99 173
62 99 169
62 99 175
62 98 170
62 98 169
62 99 172
61 97 163
62 98 163
61 97 162
62 98 169
63 99 167
62 98 168
62 98 169
62 98 168
61 96 160
61 97 165
62 98 167
63 98 165
62 97 162
61 97 166
62 98 170
63 98 169
61 97 159
62 97 163
61 95 156
60 95 159
60 95 155
60 94 155
60 94 159
60 95 156
60 93 151
55 83 131
41 48 34
43 50 35
52 57 38
51 57 41
58 62 42
60 66 47
67 73 51
70 74 47
72 76 52
75 80 59
73 77 52
90 92 59
96 100 59
80 84 50
85 89 58
99 103 68
107 107 66
88 92 58
98 102 63
106 108 67
104 105 65
110 110 62
107 108 67
115 115 68
122 122 74
114 115 70
123 124 76
134 132 75
132 130 83
138 136 79
138 136 82
133 132 79
129 129 74
145 142 86
138 136 78
130 129 78
143 140 79
142 140 87
145 142 80
143 141 84
136 134 78
149 146 86
151 147 85
150 147 81
157 152 84
153 149 85
154 151 84
156 152 87
150 146 82
155 150 85
160 155 88
158 153 85
157 152 89
164 158 84
154 150 76
163 158 89
162 157 86
158 153 86
165 159 84
168 162 87
161 156 84
161 156 87
166 160 88
166 160 88
163 157 82
167 161 91
165 160 87
167 162 88
164 159 84
169 162 87
171 164 88
174 167 92
172 165 89
167 160 83
164 159 83
168 162 90
170 163 91
170 162 90
169 162 86
167 161 84
173 166 93
169 162 87
165 159 90
171 164 92
169 162 82
166 160 86
167 161 85
168 161 86
168 161 90
166 160 84
171 163 90
168 161 84
162 156 82
166 160 81
161 155 79
167 161 81
162 156 84
165 158 90
163 156 81
163 156 82
161 155 80
162 154 82
164 157 81
158 151 75
162 156 74
155 149 74
155 149 68
154 147 72
155 148 78
161 155 75
155 149 76
160 154 78
153 147 76
157 150 75
153 146 72
151 145 68
149 144 66
148 142 72
150 144 64
152 145 69
146 141 60
135 130 63
136 130 58
154 147 75
146 141 64
148 142 68
139 134 54
138 132 61
139 133 60
130 124 54
140 134 57
126 120 52
155 169 22
170 192 0
167 189 0
175 196 0
172 194 0
171 192 0
169 190 0
172 194 0
172 192 0
172 196 0
173 196 0
174 197 0
171 195 0
172 196 0
171 194 0
173 196 0
171 195 0
170 194 0
172 194 0
173 197 0
172 196 0
171 194 0
172 196 0
172 196 0
174 197 0
172 196 0
174 197 0
170 194 0
170 194 0
172 194 0
171 195 0
171 196 0
174 197 0
171 195 0
167 190 0
172 195 0
172 196 0
172 195 0
171 195 0
172 195 0
175 198 0
173 196 0
169 192 0
170 193 0
171 194 0
169 192 0
172 196 0
172 195 0
173 196 0
169 193 0
172 195 0
172 195 0
170 193 0
172 196 0
170 193 0
171 195 0
170 193 0
171 195 0
170 194 0
170 193 0
171 195 0
169 193 0
172 195 0
171 195 0
174 197 0
169 193 0
169 192 0
170 193 0
171 196 0
171 195 0
169 191 0
172 195 0
171 194 0
170 194 0
168 191 0
169 192 0
171 194 0
171 194 0
171 194 0
170 192 0
170 194 0
171 194 0
169 192 0
168 191 0
171 194 0
167 191 0
173 196 0
168 191 0
170 194 0
167 191 0
170 193 0
171 195 0
169 193 0
171 194 0
169 193 0
168 191 0
170 193 0
170 194 0
125 150 113
62 98 165
61 97 157
62 98 162
62 98 160
62 98 164
62 99 169
62 98 165
62 99 171
61 98 168
61 98 168
62 98 169
60 97 163
63 99 172
62 99 173
61 97 163
63 99 174
62 99 172
62 99 175
62 98 169
62 99 171
62 99 168
62 98 170
62 98 171
62 98 172
63 99 171
62 98 173
62 98 165
62 98 175
62 99 176
62 99 178
62 99 172
62 99 177
61 98 172
62 99 177
61 98 173
62 99 174
63 100 174
61 98 168
62 99 178
62 99 175
62 99 177
63 100 180
62 99 173
62 99 174
62 99 171
62 98 179
62 99 174
61 98 175
62 99 176
63 99 178
62 99 179
63 100 177
62 99 177
63 99 178
62 99 178
62 99 178
63 99 177
62 99 179
62 99 177
62 99 178
62 99 173
62 99 177
62 99 175
63 100 180
62 99 177
62 98 173
62 99 179
62 99 174
62 99 177
62 99 176
63 100 176
62 99 178
62 99 175
62 99 180
63 99 179
62 99 177
62 99 178
63 100 179
62 99 177
62 99 177
62 98 171
62 99 177
62 99 175
61 98 175
62 99 176
62 99 177
62 99 175
62 99 174
62 98 172
61 98 174
62 99 174
62 99 175
62 99 175
63 99 177
62 99 176
63 100 177
63 99 175
62 99 175
62 98 176
62 99 176
62 98 172
61 98 174
62 99 177
62 99 176
63 99 177
62 99 177
63 99 177
62 99 175
63 99 176
63 99 175
62 99 174
62 99 179
62 99 172
62 99 177
62 99 178
62 99 175
63 100 175
62 99 173
63 99 170
62 99 174
62 98 170
62 99 177
61 98 168
63 99 173
62 99 179
62 99 175
62 99 175
62 98 172
63 99 174
62 99 170
61 98 172
63 99 176
63 99 170
62 99 174
63 99 172
62 99 174
63 99 174
62 99 170
63 99 171
62 98 169
62 99 170
62 98 167
62 98 171
61 98 170
62 98 165
62 98 168
62 98 165
61 97 164
61 97 166
62 98 167
61 97 165
61 97 162
62 98 172
62 98 167
61 96 153
61 97 160
62 97 165
62 98 164
62 97 166
61 96 160
62 97 162
59 94 152
61 96 157
61 96 160
60 94 152
59 93 151
59 92 147
60 94 157
60 94 158
53 63 65
52 57 39
46 53 38
60 65 43
55 60 41
65 70 46
51 58 39
76 79 52
76 77 40
77 83 56
76 80 50
77 81 52
83 88 60
71 78 54
97 100 61
82 86 58
96 99 62
95 98 57
94 97 61
108 109 69
114 114 76
106 107 69
112 113 68
118 118 70
116 117 68
123 122 76
121 121 70
132 132 82
114 115 67
127 126 77
128 127 73
136 134 76
141 138 85
133 132 76
137 136 76
145 142 80
140 138 79
146 143 88
149 145 84
148 144 84
141 139 81
149 145 81
155 151 86
151 147 82
146 143 79
160 154 83
158 153 84
164 158 88
157 153 87
162 156 91
158 154 84
152 149 78
162 157 92
154 149 78
162 156 90
157 154 83
159 154 83
159 155 81
158 153 77
164 159 88
167 160 87
167 161 91
171 164 96
166 160 86
165 160 86
172 165 97
158 153 80
168 162 87
165 160 82
168 162 90
168 162 87
170 164 86
170 163 90
172 165 88
167 161 91
165 160 86
169 162 85
171 164 87
168 162 86
169 162 86
167 161 86
170 163 92
172 165 86
171 164 89
168 161 80
161 155 79
168 161 86
169 162 85
158 152 77
166 159 83
163 157 81
171 163 88
164 157 86
165 158 86
167 162 84
161 155 80
167 161 84
165 159 79
164 157 78
160 154 70
158 152 72
167 160 82
157 150 76
160 154 75
156 149 75
161 154 79
161 156 75
159 153 83
156 150 76
159 154 73
156 150 72
152 146 72
159 152 75
152 147 68
164 156 83
152 146 70
149 144 69
152 146 68
139 134 60
147 141 62
153 147 70
146 140 67
148 142 59
140 134 68
136 131 59
129 124 57
139 133 59
139 134 53
137 131 58
130 126 53
120 116 39
127 122 49
164 186 16
172 195 0
171 192 0
170 190 0
172 194 0
174 196 0
171 193 0
171 193 0
171 192 0
171 193 0
171 195 0
170 193 0
173 196 0
176 198 0
175 197 0
172 195 0
171 195 0
173 196 0
171 195 0
173 196 0
170 193 0
172 195 0
171 195 0
171 194 0
172 196 0
170 194 0
171 195 0
173 197 0
174 197 0
173 197 0
172 195 0
171 194 0
175 197 0
173 196 0
173 197 0
169 193 0
170 194 0
173 196 0
170 194 0
167 191 0
172 196 0
169 193 0
172 196 0
172 195 0
172 195 0
168 192 0
171 195 0
169 192 0
172 196 0
172 195 0
169 193 0
169 192 0
172 195 0
171 194 0
171 195 0
172 195 0
172 195 0
172 196 0
172 195 0
173 196 0
172 195 0
172 195 0
171 194 0
170 192 0
171 195 0
168 192 0
168 191 0
173 196 0
169 192 0
169 193 0
167 190 0
171 194 0
170 193 0
167 191 0
167 190 0
170 194 0
168 191 0
170 194 0
170 194 0
170 194 0
170 192 0
171 195 0
165 188 0
170 194 0
171 195 0
171 194 0
171 194 0
172 195 0
166 189 0
169 193 0
171 194 0
169 192 0
170 194 0
168 192 0
168 191 0
170 193 0
168 192 0
168 191 18
77 109 148
62 98 162
62 98 159
62 98 162
62 98 165
63 100 170
62 98 165
62 99 173
62 98 163
62 98 168
62 98 165
62 99 169
62 98 166
62 98 171
63 99 167
62 99 174
61 97 167
62 99 169
62 99 174
61 98 170
62 99 170
62 99 172
61 98 171
62 99 173
62 98 173
62 99 171
62 99 170
62 99 172
61 98 173
61 98 172
63 99 175
62 99 176
61 98 170
62 98 173
63 99 178
62 98 173
63 99 173
62 98 171
63 100 180
62 98 173
62 99 174
61 98 173
62 99 177
62 99 175
62 99 179
61 98 175
63 100 179
62 99 171
61 98 175
62 99 177
62 99 176
62 99 174
62 99 176
61 98 174
62 99 177
62 99 180
62 99 176
62 99 176
63 99 178
62 99 176
62 99 178
62 99 177
62 99 175
62 99 176
62 98 175
62 99 178
62 99 176
62 98 172
62 99 172
62 99 177
61 98 175
63 99 177
63 100 177
61 98 169
63 99 175
62 99 175
62 99 174
61 98 175
63 99 175
62 99 176
62 99 172
61 98 176
62 99 176
62 99 173
62 99 178
63 99 177
63 100 180
61 98 174
62 99 176
63 100 180
62 99 173
62 99 174
62 99 173
62 99 176
61 98 177
62 99 169
62 99 178
62 99 175
61 98 175
63 99 175
62 99 175
62 98 174
61 98 171
62 99 172
62 99 175
62 99 177
62 98 174
62 99 178
62 99 172
62 98 168
61 98 171
63 99 173
62 99 176
63 99 172
61 98 173
61 98 170
62 99 175
61 98 173
62 99 170
62 99 171
63 99 174
62 99 175
62 98 175
63 99 174
61 98 170
62 99 174
62 98 168
62 98 171
62 99 175
63 99 175
63 99 169
62 98 168
62 99 171
62 99 178
62 99 171
62 98 170
62 98 167
62 99 172
62 99 171
62 98 168
62 98 169
61 98 172
62 99 174
63 99 168
62 98 168
62 98 170
62 98 170
61 97 165
62 99 173
62 99 171
62 98 168
62 98 165
62 98 168
62 98 167
62 98 167
61 97 164
62 97 163
62 97 161
62 98 169
62 97 166
61 97 163
61 97 161
62 97 163
61 95 155
61 96 164
61 96 157
61 95 157
60 94 155
60 94 156
59 93 147
51 70 94
48 52 31
50 56 40
49 55 31
57 63 40
61 66 48
59 67 47
68 73 48
62 66 41
71 75 49
70 75 50
74 80 55
89 92 57
81 85 52
95 97 61
103 103 63
99 101 61
91 95 64
111 112 71
106 107 62
114 113 69
97 99 62
112 113 66
117 118 72
123 123 71
122 123 74
120 120 70
132 129 77
128 126 73
133 131 74
142 140 80
139 136 79
140 137 81
134 131 74
133 133 82
143 140 79
140 137 79
144 141 80
138 136 77
149 146 81
147 144 83
136 134 79
144 142 81
149 147 83
149 145 83
146 144 82
147 143 76
154 150 86
155 151 88
161 155 86
155 151 84
168 162 96
155 150 83
153 150 80
161 156 86
166 159 93
162 156 86
162 156 89
160 156 86
169 161 84
160 156 86
169 163 88
172 164 92
159 154 80
161 156 85
166 160 86
166 160 87
168 162 89
164 158 83
169 162 87
168 163 87
170 163 89
163 159 84
168 162 86
169 162 84
171 164 84
170 163 88
168 160 89
167 161 82
170 163 90
168 162 86
164 158 81
169 163 82
166 160 83
167 160 83
170 163 87
162 157 80
163 157 81
164 157 84
169 161 86
166 159 83
163 157 82
163 158 74
167 162 81
163 157 79
165 159 77
163 156 77
159 154 73
159 154 78
161 155 82
162 156 77
161 154 84
159 153 84
162 155 84
161 154 75
158 152 74
160 153 75
158 152 73
151 146 73
158 151 75
157 151 75
154 149 66
148 142 66
148 142 62
156 149 75
149 142 67
151 145 67
147 141 65
146 139 63
140 134 58
139 133 59
146 140 65
150 143 69
138 134 53
137 131 58
137 132 56
136 131 52
133 128 61
124 118 54
125 120 45
122 117 48
123 126 41
169 192 0
171 193 0
173 195 0
169 190 0
169 190 0
171 191 0
171 193 0
169 190 0
172 194 0
169 192 0
174 197 0
173 196 0
171 195 0
172 195 0
172 196 0
173 197 0
175 198 0
170 193 0
170 194 0
171 195 0
172 196 0
172 196 0
173 197 0
170 194 0
172 195 0
170 194 0
172 196 0
173 196 0
171 194 0
170 192 0
174 197 0
174 198 0
170 193 0
172 196 0
173 196 0
173 196 0
174 197 0
174 197 0
171 194 0
170 193 0
173 197 0
172 195 0
172 196 0
172 196 0
171 194 0
173 196 0
170 194 0
171 193 0
170 193 0
170 193 0
173 196 0
167 190 0
168 190 0
171 193 0
171 194 0
171 195 0
169 193 0
171 194 0
170 194 0
168 192 0
172 195 0
171 194 0
171 195 0
173 196 0
172 196 0
171 194 0
175 198 0
174 198 0
172 195 0
171 194 0
171 194 0
170 193 0
171 194 0
165 188 0
170 193 0
172 196 0
173 195 0
169 193 0
172 195 0
169 191 0
171 194 0
171 195 0
169 192 0
169 192 0
169 192 0
171 194 0
168 191 0
171 195 0
171 195 0
167 191 0
171 194 0
169 192 0
169 192 0
169 192 0
169 192 0
169 192 0
170 193 0
143 167 92
61 97 156
62 97 154
62 98 157
62 98 160
62 99 169
62 99 166
62 98 160
61 97 163
63 99 170
62 99 169
62 99 173
62 98 163
62 98 165
62 99 170
63 99 176
61 98 168
62 98 170
62 99 167
62 99 172
62 98 171
61 98 170
62 99 173
63 99 173
63 99 173
62 98 169
62 99 170
61 98 168
62 99 174
63 99 172
63 99 176
62 99 171
61 98 170
62 98 170
62 99 172
61 98 172
62 99 173
62 99 178
63 99 176
62 99 172
62 99 178
61 98 169
62 99 178
62 98 174
63 99 174
62 98 174
62 99 174
63 99 173
61 98 176
62 99 176
62 99 179
63 100 180
62 99 179
63 99 175
62 99 174
62 99 179
62 99 177
61 98 172
63 99 177
62 99 178
61 98 178
63 99 175
62 99 174
62 99 175
63 100 178
62 99 177
61 98 176
63 99 177
62 99 178
62 99 176
63 99 176
63 100 178
62 99 175
62 99 175
62 99 177
63 99 176
62 99 178
62 99 175
62 99 177
62 99 171
62 99 174
61 98 177
61 98 173
62 99 173
62 99 173
62 99 176
63 99 174
63 100 179
62 99 174
62 99 173
62 99 173
62 99 176
62 98 171
62 99 177
62 99 176
63 99 176
62 99 172
62 98 173
63 100 178
62 99 174
63 99 172
62 99 170
62 99 175
62 99 178
62 99 178
63 99 176
61 98 175
62 99 174
62 99 176
62 99 173
63 100 175
62 98 171
62 99 174
62 99 169
62 99 178
62 99 173
61 98 166
62 99 170
62 99 175
62 99 174
62 99 176
62 98 170
62 99 170
62 99 173
62 99 173
61 98 168
62 99 178
61 98 170
62 99 173
62 99 173
63 99 170
62 99 177
62 99 171
62 98 168
62 99 172
62 98 171
63 99 170
62 99 172
62 99 172
63 99 172
62 99 173
62 99 172
62 98 168
61 97 168
61 97 163
62 98 173
61 98 166
62 98 166
62 98 169
62 98 170
61 97 164
61 97 161
62 99 172
61 97 162
61 97 158
61 98 166
61 96 163
61 97 162
62 98 168
61 96 162
60 95 161
62 98 166
62 98 167
61 97 161
61 96 160
60 95 158
60 95 160
61 95 156
60 95 155
59 93 153
59 93 154
56 88 137
52 57 38
36 45 34
55 60 35
58 64 44
47 55 40
48 55 37
64 68 42
64 69 46
65 72 48
68 75 52
71 77 52
72 78 49
82 85 50
97 100 58
83 88 54
92 95 59
99 102 64
106 107 61
97 99 62
103 104 56
103 106 65
107 109 65
128 126 75
104 107 59
115 116 70
128 127 73
119 118 72
128 127 70
123 122 72
129 128 69
124 122 73
139 136 76
133 131 74
136 133 78
141 138 83
134 133 74
148 145 84
148 144 75
140 138 76
141 139 82
145 143 79
148 143 81
148 144 78
155 152 83
153 150 84
154 150 86
152 149 86
154 149 80
158 153 80
156 152 85
161 156 89
154 149 79
157 153 83
166 159 87
163 157 86
154 150 84
154 149 81
167 161 93
162 156 77
162 157 85
163 158 86
163 158 81
165 160 88
158 153 76
165 159 84
163 157 85
173 165 89
166 160 79
170 164 95
172 165 91
166 159 84
169 163 87
161 155 78
167 160 84
168 160 87
168 163 81
169 163 87
169 163 83
170 163 93
172 165 86
169 162 84
166 159 83
165 160 81
166 160 84
159 153 78
164 159 82
168 161 81
168 161 81
170 162 89
168 161 82
166 160 81
163 157 83
162 156 80
164 158 82
164 158 78
163 156 85
161 156 79
160 153 75
161 156 80
161 156 75
156 150 71
163 157 78
150 143 66
161 153 78
164 157 80
159 151 75
154 148 69
158 152 73
148 142 68
159 152 74
148 142 72
156 149 68
140 134 57
153 147 73
148 142 70
148 143 63
149 144 60
148 142 68
155 149 73
146 140 64
140 134 62
156 149 69
143 138 62
137 132 52
139 133 63
130 124 52
127 121 53
128 122 52
136 129 61
137 132 56
144 156 39
169 191 0
174 195 0
170 192 0
171 192 0
172 190 0
171 193 0
173 194 0
169 192 0
170 191 0
172 196 0
170 194 0
170 194 0
169 193 0
170 194 0
171 195 0
171 195 0
171 194 0
172 195 0
171 194 0
170 194 0
171 194 0
173 197 0
171 194 0
170 194 0
171 194 0
173 197 0
171 193 0
172 196 0
171 195 0
173 197 0
170 194 0
174 197 0
171 195 0
172 195 0
171 194 0
173 196 0
174 197 0
170 193 0
172 195 0
172 195 0
172 195 0
173 196 0
172 196 0
170 193 0
173 196 0
172 195 0
171 194 0
171 194 0
174 197 0
169 192 0
174 196 0
172 195 0
171 194 0
169 192 0
168 192 0
168 192 0
170 194 0
172 195 0
170 194 0
171 194 0
170 193 0
173 197 0
171 195 0
171 194 0
170 194 0
170 193 0
169 193 0
170 194 0
167 191 0
173 196 0
169 193 0
173 196 0
171 194 0
170 193 0
171 194 0
169 191 0
169 193 0
170 193 0
171 194 0
166 189 0
172 196 0
171 195 0
168 191 0
168 192 0
172 195 0
171 195 0
169 193 0
163 187 0
172 195 0
171 195 0
170 194 0
170 192 0
168 191 0
169 191 0
168 192 0
171 194 0
170 193 0
125 150 107
62 98 161
62 98 156
62 98 157
62 98 159
62 98 168
61 98 166
61 97 160
62 99 167
62 98 165
62 99 169
62 99 170
62 98 168
61 98 164
62 98 165
62 98 170
63 99 166
62 99 172
62 98 169
62 99 171
61 97 165
62 98 167
62 98 171
62 98 171
62 98 168
62 99 175
62 99 174
62 99 173
62 99 173
63 99 169
62 99 169
62 99 177
62 99 170
63 99 174
62 99 175
63 100 178
62 99 174
62 99 173
62 99 174
62 99 178
61 98 173
62 99 177
62 98 171
62 98 174
62 99 178
62 99 175
62 99 177
61 98 171
62 99 176
62 99 175
62 99 176
62 99 176
62 99 177
63 99 177
63 99 179
62 99 176
63 99 177
61 98 176
62 99 176
62 99 176
62 99 175
61 98 173
62 98 175
62 99 175
62 99 176
62 99 175
62 98 175
62 99 173
62 99 173
62 99 175
62 99 174
62 99 177
63 100 179
63 99 175
61 98 170
62 99 178
62 99 177
62 99 179
62 99 175
62 99 177
63 99 177
62 99 178
62 99 173
62 99 175
62 99 174
63 100 176
62 99 173
62 99 173
62 99 172
62 99 172
62 99 173
63 100 178
63 99 177
62 99 178
62 99 177
62 99 172
61 98 171
63 99 173
62 99 172
62 98 171
61 98 175
62 99 178
62 99 174
62 98 168
61 98 172
62 99 172
63 99 172
62 99 177
62 99 172
61 98 176
62 98 172
62 98 169
62 99 169
62 98 173
62 99 173
62 99 170
63 99 173
62 99 174
62 99 172
63 99 175
62 99 173
62 99 169
62 98 164
62 98 167
62 99 173
62 99 171
62 99 169
62 99 170
62 99 176
62 98 171
62 99 174
61 98 171
63 99 174
62 98 170
62 99 170
62 99 175
62 99 169
61 98 170
62 99 168
62 99 169
62 99 171
62 99 175
61 98 162
62 99 172
61 98 169
62 98 166
62 98 163
62 98 166
61 98 166
62 98 166
61 97 162
62 99 169
61 97 162
62 98 163
61 98 169
62 98 167
62 98 171
60 97 165
61 96 157
61 98 169
61 97 159
62 98 166
61 97 160
61 97 165
61 97 162
61 96 157
62 97 161
61 96 162
59 93 149
61 96 160
59 93 151
58 91 144
48 58 47
52 57 39
50 56 36
42 51 34
47 55 35
72 76 44
67 73 47
70 74 43
70 75 48
83 87 48
84 87 52
78 83 51
97 99 57
84 88 54
84 88 56
84 89 61
105 105 60
105 106 62
102 104 61
100 102 64
116 116 65
113 113 67
120 119 69
114 113 66
117 118 71
107 109 63
119 118 73
132 131 77
127 127 69
119 118 69
122 121 76
131 130 79
138 137 77
133 131 73
136 134 74
140 138 74
137 135 69
139 137 74
152 148 78
146 143 72
149 146 82
150 145 78
147 143 76
149 145 78
150 145 82
157 152 81
148 145 78
152 148 72
151 147 80
156 151 80
155 151 86
161 156 88
161 157 82
162 158 88
162 156 86
161 155 82
165 159 90
155 151 79
163 158 80
161 155 83
168 162 86
161 156 72
166 160 89
169 163 90
169 162 88
166 160 79
168 161 87
171 164 87
167 160 88
169 163 79
170 164 89
166 160 84
168 161 86
168 162 87
167 161 81
166 160 82
164 158 81
170 163 91
169 163 85
162 156 76
166 161 80
166 159 83
167 160 84
160 154 75
162 156 79
168 161 87
164 159 71
166 160 82
160 154 79
161 154 76
161 155 78
165 157 80
161 155 79
165 158 76
165 158 79
165 159 82
156 151 73
157 152 71
151 145 72
160 154 71
163 156 79
149 144 69
162 155 80
157 150 76
149 144 65
164 157 75
156 149 69
158 151 75
158 153 75
153 146 73
154 147 75
145 139 68
149 144 65
146 141 66
150 146 62
144 139 60
141 135 66
142 137 57
142 135 67
149 144 70
137 132 58
146 140 56
143 136 63
144 138 56
141 134 62
131 126 57
130 124 52
124 118 53
123 118 45
119 114 45
164 182 22
170 192 0
168 187 0
169 192 0
169 191 0
169 192 0
172 194 0
170 193 0
169 188 0
169 191 0
171 195 0
172 196 0
172 195 0
172 195 0
172 195 0
170 194 0
172 195 0
173 196 0
173 196 0
170 193 0
171 195 0
172 196 0
173 197 0
173 196 0
171 195 0
172 196 0
170 193 0
167 191 0
172 195 0
173 196 0
170 194 0
170 193 0
171 195 0
171 194 0
172 195 0
173 196 0
173 197 0
174 197 0
171 195 0
172 195 0
172 196 0
171 194 0
173 196 0
172 196 0
172 196 0
170 193 0
173 196 0
169 192 0
170 193 0
171 195 0
169 192 0
171 194 0
172 195 0
174 197 0
169 193 0
174 197 0
169 193 0
172 196 0
174 197 0
170 194 0
168 191 0
170 193 0
171 194 0
171 194 0
170 194 0
171 194 0
169 192 0
169 191 0
167 189 0
169 191 0
171 194 0
170 194 0
166 190 0
170 193 0
171 194 0
171 194 0
172 195 0
172 194 0
169 192 0
165 189 0
172 195 0
169 192 0
171 194 0
169 192 0
173 196 0
168 191 0
171 194 0
170 193 0
167 190 0
166 190 0
168 191 0
166 190 0
171 194 0
166 189 0
169 193 0
170 193 0
169 193 0
166 190 0
72 106 152
62 98 161
62 98 161
62 98 166
62 97 160
61 97 162
62 98 165
61 98 163
61 98 164
62 98 170
60 97 156
61 98 169
62 98 166
62 98 169
61 97 161
62 99 168
62 98 167
62 99 170
63 99 174
62 99 167
60 97 169
61 98 169
62 99 171
62 98 171
62 98 167
62 98 170
62 98 171
61 98 172
62 98 168
62 99 176
64 100 179
62 99 172
62 99 172
62 99 171
62 99 175
62 99 174
63 99 177
62 99 168
62 98 174
63 100 177
62 99 175
62 99 178
62 99 175
62 99 172
61 98 173
62 99 173
62 99 175
62 99 176
62 99 177
62 99 177
62 99 176
62 99 175
62 99 173
62 99 174
62 99 177
62 99 174
61 98 170
63 100 176
62 99 177
61 98 172
62 99 179
61 98 173
61 98 175
62 99 175
61 98 177
62 99 176
62 99 176
62 99 178
63 100 178
62 99 175
62 99 174
62 99 179
63 99 176
62 99 174
62 99 174
62 99 175
62 99 173
62 99 173
62 99 176
63 100 179
62 99 175
62 99 174
62 99 171
62 98 168
61 98 172
62 98 168
61 98 175
62 99 173
63 99 174
61 98 173
62 99 177
62 99 172
62 99 175
62 99 176
62 99 175
63 100 175
62 99 175
62 98 170
62 98 171
62 99 168
62 99 173
61 98 171
62 99 173
62 99 177
62 99 174
61 98 170
62 98 171
62 99 178
62 99 173
62 99 173
61 98 171
62 99 174
62 99 170
63 99 167
62 99 174
62 99 171
62 98 171
61 98 170
61 98 168
63 100 173
62 99 174
62 98 171
61 98 170
62 98 166
62 99 172
61 98 170
62 98 170
62 99 173
63 99 176
62 99 167
62 99 173
62 99 169
62 98 165
63 100 175
62 99 174
62 98 166
62 99 172
62 98 169
63 99 168
62 98 168
61 98 166
62 98 167
62 99 171
61 97 160
62 98 171
62 98 168
61 98 173
62 99 172
61 97 159
61 97 166
62 98 167
62 98 169
62 98 164
62 98 167
61 97 156
62 98 166
62 98 168
62 97 165
63 99 167
61 97 166
61 96 159
62 98 164
61 97 163
61 97 160
60 95 154
60 94 157
60 94 149
61 96 161
60 95 154
61 96 159
60 94 152
58 90 143
50 73 108
58 63 40
45 52 34
57 63 39
55 62 36
71 74 43
60 65 42
48 56 38
54 60 35
82 87 51
73 78 47
82 85 49
77 82 53
86 91 53
98 98 61
95 97 55
89 93 57
106 106 60
90 94 57
95 97 54
99 102 58
110 111 64
112 112 63
114 115 63
110 111 62
113 113 66
112 114 68
132 131 77
123 123 74
132 131 72
131 130 70
132 130 69
139 136 73
133 131 73
138 136 75
140 137 76
131 130 70
139 136 75
148 145 77
151 146 80
150 146 81
154 150 84
156 151 88
148 146 81
144 140 78
154 150 80
152 147 83
150 146 79
159 154 85
159 153 83
158 153 83
162 156 86
164 159 82
154 150 80
162 157 85
166 160 86
157 152 78
162 157 83
165 159 84
159 153 82
165 159 88
161 156 82
164 158 80
158 153 80
167 161 82
163 158 75
167 160 81
166 160 81
168 162 89
166 160 86
163 158 80
167 161 85
165 159 86
168 161 81
168 161 83
168 162 86
167 160 79
165 158 81
170 163 88
164 158 82
168 162 81
164 157 79
169 162 90
163 157 81
165 158 80
166 159 83
161 154 76
168 161 83
166 159 86
167 160 81
167 160 80
162 155 75
163 155 76
162 156 73
166 159 84
168 161 89
163 156 80
165 159 75
166 160 85
157 152 76
157 151 74
155 148 72
156 150 75
157 150 78
159 152 71
154 148 74
164 157 79
152 146 73
158 152 72
150 143 71
155 149 71
153 146 70
148 142 65
153 146 73
157 150 80
140 135 62
158 151 67
147 142 63
143 138 56
147 141 64
140 134 62
141 135 52
142 136 58
131 125 61
136 131 56
131 125 48
125 120 54
136 131 45
141 134 57
131 134 34
168 187 0
170 190 0
169 190 0
173 194 0
171 194 0
171 193 0
171 192 0
171 193 0
172 195 0
170 191 0
171 194 0
172 196 0
171 194 0
174 197 0
175 198 0
171 194 0
171 194 0
172 196 0
172 196 0
175 198 0
171 194 0
172 196 0
174 197 0
172 196 0
173 196 0
175 197 0
173 197 0
171 194 0
171 194 0
173 196 0
172 195 0
174 197 0
173 197 0
170 194 0
173 196 0
171 195 0
173 196 0
172 194 0
171 195 0
174 196 0
172 196 0
169 192 0
172 195 0
172 194 0
172 195 0
171 194 0
170 194 0
174 197 0
174 197 0
169 192 0
171 195 0
171 195 0
172 196 0
172 196 0
170 193 0
168 191 0
169 193 0
171 195 0
170 194 0
172 195 0
171 195 0
171 195 0
172 195 0
168 191 0
171 194 0
173 196 0
171 194 0
171 194 0
171 194 0
171 194 0
173 195 0
169 192 0
171 194 0
170 194 0
168 191 0
170 194 0
169 192 0
171 195 0
170 193 0
170 194 0
170 194 0
172 194 0
171 194 0
170 193 0
165 189 0
167 191 0
172 195 0
166 190 0
169 193 0
171 194 0
166 188 0
168 191 0
169 192 0
170 194 0
165 188 0
167 191 0
168 190 0
155 178 67
61 97 158
62 98 163
63 99 163
61 97 159
63 99 164
61 98 161
61 97 158
62 98 162
62 99 171
62 99 168
62 98 169
62 98 168
62 99 172
61 98 171
62 98 167
62 98 167
62 99 169
62 99 174
62 98 172
62 99 174
62 99 170
62 99 168
61 98 170
62 99 169
63 99 175
62 99 175
62 99 174
62 98 170
62 98 173
62 98 168
62 99 178
63 99 175
62 99 176
63 100 180
62 99 171
62 99 172
62 99 176
63 100 171
62 98 167
62 99 172
61 98 176
62 99 174
61 98 174
61 98 174
62 98 174
62 99 172
62 98 175
62 99 177
63 99 176
62 99 178
62 98 169
62 99 174
62 99 176
61 99 176
62 99 173
62 99 176
62 99 177
62 99 176
63 99 176
62 99 177
62 99 178
62 98 172
62 99 172
63 100 177
62 99 177
62 99 172
62 99 173
62 99 173
62 99 178
62 99 176
62 99 178
61 98 169
63 99 175
63 100 179
62 99 173
62 99 177
63 100 174
62 99 173
62 99 172
62 99 175
62 99 175
62 99 175
61 98 170
62 99 172
62 99 173
61 98 174
62 99 173
62 99 177
62 99 178
62 99 175
62 99 173
62 99 174
62 99 178
62 99 175
63 99 171
62 99 175
62 99 177
62 99 172
62 99 174
62 99 176
61 98 171
62 99 178
62 99 172
62 99 175
63 100 178
62 98 171
62 99 171
62 99 171
62 99 171
63 99 172
62 99 175
62 99 171
62 99 173
62 99 170
61 98 171
62 99 170
62 99 173
62 98 169
62 98 168
62 99 173
62 99 174
63 99 177
62 99 172
62 99 177
62 99 170
62 99 172
62 99 172
62 99 170
62 99 174
62 99 174
62 99 173
62 99 170
62 99 172
62 99 172
62 98 163
63 99 175
62 98 174
62 99 172
62 99 173
62 98 170
62 98 165
62 98 168
63 99 168
62 99 170
61 98 170
63 99 169
62 98 165
62 98 164
61 98 162
62 98 165
61 97 169
62 98 166
61 96 159
61 97 169
61 97 165
62 98 169
62 98 162
63 99 170
63 99 174
61 97 161
61 97 164
61 96 159
62 98 167
62 97 154
62 98 163
62 97 160
60 95 155
61 95 156
61 96 157
62 96 159
60 94 151
59 91 142
55 82 121
48 53 28
49 55 29
36 44 26
54 58 32
64 68 35
67 72 38
62 68 45
71 76 44
67 71 36
65 73 48
68 72 39
81 86 50
84 86 46
93 96 53
91 94 53
85 88 48
98 100 61
111 111 67
95 99 60
106 108 59
112 112 67
115 114 55
103 105 63
120 119 65
126 125 68
124 122 71
122 121 65
119 118 67
131 130 74
127 126 65
123 122 66
140 137 75
138 136 76
140 137 72
145 142 77
145 141 79
148 144 72
149 145 80
146 143 77
144 140 79
149 145 76
146 143 69
143 139 77
148 145 77
156 151 79
147 143 74
152 149 78
150 147 68
164 158 84
158 153 82
157 152 88
156 151 78
160 154 81
161 156 84
169 163 88
163 158 85
170 163 90
156 151 73
165 159 84
156 151 81
160 156 84
162 157 81
166 160 87
164 159 79
169 163 87
163 158 78
168 161 84
165 160 81
162 157 77
162 157 79
160 155 77
159 153 75
169 162 85
164 158 80
164 157 83
164 158 80
167 161 79
162 157 78
158 152 70
169 162 85
161 154 73
159 153 77
166 158 80
163 156 82
162 155 79
164 158 81
167 160 83
171 164 87
162 154 75
159 153 69
159 152 75
159 154 81
163 156 82
160 153 74
160 153 75
158 152 72
159 152 74
160 154 79
155 149 68
166 159 78
160 153 80
160 154 71
159 152 69
154 148 67
160 154 73
150 143 70
153 147 64
154 148 73
157 151 71
150 144 65
148 142 69
146 142 57
152 145 71
151 145 68
146 139 60
146 140 64
150 144 64
145 138 67
142 137 60
145 138 65
150 143 61
138 133 56
137 131 59
136 132 48
122 117 45
123 119 47
122 116 51
121 116 44
154 163 36
171 193 0
170 193 0
171 192 0
169 190 0
171 192 0
171 193 0
173 193 0
171 191 0
170 194 0
170 192 0
170 194 0
170 193 0
172 195 0
174 197 0
173 196 0
170 194 0
171 194 0
172 195 0
172 196 0
174 197 0
172 196 0
173 197 0
172 196 0
172 195 0
172 196 0
170 194 0
172 195 0
171 195 0
172 195 0
173 196 0
171 195 0
169 192 0
173 196 0
173 196 0
171 195 0
171 194 0
171 195 0
172 195 0
170 194 0
171 195 0
174 196 0
174 196 0
171 194 0
171 195 0
172 194 0
173 196 0
171 194 0
171 193 0
170 194 0
170 195 0
172 195 0
173 196 0
170 194 0
172 196 0
170 193 0
171 194 0
172 195 0
173 196 0
172 195 0
173 196 0
169 193 0
169 192 0
174 197 0
172 196 0
172 195 0
170 194 0
172 195 0
172 196 0
170 192 0
172 196 0
168 192 0
169 192 0
168 190 0
171 194 0
167 191 0
167 190 0
171 195 0
170 194 0
172 195 0
170 193 0
168 191 0
168 192 0
168 192 0
169 192 0
167 190 0
171 194 0
168 190 0
171 194 0
166 190 0
169 192 0
168 191 0
166 189 0
171 194 0
169 193 0
169 192 0
169 191 0
167 190 0
121 148 120
61 97 157
62 97 155
62 98 162
62 99 167
62 98 162
62 99 167
62 98 166
63 99 171
62 98 164
61 98 165
62 98 168
62 98 163
62 98 169
62 99 167
63 99 173
62 98 170
61 98 166
62 98 167
61 97 170
63 99 170
62 98 171
62 98 170
63 99 169
62 99 173
62 99 174
61 98 172
62 99 171
62 98 168
62 98 170
61 98 164
63 99 179
63 99 175
62 99 172
61 98 171
62 98 169
62 98 174
61 98 171
63 99 176
62 99 175
62 99 176
62 99 172
63 99 177
62 99 176
62 98 173
62 99 172
62 99 173
62 99 178
63 99 174
62 99 174
62 99 175
62 99 175
62 99 174
62 99 174
61 98 169
62 99 173
62 99 175
62 99 174
62 99 178
62 99 176
62 99 175
62 99 170
62 99 170
62 99 175
62 99 176
62 98 174
61 98 175
62 99 177
63 99 176
62 99 177
63 99 176
62 99 175
62 99 176
62 99 176
62 99 174
62 98 175
62 99 176
62 98 168
62 98 171
63 100 178
62 99 176
62 98 174
62 99 172
62 99 174
63 99 175
62 99 177
63 99 173
62 99 174
62 99 177
62 99 175
62 99 173
63 100 178
62 98 173
62 99 178
61 97 166
63 100 179
61 98 172
63 99 177
62 99 177
62 98 173
62 99 175
61 98 168
62 99 172
63 99 176
62 99 173
62 99 171
62 99 176
62 98 168
62 98 171
63 99 171
62 98 170
62 99 176
62 99 172
62 99 173
61 98 170
62 99 172
62 99 178
62 99 173
62 99 173
62 99 177
62 99 174
62 98 167
62 99 170
62 98 169
62 99 178
62 99 171
62 99 169
62 98 169
62 99 168
62 99 171
62 99 171
62 99 176
62 99 175
61 98 171
62 99 167
62 99 172
62 98 167
62 98 168
63 99 171
62 99 172
62 99 168
62 98 163
62 99 173
62 99 172
61 98 170
62 99 169
62 99 172
62 98 167
62 98 167
62 98 165
62 98 167
61 97 164
62 98 164
61 97 162
62 98 166
61 96 162
62 99 167
61 97 161
61 97 165
62 98 166
63 99 168
62 97 159
62 97 165
61 97 161
60 95 156
62 97 162
60 95 154
61 96 157
61 97 167
61 95 156
60 94 150
60 95 156
59 93 152
58 91 143
55 63 65
40 47 34
46 54 36
54 59 36
54 61 36
72 75 40
73 77 50
70 75 38
69 75 46
62 69 48
88 90 51
90 93 54
77 81 47
82 85 52
85 90 54
99 100 56
93 96 57
108 107 61
105 106 56
102 103 58
97 101 63
112 112 63
109 109 64
124 122 70
121 121 68
117 115 66
114 113 63
116 115 62
123 123 69
125 124 71
122 122 69
130 129 83
135 132 73
140 137 73
140 137 72
133 130 70
141 139 77
137 134 71
145 141 79
148 144 82
151 149 73
145 142 73
137 134 74
145 141 80
149 145 80
152 147 82
156 150 78
150 146 77
154 148 78
154 150 84
155 151 81
154 149 76
158 153 81
165 158 82
160 155 85
155 150 77
161 155 83
155 150 79
159 154 73
164 159 84
167 161 84
160 154 83
165 160 91
165 158 78
165 159 86
163 157 80
169 162 87
164 158 79
157 151 74
164 157 83
162 156 81
164 159 83
168 160 83
162 156 78
167 161 80
161 156 71
168 161 86
167 159 80
169 162 80
165 159 84
165 158 80
164 158 79
168 161 80
164 157 78
157 152 70
163 158 74
163 157 70
163 157 85
162 155 76
163 156 79
161 155 69
161 155 70
157 151 72
162 156 76
159 154 76
159 153 69
157 151 72
155 150 75
165 158 80
156 150 73
156 149 78
159 152 75
158 152 77
160 153 75
157 150 70
153 147 67
154 148 71
151 145 69
158 152 73
145 140 58
153 147 62
146 140 54
151 144 63
153 146 73
150 144 57
147 139 67
137 131 60
142 135 62
144 138 62
133 127 47
135 131 45
146 140 63
132 127 51
131 126 52
125 120 48
124 119 48
122 119 41
128 123 51
164 182 16
172 193 0
170 190 0
173 195 0
170 191 0
173 195 0
172 191 0
169 190 0
169 190 0
171 193 0
172 194 0
171 195 0
172 196 0
173 196 0
171 194 0
176 198 0
170 194 0
170 193 0
172 196 0
170 194 0
171 195 0
172 195 0
173 196 0
173 196 0
171 194 0
174 196 0
172 194 0
172 196 0
171 194 0
167 191 0
171 195 0
171 194 0
171 194 0
172 195 0
171 194 0
170 193 0
171 194 0
169 192 0
171 195 0
170 194 0
172 195 0
172 195 0
171 194 0
171 195 0
172 195 0
170 193 0
169 192 0
172 196 0
170 193 0
171 194 0
174 197 0
170 194 0
171 195 0
169 194 0
171 194 0
171 194 0
169 193 0
174 197 0
171 194 0
171 194 0
170 194 0
168 191 0
171 195 0
167 191 0
167 190 0
172 195 0
172 195 0
170 194 0
175 197 0
172 196 0
173 195 0
171 193 0
171 194 0
170 193 0
174 196 0
170 194 0
168 191 0
167 191 0
171 194 0
171 195 0
171 194 0
171 194 0
171 194 0
171 194 0
171 194 0
173 196 0
173 196 0
171 193 0
168 191 0
168 191 0
167 190 0
170 193 0
171 194 0
171 194 0
168 191 0
171 194 0
172 195 0
168 191 0
101 128 129
62 98 160
62 98 162
62 98 153
61 97 156
61 97 154
62 99 169
61 97 162
62 99 168
62 98 164
61 98 165
61 98 166
62 99 170
61 98 163
61 98 165
61 97 163
62 99 170
63 99 171
62 98 167
62 99 166
62 98 164
62 98 163
62 99 172
63 99 173
61 97 166
62 99 175
62 98 170
62 99 168
62 99 169
61 98 170
62 98 170
62 99 172
63 100 177
62 98 172
62 99 175
62 99 172
62 99 173
62 98 168
62 99 174
63 99 171
62 99 176
62 99 173
62 99 175
62 99 172
62 99 173
62 99 173
61 97 168
62 99 175
63 99 178
61 98 177
62 99 179
61 98 175
61 97 169
62 99 179
62 99 176
62 98 172
62 99 176
62 99 177
61 98 176
62 99 168
62 99 178
62 99 175
63 100 177
62 99 174
62 99 179
61 98 174
63 100 178
62 99 178
62 99 175
63 99 177
63 100 178
62 98 171
62 99 176
62 99 175
62 99 173
62 99 176
62 99 174
62 99 176
62 99 176
62 99 174
62 99 170
63 99 174
62 99 172
62 99 170
62 99 173
61 98 170
62 99 170
62 99 172
62 99 172
62 99 174
62 99 175
63 99 175
62 99 179
62 98 169
61 98 172
62 99 176
62 99 176
63 99 173
62 99 174
62 99 176
63 99 175
62 99 172
62 99 171
61 98 171
62 99 172
62 99 173
62 98 171
62 99 176
63 99 175
62 99 174
62 98 171
62 98 172
63 99 173
62 99 173
61 98 175
63 99 175
62 99 174
62 99 175
62 98 171
62 99 172
62 99 172
63 99 171
62 98 173
63 99 173
62 98 172
62 98 175
62 99 175
62 99 169
61 98 167
63 99 174
62 98 170
63 99 172
62 98 168
62 99 172
63 99 168
63 99 166
62 99 166
62 99 170
62 98 166
62 99 173
62 99 167
63 99 170
62 98 165
61 98 162
62 98 173
62 98 166
63 99 174
62 98 164
62 99 169
62 98 165
62 98 170
63 98 169
61 97 161
61 97 161
62 98 164
62 98 165
61 97 160
62 98 166
61 97 160
62 98 167
60 96 157
62 98 166
62 98 165
61 96 161
60 95 153
62 97 164
62 98 161
60 95 153
60 95 155
60 95 156
59 93 154
60 94 150
58 91 143
58 91 145
56 71 84
43 49 32
48 52 27
58 64 38
63 68 32
68 71 36
78 81 46
73 77 40
71 76 35
82 85 49
79 82 45
71 76 49
74 78 46
87 90 54
93 95 47
100 101 61
97 98 54
92 93 52
98 101 54
103 103 56
96 99 57
111 111 58
116 115 62
117 116 63
104 106 59
124 122 68
113 112 74
125 124 67
115 115 64
130 128 72
124 123 72
124 123 70
145 141 81
123 122 68
136 134 73
130 129 71
140 137 75
141 138 72
136 133 73
142 139 76
145 141 71
143 139 80
148 144 78
150 146 79
147 144 73
147 143 80
152 148 77
152 148 70
148 144 79
144 141 73
161 156 81
155 150 79
157 151 81
165 159 81
154 150 73
157 152 73
163 157 78
164 158 80
157 152 76
159 153 81
163 156 82
166 159 85
162 156 83
159 154 83
158 153 77
161 154 76
165 159 84
164 157 81
165 160 78
167 160 80
166 160 78
174 166 91
166 159 81
160 154 73
164 158 81
167 160 83
164 158 78
158 151 73
167 160 83
167 161 76
160 154 75
167 160 82
164 157 77
164 157 74
163 157 82
162 156 80
163 157 80
161 155 77
165 158 84
163 156 80
160 154 74
157 150 75
162 155 73
160 154 72
153 148 75
161 155 77
158 153 75
167 160 80
163 156 74
159 153 74
156 149 63
159 153 72
153 148 66
156 150 69
157 151 75
154 147 68
147 141 68
148 141 73
150 144 65
149 143 64
147 142 62
150 144 63
145 140 63
150 144 62
144 138 61
147 140 67
149 142 67
138 133 58
144 138 67
141 136 62
155 147 70
142 136 58
121 116 44
127 122 45
126 121 49
126 122 37
134 129 54
138 143 37
171 193 0
170 191 0
168 189 0
173 196 0
171 192 0
170 193 0
171 193 0
168 191 0
170 191 0
171 192 0
173 195 0
173 196 0
174 197 0
174 197 0
170 194 0
171 194 0
174 197 0
171 195 0
172 196 0
173 196 0
172 196 0
174 197 0
171 194 0
173 196 0
172 196 0
173 196 0
173 197 0
173 196 0
171 194 0
172 196 0
174 197 0
169 192 0
171 194 0
170 194 0
169 193 0
169 193 0
171 194 0
173 197 0
170 193 0
169 192 0
172 195 0
172 196 0
172 195 0
171 194 0
172 195 0
174 197 0
172 196 0
171 194 0
169 192 0
168 192 0
172 195 0
169 193 0
172 195 0
173 196 0
171 194 0
171 194 0
172 195 0
171 195 0
172 195 0
173 195 0
172 195 0
172 195 0
169 194 0
175 197 0
174 197 0
171 194 0
167 191 0
171 194 0
168 191 0
172 194 0
171 194 0
166 190 0
168 191 0
173 196 0
171 194 0
170 194 0
171 194 0
173 196 0
168 191 0
168 190 0
170 194 0
169 192 0
164 188 0
168 193 0
170 193 0
168 191 0
167 191 0
168 191 0
169 192 0
171 195 0
172 195 0
169 192 0
167 190 0
168 191 0
169 192 0
169 193 0
171 193 0
164 187 36
61 97 149
61 97 159
62 98 159
61 97 158
62 98 158
61 97 158
62 97 156
62 99 166
62 98 164
62 98 168
60 96 155
62 98 166
63 99 172
62 98 165
62 98 169
62 99 173
62 98 165
62 98 161
62 98 168
61 97 165
63 99 172
62 99 172
62 98 167
63 100 174
61 98 165
61 98 169
62 99 170
61 98 170
61 97 168
62 99 172
62 99 171
62 98 172
62 99 171
62 98 173
61 98 168
63 99 175
62 98 170
62 98 171
62 98 172
62 99 178
62 99 179
62 98 168
63 99 176
63 100 181
62 99 172
62 99 176
62 99 175
63 99 173
63 100 178
62 99 174
63 99 173
62 99 172
63 100 177
63 99 175
61 98 171
63 100 176
63 100 177
63 99 174
62 99 176
63 99 173
61 98 173
62 98 171
62 99 175
62 99 177
62 99 175
62 98 168
62 99 175
62 99 176
61 98 177
62 99 170
63 100 175
62 99 174
61 98 168
62 99 174
62 99 174
62 99 174
63 100 178
62 99 173
62 99 175
61 98 172
62 99 175
62 99 175
62 99 175
62 99 176
62 99 176
61 98 177
62 99 175
62 99 178
62 99 175
62 99 171
62 99 174
62 99 173
62 99 175
63 99 175
62 98 166
62 99 172
62 98 169
62 99 174
62 99 170
62 98 170
61 98 168
63 100 179
62 98 170
62 99 173
62 98 172
62 98 170
62 99 176
62 99 173
62 99 172
62 99 172
61 98 170
63 99 176
62 99 175
62 99 174
62 99 170
63 99 172
63 99 178
62 98 169
63 99 177
62 99 172
63 100 173
62 98 170
62 99 172
63 99 174
62 98 169
63 99 170
62 99 172
62 98 168
62 99 171
62 98 170
62 98 173
62 99 172
62 98 169
61 98 163
61 98 169
62 99 170
62 99 169
62 98 170
61 98 171
63 99 171
63 99 172
61 97 167
62 99 167
61 98 165
62 99 167
62 98 168
62 99 167
62 98 167
62 98 161
63 99 173
62 99 167
62 98 166
61 97 161
61 97 158
62 98 165
62 98 166
62 98 162
61 98 170
62 97 160
61 97 162
62 98 168
62 98 162
61 97 164
62 98 164
62 98 166
60 96 158
61 96 162
61 96 157
59 94 155
60 94 152
61 96 161
60 94 150
60 93 147
59 92 147
52 77 117
41 47 27
40 47 25
60 66 35
56 63 37
52 59 36
52 58 36
63 69 39
63 69 46
76 79 41
88 90 50
79 83 48
79 84 49
81 85 43
88 91 53
86 90 52
93 96 58
105 106 63
104 105 55
102 103 53
105 106 59
103 103 58
114 114 57
116 115 63
110 110 58
126 124 63
122 122 68
110 110 57
129 127 67
119 118 68
125 124 68
131 129 67
132 131 64
133 130 71
136 133 75
137 134 75
133 130 70
143 140 74
147 142 78
141 139 79
151 147 79
150 147 76
147 143 72
151 147 81
145 142 70
148 144 72
151 147 72
151 146 73
159 154 83
152 149 72
149 145 75
153 149 68
156 152 83
152 147 73
161 156 78
158 152 75
162 157 74
158 153 80
161 156 75
154 149 75
161 157 74
159 154 76
163 157 80
166 160 85
165 160 80
166 160 78
166 159 80
164 157 85
168 161 86
161 155 85
160 155 75
164 158 81
165 158 81
167 161 82
160 154 80
163 156 78
165 159 80
168 162 84
165 158 75
162 155 82
160 155 75
169 162 83
164 157 74
164 157 80
161 155 80
166 160 90
162 156 78
161 154 78
161 154 76
158 152 73
166 159 76
160 154 74
156 150 76
158 151 78
159 152 72
148 143 66
157 151 70
153 147 64
164 158 73
161 154 75
151 144 66
150 145 62
159 152 75
158 152 75
156 150 79
154 147 71
150 145 57
152 146 66
148 142 63
155 149 69
156 150 66
140 134 60
146 140 63
149 143 59
149 143 59
145 140 62
145 138 57
142 136 62
141 135 61
141 135 60
129 124 48
133 129 51
129 125 51
127 122 45
125 120 44
128 123 52
114 109 41
150 166 19
170 190 0
166 188 0
166 185 0
170 191 0
170 191 0
170 192 0
171 192 0
169 191 0
167 189 0
168 188 0
173 193 0
172 195 0
172 195 0
169 192 0
172 195 0
172 196 0
169 191 0
171 195 0
173 197 0
170 194 0
173 196 0
172 196 0
167 191 0
174 198 0
172 196 0
167 191 0
171 196 0
171 194 0
176 199 0
169 193 0
172 195 0
172 195 0
171 194 0
172 195 0
172 195 0
173 196 0
172 196 0
170 193 0
166 191 0
170 194 0
169 193 0
170 194 0
172 195 0
170 194 0
173 196 0
173 196 0
172 196 0
170 193 0
172 195 0
168 190 0
172 195 0
170 193 0
168 191 0
171 195 0
171 194 0
172 195 0
171 194 0
171 194 0
169 193 0
168 191 0
166 190 0
169 192 0
172 196 0
170 194 0
170 194 0
169 192 0
172 195 0
169 192 0
172 194 0
172 196 0
167 191 0
170 194 0
173 196 0
170 193 0
165 189 0
168 192 0
164 187 0
170 193 0
170 192 0
169 192 0
168 192 0
169 192 0
169 192 0
167 189 0
165 188 0
167 189 0
169 193 0
170 193 0
169 192 0
164 187 0
169 192 0
169 193 0
168 192 0
169 192 0
169 192 0
168 192 0
166 189 0
146 170 80
62 98 160
61 97 161
62 98 158
61 97 152
61 97 155
62 98 162
62 98 162
62 98 165
62 98 167
62 99 172
62 98 167
62 98 168
63 99 171
61 97 162
62 98 168
62 98 162
61 97 159
63 99 170
62 98 168
63 99 167
62 98 169
61 98 166
62 99 175
62 99 170
63 99 170
63 99 171
63 99 173
62 98 170
61 98 170
62 99 178
62 99 172
62 99 170
61 98 167
62 99 170
62 99 174
62 98 171
63 99 174
62 99 175
63 99 172
62 99 172
63 99 172
62 99 174
62 99 175
62 99 173
62 99 177
63 100 178
62 99 175
63 99 177
63 99 176
62 99 172
63 99 174
63 99 174
62 99 174
62 99 174
62 99 177
62 99 172
63 99 177
62 99 172
62 99 173
61 98 173
63 99 173
62 99 176
62 99 175
62 99 172
62 98 171
62 99 167
63 100 175
62 99 177
62 98 172
61 98 171
63 99 175
62 99 174
62 99 176
61 98 168
62 98 170
62 99 173
62 99 176
61 98 176
63 99 172
63 100 176
62 99 171
62 99 174
62 99 176
62 98 168
62 99 173
62 99 175
62 99 174
62 99 175
61 98 169
62 99 170
62 99 174
63 100 176
63 100 177
62 99 175
62 99 173
62 99 173
63 99 170
62 99 171
62 99 171
62 98 172
62 98 173
62 99 175
62 99 175
63 99 172
62 99 174
63 99 175
62 99 176
63 99 170
63 99 171
62 99 172
62 99 173
63 100 178
62 99 174
62 99 174
63 99 171
62 98 166
62 98 168
63 99 175
62 98 171
62 98 171
63 99 174
62 99 172
62 98 172
62 99 177
62 98 170
63 99 169
62 99 173
61 98 167
63 99 174
63 100 176
63 99 169
62 98 169
62 98 167
62 99 171
62 99 166
62 98 163
62 99 170
62 98 167
63 99 169
62 99 168
62 98 167
63 100 173
62 99 171
62 98 163
63 99 172
62 99 169
62 98 170
61 97 160
62 98 169
63 99 168
62 98 168
62 98 166
61 97 161
62 97 164
62 98 169
62 98 170
61 97 162
61 97 161
62 98 168
63 99 170
61 97 163
61 97 158
62 99 166
61 96 155
61 97 159
61 96 158
59 94 150
61 96 159
62 98 164
60 95 153
60 94 152
59 92 152
59 93 148
60 94 149
54 83 128
44 50 30
62 66 32
61 67 34
59 64 29
65 71 39
65 71 38
70 75 44
69 74 40
72 74 36
76 79 39
77 81 49
79 82 42
84 86 46
89 94 52
95 97 38
94 96 55
98 99 56
109 109 59
111 109 59
105 106 53
106 107 57
108 109 59
111 110 66
113 112 59
113 115 62
108 109 57
121 121 62
133 132 65
135 133 68
127 126 64
128 126 64
134 131 68
130 128 65
133 130 67
139 136 71
133 132 69
133 131 69
129 128 69
147 143 70
137 136 68
151 146 80
142 138 69
148 145 77
151 146 80
148 143 77
154 149 71
154 149 74
156 150 71
151 146 65
157 151 77
150 147 72
158 153 70
157 152 78
157 151 81
149 146 75
157 152 78
161 155 81
165 157 84
158 152 80
157 152 81
157 152 69
165 159 80
163 157 82
159 153 76
158 152 78
155 150 72
165 158 79
158 153 70
169 162 77
165 159 84
161 155 78
160 155 77
167 161 78
167 160 77
164 157 78
164 158 75
161 155 80
160 154 79
162 157 75
164 157 76
166 159 81
162 155 73
163 157 78
161 154 75
168 160 80
168 160 78
165 158 76
160 154 77
162 157 80
165 158 75
158 152 74
164 158 79
164 158 77
163 157 75
153 147 70
153 147 71
155 149 70
145 140 57
155 148 67
161 155 76
157 151 73
159 153 74
157 151 70
153 147 65
152 146 65
153 147 69
157 151 70
149 142 66
148 141 67
149 143 64
152 146 65
145 140 61
152 146 65
146 140 67
144 137 61
141 136 56
151 144 65
149 142 64
128 123 51
137 132 56
137 131 54
132 127 49
133 129 53
127 122 45
119 115 39
115 116 30
168 189 0
168 189 0
169 188 0
171 192 0
170 192 0
167 187 0
171 192 0
166 187 0
171 191 0
173 193 0
170 192 0
171 192 0
174 196 0
170 194 0
174 197 0
174 197 0
173 196 0
174 197 0
172 196 0
172 196 0
174 197 0
172 195 0
172 195 0
169 192 0
170 193 0
172 195 0
171 194 0
172 195 0
172 196 0
169 193 0
169 192 0
172 196 0
171 195 0
171 195 0
173 196 0
170 194 0
171 195 0
172 195 0
172 196 0
172 195 0
171 195 0
173 196 0
168 192 0
172 196 0
173 196 0
171 195 0
171 194 0
174 197 0
170 193 0
172 195 0
169 192 0
174 198 0
171 195 0
172 195 0
171 195 0
172 195 0
171 195 0
166 189 0
172 196 0
170 193 0
170 193 0
168 191 0
170 194 0
166 189 0
172 196 0
170 193 0
170 193 0
173 196 0
175 198 0
168 192 0
168 192 0
172 195 0
170 193 0
169 193 0
173 196 0
168 192 0
167 191 0
170 193 0
168 191 0
168 191 0
170 193 0
170 193 0
171 194 0
167 191 0
169 193 0
165 188 0
171 194 0
172 194 0
170 193 0
167 189 0
166 191 0
171 194 0
167 190 0
168 190 0
167 190 0
167 190 0
170 194 0
167 190 0
113 139 114
62 98 157
60 96 154
62 97 150
61 97 156
61 97 156
62 98 164
63 98 163
62 98 164
62 98 163
62 98 159
61 98 166
62 98 168
62 98 162
62 98 168
62 98 167
62 99 165
62 98 164
61 97 161
62 98 163
63 99 169
62 98 166
62 98 168
62 98 169
62 99 168
62 99 175
63 99 169
62 98 169
62 98 166
62 99 172
62 98 166
62 98 170
61 98 167
61 98 170
62 99 176
62 99 173
61 97 166
63 99 171
62 99 171
62 98 169
62 99 169
63 99 175
62 99 172
62 98 171
62 99 172
62 99 167
61 98 172
62 98 169
61 98 173
63 99 174
61 98 173
62 99 173
63 99 175
63 99 177
62 99 175
61 98 173
62 99 176
62 99 175
62 99 173
62 99 176
61 98 174
62 99 174
62 99 172
61 98 170
63 99 175
62 99 176
62 99 173
62 99 177
62 99 174
62 99 175
62 99 175
63 99 176
62 98 170
63 99 177
62 99 175
62 99 171
62 99 173
62 98 172
62 99 176
62 99 177
62 99 174
62 99 174
62 99 173
62 99 172
62 98 169
62 99 174
62 99 175
63 100 176
63 99 173
62 99 177
62 99 173
62 99 171
62 99 174
62 98 171
62 99 173
63 99 176
62 98 173
62 98 173
62 99 174
62 99 174
61 98 169
62 99 172
62 99 177
62 98 164
63 99 176
62 99 172
62 98 167
61 98 169
62 99 174
62 98 169
63 99 170
62 99 169
62 99 173
62 99 176
62 98 165
62 99 168
62 99 173
63 99 171
62 99 168
62 99 170
63 99 175
63 99 170
62 98 166
62 98 170
62 99 170
62 99 172
62 99 171
63 99 176
62 99 171
62 99 170
62 98 165
62 99 169
62 99 172
62 98 158
61 98 169
62 98 168
62 99 173
63 99 172
62 98 167
62 98 170
61 98 165
62 98 167
63 100 173
63 99 166
62 99 170
63 99 170
63 99 170
62 98 164
62 98 170
61 98 166
62 98 164
62 99 172
62 98 163
62 98 165
62 98 164
62 98 166
63 99 167
62 98 165
61 97 164
62 98 165
61 97 161
62 97 163
61 97 165
62 98 163
61 97 158
62 97 161
61 96 153
62 96 158
62 98 165
60 95 154
61 96 160
61 95 158
61 95 155
61 95 149
60 94 149
57 88 131
51 59 56
49 55 26
52 55 23
54 60 34
45 52 30
63 66 29
59 65 39
73 76 42
75 77 42
70 75 40
92 94 45
75 80 46
91 91 44
91 93 48
100 101 51
95 96 49
100 101 54
102 104 54
114 112 59
105 105 64
98 100 53
108 108 62
108 110 60
108 108 58
126 125 62
114 114 52
118 117 58
121 121 63
121 119 66
116 116 58
136 132 70
124 122 63
129 128 60
140 136 73
140 137 72
138 135 66
137 134 74
143 141 73
151 145 73
144 140 75
145 141 72
153 148 75
143 139 74
151 146 76
155 150 77
152 147 75
149 146 74
157 151 78
151 146 80
157 152 74
158 153 75
161 155 80
155 150 79
162 157 78
153 148 71
156 151 74
154 149 79
165 159 80
156 151 73
154 150 73
158 152 80
162 155 79
159 153 70
163 158 77
165 158 84
167 160 87
165 159 76
160 154 76
161 156 77
163 157 73
163 157 77
166 160 77
163 156 72
161 154 80
161 155 74
160 154 72
167 160 75
169 162 85
162 155 79
158 152 73
163 157 74
158 151 71
161 154 72
164 157 78
164 158 75
157 151 73
164 156 78
154 148 72
159 154 69
162 155 77
157 151 63
155 149 71
163 156 76
165 158 80
158 152 69
152 147 63
157 151 69
156 150 68
158 152 69
150 144 61
156 150 77
156 150 67
153 147 68
151 145 65
157 150 72
152 146 65
155 149 67
149 144 62
144 138 61
148 142 63
147 140 64
137 132 56
151 145 60
147 140 54
148 141 61
138 133 52
137 132 52
139 133 51
129 124 42
142 137 52
133 126 51
125 121 47
129 124 45
127 121 39
134 128 52
155 163 45
166 185 0
168 186 0
169 190 0
168 188 0
170 190 0
172 193 0
169 190 0
170 191 0
172 194 0
168 190 0
168 189 0
171 193 0
171 195 0
171 195 0
170 193 0
169 193 0
172 195 0
171 195 0
174 197 0
171 195 0
173 197 0
172 195 0
170 194 0
175 198 0
170 193 0
170 193 0
173 196 0
171 195 0
172 195 0
173 196 0
173 195 0
169 193 0
172 195 0
172 196 0
171 194 0
171 194 0
172 196 0
171 194 0
173 195 0
168 192 0
169 193 0
171 194 0
170 194 0
173 197 0
172 196 0
166 190 0
172 195 0
173 197 0
169 193 0
169 192 0
173 196 0
170 193 0
173 196 0
169 193 0
167 190 0
167 191 0
173 197 0
168 192 0
172 195 0
169 192 0
172 195 0
170 193 0
170 193 0
173 196 0
169 192 0
169 192 0
169 192 0
166 189 0
169 192 0
172 195 0
171 194 0
167 191 0
172 196 0
171 195 0
174 198 0
168 191 0
169 193 0
164 187 0
169 193 0
169 193 0
168 191 0
169 191 0
167 191 0
170 194 0
172 194 0
169 193 0
169 192 0
167 189 0
168 192 0
169 191 0
168 191 0
166 190 0
172 195 0
169 191 0
169 192 0
168 192 0
167 190 0
168 192 0
93 122 130
62 98 158
62 98 157
61 97 152
62 98 158
62 98 162
63 99 165
61 98 163
61 98 163
62 98 166
61 98 166
62 98 163
62 98 162
62 98 166
62 98 165
62 97 160
62 98 164
62 98 168
62 99 171
62 99 172
61 98 167
62 98 169
62 99 172
62 99 175
62 98 166
62 98 167
62 99 171
61 98 162
62 99 174
62 99 171
62 99 172
62 98 168
62 99 174
61 98 168
62 99 173
62 99 176
62 99 172
61 98 172
61 98 171
62 98 173
63 99 174
62 99 174
62 99 173
62 98 173
61 98 169
62 99 175
62 99 175
61 98 164
62 98 171
63 100 177
62 99 173
62 98 174
63 100 177
62 98 171
61 98 172
62 98 172
62 98 174
62 99 174
63 99 180
61 98 175
62 98 169
62 99 175
62 99 172
62 99 175
61 98 170
62 99 173
62 98 175
61 98 175
62 99 173
63 99 176
62 99 175
62 99 172
63 99 176
62 99 173
62 99 174
62 99 170
61 98 174
62 99 172
62 99 172
62 98 171
63 99 173
62 99 171
62 99 172
62 99 173
62 99 178
61 98 172
62 99 177
61 98 170
62 98 171
62 99 172
62 98 172
62 99 175
63 99 176
62 99 176
63 99 176
62 98 169
62 98 166
61 98 173
63 99 175
62 99 173
62 99 174
62 99 174
62 98 167
63 99 168
62 99 175
61 98 167
63 99 176
62 98 170
63 99 174
62 99 174
62 99 172
62 98 171
62 99 169
62 98 169
62 99 176
62 99 173
61 98 170
61 98 165
62 98 167
62 99 169
63 99 170
62 99 172
62 98 168
62 99 169
62 99 172
62 98 169
62 98 168
63 100 173
62 99 173
62 98 166
62 99 172
62 98 170
62 98 171
62 99 168
62 98 170
62 98 162
63 99 170
62 98 169
62 98 162
62 99 170
62 98 169
62 98 164
63 99 170
62 98 164
63 99 172
62 98 166
63 99 173
62 98 167
62 98 171
62 98 167
61 97 163
62 98 163
61 96 156
62 98 167
61 97 161
61 97 155
62 99 167
61 97 164
62 99 171
62 98 164
62 98 166
62 98 166
61 96 158
61 97 160
62 98 161
61 97 157
62 97 164
61 96 153
61 96 158
61 96 156
62 96 160
59 93 148
60 94 152
59 94 155
60 93 144
59 92 143
53 67 79
56 60 24
59 62 32
61 67 31
62 65 30
61 67 39
63 68 39
75 76 40
68 73 40
80 84 41
89 89 44
76 79 40
89 90 45
80 84 38
80 85 51
103 102 47
92 94 49
99 101 56
105 106 59
104 105 58
107 108 52
111 110 60
123 120 62
118 118 61
115 114 56
104 106 51
123 123 56
128 127 65
124 123 66
133 131 69
140 135 70
145 141 76
133 131 70
139 136 73
142 138 68
133 131 68
144 141 74
138 135 68
136 133 70
136 133 66
146 143 74
154 148 76
147 142 75
146 142 75
148 143 72
152 147 76
150 146 76
150 145 75
152 148 72
157 152 79
163 157 79
153 148 75
160 155 81
165 159 81
157 151 76
150 145 73
154 149 76
159 153 79
156 151 71
157 152 72
162 156 78
165 158 81
162 156 81
164 156 80
158 152 69
162 157 75
156 151 71
162 156 76
160 154 76
163 157 77
167 161 81
161 156 72
159 154 72
169 162 80
160 155 72
165 158 74
154 149 61
160 153 75
162 156 75
166 159 80
165 158 77
162 155 75
158 152 75
162 155 72
161 154 74
154 149 69
159 152 68
166 158 78
162 156 76
153 147 62
160 154 75
156 151 68
161 155 77
159 152 67
157 151 68
154 149 65
154 149 64
161 154 74
154 146 70
153 147 70
148 142 60
160 154 69
155 150 63
154 148 71
150 144 68
146 139 64
149 143 59
153 147 67
144 138 62
147 140 63
147 141 60
146 140 58
143 137 59
147 140 66
140 135 49
140 134 56
136 131 54
143 137 58
142 136 54
139 133 64
142 137 56
124 120 42
128 123 42
130 124 52
124 120 45
169 189 16
168 189 0
168 188 0
169 189 0
171 193 0
168 189 0
168 189 0
171 193 0
168 189 0
172 192 0
168 190 0
169 188 0
170 192 0
168 192 0
173 197 0
173 197 0
169 193 0
172 196 0
170 194 0
172 195 0
172 195 0
169 193 0
170 194 0
173 196 0
173 196 0
173 196 0
172 196 0
171 193 0
170 194 0
170 194 0
169 192 0
168 191 0
169 191 0
172 195 0
167 191 0
172 195 0
173 196 0
171 194 0
170 194 0
170 193 0
169 193 0
172 195 0
169 193 0
174 197 0
172 196 0
171 194 0
168 191 0
172 195 0
169 193 0
171 195 0
171 195 0
172 195 0
172 195 0
172 195 0
171 194 0
172 195 0
173 196 0
172 195 0
170 194 0
171 194 0
165 189 0
173 196 0
172 195 0
170 194 0
169 192 0
171 194 0
171 195 0
171 194 0
172 194 0
169 192 0
171 195 0
171 194 0
171 194 0
167 191 0
169 193 0
172 195 0
168 191 0
169 193 0
170 193 0
170 193 0
166 189 0
170 193 0
168 191 0
168 190 0
165 188 0
171 194 0
168 191 0
169 192 0
170 193 0
168 191 0
166 190 0
164 188 0
167 190 0
168 192 0
170 194 0
167 191 0
168 191 0
168 192 0
165 189 18
82 113 150
61 97 151
62 97 153
61 97 155
61 97 159
62 98 158
62 98 162
62 98 161
62 98 157
62 97 161
62 99 170
62 98 169
62 98 164
61 98 161
62 98 164
61 97 164
61 97 163
62 99 168
62 98 161
61 98 166
62 98 169
62 98 166
62 98 173
62 98 169
62 98 167
62 99 174
61 97 162
61 98 174
62 99 173
61 97 167
62 99 175
62 98 166
63 100 177
62 99 171
62 98 167
61 98 168
61 97 171
62 98 171
63 99 170
62 99 173
63 100 178
62 99 169
63 99 174
62 99 174
63 99 173
62 99 172
62 99 173
62 98 172
61 98 174
62 99 176
62 99 173
62 99 177
62 99 175
62 99 175
62 99 177
61 98 170
62 99 173
63 99 174
61 98 173
62 99 172
62 98 178
63 100 175
62 99 176
62 99 172
62 99 168
62 99 177
63 99 172
62 98 168
63 99 174
63 99 172
62 99 169
63 99 177
62 99 174
62 99 176
62 99 173
62 99 173
63 99 175
62 99 174
63 99 173
61 98 171
62 99 175
62 99 176
63 100 178
63 99 172
63 99 178
63 99 172
63 100 179
62 98 171
62 99 172
62 99 169
62 99 171
62 99 174
63 99 177
62 99 174
62 98 172
62 98 169
62 99 172
62 99 174
63 99 174
63 99 173
62 99 174
61 98 173
62 99 172
62 99 170
62 99 170
62 99 171
62 99 169
62 99 170
62 99 169
62 99 172
61 98 169
61 98 170
61 98 171
62 99 171
62 98 165
62 99 167
62 98 173
62 99 172
63 100 174
63 99 172
62 98 168
62 98 170
62 98 170
62 99 170
62 99 175
63 100 174
62 98 167
62 98 168
62 98 168
62 98 170
63 99 170
63 99 171
62 98 172
62 98 166
62 98 170
62 98 163
62 99 169
61 98 164
62 99 169
62 99 173
62 98 162
62 98 164
62 98 168
62 98 165
61 98 168
62 98 164
61 97 169
62 98 165
62 99 170
62 98 168
62 98 165
62 99 169
62 98 164
63 99 169
63 99 166
62 98 166
62 98 167
63 99 168
62 98 164
62 98 165
62 97 159
62 98 163
61 97 152
61 96 160
62 97 160
61 96 155
62 98 161
60 95 150
62 97 159
61 96 158
61 96 157
61 97 157
60 95 156
60 93 149
60 94 150
58 91 140
57 76 104
61 65 22
61 64 22
61 64 32
54 60 35
65 69 37
67 70 37
62 67 32
73 76 34
71 74 38
81 84 42
79 84 47
79 82 41
85 86 39
83 87 50
91 93 50
86 89 48
98 99 52
104 104 52
97 100 51
112 112 64
118 116 57
102 104 46
113 113 59
112 111 57
113 113 61
119 119 61
131 129 59
129 127 62
121 120 58
129 126 61
135 133 69
130 127 63
142 138 72
139 135 69
139 135 67
138 135 68
142 139 67
146 142 72
141 138 63
148 144 72
145 142 74
137 134 68
147 144 71
154 150 75
141 139 70
152 148 76
151 147 73
151 146 74
158 152 76
158 152 75
161 154 81
152 147 72
159 153 73
154 149 76
148 144 74
153 148 75
158 153 78
156 151 70
162 156 78
160 155 78
161 155 75
160 154 73
157 151 70
159 154 69
158 152 70
159 154 71
167 159 77
159 154 73
165 158 75
160 154 78
160 153 75
161 155 77
169 161 80
161 154 75
160 154 75
167 159 81
163 157 70
165 159 77
158 152 67
160 154 71
163 157 74
161 154 71
157 151 73
161 155 75
158 152 70
156 151 69
154 148 72
161 154 73
161 155 67
156 150 70
157 151 72
160 151 78
152 147 63
160 153 72
151 144 68
150 144 66
152 146 66
157 150 75
158 152 71
145 141 61
154 148 61
160 154 75
146 140 62
157 150 63
150 144 64
152 145 61
142 137 60
139 134 62
149 143 61
143 138 59
150 144 62
139 134 59
131 126 47
139 134 51
144 137 67
138 133 57
134 128 49
128 123 51
127 122 51
136 130 49
142 136 48
113 109 44
115 110 41
144 154 25
166 187 0
169 189 0
171 191 0
168 188 0
170 190 0
169 189 0
168 189 0
169 189 0
170 190 0
169 192 0
172 194 0
168 189 0
170 191 0
171 196 0
171 194 0
172 195 0
168 192 0
170 194 0
171 194 0
167 191 0
172 196 0
171 194 0
173 196 0
172 195 0
171 194 0
174 197 0
172 196 0
170 192 0
173 196 0
174 197 0
171 195 0
172 196 0
173 197 0
170 194 0
170 193 0
171 195 0
172 195 0
172 195 0
172 194 0
171 195 0
170 193 0
173 195 0
170 194 0
167 190 0
171 195 0
173 196 0
172 196 0
168 191 0
172 196 0
170 194 0
168 192 0
170 193 0
169 193 0
172 195 0
170 193 0
172 196 0
166 189 0
170 194 0
171 194 0
170 193 0
168 191 0
170 194 0
168 192 0
169 192 0
167 191 0
171 194 0
170 193 0
169 193 0
167 191 0
172 195 0
170 193 0
171 195 0
169 193 0
171 195 0
170 193 0
167 191 0
169 193 0
169 192 0
171 194 0
166 189 0
167 190 0
172 196 0
175 197 0
167 189 0
169 192 0
170 193 0
171 194 0
170 193 0
174 197 0
170 193 0
168 190 0
167 191 0
167 190 0
166 190 0
165 188 0
168 191 0
167 190 0
167 190 0
164 188 40
61 96 150
61 97 159
61 97 157
62 98 162
61 98 161
63 99 165
61 98 163
61 97 157
62 98 161
62 98 164
61 97 163
61 97 162
62 98 166
61 98 169
62 98 166
62 98 166
62 98 165
62 99 168
62 98 162
62 99 172
62 98 166
62 99 169
62 98 164
62 99 169
62 99 167
62 98 167
61 97 165
61 98 170
62 99 172
62 99 170
62 99 175
63 100 174
62 99 172
62 99 174
62 99 172
62 99 171
62 99 172
61 98 170
63 99 171
61 98 171
63 100 176
62 99 171
61 98 172
62 99 172
61 98 170
63 99 173
62 99 171
63 99 177
61 98 171
63 99 172
63 99 172
62 98 170
63 99 174
62 98 169
62 99 171
62 98 170
63 99 172
62 98 167
62 99 168
62 99 175
63 100 175
62 98 173
62 98 172
62 99 175
61 98 172
63 99 173
62 99 175
62 98 177
63 99 168
63 100 178
63 100 176
62 99 173
62 98 171
62 99 174
63 100 179
62 99 174
62 98 167
62 99 177
63 99 174
62 99 173
62 99 177
62 99 174
62 99 174
61 98 172
62 99 174
62 99 174
63 100 173
63 99 171
63 100 176
62 99 172
63 100 176
62 99 171
62 98 170
62 99 175
62 99 172
62 98 167
62 99 174
61 98 169
62 99 175
62 99 170
62 98 166
63 99 169
62 99 176
61 98 168
62 99 169
62 99 171
62 99 173
61 98 169
63 99 172
62 98 168
62 99 172
62 99 171
62 99 174
62 98 173
62 98 167
61 98 174
62 99 169
63 99 172
62 99 171
61 98 166
62 98 169
62 98 170
62 99 175
63 99 172
61 97 162
62 99 169
61 98 168
62 98 167
62 98 165
62 99 170
61 97 160
62 98 164
62 99 171
63 100 176
63 99 172
62 98 168
61 98 163
62 99 169
62 99 173
62 99 170
61 97 158
63 99 168
62 98 165
62 98 168
61 97 161
61 98 165
62 98 167
62 98 161
61 98 168
62 98 163
61 97 158
62 98 167
62 98 163
62 99 166
61 97 155
62 97 163
60 96 155
62 98 165
61 97 158
61 97 161
62 99 169
61 96 159
61 97 164
62 98 166
62 98 168
61 96 152
61 96 154
61 95 159
61 96 158
60 96 156
61 96 153
62 97 162
59 93 141
60 95 149
60 93 149
58 90 143
57 84 124
62 65 27
69 73 31
54 57 29
62 65 28
49 54 25
68 72 30
72 74 31
67 71 35
81 83 37
61 68 35
81 83 37
90 92 50
96 97 48
97 98 43
95 97 51
92 93 49
110 110 47
106 107 56
98 99 55
105 106 56
103 105 50
122 120 62
110 109 57
114 114 56
113 113 57
121 120 58
128 125 63
119 120 60
128 126 65
120 119 61
132 129 62
128 127 63
134 130 64
140 136 70
138 135 66
136 133 68
137 134 72
135 132 71
142 138 70
147 142 73
143 140 70
141 139 66
146 144 67
142 138 61
150 145 72
146 143 67
158 154 72
148 143 67
158 151 74
144 139 58
155 150 72
152 147 74
154 149 75
161 155 79
160 154 76
156 150 75
156 150 67
156 151 71
159 153 72
159 153 75
162 156 74
158 153 71
157 152 73
160 154 72
161 155 77
163 157 82
163 157 78
165 159 75
158 153 66
163 157 75
160 155 71
160 154 70
151 146 65
164 158 78
160 154 76
161 154 76
163 156 73
152 147 63
159 152 74
161 154 71
164 159 74
162 156 69
156 150 69
163 156 71
159 151 68
155 148 73
162 155 70
161 155 71
159 152 72
161 153 74
159 152 68
154 148 62
151 146 62
158 151 75
160 153 71
154 148 63
159 152 73
154 148 68
152 146 66
148 143 61
145 140 58
152 145 66
143 137 57
150 144 66
147 142 63
151 145 62
142 136 61
147 142 66
150 145 62
136 132 52
145 139 58
141 135 57
134 129 56
143 137 57
144 138 60
135 129 45
142 135 54
133 128 48
124 120 30
134 127 51
137 130 52
125 119 47
127 124 44
163 182 11
168 188 0
172 193 0
168 188 0
168 187 0
170 189 0
171 192 0
171 192 0
170 191 0
172 193 0
170 192 0
170 191 0
169 190 0
170 191 0
174 198 0
172 196 0
173 196 0
171 194 0
170 194 0
172 196 0
169 193 0
171 194 0
173 196 0
173 196 0
170 194 0
171 195 0
168 192 0
172 195 0
170 194 0
170 194 0
172 196 0
166 189 0
171 194 0
169 194 0
170 192 0
171 195 0
170 192 0
171 193 0
171 195 0
170 193 0
171 194 0
168 192 0
172 195 0
169 192 0
170 194 0
171 194 0
172 197 0
171 194 0
171 194 0
170 193 0
173 196 0
167 191 0
168 191 0
171 194 0
172 195 0
169 193 0
171 194 0
166 189 0
169 192 0
168 192 0
172 196 0
169 193 0
168 191 0
172 195 0
171 195 0
171 194 0
173 196 0
167 190 0
168 191 0
170 194 0
169 193 0
173 196 0
170 192 0
172 194 0
170 194 0
170 194 0
168 193 0
167 190 0
169 192 0
167 191 0
171 194 0
167 190 0
168 191 0
166 189 0
168 192 0
170 193 0
166 189 0
173 197 0
169 192 0
172 194 0
166 189 0
169 193 0
167 190 0
166 189 0
165 188 0
168 192 0
165 187 0
172 194 0
170 194 0
144 169 88
61 97 155
61 97 156
62 98 165
61 96 150
62 98 156
61 97 155
62 98 161
62 98 162
61 97 164
62 98 161
61 97 158
61 97 158
61 98 162
62 98 159
62 98 168
62 98 168
61 97 164
62 99 168
63 99 173
61 97 168
61 97 166
62 98 169
61 98 164
61 98 166
62 99 170
62 98 168
62 99 173
62 99 170
62 98 166
62 99 168
62 98 166
62 99 174
61 97 169
62 99 171
62 99 174
62 98 170
62 98 168
62 98 173
62 99 173
62 99 169
63 99 174
62 99 174
62 99 175
62 98 174
62 99 170
62 99 172
62 98 172
62 98 173
62 99 172
62 98 167
62 99 173
62 99 175
62 99 170
61 98 170
63 100 174
62 98 169
62 98 166
62 98 173
62 99 174
62 99 177
62 99 172
62 99 170
62 99 176
61 97 166
62 99 177
62 99 170
62 99 170
61 98 172
61 98 167
62 99 173
61 98 168
62 98 172
61 98 166
62 99 173
62 99 173
63 99 173
62 98 173
62 98 166
62 99 171
63 99 173
63 99 172
62 99 172
62 99 178
62 99 169
62 99 175
62 99 173
62 99 174
61 98 170
61 98 169
61 98 172
62 99 173
62 99 172
61 98 163
62 99 171
62 99 171
62 99 175
62 99 168
61 98 170
62 99 170
62 99 173
62 98 169
63 99 174
62 98 165
61 98 170
62 99 174
62 98 167
61 98 168
63 99 169
62 99 174
62 99 171
62 98 166
62 99 168
63 99 175
62 99 170
62 98 164
62 99 167
62 99 173
62 99 167
63 99 176
62 98 169
63 99 172
61 98 171
63 99 175
62 99 170
62 98 164
61 97 162
63 99 169
62 99 170
62 98 166
63 99 170
62 99 168
63 99 173
62 99 171
62 98 166
62 98 164
62 98 164
62 99 173
62 98 164
61 98 168
61 98 166
62 98 165
62 98 166
62 98 167
62 99 169
61 97 160
62 98 162
62 98 165
62 98 169
61 98 163
62 99 170
62 98 165
62 98 163
62 98 163
62 97 164
63 99 170
62 98 168
62 98 166
61 97 157
61 97 161
63 98 167
61 97 162
62 97 160
61 96 158
62 97 159
62 98 156
60 95 151
62 97 159
61 96 159
61 95 156
61 97 155
61 96 153
59 93 149
61 96 145
60 94 154
58 91 140
59 93 144
57 85 123
58 63 28
46 50 21
61 65 23
66 69 29
55 61 32
65 70 28
73 76 37
76 79 34
72 74 36
78 82 39
83 84 33
75 79 40
92 92 39
80 83 39
91 92 46
103 103 51
103 105 49
105 105 50
113 112 50
99 101 56
104 104 54
112 111 61
115 115 61
112 111 53
110 112 56
117 117 59
121 119 53
125 122 63
121 119 59
124 122 57
127 125 58
132 129 65
131 129 63
134 131 65
136 132 66
132 129 66
147 142 70
144 139 71
132 130 66
145 141 72
145 141 66
143 139 66
145 142 68
153 148 72
158 152 75
153 148 72
151 146 74
154 149 78
157 151 75
155 149 75
155 150 72
152 147 74
148 145 71
153 147 75
155 150 67
156 150 73
155 150 76
157 151 71
157 151 67
157 151 68
160 155 72
159 153 75
156 150 67
161 154 75
159 153 71
157 150 73
158 153 71
163 157 70
163 157 76
158 153 70
162 156 75
162 156 75
160 154 71
168 160 82
157 151 66
170 163 84
156 150 68
161 155 73
163 157 75
165 157 85
159 152 71
155 150 68
157 151 69
155 150 64
159 152 76
161 155 70
152 146 66
152 146 62
158 152 68
156 150 65
149 143 66
156 150 70
159 152 72
145 138 63
152 147 60
158 151 75
153 147 57
147 141 61
156 149 67
154 148 67
154 148 61
150 145 61
145 140 56
150 144 65
144 139 53
154 147 60
150 144 64
148 143 59
149 143 57
148 141 60
144 138 57
137 132 56
139 133 60
136 130 52
132 127 48
135 130 44
132 127 47
131 127 42
121 116 36
130 124 53
124 117 47
120 116 36
133 140 19
169 190 0
169 189 0
165 185 0
171 191 0
169 189 0
171 191 0
171 191 0
170 191 0
168 188 0
170 191 0
170 191 0
168 188 0
170 191 0
169 190 0
174 197 0
173 197 0
170 194 0
172 195 0
172 195 0
170 193 0
171 195 0
171 194 0
173 196 0
169 192 0
170 193 0
172 196 0
172 195 0
168 192 0
167 192 0
172 195 0
169 192 0
173 195 0
172 195 0
170 193 0
171 194 0
169 193 0
171 194 0
167 192 0
170 194 0
170 193 0
171 194 0
168 191 0
171 195 0
171 195 0
169 191 0
169 192 0
170 195 0
173 196 0
171 193 0
169 192 0
172 195 0
171 196 0
173 196 0
171 194 0
168 190 0
167 190 0
172 195 0
169 192 0
170 193 0
172 195 0
170 194 0
167 190 0
171 194 0
165 188 0
170 194 0
167 190 0
169 192 0
170 193 0
167 191 0
170 194 0
171 194 0
170 194 0
167 191 0
168 191 0
170 194 0
168 191 0
167 190 0
166 190 0
171 194 0
167 190 0
174 197 0
167 190 0
169 190 0
167 189 0
170 193 0
167 191 0
171 194 0
172 195 0
171 195 0
166 190 0
169 192 0
171 194 0
165 189 0
167 189 0
169 192 0
168 191 0
169 192 0
171 195 0
170 192 0
122 148 102
61 97 158
62 98 158
61 97 158
63 99 163
62 97 154
62 97 159
62 98 161
61 97 158
62 98 162
62 99 171
61 98 165
62 97 162
62 98 167
62 98 161
62 98 162
63 99 170
62 98 164
61 98 167
62 98 166
62 98 164
62 98 166
62 98 168
61 98 163
62 99 168
62 99 167
61 98 169
63 99 172
62 98 168
62 99 172
62 98 171
63 99 174
62 98 170
61 98 164
63 100 177
61 98 164
62 98 166
63 99 174
61 98 167
62 99 173
61 98 168
62 99 174
61 98 170
62 98 170
62 98 169
61 98 172
62 98 172
61 98 170
62 99 171
62 99 173
62 99 177
63 100 177
62 98 174
62 99 175
61 98 167
62 98 170
62 99 175
63 99 177
62 98 170
63 100 177
62 99 170
61 98 170
61 98 175
62 99 168
62 99 175
62 99 172
63 99 177
63 100 173
61 98 167
62 99 175
62 98 168
61 98 170
62 99 171
62 99 171
63 99 178
62 99 172
63 100 178
62 99 175
62 99 176
62 99 175
62 99 174
62 99 169
62 99 175
62 99 171
62 99 169
62 98 167
62 99 171
63 100 177
62 99 173
63 99 173
62 99 173
63 99 171
61 98 170
63 100 175
62 99 174
62 98 169
62 99 170
62 99 175
62 99 175
61 98 170
61 98 167
63 99 172
62 99 173
62 98 169
62 99 174
62 98 169
62 98 169
62 98 171
61 98 168
61 97 158
62 99 170
63 99 173
62 99 167
62 98 172
62 99 171
62 98 168
62 99 171
62 98 165
62 99 170
63 100 172
62 98 166
62 98 170
62 98 171
62 98 166
62 99 168
62 98 164
62 99 175
63 99 172
62 99 168
63 99 171
61 98 165
62 98 164
63 99 177
62 99 171
62 99 171
63 99 171
62 99 170
62 99 170
62 98 162
61 98 166
63 99 168
62 99 172
62 98 163
62 98 164
62 98 169
62 99 166
62 98 168
62 98 158
61 97 158
62 98 161
61 97 158
62 98 167
63 99 169
62 98 164
63 99 173
62 98 169
62 98 165
62 98 165
61 97 162
59 95 154
62 98 164
61 97 161
62 97 156
63 99 171
62 97 161
60 96 157
61 97 160
61 97 156
62 97 160
61 97 158
59 93 143
60 95 154
59 93 148
61 95 158
61 96 154
59 93 149
58 91 139
56 88 129
54 60 33
57 60 28
59 62 27
59 64 26
60 62 25
68 70 26
67 71 31
78 81 39
84 85 36
77 80 34
80 82 39
77 80 34
102 101 40
86 89 44
101 101 50
92 94 45
96 97 49
92 95 37
101 102 51
112 112 60
98 99 49
105 106 48
115 114 50
114 113 55
116 116 58
116 114 55
128 126 65
125 123 62
124 122 67
125 124 55
129 126 64
133 131 64
140 137 64
138 134 64
133 131 59
131 129 63
129 127 58
136 134 63
138 135 65
143 138 69
143 139 70
142 138 73
138 134 64
146 142 67
153 148 70
154 150 74
149 145 62
151 146 71
149 144 69
155 149 75
153 148 69
143 138 67
151 147 69
146 141 69
152 146 61
152 147 65
161 156 74
152 147 71
153 147 69
162 155 72
166 159 76
156 152 75
158 153 66
156 150 75
159 152 69
161 155 72
161 155 70
146 141 58
157 151 68
159 154 76
158 152 63
152 146 64
164 157 78
155 149 70
166 158 77
165 158 78
160 155 72
159 154 69
158 152 68
159 152 68
160 153 66
157 151 64
159 152 71
161 154 71
153 147 65
154 148 63
156 150 57
152 147 60
159 152 71
150 145 57
154 148 62
155 149 61
158 151 70
148 142 59
158 152 66
150 145 64
148 143 60
154 148 67
156 150 60
160 154 73
152 146 60
140 135 51
147 141 62
154 148 67
158 152 62
140 135 53
147 140 57
141 136 61
145 141 58
143 136 59
143 138 49
150 144 60
142 137 51
140 133 57
138 131 47
141 136 49
130 125 52
134 128 56
132 126 45
120 115 39
125 120 51
122 119 42
162 179 22
168 188 0
166 185 0
174 195 0
168 188 0
169 190 0
164 184 0
169 191 0
169 188 0
171 193 0
166 188 0
169 188 0
169 189 0
172 195 0
171 193 0
172 196 0
171 194 0
171 194 0
170 194 0
172 195 0
169 193 0
171 194 0
173 196 0
169 193 0
169 193 0
172 196 0
171 194 0
168 192 0
171 194 0
172 195 0
174 197 0
172 196 0
172 195 0
173 197 0
171 194 0
173 196 0
171 194 0
172 195 0
170 194 0
170 194 0
174 196 0
167 190 0
168 192 0
173 196 0
170 193 0
172 195 0
172 195 0
168 192 0
168 192 0
172 196 0
168 191 0
172 195 0
174 197 0
168 191 0
170 193 0
172 194 0
171 195 0
168 191 0
168 192 0
172 195 0
171 194 0
169 193 0
168 192 0
166 190 0
172 194 0
166 190 0
167 190 0
173 197 0
168 191 0
169 193 0
166 190 0
172 195 0
167 191 0
171 195 0
167 190 0
172 196 0
169 192 0
169 192 0
167 191 0
172 195 0
169 192 0
166 190 0
173 196 0
169 193 0
169 192 0
171 194 0
168 192 0
168 192 0
164 187 0
170 193 0
168 191 0
167 189 0
169 193 0
165 187 0
174 196 0
170 193 0
170 193 0
163 187 0
166 189 0
167 190 0
114 141 131
62 98 163
62 97 158
62 98 157
61 97 150
62 98 161
62 98 159
61 97 155
61 97 153
62 98 165
62 98 164
62 98 165
62 98 165
62 98 164
62 98 158
61 97 168
60 96 157
62 98 165
62 98 167
61 97 160
62 98 167
62 99 173
62 98 169
63 99 169
62 98 168
61 97 167
62 99 172
61 97 168
62 98 163
62 98 167
62 98 169
62 98 171
62 98 172
62 99 171
61 98 170
62 98 167
63 99 168
61 98 173
62 98 171
62 99 173
62 99 175
62 99 172
62 98 169
62 99 171
62 98 173
63 99 177
62 98 171
62 99 171
62 98 175
63 99 174
62 99 173
62 99 174
62 98 173
61 97 169
62 98 172
62 99 176
63 99 170
62 99 172
62 99 174
63 99 176
62 99 176
62 99 174
62 98 170
61 97 167
63 99 174
62 99 171
62 99 163
62 99 175
62 98 172
62 98 172
61 98 167
61 98 167
62 99 170
62 99 174
62 99 171
62 99 174
63 99 175
62 99 173
61 98 173
62 99 167
63 99 172
62 99 173
62 99 176
62 99 177
62 98 168
62 99 173
62 99 175
62 99 173
62 99 169
62 99 174
62 99 172
62 99 176
62 98 171
62 99 168
62 98 168
62 98 169
63 99 173
63 99 174
61 98 170
62 99 172
62 98 166
62 98 163
62 98 170
61 98 171
63 100 176
62 99 166
62 98 172
61 98 170
62 99 176
62 99 173
62 98 166
62 98 167
62 99 172
62 99 172
62 99 172
62 99 169
62 98 171
62 98 168
62 99 170
62 99 170
62 99 166
63 99 170
63 99 174
62 99 172
62 99 168
63 99 172
63 99 166
62 98 165
62 98 163
62 98 168
62 98 166
63 99 173
62 99 169
62 98 163
62 98 169
62 98 169
62 98 165
62 98 156
62 98 170
62 99 171
62 99 171
62 99 168
62 98 170
63 100 173
62 98 163
63 99 169
62 98 164
62 98 169
63 99 167
62 98 158
62 98 168
62 99 166
61 97 165
61 97 164
62 98 165
62 98 166
62 97 162
62 98 167
61 97 160
62 98 166
62 98 167
62 98 168
62 98 163
62 98 162
62 98 162
62 97 159
62 97 155
61 97 154
61 97 157
62 98 163
62 97 157
60 95 154
60 95 153
60 95 153
60 95 151
61 94 153
59 93 148
59 92 144
59 71 76
61 64 23
64 67 25
57 62 29
55 62 27
72 75 22
67 69 25
87 90 37
77 81 43
71 74 32
83 84 30
78 82 36
92 93 30
87 89 46
98 101 43
101 100 43
99 99 41
102 102 52
111 111 54
103 105 47
96 96 53
109 108 49
114 113 52
120 118 55
112 111 59
109 108 47
128 126 53
126 124 59
118 117 48
113 112 55
129 127 68
123 122 57
129 126 61
128 126 49
137 133 58
131 128 62
142 137 67
137 133 61
139 136 60
138 134 58
139 135 62
138 135 61
140 137 63
136 133 65
146 142 74
153 148 68
151 147 72
149 143 72
151 146 66
151 146 64
155 149 71
146 142 59
154 148 66
149 144 67
154 148 71
151 145 66
156 151 70
157 152 75
158 151 74
156 150 73
156 150 68
160 154 78
161 155 70
160 154 71
160 154 71
161 155 75
161 154 79
156 150 68
158 153 69
165 158 85
152 145 66
158 151 74
159 153 71
160 153 74
167 160 74
156 151 63
165 159 75
162 155 72
161 154 70
160 153 75
159 153 70
156 151 66
155 149 72
158 152 71
155 149 54
157 152 63
154 148 66
159 152 73
159 154 65
156 150 67
156 150 63
148 142 63
154 148 63
156 149 65
153 146 68
155 148 69
152 146 65
158 151 68
153 148 63
142 137 51
148 142 56
153 147 63
152 145 53
148 143 58
149 143 61
142 137 56
150 145 59
144 136 62
139 133 48
145 139 54
139 134 51
147 142 56
144 138 57
146 140 56
132 127 47
129 124 47
134 128 47
132 129 42
124 118 37
128 123 47
126 120 42
138 147 28
166 186 0
168 186 0
169 187 0
168 187 0
170 191 0
167 188 0
166 187 0
170 190 0
170 191 0
166 186 0
172 193 0
170 191 0
170 189 0
170 189 0
170 191 0
171 194 0
169 192 0
171 195 0
169 193 0
173 195 0
172 196 0
171 194 0
171 194 0
171 195 0
170 194 0
171 195 0
171 194 0
174 197 0
173 196 0
167 191 0
169 193 0
172 195 0
172 195 0
170 194 0
173 196 0
170 193 0
170 193 0
166 188 0
169 191 0
173 196 0
170 194 0
169 193 0
171 194 0
170 195 0
170 194 0
168 192 0
173 196 0
170 194 0
167 191 0
171 195 0
173 196 0
171 195 0
170 193 0
167 190 0
170 194 0
172 194 0
168 192 0
173 197 0
170 192 0
171 195 0
168 191 0
170 193 0
167 191 0
169 192 0
168 193 0
171 195 0
169 192 0
171 193 0
173 197 0
171 194 0
171 194 0
168 192 0
167 191 0
166 189 0
169 193 0
174 196 0
168 192 0
170 193 0
169 192 0
165 189 0
170 192 0
168 193 0
168 191 0
171 194 0
169 192 0
169 193 0
171 194 0
170 193 0
171 195 0
171 195 0
168 191 0
168 190 0
166 189 0
170 193 0
172 194 0
168 192 0
168 191 0
169 192 0
164 187 0
170 193 0
99 127 136
61 97 158
62 98 155
63 99 165
61 97 158
62 98 154
62 98 161
61 98 163
61 97 155
63 99 169
61 98 160
62 99 166
62 97 158
62 98 166
62 98 161
62 98 163
60 96 153
61 97 160
62 98 169
62 99 168
63 99 169
62 98 173
63 99 171
61 98 167
62 99 171
61 98 165
61 97 164
62 98 163
62 98 172
62 98 166
62 98 170
62 98 170
61 97 168
61 97 162
62 98 169
62 99 175
62 98 168
61 98 168
61 98 174
62 98 171
62 99 175
61 98 166
62 99 174
61 97 163
62 99 174
62 99 172
62 99 171
61 98 168
62 98 173
61 98 169
60 96 164
62 99 174
62 98 172
62 98 170
62 99 173
63 99 176
62 99 175
62 99 168
63 99 176
62 99 174
62 99 170
62 99 174
61 98 170
63 99 176
62 99 174
62 99 171
61 98 170
62 98 169
62 99 172
62 98 166
63 99 174
62 99 172
62 99 173
62 99 175
62 98 172
62 99 172
62 99 173
62 98 168
62 99 174
62 99 171
62 98 165
62 98 167
62 99 170
62 98 167
62 99 173
62 99 174
62 99 172
62 98 169
62 98 171
63 99 172
62 99 173
63 99 172
63 99 169
63 99 172
62 98 166
62 99 178
62 98 167
63 99 172
62 99 171
62 99 174
61 98 172
63 99 171
62 98 169
63 100 173
62 98 168
62 99 176
62 98 165
63 99 170
62 98 164
62 99 169
62 98 170
62 98 167
62 99 170
62 99 173
62 99 168
62 98 163
61 98 167
62 99 171
62 98 163
61 98 171
62 98 164
62 98 164
62 98 166
61 98 167
61 98 163
63 99 174
62 99 168
62 98 160
62 98 168
62 99 170
62 98 167
61 97 158
62 98 167
62 98 167
62 98 162
62 99 167
62 98 166
62 97 160
61 97 163
63 99 169
62 99 167
62 98 162
62 99 168
62 98 163
62 98 161
62 98 163
61 97 162
63 99 170
62 98 165
62 98 162
62 98 166
63 99 168
63 99 169
61 97 152
62 99 166
62 98 158
61 97 157
62 98 164
63 99 170
62 97 162
61 97 160
60 96 151
61 97 159
60 96 155
61 96 152
60 96 152
62 98 161
62 98 166
62 97 156
61 96 153
62 98 160
62 97 158
60 95 153
60 94 148
60 94 152
60 93 145
59 93 147
57 90 134
59 74 90
66 69 27
65 67 18
68 69 20
68 72 33
59 63 28
76 80 34
66 71 37
71 76 35
78 80 30
83 84 36
72 76 33
76 78 31
82 86 36
106 106 41
92 94 47
97 98 49
97 98 46
105 106 51
102 103 51
108 108 52
109 109 45
121 120 54
113 112 47
115 114 50
120 117 55
117 116 55
113 113 54
127 125 63
129 127 58
123 121 62
117 116 48
131 129 56
136 133 64
140 136 51
135 132 63
132 129 60
135 132 58
141 137 71
144 140 67
143 140 64
147 143 72
137 134 65
146 142 66
138 135 62
148 144 61
149 144 67
152 147 66
152 148 68
147 143 63
154 148 74
145 142 64
160 154 75
152 146 67
148 144 63
152 147 71
155 149 74
152 147 69
159 153 69
158 153 69
153 148 61
150 144 68
148 144 54
153 149 64
155 149 72
161 154 75
161 154 70
161 155 70
159 153 69
159 153 72
160 154 70
155 149 64
157 152 61
163 156 73
163 156 73
158 150 76
159 152 68
159 153 67
165 157 75
156 150 72
158 152 72
155 148 71
159 152 74
165 157 75
149 143 63
157 151 67
151 145 62
156 150 61
153 147 58
155 149 61
154 148 65
154 148 64
155 149 66
149 144 64
161 156 66
155 147 64
149 144 59
155 149 63
146 141 58
150 145 61
145 139 57
152 146 66
154 148 69
146 140 60
138 133 49
144 138 52
139 134 58
140 134 53
131 127 48
135 131 49
137 131 49
140 136 47
137 131 54
135 129 49
127 121 42
136 129 57
128 122 45
142 136 61
126 121 39
128 123 41
130 125 45
167 186 16
170 191 0
169 189 0
169 188 0
170 190 0
171 190 0
169 190 0
168 189 0
170 191 0
170 189 0
169 190 0
170 189 0
170 190 0
170 190 0
165 187 0
169 189 0
171 195 0
171 195 0
173 196 0
169 193 0
173 197 0
172 196 0
168 191 0
168 192 0
168 191 0
174 196 0
171 194 0
173 197 0
172 196 0
169 192 0
168 193 0
169 192 0
168 192 0
169 193 0
169 194 0
171 195 0
168 193 0
170 193 0
169 192 0
170 194 0
170 194 0
173 196 0
168 191 0
171 194 0
168 192 0
173 195 0
171 195 0
172 195 0
170 193 0
167 190 0
169 192 0
171 194 0
171 194 0
171 195 0
172 195 0
172 194 0
173 196 0
167 190 0
171 195 0
167 190 0
171 195 0
168 192 0
170 193 0
170 192 0
166 190 0
169 192 0
172 195 0
167 191 0
165 187 0
165 189 0
169 192 0
167 191 0
167 191 0
166 191 0
169 192 0
165 189 0
172 195 0
167 190 0
167 191 0
170 194 0
168 190 0
170 193 0
171 195 0
164 188 0
170 192 0
167 191 0
170 193 0
168 191 0
170 193 0
169 192 0
165 189 0
168 192 0
166 190 0
166 189 0
168 190 0
170 193 0
167 190 0
169 192 0
168 191 0
166 189 0
165 187 0
66 100 144
61 97 152
62 97 155
61 96 148
62 98 159
62 98 157
61 97 154
62 98 160
62 98 165
62 98 161
63 99 171
62 98 163
62 98 166
62 98 164
61 98 161
61 97 157
62 98 167
61 97 159
61 97 162
62 99 167
62 98 167
62 98 169
62 98 170
62 98 165
62 98 165
61 97 165
62 99 170
62 98 166
62 99 168
62 98 168
61 97 156
62 98 168
61 97 163
62 98 170
63 99 175
62 98 168
62 99 172
61 97 169
62 99 171
61 98 173
62 99 171
62 98 172
62 99 168
62 99 174
62 98 171
62 99 170
63 99 173
62 98 170
62 98 170
62 98 167
62 99 173
63 99 176
61 98 170
61 97 172
61 98 167
62 99 173
62 98 169
62 98 171
62 98 172
61 98 168
63 99 174
62 99 176
62 99 172
62 99 167
62 99 174
63 99 175
63 99 175
62 99 172
61 98 171
62 99 175
62 99 175
62 99 170
61 98 173
62 99 172
63 100 174
62 98 170
63 99 171
62 99 174
62 98 166
61 97 165
62 99 173
62 99 169
62 98 167
62 99 174
62 98 168
62 98 169
63 99 176
63 99 175
62 99 175
62 98 171
62 99 169
62 99 172
62 99 166
62 99 169
62 98 168
61 97 162
63 100 175
62 99 174
62 99 169
62 99 165
62 98 167
61 97 166
63 99 172
62 98 167
63 99 173
62 99 169
62 99 170
62 98 169
62 98 168
62 99 171
62 99 171
63 99 174
62 99 167
62 99 173
62 98 168
61 97 161
61 98 169
62 98 166
62 99 170
63 99 170
61 98 168
62 99 173
62 98 167
63 99 172
62 99 171
62 99 171
62 99 171
62 99 168
62 98 167
62 98 169
62 99 170
62 98 164
62 98 169
62 98 167
63 99 170
62 98 166
62 98 169
63 99 171
62 98 160
62 98 166
62 99 164
63 99 165
61 97 160
63 99 172
62 99 169
62 98 159
62 99 167
63 99 170
62 98 166
63 99 169
62 98 163
61 98 162
61 97 156
62 98 165
61 98 164
62 99 165
61 97 152
62 98 164
61 97 160
61 97 157
61 97 158
62 97 158
63 99 162
61 97 161
63 98 166
62 97 156
63 99 165
61 97 160
62 97 161
61 96 159
62 97 160
60 95 148
61 96 151
60 93 148
59 92 149
60 94 149
59 93 148
58 91 140
59 75 94
66 69 25
78 79 27
58 63 23
70 70 22
66 68 24
76 78 36
74 76 33
68 70 33
88 88 34
76 78 34
76 79 39
80 83 40
91 91 33
94 95 40
82 85 29
88 91 33
101 101 45
104 102 44
97 99 46
95 97 48
106 107 52
112 111 55
110 110 53
109 109 57
123 121 62
113 112 53
120 118 57
123 122 55
130 128 61
129 128 57
124 121 60
130 127 58
137 133 59
126 124 56
130 128 53
127 126 54
135 133 55
141 137 68
138 134 59
145 141 63
139 136 58
146 142 70
148 143 68
149 144 67
149 144 66
144 139 62
153 148 69
151 146 74
147 143 62
147 143 68
151 146 69
156 151 65
150 145 69
153 149 64
154 149 62
145 141 62
153 148 66
155 149 68
160 153 73
154 148 69
155 150 65
155 149 65
151 147 64
157 151 63
158 152 75
156 148 68
151 145 60
159 153 74
156 149 65
157 151 67
152 147 60
157 150 65
157 151 69
158 152 69
153 149 54
166 158 77
160 154 69
157 151 68
161 155 69
155 149 64
153 147 65
153 148 65
161 154 69
157 151 72
153 147 63
162 154 70
149 143 59
157 151 67
157 152 67
152 145 68
155 148 67
149 143 60
152 145 68
150 144 60
148 141 63
147 141 53
154 148 63
151 145 59
153 147 59
141 135 56
146 140 52
135 130 45
150 143 66
147 143 54
140 134 54
139 135 47
139 134 48
144 138 58
136 131 48
144 139 54
139 134 52
142 137 51
141 135 44
136 131 47
128 123 48
135 129 42
128 123 47
124 118 49
124 119 44
138 147 22
168 188 0
170 191 0
170 190 0
166 185 0
169 188 0
170 189 0
169 189 0
169 188 0
168 188 0
168 189 0
165 183 0
167 187 0
168 188 0
170 192 0
169 190 0
167 187 0
173 196 0
170 194 0
174 197 0
171 195 0
171 194 0
172 196 0
169 192 0
172 196 0
172 196 0
171 194 0
170 193 0
171 195 0
170 194 0
169 192 0
169 192 0
171 194 0
171 195 0
172 197 0
171 194 0
170 193 0
172 194 0
173 197 0
171 193 0
171 193 0
170 194 0
170 192 0
169 193 0
171 195 0
171 195 0
168 191 0
169 193 0
170 193 0
169 193 0
169 193 0
167 191 0
167 191 0
172 195 0
170 193 0
169 193 0
168 193 0
168 191 0
171 195 0
172 195 0
172 195 0
170 194 0
170 193 0
170 194 0
172 194 0
170 193 0
170 193 0
168 191 0
169 193 0
169 193 0
170 193 0
171 193 0
170 194 0
171 194 0
168 191 0
169 192 0
170 193 0
167 190 0
170 193 0
169 193 0
168 192 0
171 194 0
170 194 0
169 192 0
166 189 0
166 189 0
172 194 0
171 194 0
168 192 0
168 191 0
168 191 0
163 187 0
170 194 0
169 192 0
169 191 0
169 192 0
167 190 0
168 191 0
171 194 0
168 192 0
168 191 0
158 182 57
61 96 151
61 97 155
61 97 156
61 98 159
61 96 156
63 99 164
61 96 155
61 97 158
62 98 167
62 98 160
61 97 154
62 98 164
62 98 164
62 98 163
62 98 168
62 98 163
61 97 158
61 96 161
61 97 166
62 98 165
62 98 169
62 99 172
61 97 165
62 99 170
63 99 171
62 99 168
62 98 170
62 99 169
62 98 169
61 97 165
62 99 171
62 99 167
63 99 167
62 98 165
62 99 168
63 99 169
61 98 172
62 99 176
61 97 162
62 98 169
62 98 173
61 98 167
62 98 171
62 98 169
62 99 170
62 99 174
62 99 169
63 99 175
62 99 169
63 99 170
62 99 172
62 99 174
62 98 169
62 99 176
61 97 170
61 98 169
62 98 169
62 98 172
61 98 169
62 99 171
62 99 171
62 98 170
62 99 173
63 99 174
60 96 166
63 100 178
62 99 173
62 99 171
62 98 167
62 99 172
62 99 174
62 99 173
61 97 169
62 98 168
62 98 168
62 99 171
62 99 176
62 99 175
62 99 171
62 99 174
62 99 170
61 98 170
62 98 172
63 99 174
62 99 170
62 99 167
62 99 169
62 99 171
63 99 174
62 98 170
62 99 175
62 98 169
62 98 172
62 98 170
63 99 173
62 98 170
62 98 166
62 98 169
62 98 164
62 99 175
62 98 171
62 99 175
62 99 168
61 98 168
61 98 165
61 98 170
63 99 170
62 98 171
62 98 169
62 99 168
62 99 169
62 98 170
61 98 166
62 98 169
62 98 171
62 98 168
62 99 169
62 98 166
62 98 165
61 97 163
62 98 165
62 98 169
63 99 172
61 98 165
62 99 170
62 98 169
63 99 173
62 98 166
63 99 172
62 98 168
62 99 172
62 98 169
63 99 172
61 97 159
62 98 164
63 99 173
62 98 164
62 98 165
62 98 163
63 99 165
63 99 169
63 99 171
62 98 165
62 98 161
62 98 164
61 97 161
62 98 159
62 98 163
62 98 162
62 98 166
62 97 159
61 98 166
61 97 158
63 99 162
63 99 165
61 97 159
62 98 162
61 97 156
62 97 159
62 97 164
60 95 147
61 97 157
62 98 161
61 97 155
61 97 159
61 96 154
61 96 154
62 98 159
61 96 157
61 96 156
61 96 154
62 98 163
62 97 161
59 94 147
59 93 143
60 94 146
59 93 138
58 92 144
60 81 100
56 59 16
65 68 24
61 65 25
65 66 19
53 58 25
75 78 31
71 75 19
75 77 29
86 89 39
76 77 23
78 79 34
85 86 36
86 88 31
87 89 44
97 99 44
94 95 41
97 98 38
104 105 51
106 106 48
114 112 47
115 115 47
112 111 48
114 113 54
122 120 56
112 112 52
118 116 53
121 119 57
117 116 52
116 115 55
124 123 51
118 117 55
127 125 59
138 135 57
131 130 52
131 129 60
130 128 56
130 128 59
138 134 62
136 132 48
144 139 62
141 137 63
147 142 68
138 133 64
149 143 68
144 139 64
148 144 60
143 139 64
141 137 59
153 147 62
148 143 65
152 147 61
142 138 62
156 150 69
154 149 71
157 152 70
159 151 73
150 145 60
153 148 66
157 151 69
157 151 72
165 159 80
159 152 71
156 150 68
154 148 62
161 154 71
158 152 70
148 144 56
157 151 67
163 156 73
156 150 67
159 154 72
161 155 66
156 151 61
154 148 65
157 151 70
158 152 66
159 152 74
153 148 60
155 149 62
157 150 63
153 146 67
159 153 63
158 151 68
153 148 61
157 150 67
154 148 63
148 142 52
149 144 65
154 148 61
151 145 59
150 144 57
156 149 68
153 147 58
155 148 61
150 144 63
151 145 59
145 140 54
145 140 57
144 139 49
137 132 49
147 140 59
142 137 52
145 139 52
139 134 47
144 137 52
146 142 48
137 131 48
134 127 56
137 132 51
138 133 51
144 138 54
137 131 47
134 128 58
123 118 48
135 129 52
136 130 47
128 122 36
129 123 42
130 129 45
163 182 0
166 187 0
171 189 0
165 183 0
167 187 0
169 188 0
168 187 0
170 192 0
168 190 0
171 191 0
171 191 0
167 186 0
169 190 0
166 185 0
168 190 0
167 189 0
165 184 0
172 195 0
170 193 0
171 195 0
171 194 0
171 194 0
171 194 0
172 195 0
170 193 0
171 195 0
172 196 0
173 197 0
171 195 0
172 195 0
170 193 0
170 192 0
173 196 0
171 196 0
170 193 0
174 197 0
172 196 0
171 194 0
172 195 0
173 196 0
168 191 0
168 193 0
174 197 0
168 192 0
169 193 0
173 195 0
173 196 0
170 194 0
172 196 0
170 194 0
171 194 0
170 193 0
172 196 0
169 193 0
174 197 0
169 193 0
168 192 0
165 187 0
171 195 0
165 188 0
173 196 0
167 190 0
167 191 0
170 192 0
168 192 0
167 190 0
171 193 0
167 191 0
173 196 0
170 193 0
168 192 0
168 191 0
167 191 0
166 190 0
168 191 0
170 193 0
170 193 0
168 192 0
169 192 0
170 193 0
171 195 0
169 193 0
168 191 0
172 195 0
170 193 0
170 193 0
165 190 0
169 192 0
167 191 0
170 194 0
167 189 0
169 192 0
162 187 0
171 194 0
168 191 0
167 190 0
166 189 0
167 191 0
163 186 0
171 194 0
168 192 0
157 180 54
62 98 155
61 97 150
61 96 148
61 97 154
62 98 159
61 97 153
61 97 153
61 96 157
61 97 158
61 97 159
61 97 159
62 98 160
62 98 160
62 97 160
61 97 160
61 97 163
61 96 159
62 98 164
62 98 168
62 99 167
62 98 170
62 99 170
62 98 163
61 96 159
62 98 166
62 99 167
61 97 163
62 98 167
62 99 175
61 98 166
62 98 167
63 100 178
62 99 175
62 99 171
63 99 172
61 98 166
62 98 173
61 97 165
63 100 172
61 97 167
62 98 170
63 99 173
62 98 168
62 99 173
61 98 168
62 98 169
62 99 171
62 99 171
62 99 169
62 99 170
62 99 170
62 99 167
62 99 170
61 98 170
62 98 166
62 98 173
62 98 171
62 98 171
62 99 172
62 98 170
62 99 174
62 99 171
62 98 167
62 99 172
62 98 169
62 99 172
62 99 172
62 98 170
61 98 169
61 98 171
63 100 175
62 98 168
62 98 168
63 99 174
62 99 171
61 98 172
62 99 178
62 99 171
61 98 167
63 99 173
63 99 173
62 98 172
62 99 174
63 99 174
63 99 175
62 98 171
62 99 171
62 99 167
61 97 161
62 99 172
63 99 173
62 98 167
62 98 171
62 98 170
62 98 167
62 98 167
62 98 167
62 98 162
62 99 173
61 97 165
62 98 169
63 100 172
62 98 163
62 98 171
62 99 174
62 98 167
62 99 170
62 99 174
62 99 173
62 98 166
62 98 171
63 99 171
62 98 168
62 98 166
61 97 169
61 98 172
62 98 167
62 99 168
62 99 166
62 98 168
62 98 163
62 98 170
62 98 166
62 98 164
63 100 173
63 99 172
62 98 169
61 98 162
63 99 170
61 97 161
63 100 175
62 99 170
61 98 166
63 99 164
61 98 167
62 97 157
62 98 164
63 99 169
62 98 163
63 99 167
62 98 166
62 99 168
61 97 161
62 98 166
61 98 165
62 98 166
62 98 163
61 98 163
62 98 161
62 99 165
62 98 164
62 98 165
62 98 167
62 98 163
62 99 167
61 97 162
62 98 157
62 98 164
61 97 162
62 98 164
62 97 161
62 98 164
63 99 166
61 96 159
62 97 159
61 98 164
60 95 152
60 96 148
62 98 165
60 95 149
61 96 154
60 95 147
60 95 148
61 96 158
61 95 148
59 93 145
59 92 139
61 96 149
58 83 116
67 69 23
72 73 19
63 66 21
67 71 19
58 63 24
78 79 27
85 85 30
85 86 28
75 76 28
76 80 28
92 93 34
102 100 47
90 92 38
85 87 34
95 95 37
95 97 39
101 102 45
103 104 40
96 98 45
116 114 48
102 102 46
107 106 50
103 104 45
109 108 45
111 111 43
118 117 49
120 117 57
129 125 61
123 121 52
125 123 50
131 128 53
133 131 62
130 128 59
132 129 56
131 129 56
130 128 54
127 125 52
137 134 63
138 134 68
140 136 59
142 136 63
147 143 62
144 141 59
140 137 55
139 137 60
143 139 66
146 141 70
148 142 65
150 144 67
148 144 64
151 145 70
157 151 80
157 151 68
151 145 65
151 146 63
150 145 64
143 139 47
156 150 70
148 143 67
155 149 66
155 149 66
154 148 61
156 150 67
155 148 62
156 149 67
148 143 57
148 142 57
154 147 67
159 153 69
161 156 67
156 150 70
157 151 67
158 152 66
151 146 64
155 148 63
163 155 76
148 143 59
152 146 62
148 144 59
155 150 60
155 149 69
151 144 62
157 150 66
153 148 67
153 147 64
157 149 72
150 145 58
153 147 64
151 146 57
145 139 54
156 149 68
153 147 65
147 142 56
154 148 58
148 143 54
153 147 61
151 146 56
148 143 56
149 143 58
147 141 57
143 136 56
141 135 51
144 138 56
144 138 51
153 147 59
144 138 53
142 137 57
130 125 47
135 129 44
141 136 53
134 128 48
133 126 47
129 123 48
133 128 42
126 121 37
116 111 36
118 113 47
122 117 44
154 168 19
170 188 0
166 185 0
164 184 0
167 186 0
167 186 0
168 189 0
170 189 0
167 185 0
169 189 0
166 185 0
167 186 0
167 187 0
170 190 0
169 190 0
168 190 0
168 188 0
170 193 0
170 193 0
169 192 0
172 195 0
170 193 0
172 195 0
172 195 0
171 195 0
175 198 0
171 195 0
171 194 0
170 194 0
173 196 0
175 197 0
170 193 0
172 195 0
168 191 0
171 195 0
170 194 0
169 193 0
165 189 0
166 189 0
171 194 0
167 191 0
172 195 0
165 188 0
171 195 0
170 193 0
169 193 0
170 192 0
173 196 0
168 191 0
172 195 0
169 193 0
169 193 0
168 193 0
172 196 0
168 191 0
169 192 0
170 193 0
171 195 0
170 193 0
169 193 0
170 194 0
168 193 0
172 195 0
167 190 0
169 193 0
170 194 0
170 193 0
168 191 0
170 194 0
168 192 0
169 193 0
171 194 0
166 189 0
170 193 0
170 194 0
170 194 0
170 193 0
168 191 0
170 193 0
170 193 0
171 195 0
166 190 0
170 194 0
166 190 0
169 193 0
173 196 0
170 192 0
167 192 0
168 191 0
168 192 0
165 189 0
165 188 0
168 191 0
168 191 0
170 193 0
167 190 0
169 191 0
167 190 0
167 190 0
164 187 0
166 190 0
168 191 0
146 169 76
61 97 152
61 96 151
61 97 155
62 98 161
61 97 154
62 98 159
60 96 149
62 98 159
61 97 160
61 97 158
62 98 161
62 98 164
62 98 163
61 97 155
62 98 164
62 98 165
62 98 165
61 97 164
62 98 164
60 96 157
62 98 166
61 98 167
61 97 164
62 98 168
62 98 168
61 98 167
62 99 170
62 98 164
63 99 172
61 97 166
61 98 167
62 98 165
63 99 175
62 98 169
61 97 165
62 99 173
61 97 169
62 99 172
62 99 170
62 98 174
61 98 173
62 98 171
62 98 167
62 98 166
62 98 169
62 99 172
62 99 172
62 99 169
62 98 169
62 98 167
62 99 168
61 97 168
62 99 175
62 99 168
61 98 169
62 98 169
62 98 168
61 97 168
62 99 174
62 98 170
63 99 174
61 97 167
62 99 172
61 97 161
62 98 172
62 98 165
61 98 168
62 98 171
62 98 170
62 99 170
62 99 170
62 99 165
62 98 169
62 98 174
62 98 169
62 98 172
61 98 167
62 98 166
61 97 161
62 99 168
62 98 164
61 98 170
63 100 176
63 99 172
62 99 170
62 99 172
62 99 170
62 99 171
62 98 165
62 98 171
62 99 170
62 98 168
62 99 170
62 99 167
61 98 166
62 98 166
62 98 170
63 99 174
62 98 165
62 99 170
63 99 171
62 98 169
62 99 171
62 99 170
62 98 164
61 98 167
62 99 168
62 98 167
63 99 171
61 98 166
62 98 170
63 99 170
63 99 171
63 99 173
62 99 170
62 99 169
62 98 164
63 99 172
62 98 166
62 99 171
62 98 169
63 100 177
62 98 169
62 99 168
62 98 167
63 99 165
61 97 161
62 99 169
63 99 169
62 99 167
62 98 163
63 99 167
62 99 166
63 99 168
62 98 163
61 98 164
61 98 163
61 98 162
62 98 167
62 98 160
62 98 163
62 98 168
62 99 168
62 99 164
62 98 166
62 98 163
62 98 166
62 98 162
61 97 167
63 99 165
62 99 166
62 98 156
62 98 164
62 98 163
61 96 155
62 98 160
62 98 159
61 96 155
61 96 153
62 98 161
62 98 163
62 98 161
61 98 162
61 97 159
63 99 164
62 98 155
61 95 153
60 95 149
60 95 145
61 97 155
61 97 160
60 95 152
60 94 141
59 93 142
60 94 148
61 95 155
60 94 145
60 94 153
59 87 119
71 73 21
87 87 15
61 64 23
72 73 19
70 73 22
85 86 38
78 79 30
80 82 29
80 82 30
87 88 29
72 75 34
77 81 29
82 85 32
96 98 35
87 88 37
98 98 37
106 104 44
91 92 34
91 92 38
103 103 39
111 110 48
109 107 44
107 107 55
114 112 50
110 110 39
115 115 44
114 112 48
125 123 57
116 115 47
126 124 51
137 133 55
131 127 60
133 130 57
136 133 63
129 127 50
131 127 58
132 129 61
133 129 56
134 130 59
141 137 59
144 139 65
136 132 59
136 133 54
150 144 61
143 139 60
146 142 58
146 143 67
150 146 66
151 146 66
147 142 61
147 142 63
144 140 66
151 146 68
147 142 58
148 143 64
143 139 53
147 142 66
152 147 66
154 148 63
152 146 70
153 147 58
156 150 68
155 149 66
150 145 57
157 151 69
154 149 62
159 154 66
151 145 61
150 143 62
159 152 67
159 152 64
152 147 62
152 146 65
158 152 67
154 148 60
150 145 54
156 150 65
159 153 65
144 139 56
157 151 66
150 145 60
151 145 64
156 150 61
149 144 56
148 142 56
155 149 67
149 143 63
150 144 57
148 142 59
155 148 59
156 149 63
154 148 64
156 150 64
150 144 60
142 137 53
144 140 48
154 147 59
141 136 56
146 139 63
139 133 51
150 143 60
150 144 60
131 126 47
145 139 52
136 132 49
140 135 47
136 130 47
133 127 45
137 131 47
140 135 51
133 127 41
129 124 42
135 130 42
121 117 37
130 123 51
117 113 41
124 120 36
135 140 25
166 184 0
168 188 0
169 186 0
167 186 0
165 183 0
169 188 0
169 188 0
164 184 0
168 188 0
170 189 0
169 191 0
170 190 0
170 190 0
167 187 0
168 188 0
169 188 0
171 192 0
168 188 0
173 196 0
171 195 0
171 194 0
172 196 0
171 194 0
170 194 0
173 195 0
169 193 0
171 195 0
171 194 0
170 194 0
171 194 0
171 195 0
169 193 0
172 195 0
169 192 0
171 195 0
170 194 0
173 195 0
171 195 0
172 196 0
170 193 0
166 190 0
170 193 0
170 192 0
172 196 0
170 194 0
172 195 0
171 194 0
169 193 0
169 192 0
171 195 0
170 192 0
172 196 0
171 194 0
170 193 0
167 190 0
169 193 0
172 194 0
170 193 0
172 195 0
170 194 0
170 193 0
171 195 0
169 192 0
169 193 0
168 191 0
170 193 0
169 191 0
168 190 0
168 191 0
167 191 0
166 189 0
168 191 0
172 194 0
172 195 0
171 193 0
166 189 0
167 190 0
170 193 0
167 190 0
168 192 0
168 191 0
171 194 0
172 195 0
165 188 0
169 192 0
165 188 0
167 191 0
165 188 0
167 190 0
166 190 0
167 190 0
170 194 0
168 192 0
168 192 0
163 186 0
165 187 0
169 193 0
165 188 0
165 187 0
171 193 0
170 194 0
167 190 0
127 152 95
61 97 152
62 97 156
61 96 145
61 96 150
61 97 155
61 97 155
61 97 154
62 97 159
63 98 162
62 99 171
62 98 163
61 97 163
60 96 159
62 98 161
62 99 166
61 97 162
62 98 162
61 98 165
61 97 157
61 98 167
62 99 167
61 97 162
61 97 167
61 97 165
62 99 169
61 97 164
62 98 165
61 97 159
61 98 166
62 99 171
61 98 167
61 98 171
60 96 163
62 99 172
62 99 166
62 98 168
61 97 167
63 99 166
61 98 165
62 99 171
63 99 171
62 98 171
62 99 173
63 99 176
62 99 172
62 98 168
63 99 174
63 99 173
62 99 169
62 98 167
62 98 172
62 99 169
61 98 169
62 98 171
61 97 163
63 99 173
62 98 169
62 98 166
62 99 174
63 99 171
61 98 170
62 98 169
62 98 168
62 99 172
61 97 164
63 99 172
62 99 169
62 99 173
61 98 166
62 99 171
62 98 170
62 99 173
62 98 171
63 99 174
61 98 168
62 98 170
63 99 173
61 97 165
62 99 171
62 99 175
62 98 165
62 99 177
63 99 172
62 98 172
62 99 171
62 98 166
63 99 171
62 99 173
62 99 169
61 98 169
62 98 167
61 98 165
63 99 168
63 99 168
62 99 173
62 98 167
62 98 164
61 98 167
62 99 166
62 99 169
63 99 174
62 99 168
63 99 169
62 98 168
62 98 166
62 99 169
62 99 175
61 98 168
62 99 168
62 98 167
62 98 164
62 99 167
62 99 165
63 99 168
61 98 170
63 99 169
63 99 166
62 98 163
61 98 165
63 99 170
62 98 167
62 99 167
62 99 166
62 99 168
63 99 170
61 98 166
62 98 169
62 98 162
63 99 172
62 99 169
62 98 166
63 99 166
61 98 164
63 99 170
61 98 159
62 98 164
62 99 166
61 97 159
61 98 166
62 98 162
62 98 162
61 97 156
62 98 165
61 98 165
62 99 171
60 97 157
62 98 162
62 98 166
62 98 163
62 99 163
61 97 160
62 99 165
62 98 166
62 98 163
62 98 159
62 98 158
63 99 166
62 98 154
62 97 156
61 97 161
62 98 161
62 98 155
62 97 157
61 97 163
61 96 152
62 97 159
61 96 158
61 96 155
62 98 159
61 96 152
61 96 153
61 95 153
60 94 150
61 96 156
61 95 150
60 94 142
59 93 147
60 93 148
57 89 137
69 69 22
61 65 21
64 63 19
74 76 26
80 81 26
62 64 20
85 86 33
70 71 23
75 78 32
80 84 31
83 84 37
82 85 35
85 87 40
84 86 38
96 96 40
100 101 42
90 91 40
91 92 39
108 107 43
107 106 42
112 111 44
100 101 45
110 110 47
119 117 40
123 121 55
104 104 47
121 120 51
104 105 46
125 123 49
129 126 52
126 123 58
131 128 56
119 116 57
133 130 58
131 129 51
125 123 55
136 133 54
136 132 65
150 145 66
134 131 59
134 131 57
142 138 65
144 140 64
144 140 59
143 141 57
148 143 63
142 138 46
137 134 48
149 145 67
152 147 59
149 144 56
150 145 60
156 150 63
151 146 65
154 148 70
151 146 67
151 146 55
155 150 65
157 150 68
149 144 61
154 148 69
149 144 58
153 148 69
149 144 64
154 148 65
148 144 54
155 148 66
152 147 63
154 148 61
150 146 57
160 154 67
151 146 58
151 145 69
152 146 60
163 156 75
153 149 61
150 143 64
153 147 62
147 141 59
155 149 70
152 146 57
151 146 58
150 145 58
152 147 58
151 145 59
153 147 57
147 142 59
145 140 52
148 142 52
139 134 54
153 148 58
158 151 66
152 146 58
138 133 49
140 135 51
140 135 51
141 134 61
147 142 49
149 142 57
146 140 57
143 139 41
146 141 54
142 136 56
142 137 52
142 136 53
140 134 52
143 138 56
143 137 60
135 130 37
134 129 51
131 125 49
133 128 49
137 131 42
114 110 28
119 115 34
125 120 37
125 124 34
168 186 19
167 185 0
169 190 0
159 177 0
168 187 0
162 182 0
166 185 0
169 189 0
164 182 0
170 190 0
165 186 0
167 188 0
168 189 0
169 188 0
168 191 0
172 191 0
168 189 0
171 191 0
174 195 0
172 195 0
171 195 0
173 197 0
171 195 0
175 198 0
173 196 0
167 191 0
171 194 0
173 196 0
172 196 0
169 192 0
170 193 0
169 192 0
167 190 0
172 195 0
171 194 0
172 195 0
167 190 0
170 193 0
173 196 0
172 196 0
169 193 0
170 194 0
170 193 0
169 193 0
166 189 0
169 192 0
169 192 0
172 195 0
170 193 0
170 193 0
169 192 0
171 194 0
172 195 0
174 196 0
169 193 0
165 188 0
173 196 0
166 190 0
169 193 0
171 195 0
171 194 0
171 193 0
168 192 0
168 191 0
170 193 0
166 189 0
168 191 0
171 195 0
169 192 0
168 191 0
170 193 0
172 195 0
170 193 0
165 188 0
169 192 0
169 193 0
171 194 0
166 190 0
168 191 0
170 193 0
170 194 0
169 192 0
171 194 0
168 192 0
169 192 0
167 191 0
169 190 0
172 195 0
166 190 0
166 190 0
164 187 0
166 189 0
164 186 0
168 192 0
167 190 0
169 192 0
168 192 0
166 190 0
170 194 0
167 190 0
166 189 0
166 189 0
168 191 0
125 150 111
62 97 157
62 97 152
61 97 160
62 97 154
61 97 160
60 96 150
62 98 156
61 97 158
61 97 157
61 96 158
61 97 161
61 97 157
61 97 162
61 97 160
61 97 165
61 97 156
62 98 163
61 97 159
62 99 175
60 96 156
62 98 163
62 98 165
62 98 164
61 98 168
61 97 159
61 97 160
61 97 161
62 98 165
61 97 168
61 97 166
62 98 170
61 98 166
62 99 170
63 99 165
62 98 171
61 97 162
62 98 167
62 98 170
61 98 166
61 98 167
62 98 174
62 99 170
62 98 165
62 98 167
62 99 169
63 99 174
62 98 166
62 98 172
62 98 169
61 98 170
62 98 165
62 99 172
61 98 167
62 98 166
62 98 172
61 98 170
62 99 172
61 97 161
62 99 172
62 98 164
62 99 172
62 99 169
62 99 173
62 99 175
62 99 172
62 99 175
63 99 171
62 98 165
63 99 171
63 99 174
62 98 165
62 99 171
62 98 169
62 98 166
62 98 167
62 99 172
62 99 172
62 98 164
62 99 172
62 98 171
62 99 170
62 98 167
62 98 164
62 98 168
62 98 166
63 99 170
62 99 169
62 99 174
61 98 162
63 99 173
61 97 164
62 99 172
62 98 166
62 99 171
62 98 167
61 98 164
62 98 172
62 98 167
61 98 166
62 98 164
62 99 170
62 99 169
62 99 173
62 98 170
62 98 163
63 99 169
61 98 164
61 98 163
62 98 164
62 99 173
62 99 170
62 99 173
61 98 170
63 99 170
62 99 172
62 98 165
63 99 172
61 98 162
62 98 167
62 98 169
62 99 171
62 98 164
62 98 162
62 99 170
61 97 162
61 97 163
62 99 172
61 98 164
63 99 168
62 99 168
62 98 161
62 99 168
62 98 167
63 99 169
62 99 170
62 98 161
62 99 167
62 98 168
62 98 163
63 99 162
63 100 170
62 98 162
62 99 168
61 97 158
62 98 163
62 98 158
62 98 161
62 98 164
62 98 160
62 98 157
61 98 160
62 98 162
61 97 165
62 98 159
61 97 152
63 99 164
62 97 158
62 98 161
60 96 151
62 98 160
61 97 162
61 96 151
62 98 164
62 97 161
62 97 159
61 96 151
61 96 154
61 96 155
62 97 157
61 96 156
61 96 155
60 94 148
60 95 143
59 93 145
60 95 147
60 95 153
58 92 147
59 91 137
58 90 139
84 87 44
73 73 20
68 71 24
83 83 24
70 71 23
85 84 28
88 89 26
74 76 25
85 85 32
78 80 26
79 80 22
88 90 31
90 91 33
99 99 37
85 85 40
94 93 32
95 96 36
95 95 36
102 101 40
100 99 45
107 107 48
109 109 41
111 110 46
110 109 46
106 104 40
110 109 43
114 113 48
133 128 54
116 115 47
124 121 50
133 130 53
126 123 46
127 124 55
132 128 56
130 127 54
134 131 54
131 128 52
138 134 53
133 129 56
144 139 56
129 127 55
133 130 56
147 142 51
137 134 53
133 129 54
142 137 61
144 141 62
142 137 62
148 143 65
135 131 59
153 146 66
152 146 63
144 139 57
147 142 57
156 150 67
148 143 56
152 146 62
154 147 64
145 140 58
151 146 58
151 144 60
151 145 63
156 149 69
157 151 60
157 151 60
157 151 63
156 150 58
149 144 60
155 151 70
158 151 69
148 142 57
156 149 64
153 147 62
150 144 58
160 153 66
142 136 52
147 142 60
147 142 53
151 145 59
146 140 57
149 143 58
154 148 57
143 138 52
148 142 54
157 151 65
140 136 39
145 140 54
152 146 58
150 145 58
150 145 52
152 147 54
150 143 64
150 144 52
154 147 60
152 146 58
150 143 60
141 134 53
148 143 51
142 137 49
138 133 39
138 133 53
132 127 42
147 142 51
141 136 47
143 137 53
138 132 45
133 128 36
141 135 64
138 132 51
134 129 51
128 124 45
130 125 44
124 119 36
124 119 42
119 114 42
101 97 28
149 161 11
170 188 0
168 186 0
165 182 0
170 188 0
166 184 0
169 188 0
168 188 0
166 185 0
168 188 0
168 188 0
170 189 0
170 189 0
169 190 0
171 192 0
168 187 0
172 190 0
170 190 0
170 189 0
166 186 0
172 196 0
170 194 0
172 195 0
171 194 0
171 195 0
174 197 0
172 194 0
170 194 0
170 194 0
172 196 0
171 194 0
171 193 0
168 191 0
173 197 0
170 193 0
172 195 0
170 193 0
170 193 0
173 196 0
172 195 0
171 194 0
171 194 0
170 193 0
169 192 0
172 196 0
171 194 0
171 195 0
169 192 0
171 195 0
169 193 0
165 189 0
171 194 0
170 193 0
168 191 0
172 196 0
167 190 0
169 193 0
171 195 0
169 193 0
167 189 0
170 194 0
172 195 0
168 191 0
168 192 0
168 191 0
165 188 0
170 193 0
171 195 0
162 184 0
172 196 0
169 193 0
169 192 0
168 192 0
164 188 0
167 190 0
168 191 0
167 191 0
165 189 0
168 192 0
165 189 0
170 193 0
174 197 0
164 188 0
167 190 0
167 190 0
171 194 0
171 194 0
166 189 0
168 191 0
167 190 0
169 192 0
170 194 0
162 185 0
166 189 0
169 191 0
164 188 0
170 194 0
165 189 0
166 189 0
168 192 0
168 192 0
166 191 0
166 190 0
167 189 0
115 141 125
61 96 148
61 97 155
60 95 143
62 98 159
62 98 163
62 98 162
61 97 155
61 97 157
61 97 160
62 99 168
61 97 156
62 98 164
60 96 157
61 97 159
61 97 163
62 99 170
62 98 163
62 98 165
62 99 170
62 99 167
60 96 158
62 98 170
62 98 167
62 98 169
61 97 163
62 98 170
61 98 164
62 98 169
61 96 161
63 99 170
62 98 167
62 98 168
61 98 171
61 98 171
61 97 167
62 98 171
62 99 173
61 97 162
61 97 159
62 98 168
62 98 165
62 98 164
60 97 161
62 98 171
61 98 167
62 98 168
62 98 165
62 98 165
62 98 172
63 99 170
62 99 173
62 99 170
62 99 171
61 98 167
62 98 165
61 97 163
62 98 170
61 98 171
62 98 167
62 98 169
62 99 175
62 99 171
62 98 171
62 99 169
61 98 173
62 98 169
62 99 167
62 99 172
62 98 171
62 99 172
63 99 167
62 99 171
62 98 168
62 98 168
62 98 169
62 99 170
62 98 168
62 99 174
62 99 171
62 98 166
62 99 170
63 99 167
62 99 170
62 98 168
62 99 173
62 99 171
63 99 168
62 99 168
62 98 166
62 98 165
63 99 171
62 98 166
62 98 168
63 99 172
63 99 172
61 98 167
62 99 168
63 99 172
63 99 169
62 98 168
62 98 169
62 98 167
63 100 175
62 98 169
62 98 166
62 98 166
62 98 167
62 99 167
62 98 166
62 98 161
62 98 166
62 98 166
62 99 168
61 97 158
61 98 167
61 98 167
61 97 160
62 98 166
61 98 161
62 98 164
61 98 166
62 98 166
62 99 172
61 97 162
62 98 169
62 99 167
62 98 164
62 98 161
62 99 167
62 99 169
63 99 169
62 99 169
61 97 159
62 99 167
62 98 163
62 98 167
62 98 160
63 99 169
62 98 165
62 98 165
62 98 164
62 98 167
62 98 162
62 98 164
61 97 155
63 99 164
62 99 169
62 98 161
62 98 164
63 99 163
62 97 158
62 98 160
63 99 166
62 98 167
61 97 159
62 98 160
62 98 161
62 97 159
62 97 154
63 99 171
62 98 162
61 97 154
63 99 161
62 98 164
62 98 159
61 96 157
61 96 156
61 96 151
60 95 152
61 97 157
59 94 147
61 95 154
59 94 147
61 96 155
61 95 149
60 94 151
60 93 147
58 92 140
60 92 143
66 72 56
72 72 19
71 73 17
67 70 18
79 80 17
87 86 24
83 84 23
82 85 27
88 88 27
88 89 32
80 83 31
82 83 29
89 90 33
100 100 34
86 86 31
104 102 38
95 95 35
100 100 36
107 106 40
102 103 40
109 110 41
108 109 43
111 110 44
112 111 48
103 104 35
121 119 42
117 116 49
114 112 48
117 114 51
112 111 44
119 116 43
121 119 46
119 117 46
126 123 51
129 125 50
124 121 54
133 130 46
136 133 53
137 132 60
143 138 61
136 132 53
137 134 49
145 140 63
138 135 54
135 131 57
137 134 48
144 140 64
140 137 51
145 141 61
143 140 51
149 144 58
155 149 71
146 141 58
146 141 62
147 141 62
146 142 56
146 141 59
153 146 58
142 137 54
147 142 60
155 150 69
151 146 55
147 141 55
150 145 50
149 144 57
156 149 66
152 146 64
152 147 61
152 146 63
148 142 53
155 151 52
150 143 62
150 144 58
147 142 57
146 140 56
149 144 53
155 149 60
148 143 59
153 147 63
150 144 60
154 149 59
152 145 62
149 143 49
149 144 51
140 135 48
149 144 58
144 138 57
146 142 49
155 149 65
154 147 60
148 143 61
147 140 60
147 141 56
149 144 57
142 137 56
148 142 63
146 141 54
137 131 53
141 136 48
136 131 47
141 136 52
139 134 53
137 131 47
137 131 49
136 131 34
136 130 44
127 123 41
132 126 47
131 124 39
137 131 45
139 133 52
126 121 44
121 116 36
125 120 48
113 109 32
138 140 45
166 182 0
162 180 0
167 185 0
165 184 0
167 188 0
168 186 0
169 190 0
165 182 0
170 188 0
168 188 0
167 188 0
166 186 0
168 187 0
168 187 0
167 184 0
169 189 0
165 184 0
169 188 0
167 184 0
167 188 0
172 196 0
169 192 0
172 196 0
173 197 0
170 194 0
171 194 0
170 193 0
173 196 0
172 195 0
169 193 0
166 190 0
173 196 0
171 195 0
172 195 0
167 191 0
169 192 0
173 196 0
170 193 0
169 192 0
171 194 0
170 193 0
169 192 0
170 194 0
170 193 0
168 192 0
169 192 0
166 190 0
170 194 0
171 194 0
170 193 0
169 193 0
165 188 0
167 191 0
165 189 0
171 193 0
167 191 0
169 192 0
164 187 0
166 189 0
168 191 0
164 187 0
166 189 0
167 190 0
169 193 0
161 183 0
167 191 0
165 189 0
166 190 0
169 192 0
164 188 0
165 189 0
169 192 0
167 190 0
165 189 0
166 189 0
168 192 0
163 187 0
164 188 0
168 191 0
168 191 0
170 194 0
166 189 0
171 194 0
168 191 0
160 184 0
168 191 0
168 191 0
167 191 0
166 189 0
165 189 0
169 193 0
168 192 0
165 188 0
168 191 0
169 192 0
169 192 0
165 189 0
167 190 0
169 191 0
164 188 0
167 191 0
164 187 0
162 184 0
166 189 0
103 130 124
62 97 154
61 97 152
61 96 149
61 97 158
62 97 152
62 97 158
61 97 157
62 98 159
61 97 159
62 98 157
62 98 162
62 98 162
61 97 155
61 97 157
62 97 154
62 98 164
62 98 162
62 98 163
62 98 167
61 97 160
61 97 158
61 97 163
61 97 164
61 97 162
61 97 161
62 98 167
62 97 161
61 98 161
61 97 164
62 98 166
61 98 168
62 98 167
61 98 163
62 98 166
62 98 167
60 96 158
61 97 162
62 98 169
62 99 167
61 97 163
61 98 167
62 98 172
62 98 170
62 98 167
62 98 170
61 98 167
63 99 170
62 98 161
61 98 169
61 97 164
63 99 173
61 98 172
62 98 169
62 98 169
62 99 172
61 98 165
62 98 167
62 99 172
62 98 164
61 97 165
61 98 164
62 98 171
62 98 166
62 98 169
62 98 170
62 99 170
61 98 165
62 98 167
62 98 163
62 99 168
61 98 171
62 98 171
62 98 169
62 99 172
62 98 167
63 99 167
61 98 168
61 98 170
62 98 169
61 97 162
62 99 171
62 99 175
62 98 170
62 99 164
62 99 175
62 98 167
62 99 175
62 99 168
62 99 173
63 99 170
63 99 167
62 99 173
62 99 172
63 99 173
63 99 172
62 99 170
62 98 166
63 99 165
62 98 169
63 99 168
62 98 167
62 99 169
62 99 174
61 97 168
62 99 171
62 98 167
63 100 175
62 98 168
62 99 171
63 99 170
62 98 169
62 98 163
62 98 165
61 98 166
61 97 159
63 99 170
62 98 169
62 98 165
62 98 168
61 97 163
63 99 167
63 99 164
62 98 167
62 98 160
62 99 166
62 98 164
62 98 161
61 97 154
62 98 163
62 98 161
61 98 162
62 98 164
62 98 164
62 99 167
62 98 161
62 98 163
61 97 160
62 98 165
63 99 167
63 98 163
62 98 165
62 98 165
62 98 160
62 99 164
63 99 162
62 98 166
63 98 162
61 97 161
62 98 162
61 97 160
61 96 160
62 98 164
62 97 158
62 98 163
62 98 153
62 98 163
63 99 165
61 97 154
61 97 154
61 96 152
61 97 156
60 95 150
62 97 156
62 97 156
61 96 155
61 96 151
61 97 154
62 97 159
62 97 155
61 96 154
62 97 152
59 93 137
62 97 152
62 98 158
60 95 149
60 93 142
59 92 137
58 90 134
59 92 142
77 83 70
82 82 19
79 77 21
66 68 18
81 81 21
73 72 17
81 82 21
84 85 34
72 75 25
91 90 20
93 93 28
89 91 34
91 91 37
89 89 27
100 101 34
91 91 34
92 93 39
115 113 37
113 110 46
113 110 44
106 104 42
108 107 38
107 107 36
102 103 29
118 116 40
123 121 47
117 115 43
126 124 49
113 112 43
119 117 55
116 116 47
126 124 51
129 126 48
120 119 46
127 124 50
123 121 46
132 129 61
121 119 44
133 129 56
143 137 61
137 132 58
132 129 52
138 134 58
142 138 61
138 134 55
141 136 56
141 137 52
143 139 56
137 133 50
150 145 63
147 141 61
154 148 67
146 141 60
142 136 60
149 144 58
150 145 59
147 143 54
143 137 51
145 142 48
150 145 58
148 143 53
149 144 57
157 151 68
152 147 58
151 146 60
152 145 64
149 143 61
152 146 65
153 147 63
152 146 60
156 150 63
152 147 57
152 146 53
149 144 44
151 146 49
150 144 64
146 140 52
150 145 56
152 146 61
148 142 53
149 144 57
150 144 59
147 142 53
150 145 60
146 140 54
144 138 52
146 141 56
148 142 53
151 145 61
143 138 49
145 139 51
136 131 49
149 144 53
141 137 44
139 134 47
145 139 52
146 140 51
138 132 52
142 135 53
149 142 49
136 131 45
144 138 47
145 138 53
139 134 44
139 134 44
137 132 48
138 133 42
136 130 51
124 120 39
127 123 45
136 130 52
123 118 36
122 118 42
118 113 39
115 114 28
162 179 11
167 185 0
170 188 0
168 184 0
168 187 0
164 181 0
166 185 0
166 186 0
172 192 0
168 188 0
169 186 0
167 187 0
170 190 0
167 188 0
168 188 0
170 190 0
171 192 0
167 186 0
169 190 0
169 190 0
169 189 0
170 193 0
171 195 0
172 195 0
171 194 0
169 193 0
170 194 0
172 195 0
170 193 0
172 195 0
172 196 0
170 193 0
174 197 0
173 196 0
166 190 0
173 197 0
170 194 0
172 195 0
171 195 0
168 192 0
170 194 0
167 191 0
170 192 0
172 196 0
169 191 0
166 190 0
169 192 0
164 187 0
164 187 0
166 189 0
164 187 0
169 192 0
166 188 0
165 189 0
170 193 0
163 187 0
166 190 0
165 188 0
163 186 0
165 188 0
166 189 0
162 185 0
168 191 0
164 186 0
167 190 0
166 189 0
164 188 0
166 189 0
166 189 0
166 190 0
158 181 0
167 189 0
160 183 0
165 188 0
161 185 0
163 186 0
164 187 0
160 184 0
169 192 0
163 187 0
163 187 0
170 194 0
166 190 0
164 187 0
167 190 0
170 194 0
169 192 0
169 193 0
167 190 0
168 191 0
166 189 0
167 190 0
170 192 0
168 191 0
171 194 0
165 190 0
165 188 0
166 189 0
168 191 0
169 191 0
167 191 0
165 188 0
166 189 0
169 193 0
162 184 0
111 137 111
62 97 151
60 96 149
62 98 156
61 97 154
61 97 155
60 96 151
61 96 148
61 97 159
61 97 163
60 96 150
61 98 162
62 98 165
61 97 156
63 99 168
61 97 162
61 97 160
61 97 157
62 98 163
61 97 157
62 97 160
61 97 166
62 98 164
61 97 161
61 98 164
61 98 164
61 98 170
61 97 159
61 97 159
60 97 163
62 98 166
62 98 168
62 98 170
62 98 166
62 99 167
62 98 161
61 98 167
62 98 165
63 99 172
62 98 170
62 98 172
61 98 163
62 98 171
62 99 173
62 98 167
62 99 173
62 99 170
62 99 168
62 99 172
62 98 169
62 98 171
62 98 170
61 98 165
61 98 167
61 97 165
61 98 166
62 98 163
61 98 170
62 98 169
61 97 164
61 97 167
62 98 166
62 98 166
62 98 171
62 99 167
62 98 164
62 98 171
62 98 166
61 97 163
62 99 169
61 97 165
62 98 165
62 99 170
62 98 166
62 98 169
62 98 167
62 99 171
62 98 168
62 99 173
61 97 164
62 99 171
62 98 168
62 98 164
62 98 164
62 99 167
61 98 167
62 98 170
62 98 167
62 98 166
62 98 171
61 97 159
62 98 167
62 99 171
62 98 167
61 97 164
63 99 170
63 99 169
62 98 171
63 99 170
61 98 168
63 99 170
62 99 168
62 98 167
61 97 169
62 98 162
62 98 163
63 99 169
62 99 168
62 99 172
62 99 169
62 98 166
62 98 164
62 98 167
63 99 170
61 97 161
62 98 161
62 98 165
62 98 166
61 98 164
61 98 166
63 99 171
62 98 161
61 98 164
62 98 171
62 98 159
62 98 166
62 98 160
62 98 163
63 99 169
62 98 166
62 98 164
62 98 164
62 98 164
61 97 163
62 97 158
62 98 163
62 98 163
62 98 162
61 97 156
62 98 167
63 99 169
62 98 164
63 99 169
62 98 166
62 98 164
62 98 161
61 97 161
62 99 167
62 98 163
62 98 163
61 97 156
62 98 159
62 98 166
61 97 160
62 98 161
62 99 164
63 99 162
62 98 163
60 96 150
61 96 156
62 98 155
60 96 149
62 98 160
61 97 157
61 97 159
62 97 158
62 98 162
62 97 154
62 97 159
60 95 141
61 96 152
62 97 149
61 97 152
61 95 146
61 96 156
61 96 152
61 95 146
61 94 147
59 93 144
57 89 137
72 80 65
76 77 6
75 75 17
73 73 15
78 78 21
75 77 19
89 88 21
81 83 20
76 74 21
84 85 22
72 73 22
79 79 24
90 90 24
88 89 31
90 90 24
83 84 26
106 105 27
98 96 37
104 103 31
112 109 39
102 103 46
120 117 33
115 112 40
125 122 43
107 107 44
110 110 36
106 105 35
127 124 44
128 125 54
116 114 41
126 125 48
121 119 37
129 126 46
122 120 39
123 120 47
125 122 45
125 124 41
134 131 51
135 131 50
128 124 49
126 124 53
135 131 56
137 133 46
138 134 54
139 135 48
141 137 53
137 133 51
143 139 55
144 138 57
138 133 58
141 137 53
142 138 53
136 132 51
152 147 59
146 140 56
145 141 57
141 136 51
135 131 44
146 141 58
144 137 54
153 148 61
150 144 61
152 146 62
150 146 61
143 138 51
152 146 57
152 146 58
155 149 61
147 143 51
142 137 49
152 147 51
151 146 56
150 145 58
149 143 60
147 141 54
150 144 56
146 141 45
151 146 51
152 146 57
155 150 61
151 145 60
146 142 52
144 140 51
145 140 53
144 137 60
152 146 53
145 140 51
147 141 57
143 137 52
143 137 49
150 144 57
148 141 53
135 129 51
136 130 45
144 139 56
140 135 47
144 138 54
140 135 59
139 133 52
135 129 49
128 123 37
134 130 37
132 127 30
134 129 45
141 135 51
137 131 51
132 126 45
132 127 37
125 119 45
128 123 32
134 129 45
121 116 39
113 108 39
118 113 34
150 161 22
165 179 0
168 188 0
161 179 0
165 184 0
170 189 0
166 184 0
170 189 0
171 190 0
166 186 0
167 186 0
169 188 0
165 185 0
166 184 0
167 186 0
162 180 0
166 186 0
172 193 0
171 192 0
167 188 0
168 188 0
169 189 0
172 196 0
170 193 0
170 194 0
168 192 0
173 196 0
169 192 0
171 194 0
170 194 0
171 195 0
169 192 0
168 191 0
170 194 0
170 193 0
171 195 0
172 195 0
168 192 0
168 192 0
171 192 0
170 194 0
169 192 0
169 192 0
163 186 0
166 189 0
164 187 0
168 191 0
168 190 0
165 188 0
168 192 0
163 187 0
165 188 0
171 195 0
165 189 0
169 192 0
163 187 0
168 192 0
167 189 0
168 191 25
166 190 0
172 195 25
170 193 0
165 188 25
169 191 25
167 191 25
169 193 0
166 189 0
165 188 25
168 191 25
165 189 0
167 191 0
171 194 0
167 190 0
170 193 0
163 187 0
168 192 0
169 192 0
161 184 0
168 191 0
164 187 0
171 194 0
158 181 0
165 188 0
164 187 0
166 189 0
165 189 0
160 183 0
164 187 0
165 189 0
170 193 0
167 190 0
167 191 0
169 193 0
168 191 0
164 188 0
167 191 0
168 191 0
168 191 0
169 193 0
167 191 0
162 185 0
168 191 0
170 192 0
166 190 0
165 188 0
170 192 0
98 126 126
61 96 148
61 96 147
62 98 158
62 97 157
60 95 149
61 97 154
62 98 158
61 97 153
61 97 156
62 98 161
61 96 151
62 98 160
61 97 158
60 96 157
62 98 162
61 97 162
62 98 165
62 99 166
62 98 163
61 97 157
61 97 161
62 98 164
62 98 167
62 98 168
61 97 161
62 98 168
61 97 162
62 98 164
61 98 167
61 97 170
62 98 168
62 98 169
60 96 158
63 99 174
62 98 167
62 99 172
61 97 167
61 97 164
62 99 172
62 98 170
62 98 167
61 97 164
61 98 166
61 98 166
62 98 171
61 97 167
62 99 169
62 99 172
61 97 165
62 98 167
62 98 166
61 97 162
61 98 170
62 98 168
62 98 166
62 98 170
62 98 170
62 98 167
62 99 174
62 99 166
61 98 169
62 99 173
63 99 170
61 98 167
62 99 170
62 98 167
62 98 171
61 97 162
62 99 171
62 98 169
63 99 171
62 99 172
61 98 169
62 99 170
62 99 170
63 99 170
62 98 165
62 98 171
62 98 169
62 99 169
62 98 171
62 99 171
62 99 167
62 98 169
63 99 174
62 98 165
62 98 166
62 98 163
62 98 169
62 99 171
62 99 168
62 99 168
62 99 170
61 98 164
61 98 170
62 98 164
61 98 166
62 98 166
62 99 169
62 98 167
62 98 165
61 98 166
62 99 165
62 99 170
62 98 166
62 98 162
62 98 161
61 98 167
62 98 169
62 99 170
62 99 172
62 98 160
62 98 159
62 98 165
62 99 169
62 99 168
62 98 159
61 98 165
62 98 165
62 99 166
63 99 168
62 98 163
62 98 164
61 97 161
62 98 160
62 99 170
62 98 169
62 98 170
62 99 167
61 97 159
62 98 161
63 99 166
62 98 165
62 98 160
61 97 163
61 97 161
62 98 165
61 97 160
62 99 164
62 98 161
62 98 155
62 99 167
62 97 156
61 97 154
61 98 159
63 99 169
61 97 157
62 97 158
61 96 150
62 98 164
61 97 157
62 98 159
63 99 166
61 97 154
61 98 161
63 99 161
61 97 158
62 98 163
61 97 158
62 97 159
61 97 152
61 97 159
61 97 158
61 96 149
61 97 155
61 97 155
61 96 157
61 96 151
60 95 150
61 95 149
61 97 158
61 96 156
60 95 148
61 97 156
59 93 146
61 95 144
60 94 149
60 94 145
59 92 137
70 80 79
73 74 20
71 70 13
80 80 17
79 80 18
78 79 27
79 79 13
84 86 24
85 85 30
86 86 26
89 89 29
99 98 26
85 85 26
83 85 29
90 91 25
107 105 32
94 94 10
87 89 30
98 96 28
101 101 30
108 108 39
95 96 36
111 110 42
102 101 38
110 109 36
109 107 40
122 120 50
120 119 41
126 122 49
111 110 38
117 116 49
119 118 40
117 116 45
130 126 53
123 121 41
133 129 50
128 125 54
130 127 51
140 136 49
135 131 44
135 131 54
138 133 53
131 128 53
133 130 42
143 139 58
141 135 56
148 143 67
139 135 51
142 137 54
141 136 57
140 135 60
139 135 48
150 144 58
150 144 60
147 142 51
144 140 53
153 148 57
145 139 54
148 142 63
149 143 58
149 143 61
147 141 56
151 146 56
150 144 60
147 141 54
152 148 58
146 141 47
150 145 56
150 145 56
160 153 68
145 140 56
152 146 56
152 146 62
145 140 49
146 141 52
146 139 60
143 139 51
149 144 56
145 140 56
146 141 57
147 142 54
142 137 51
140 136 45
140 134 51
147 141 47
135 130 41
144 137 54
148 141 56
148 143 51
153 146 58
137 133 39
152 145 60
148 143 57
145 138 53
140 134 52
139 134 47
141 135 48
134 128 45
135 130 41
140 134 44
131 126 41
141 136 49
140 135 45
138 132 48
124 119 34
135 130 37
130 125 44
133 128 42
126 120 49
127 123 34
129 125 34
131 125 39
115 110 34
138 145 30
163 179 0
168 186 0
166 184 0
167 186 0
165 184 0
166 184 0
168 187 0
165 183 0
168 187 0
168 188 0
167 183 0
165 184 0
169 187 0
170 191 0
166 185 0
164 183 0
167 188 0
168 188 0
169 187 0
167 186 0
164 184 0
168 189 0
173 196 0
169 193 0
172 195 0
166 189 0
169 193 0
171 195 0
169 192 0
171 195 0
173 195 0
171 194 0
167 191 0
171 194 0
171 195 0
170 194 0
168 192 0
169 193 0
163 186 0
162 185 0
164 188 0
171 194 0
168 190 0
166 189 0
164 187 0
168 191 0
166 189 0
161 184 0
167 191 0
163 187 25
169 192 36
171 195 44
167 190 25
168 191 57
176 198 62
170 194 44
174 196 67
165 189 25
172 195 67
178 199 76
172 194 62
173 196 25
170 193 57
170 193 62
171 195 44
170 193 57
170 192 62
174 195 62
170 192 44
169 191 44
169 192 44
169 193 51
165 187 51
169 192 57
168 192 25
166 189 36
170 193 25
168 191 25
165 188 0
166 188 0
168 190 0
165 188 0
165 187 0
167 190 0
158 182 0
167 190 0
162 186 0
166 190 0
164 188 0
162 185 0
161 184 0
161 184 0
158 182 0
165 188 0
164 187 0
162 186 0
167 189 0
162 185 0
164 188 0
166 190 0
170 193 0
163 186 0
161 184 0
167 189 0
168 191 0
165 188 0
92 121 125
60 95 142
62 97 159
61 97 150
61 96 152
60 96 149
62 98 156
60 96 154
62 98 161
61 97 152
61 97 158
60 95 155
60 95 143
62 98 156
62 98 164
61 96 159
61 97 162
62 98 163
61 97 164
60 96 163
61 97 162
61 97 160
62 98 163
61 97 162
62 98 165
61 97 161
60 96 155
61 97 162
62 98 170
61 98 161
63 99 170
62 98 163
60 95 162
61 98 167
63 99 167
61 97 166
62 98 168
61 98 160
61 97 162
62 98 166
62 99 168
62 98 165
62 98 169
61 97 168
61 98 168
62 98 169
61 97 163
62 98 162
62 98 166
62 98 167
61 97 168
62 98 168
62 98 166
62 98 167
63 99 172
62 99 169
62 98 166
62 98 165
61 98 175
62 99 173
62 99 169
62 98 170
62 98 167
62 98 169
61 98 167
62 98 165
61 98 168
63 99 175
63 99 175
62 98 167
62 98 170
61 97 157
61 98 168
61 98 167
62 99 169
62 99 169
62 98 167
61 97 162
62 98 161
62 98 167
62 99 170
62 98 167
62 98 170
63 99 172
62 98 165
61 97 162
62 99 169
63 99 170
62 98 168
62 99 168
62 98 170
62 98 167
62 98 169
62 98 169
62 99 165
62 98 162
61 98 164
63 99 174
62 98 168
62 99 169
63 99 169
62 98 167
62 99 169
62 98 168
61 97 161
61 97 161
63 99 173
62 98 162
62 98 167
61 97 159
61 97 164
62 98 165
62 98 170
62 98 161
62 98 159
62 98 165
62 98 169
62 98 164
62 98 165
62 98 166
62 98 163
62 99 167
62 98 161
62 98 169
62 98 168
61 97 163
61 97 159
62 98 163
62 99 168
62 98 164
62 98 159
62 98 162
62 99 165
61 98 167
62 98 167
62 98 158
62 98 165
61 97 159
62 98 168
62 98 158
62 98 158
62 98 162
61 97 152
62 98 164
63 99 163
62 98 167
63 98 160
62 99 166
62 98 162
62 98 164
62 98 158
62 98 163
61 97 154
62 99 162
63 99 165
63 99 162
62 98 160
61 97 160
61 96 148
61 97 154
61 97 153
61 97 156
60 95 148
61 96 152
62 97 155
61 96 150
61 96 154
61 96 156
61 95 149
61 96 146
62 97 158
60 95 145
61 95 152
61 96 150
61 95 151
59 92 144
60 94 148
59 93 136
59 91 134
58 90 138
69 77 57
76 75 12
83 81 15
71 73 14
80 80 22
91 92 26
82 84 24
77 78 25
82 83 21
89 88 20
100 99 25
93 94 20
81 82 26
91 92 25
94 95 32
95 94 26
92 93 35
87 88 36
98 99 31
107 105 38
105 105 31
104 102 38
103 103 41
114 111 46
111 109 33
112 110 39
120 117 40
116 115 43
115 114 37
116 114 45
125 122 48
122 119 42
128 126 52
120 118 42
121 119 41
127 124 50
123 120 49
130 127 41
133 128 48
134 130 49
131 128 45
126 124 42
130 126 49
130 126 37
143 137 55
138 134 52
142 137 52
135 131 49
135 132 57
143 138 57
144 139 48
141 136 61
143 139 53
140 136 55
143 138 53
148 142 54
148 144 56
140 135 47
145 139 50
148 143 53
146 142 50
146 140 57
145 139 49
148 143 58
155 149 53
149 142 57
149 143 48
148 143 54
147 141 58
149 144 52
148 142 51
148 143 54
147 141 59
155 149 63
154 149 59
146 141 51
148 142 53
143 139 51
149 144 57
146 140 51
155 149 59
146 140 51
145 140 51
146 139 57
143 138 42
143 137 53
142 137 42
148 142 53
147 142 45
148 141 58
142 137 49
143 138 48
138 132 49
148 144 48
136 131 44
142 137 44
137 132 37
138 132 49
140 135 48
144 138 44
135 128 45
128 125 37
132 128 36
137 131 49
133 127 53
124 119 42
131 126 37
129 124 39
124 117 30
130 125 47
128 124 28
123 117 37
135 138 34
162 179 0
167 187 0
169 185 0
164 180 0
167 184 0
166 187 0
172 191 0
168 189 0
165 184 0
167 186 0
166 182 0
168 186 0
165 185 0
169 189 0
166 185 0
168 186 0
165 185 0
167 186 0
168 187 0
169 189 0
169 191 0
166 185 0
171 192 0
169 192 0
173 197 0
174 196 0
169 192 0
171 194 0
169 193 0
171 194 0
173 196 0
172 195 0
167 190 0
171 195 0
172 195 0
170 193 0
166 190 0
168 191 0
170 194 0
168 191 0
169 192 0
169 192 0
168 191 0
165 187 44
170 193 36
168 192 25
170 194 44
172 195 44
169 192 36
173 197 67
176 198 72
167 190 25
173 196 57
174 196 62
170 193 44
174 196 44
174 197 62
174 197 57
171 194 44
173 196 67
174 197 62
176 198 51
170 194 25
173 196 51
171 194 36
167 189 51
172 194 72
172 196 67
169 192 51
175 197 44
171 194 36
171 194 57
169 191 44
171 193 36
165 189 36
168 191 36
174 197 36
172 195 44
172 195 57
169 192 44
166 189 36
170 192 44
170 193 25
168 191 36
170 193 36
163 186 0
165 188 0
167 190 0
165 188 0
164 186 0
163 186 0
164 186 0
154 177 0
164 188 0
154 177 0
160 182 0
164 186 0
169 192 0
166 189 0
170 193 0
168 192 0
167 191 0
166 190 0
164 187 0
165 189 0
166 190 0
170 193 0
103 130 120
61 96 150
61 96 152
61 97 150
62 98 152
62 98 159
61 97 154
61 96 149
61 97 156
61 97 159
60 95 154
61 97 158
61 97 157
61 97 157
62 97 157
62 98 163
62 98 160
61 97 160
62 98 160
62 98 162
61 97 153
61 97 160
62 98 163
62 98 164
61 97 160
62 98 164
61 97 165
62 98 168
61 98 163
62 99 168
61 97 161
61 98 170
62 98 169
61 98 166
62 98 171
62 98 168
61 97 159
61 97 163
61 98 163
62 98 169
62 98 163
62 98 168
63 99 173
63 99 170
61 98 167
62 99 169
62 98 167
62 98 170
61 98 164
62 99 170
62 98 167
61 98 167
61 97 164
61 98 169
61 97 164
62 98 166
61 97 166
62 98 166
61 97 164
61 98 164
63 99 166
62 98 160
62 99 168
62 98 169
62 98 170
63 99 173
63 99 168
63 99 169
63 99 171
62 98 164
62 98 164
61 98 166
62 98 169
61 98 169
62 98 171
61 98 169
61 98 164
62 98 168
62 99 171
61 97 159
62 98 167
62 98 165
61 97 161
62 98 162
62 99 168
62 98 165
62 98 166
61 97 161
62 98 165
62 98 162
62 98 164
61 98 166
62 98 164
61 98 166
62 98 161
61 97 161
62 98 168
62 98 164
61 98 165
62 98 164
62 99 169
61 97 159
63 99 169
63 99 170
62 99 167
62 98 167
62 98 160
63 99 170
62 99 171
62 98 170
62 98 170
61 98 168
63 99 169
61 97 154
62 99 175
63 99 166
62 99 169
62 98 162
62 98 163
62 98 165
63 99 166
61 98 168
62 98 164
62 98 165
62 98 168
62 98 158
62 98 162
62 98 162
62 98 162
62 98 165
62 98 161
61 97 159
62 98 160
62 98 164
62 98 164
62 98 162
61 97 161
62 98 162
62 98 161
62 97 157
62 98 162
62 98 157
62 99 169
61 97 154
62 98 164
62 98 164
63 99 168
61 97 158
60 96 155
62 98 163
61 97 158
62 98 163
63 99 166
61 96 153
61 97 156
62 98 158
61 97 155
63 99 163
62 98 162
60 95 149
62 97 153
62 97 161
62 98 161
60 96 150
61 96 155
62 97 153
61 97 153
61 97 155
61 97 153
61 97 158
61 96 153
61 95 146
59 94 144
60 95 143
59 93 137
60 95 139
59 92 138
60 94 144
59 93 143
57 90 132
67 78 79
68 69 28
83 82 13
78 80 19
83 84 9
83 83 17
83 83 19
78 78 15
84 85 28
72 73 18
93 94 18
83 82 23
89 89 22
98 98 28
95 95 32
93 93 30
93 93 32
100 99 31
106 104 32
112 111 34
108 106 32
91 92 27
109 109 38
91 91 31
110 108 34
104 102 30
118 115 42
117 115 38
122 119 40
120 118 43
122 119 43
126 123 40
128 127 40
133 130 48
122 120 34
117 115 33
121 118 39
135 131 47
126 122 37
129 125 46
140 135 55
131 128 50
141 136 52
137 133 47
134 130 45
135 131 48
137 133 54
143 136 61
146 141 51
132 129 57
136 131 46
139 135 56
145 139 58
143 138 48
146 141 58
145 141 51
159 152 63
149 144 53
150 144 58
148 143 51
142 138 48
143 138 51
140 135 54
155 149 63
144 138 56
144 138 57
136 131 47
149 144 47
147 141 53
146 141 48
144 139 52
151 145 54
152 147 56
148 142 57
143 138 52
141 137 52
152 146 54
147 141 51
150 144 58
138 134 45
145 139 59
137 133 36
145 138 56
136 131 45
141 135 48
142 136 47
145 140 45
144 139 51
145 138 59
142 136 47
138 133 45
136 131 49
134 130 42
140 135 49
138 133 42
139 132 45
136 130 47
132 126 39
146 141 51
135 130 42
143 137 42
129 124 42
136 131 48
126 121 34
132 127 42
132 126 41
119 115 36
125 120 39
121 115 37
127 121 44
122 116 37
116 115 22
160 178 11
165 182 0
163 180 0
165 184 0
160 178 0
168 186 0
170 188 0
166 185 0
168 186 0
165 181 0
167 186 0
165 182 0
165 184 0
169 186 0
167 184 0
169 187 0
164 182 0
166 185 0
170 189 0
167 185 0
166 184 0
166 186 0
170 190 0
168 187 0
171 194 0
174 198 0
169 191 0
170 194 0
168 191 0
169 193 0
169 193 0
172 195 0
171 194 0
166 189 0
164 187 0
162 185 0
170 193 0
169 193 0
173 196 0
170 194 0
169 193 25
168 191 36
162 187 25
171 194 51
167 191 25
175 197 44
170 193 51
169 192 25
174 197 72
175 198 62
175 198 72
174 196 76
170 193 36
175 198 36
174 197 57
173 196 51
176 199 44
173 196 51
173 196 36
174 196 51
176 199 67
175 198 57
171 195 0
176 198 44
174 197 36
175 197 44
173 196 44
171 193 51
177 199 57
175 198 51
170 194 36
178 200 80
175 198 57
172 195 44
171 195 25
169 193 44
173 195 57
174 197 51
174 198 62
169 193 36
170 193 44
167 189 57
170 193 44
173 195 57
171 195 62
174 197 72
173 196 62
168 189 57
168 192 36
174 197 25
168 191 36
168 191 0
171 194 0
160 183 0
163 187 0
170 193 0
162 185 0
153 177 0
160 183 0
164 186 0
162 185 0
166 188 0
164 186 0
164 186 0
156 179 0
168 191 0
172 194 0
170 192 0
100 127 121
60 95 141
61 96 153
61 96 149
62 97 149
61 97 155
61 97 156
61 97 158
61 97 155
61 96 153
61 97 155
61 97 163
59 95 140
61 97 160
62 98 167
61 97 155
62 99 168
61 97 158
61 97 160
61 97 162
61 97 161
61 97 159
61 97 156
62 98 166
61 98 168
61 97 162
62 99 172
62 98 164
62 98 161
60 96 161
61 97 165
61 97 161
62 98 165
61 97 165
61 97 164
61 97 164
61 98 169
61 98 168
60 96 161
62 98 162
61 97 164
62 98 167
61 98 166
61 97 165
62 98 166
61 98 170
62 98 165
62 99 170
61 98 169
61 98 165
62 98 171
62 98 167
62 98 168
62 98 163
62 99 169
62 98 167
62 98 169
62 98 170
62 98 168
62 98 170
62 98 163
62 98 162
62 99 173
62 98 170
62 99 167
61 98 167
62 99 171
62 98 169
62 98 164
63 99 171
61 98 171
62 98 167
63 99 173
62 98 169
63 99 176
61 97 162
61 98 169
62 98 164
61 97 164
61 98 164
61 98 167
62 98 168
61 98 169
61 98 169
62 98 171
62 98 166
61 98 164
62 98 169
62 98 166
62 99 168
62 98 164
62 98 168
62 98 163
61 97 159
61 98 169
62 98 162
62 98 163
61 97 160
63 99 169
62 99 167
62 98 168
62 99 167
62 99 165
61 98 162
62 99 171
62 99 168
61 98 165
62 98 167
62 98 165
62 99 166
62 99 168
62 98 167
62 98 166
62 99 168
63 99 168
62 98 164
61 97 163
61 97 165
62 98 164
62 98 166
61 96 156
62 99 166
62 98 167
61 97 154
62 98 162
61 98 163
62 99 170
62 98 168
62 97 162
62 98 166
62 98 162
62 98 164
63 99 168
62 98 164
63 99 169
62 98 161
62 98 163
62 98 160
62 98 167
62 98 161
62 98 163
61 97 161
61 97 159
63 99 168
61 97 160
61 97 162
62 98 161
62 99 164
62 98 163
61 97 158
63 99 166
62 98 162
61 97 156
62 99 164
61 97 152
62 98 159
61 97 156
62 97 157
62 98 163
61 97 157
62 97 156
63 98 162
62 98 159
61 97 154
62 98 162
61 96 154
61 97 157
62 97 158
61 96 152
59 94 149
60 95 140
61 95 145
61 96 147
60 95 144
60 95 146
59 93 141
60 94 144
59 94 138
60 93 146
58 90 128
71 80 77
64 64 18
84 83 15
83 82 23
81 81 16
88 87 16
85 86 22
76 77 11
85 83 16
85 86 22
100 98 29
80 80 19
90 89 23
87 87 20
102 102 22
103 102 30
97 97 34
96 95 35
103 102 36
106 105 38
102 101 32
119 116 40
95 94 24
116 114 40
111 110 35
109 108 34
122 120 38
118 115 42
104 103 35
127 125 43
113 111 46
123 120 38
127 123 48
111 110 40
125 122 47
128 124 40
125 122 37
130 127 42
131 128 51
131 127 53
131 127 50
136 132 54
135 131 49
133 129 47
136 132 48
136 132 47
132 128 39
136 131 51
135 131 49
143 137 53
141 136 53
131 128 41
133 130 45
144 140 45
142 136 57
142 137 59
141 137 49
150 144 51
139 134 57
145 139 48
145 140 53
141 136 43
139 134 51
144 139 50
144 139 51
144 140 48
149 144 52
154 148 58
152 146 63
139 134 51
143 137 52
146 140 44
149 143 56
136 132 44
144 138 49
146 142 47
144 138 49
134 130 44
146 139 48
149 143 57
143 137 53
150 144 56
147 140 53
148 142 52
147 141 51
144 138 49
134 129 41
142 136 54
133 128 49
146 139 59
141 137 45
143 137 56
146 139 52
144 138 53
134 128 44
133 128 47
139 134 32
141 136 49
138 131 47
138 132 51
143 136 44
142 138 39
137 131 42
126 122 37
124 120 30
131 124 47
129 125 34
120 115 39
121 117 36
117 113 34
124 119 44
154 166 16
166 183 0
162 177 0
164 179 0
165 181 0
163 179 0
166 183 0
162 181 0
162 179 0
170 187 0
170 187 0
167 185 0
168 188 0
168 187 0
167 184 0
168 189 0
167 186 0
171 191 0
166 183 0
167 186 0
168 189 0
165 185 0
166 185 0
169 190 0
167 186 0
171 195 0
172 196 0
171 195 0
169 192 0
169 192 0
170 193 0
171 194 0
166 189 0
163 187 0
167 190 0
166 190 0
166 190 0
162 185 0
169 191 25
170 193 36
171 194 36
173 196 44
173 195 44
173 196 62
171 195 36
173 196 44
176 198 67
171 194 51
173 196 62
174 197 44
174 198 51
172 195 25
175 198 62
176 199 57
171 195 36
172 195 44
173 196 25
175 198 44
176 199 62
172 195 51
177 199 51
172 194 36
170 194 44
172 196 36
174 197 62
174 198 44
177 199 67
177 200 57
172 195 51
174 197 51
173 197 36
174 197 25
176 199 67
175 198 44
170 194 0
174 197 25
172 195 44
174 197 36
173 197 51
173 195 67
173 195 0
172 196 36
171 195 0
174 198 44
176 198 57
174 197 62
175 198 44
175 198 51
174 196 44
173 195 57
171 194 62
173 196 44
171 193 84
162 185 36
170 192 67
168 192 25
161 184 0
164 187 0
167 190 0
166 190 0
162 185 0
165 187 0
162 186 0
165 188 18
153 177 31
157 180 47
161 184 40
166 189 0
165 188 0
87 116 130
61 97 153
60 95 140
61 96 149
62 97 153
62 97 156
61 97 156
61 97 155
61 97 153
60 95 143
61 97 160
61 97 155
62 98 157
60 95 147
60 96 154
60 96 153
60 96 164
61 96 156
61 98 161
61 97 159
60 96 160
61 97 158
61 97 165
61 97 165
61 97 162
62 98 164
61 97 166
62 98 166
62 98 169
61 98 165
62 98 161
62 98 166
62 98 167
62 98 169
62 98 168
62 98 165
61 98 165
62 98 160
61 98 165
60 96 162
62 98 168
62 98 167
61 97 162
61 98 170
62 99 169
62 98 168
62 98 168
60 97 159
62 98 164
62 98 168
62 98 170
62 98 169
62 98 163
62 98 169
61 97 161
62 98 167
62 98 168
62 98 166
62 99 171
63 99 172
62 99 172
62 98 170
61 98 167
62 98 166
62 98 173
62 98 167
61 98 167
62 99 170
62 98 168
62 99 171
61 98 164
62 99 169
62 98 164
61 97 165
61 97 162
61 97 163
62 98 168
62 98 162
63 99 165
61 98 162
62 99 172
62 98 169
62 98 168
61 98 165
61 97 162
62 98 167
63 99 171
62 99 166
63 99 170
62 98 165
62 98 169
62 98 168
62 98 166
62 98 161
61 98 160
61 98 165
62 99 168
62 98 165
61 98 160
62 98 164
62 99 170
61 98 165
62 99 170
62 99 170
62 98 161
62 98 161
63 99 170
62 97 161
62 98 166
62 99 166
63 99 170
62 98 164
62 98 163
62 98 161
62 99 167
62 98 162
62 99 167
62 98 167
62 98 163
62 98 159
62 98 166
62 98 167
61 96 154
63 99 168
62 98 168
61 97 158
62 98 166
62 98 163
62 98 164
62 98 164
61 97 157
62 98 170
61 98 161
62 98 162
62 98 160
61 97 157
62 98 164
62 98 163
61 96 153
62 98 163
63 99 166
62 98 163
62 98 161
62 98 162
62 98 159
62 98 154
62 98 160
63 98 162
61 96 149
62 98 161
63 99 163
62 98 162
62 98 160
62 98 162
62 97 152
62 97 155
63 99 167
62 97 155
62 98 155
61 96 153
61 97 152
61 96 155
62 99 164
61 97 150
62 97 162
61 97 155
61 95 147
61 97 154
62 98 157
61 96 153
63 98 157
61 96 149
60 94 140
60 95 150
60 94 148
61 96 149
60 94 142
61 96 154
58 91 132
59 93 139
54 70 69
75 76 11
75 74 4
87 87 16
86 84 12
77 78 13
81 79 14
86 87 17
87 86 12
84 85 21
89 88 9
93 92 23
80 79 22
84 85 16
92 93 14
95 93 20
107 106 25
110 108 30
101 100 34
102 101 30
104 104 23
100 100 24
117 116 32
109 107 43
103 101 30
106 105 28
101 100 32
110 107 37
107 106 41
110 107 33
116 114 38
124 120 36
120 117 39
119 117 40
123 119 42
123 120 38
127 124 42
133 129 47
123 121 45
130 126 50
120 117 48
136 132 41
130 126 48
139 135 50
130 127 42
138 133 46
136 132 45
136 133 47
136 133 53
136 132 51
152 146 60
134 131 44
144 138 56
140 135 35
140 136 50
148 142 57
140 134 50
141 136 50
145 140 53
147 142 55
150 145 54
143 138 54
148 142 53
145 140 49
142 136 50
150 144 53
141 137 45
144 140 45
152 146 56
139 135 36
151 145 56
137 134 41
149 143 52
144 139 47
144 140 44
151 143 57
147 140 52
145 139 44
145 140 48
138 133 41
142 137 51
144 139 49
146 139 52
146 140 42
141 136 48
143 138 41
133 130 37
141 137 42
139 134 45
148 142 52
142 137 44
133 128 39
123 118 37
140 134 47
137 132 41
141 134 47
140 134 39
128 123 37
128 123 34
130 125 30
132 126 39
126 121 41
131 125 45
137 131 37
128 122 41
126 121 37
121 115 37
113 109 32
116 111 34
116 111 25
151 163 0
164 180 0
162 179 0
166 185 0
166 183 0
166 182 0
160 176 0
161 178 0
167 185 0
168 187 0
164 181 0
166 183 0
166 185 0
168 185 0
162 181 0
166 184 0
166 185 0
167 187 0
164 182 0
167 188 0
164 181 0
169 190 0
170 189 0
168 183 0
166 184 0
168 187 0
171 194 0
169 192 0
170 193 0
163 186 0
164 187 0
166 189 0
170 194 0
167 191 0
171 195 0
169 193 25
173 195 51
174 196 57
172 195 57
170 193 44
170 194 44
170 193 51
172 195 62
175 198 25
175 198 44
176 199 62
175 197 62
172 196 57
172 195 36
174 198 44
176 199 67
174 196 51
175 198 62
174 197 57
174 198 62
174 197 25
173 196 36
174 198 44
176 198 51
175 197 36
175 198 51
177 199 72
173 197 44
176 200 62
175 198 25
176 199 51
174 198 51
173 197 36
176 199 67
176 199 44
178 200 76
176 199 57
173 196 57
174 196 57
176 199 72
175 198 57
173 196 51
174 197 36
174 197 44
173 197 51
173 196 36
174 197 67
173 196 25
173 196 44
169 193 36
173 197 51
175 198 62
173 196 36
175 198 36
173 195 25
172 194 25
172 194 44
170 193 36
171 194 51
172 195 44
169 192 51
172 195 44
163 186 36
168 192 0
171 194 36
168 191 25
165 188 0
164 186 0
167 189 0
158 182 18
152 175 44
156 180 40
144 168 67
148 172 62
145 169 78
87 116 127
61 96 140
61 96 143
62 97 155
62 97 155
62 98 158
62 97 152
60 97 156
61 97 151
61 97 159
62 98 162
61 96 146
61 97 153
60 95 147
61 97 157
61 97 163
61 97 160
62 98 163
61 97 156
63 99 165
60 96 151
61 97 157
62 98 162
61 97 163
60 96 161
61 97 159
61 97 169
61 97 168
62 98 165
62 98 166
61 97 163
61 97 164
60 96 159
61 96 161
62 98 165
61 98 165
61 97 161
61 97 163
62 98 162
60 96 165
62 98 169
61 98 168
62 98 169
61 97 160
61 97 161
62 98 165
62 98 165
62 97 162
61 97 162
61 97 162
61 98 163
60 97 158
62 98 167
61 98 169
63 99 168
62 98 171
63 99 170
62 98 169
61 97 161
61 97 162
62 98 163
62 98 167
61 98 166
61 98 167
62 98 164
62 99 173
63 99 170
62 99 172
62 98 168
62 98 171
61 98 166
62 98 166
61 98 167
62 99 170
63 99 169
61 98 163
61 98 164
62 98 167
62 98 169
62 98 165
61 97 162
61 97 162
62 98 162
63 99 168
63 99 166
61 97 163
62 98 163
62 98 162
63 99 168
62 98 164
61 98 166
62 98 160
61 97 161
62 99 169
62 98 168
62 98 165
62 98 168
62 98 165
62 98 163
62 98 164
62 98 157
62 99 167
61 97 161
62 98 166
63 99 167
62 98 160
61 97 159
62 99 169
62 98 164
62 98 166
62 98 156
62 99 170
62 98 158
62 98 165
62 99 169
61 97 155
61 98 163
62 98 161
61 97 164
62 98 163
62 98 164
62 98 160
62 98 159
63 99 166
62 98 166
62 98 162
62 98 163
61 97 156
61 96 158
63 99 164
62 98 162
63 99 165
62 98 162
62 97 157
63 99 169
63 99 162
62 98 157
62 98 165
61 97 161
61 97 154
61 97 158
63 98 160
62 98 162
62 97 156
62 98 164
62 98 163
62 98 162
62 98 162
63 99 164
62 99 166
62 98 159
63 99 166
61 97 152
61 97 155
61 96 149
61 97 155
62 98 161
61 97 153
61 96 144
62 97 159
61 97 154
62 97 157
61 96 147
62 98 165
62 98 159
61 95 150
61 96 149
59 94 140
62 98 162
61 97 152
60 95 144
60 94 145
62 97 156
61 96 150
60 95 144
60 94 147
60 94 144
60 94 136
58 92 148
58 90 140
76 84 75
78 76 13
84 82 3
78 78 17
80 80 14
75 74 9
87 84 16
87 87 8
91 89 14
92 92 19
80 80 16
84 82 18
95 94 20
92 90 19
94 92 21
97 97 17
90 92 21
97 96 27
104 103 25
105 103 32
98 95 33
108 107 36
115 113 23
107 105 20
107 106 34
109 106 39
112 110 38
103 102 28
104 103 34
115 113 45
112 110 32
122 119 45
112 109 37
131 126 41
115 113 31
127 124 46
122 119 32
126 123 45
122 120 34
140 134 43
129 126 41
135 131 51
135 132 44
129 127 42
135 130 43
140 136 47
132 128 42
134 130 44
134 129 50
144 139 44
136 132 34
138 134 47
135 131 48
143 138 47
142 137 49
141 137 49
143 137 53
143 138 54
143 138 45
142 137 51
138 132 49
145 139 54
142 137 45
142 136 51
148 141 48
151 146 58
144 140 49
141 137 41
140 136 39
148 143 52
140 135 49
143 138 42
146 140 42
142 137 49
154 147 60
145 140 53
148 143 47
141 136 52
145 140 45
141 136 41
149 144 48
143 136 48
141 136 41
143 138 49
143 137 53
140 132 54
142 137 42
145 139 51
140 134 52
144 139 45
139 134 42
148 141 54
130 124 42
132 126 41
135 129 42
136 131 54
139 133 47
141 135 42
135 130 39
136 131 48
129 124 39
123 119 36
129 123 32
132 126 30
126 121 41
118 113 34
113 107 30
127 121 39
112 107 25
145 155 22
165 181 0
162 177 0
160 179 0
162 177 0
161 177 0
165 182 0
168 185 0
164 182 0
166 182 0
164 182 0
165 184 0
168 186 0
167 186 0
168 187 0
164 180 0
170 192 0
164 181 0
164 183 0
163 182 0
167 187 0
167 184 0
167 186 0
169 188 0
170 190 0
166 186 0
166 187 0
167 191 0
167 191 0
167 190 0
167 191 0
169 193 0
165 189 0
169 193 36
169 192 0
172 194 0
176 198 57
171 194 57
169 192 44
175 198 57
177 199 72
175 198 51
176 199 62
175 197 62
171 194 36
173 196 25
174 198 25
176 199 51
175 198 57
174 197 44
176 198 51
174 198 44
171 195 0
175 198 51
175 198 51
175 198 36
174 197 25
176 198 51
174 197 51
177 200 67
175 198 57
175 199 51
176 199 36
174 197 0
175 198 51
180 202 80
177 199 36
175 198 51
174 198 44
176 199 62
176 199 62
175 199 62
177 200 57
176 199 51
177 200 62
177 200 51
178 200 67
176 199 44
175 198 51
178 201 76
177 200 51
176 199 67
174 197 36
173 196 44
178 200 62
176 199 44
173 196 36
174 197 36
177 199 67
176 197 51
177 199 62
172 195 25
176 199 51
173 196 44
175 197 62
170 194 0
172 195 0
172 195 36
171 193 36
174 197 62
169 191 36
174 196 57
165 188 36
167 190 25
167 189 25
171 194 0
163 186 18
162 185 25
163 186 18
157 180 51
153 177 51
145 169 74
123 149 102
81 110 129
64 100 157
62 97 154
62 98 153
60 96 154
60 96 158
61 97 153
62 98 159
60 96 152
61 96 155
61 97 153
61 97 156
61 97 160
60 95 154
62 97 161
60 96 155
61 97 151
59 95 157
61 97 159
61 98 163
61 98 165
61 96 161
60 95 148
61 97 158
60 96 155
63 99 172
62 98 168
62 98 160
61 97 160
61 97 160
60 96 160
61 98 167
62 98 162
61 98 166
61 97 159
59 95 164
61 97 163
62 98 166
62 98 165
61 98 161
62 98 167
61 98 167
61 98 169
60 96 159
62 98 165
62 98 170
62 98 167
63 99 175
62 99 167
62 99 168
61 97 162
62 98 168
62 99 170
63 99 172
62 98 166
62 98 165
62 98 162
61 97 167
61 97 162
61 97 166
61 98 162
62 98 170
61 97 161
62 98 167
61 97 166
62 98 166
62 98 167
62 98 166
61 97 168
62 98 168
61 97 159
62 98 168
62 98 162
62 99 170
62 98 163
62 99 172
62 98 165
62 99 172
62 98 166
62 98 168
62 98 168
61 98 162
62 98 166
62 99 169
61 97 161
61 97 158
61 97 163
62 99 170
62 98 163
62 98 162
62 98 162
62 98 166
61 97 163
61 97 157
62 98 169
62 98 163
62 98 161
61 97 158
62 98 163
62 98 157
62 98 163
61 98 166
62 99 171
63 99 168
62 98 164
62 98 162
63 99 168
61 97 161
62 98 161
62 98 164
62 98 170
62 99 168
61 97 165
61 97 157
61 97 160
63 99 163
63 99 168
62 98 167
62 98 164
62 98 161
61 97 157
61 98 167
61 97 158
62 98 161
61 97 157
62 98 161
61 97 157
62 99 168
62 98 162
62 98 160
61 96 153
62 98 158
62 98 159
62 97 158
62 98 157
62 98 161
61 97 157
62 98 166
62 98 159
63 99 168
61 98 161
62 99 167
62 98 160
61 97 162
62 97 155
62 98 163
62 98 163
62 98 164
61 97 157
61 97 161
62 98 157
61 96 150
60 96 147
63 99 162
62 98 155
61 97 155
61 96 154
62 98 162
62 97 158
62 98 159
61 96 151
62 97 156
61 97 158
61 97 155
60 95 150
60 96 146
60 95 146
61 95 148
60 95 144
60 96 151
61 95 147
60 94 142
62 97 158
59 93 131
59 93 139
59 93 140
59 92 137
58 90 129
72 83 87
76 75 13
87 85 11
86 83 8
86 85 9
89 89 9
88 87 8
86 85 18
72 73 10
88 87 14
92 91 20
86 86 20
95 94 24
87 84 13
86 88 12
93 91 21
92 93 27
97 97 23
87 87 14
95 94 27
111 110 32
107 104 26
99 99 26
104 103 30
103 101 24
117 114 28
108 108 28
115 113 38
111 109 30
115 112 38
122 119 35
113 111 30
116 113 32
122 119 35
120 117 35
122 119 37
115 112 38
124 120 41
120 118 34
125 120 42
121 117 34
120 117 41
123 120 38
131 127 49
139 134 46
127 124 42
132 128 41
138 135 32
133 129 43
132 128 38
133 129 48
126 123 35
130 125 41
139 134 38
134 130 47
143 137 47
132 128 45
135 131 38
139 133 46
141 136 48
145 140 50
140 134 45
134 130 32
146 142 45
131 126 41
139 135 45
143 138 47
148 141 57
136 131 47
140 136 48
139 133 44
147 141 51
142 137 44
135 130 36
147 140 52
145 139 44
145 139 47
142 137 44
144 139 45
139 134 39
141 135 41
140 135 45
138 132 36
138 133 49
133 129 39
133 129 37
136 131 42
143 138 45
133 129 32
140 133 42
131 126 37
134 128 42
134 129 39
134 129 42
134 130 32
135 130 37
146 139 58
130 125 44
138 131 48
125 121 39
132 125 41
130 125 45
130 125 42
136 130 37
124 120 32
122 118 36
110 106 32
119 114 39
135 142 25
167 184 0
161 176 0
163 180 0
169 186 0
163 180 0
161 175 0
164 181 0
164 181 0
163 181 0
168 185 0
167 185 0
168 186 0
161 177 0
166 183 0
170 187 0
163 180 0
167 185 0
168 187 0
166 184 0
166 183 0
166 187 0
167 186 0
167 186 0
164 183 0
167 186 0
168 188 0
166 187 0
159 183 0
160 184 0
169 191 0
170 193 36
166 190 25
177 199 67
171 194 25
174 197 62
174 197 25
174 197 57
173 197 25
176 198 62
174 197 57
173 196 51
172 195 62
174 198 62
174 198 36
175 198 51
178 200 72
175 198 57
177 199 67
176 199 36
174 197 25
175 198 44
175 198 36
174 197 51
176 199 36
173 197 36
177 200 67
178 200 62
172 196 25
173 197 25
177 199 57
177 200 51
176 199 44
177 200 72
178 201 80
174 198 36
174 198 44
175 198 44
174 198 25
177 200 57
178 200 62
175 199 57
177 200 62
176 199 44
177 200 57
177 200 72
177 200 57
174 197 36
174 197 36
174 198 51
176 199 51
178 200 57
176 199 51
175 199 57
173 197 25
176 200 67
175 199 57
177 200 62
174 198 62
175 198 36
175 198 44
173 197 44
175 197 57
173 196 36
172 195 44
175 198 67
175 198 67
173 196 36
171 194 62
174 197 57
171 195 25
173 196 51
167 190 44
168 192 44
173 195 62
167 189 25
171 192 62
166 189 0
166 189 18
159 183 31
155 178 25
154 178 62
155 178 44
155 177 47
150 174 57
129 152 94
92 121 139
65 99 144
59 94 148
61 96 149
61 97 152
62 98 157
61 96 154
59 95 146
62 98 159
62 98 163
60 96 156
61 97 154
61 96 154
59 95 157
61 97 164
61 97 156
61 97 166
61 96 155
60 96 154
61 97 163
61 97 162
61 98 162
60 95 158
61 96 160
61 97 164
62 98 164
61 97 163
61 97 161
61 97 163
62 98 165
61 97 167
61 98 168
61 97 165
62 98 163
61 97 163
61 98 167
62 99 169
60 96 160
61 98 166
62 98 173
62 98 165
61 98 166
62 98 162
62 98 167
62 98 172
61 98 169
62 98 169
62 98 171
61 97 162
62 98 167
62 99 165
62 98 167
62 98 168
61 97 163
61 98 169
61 97 161
62 99 171
61 97 165
61 97 168
63 99 169
62 98 165
62 99 170
61 97 160
61 97 161
62 98 166
61 97 169
62 98 166
62 99 166
61 98 165
62 98 163
61 97 166
62 98 169
61 97 165
61 97 163
61 98 163
62 98 167
62 98 169
61 98 165
62 98 164
61 97 159
62 98 166
62 98 168
62 98 165
62 98 166
62 98 162
62 98 163
61 98 159
62 98 165
62 98 166
62 98 165
62 98 168
62 98 165
62 99 167
62 99 167
61 97 159
62 98 161
62 98 165
62 97 158
62 98 162
63 99 167
61 98 163
62 98 164
62 98 164
61 97 161
61 97 159
61 98 166
61 98 164
62 98 161
62 98 167
62 98 161
62 98 159
62 98 161
62 98 162
62 97 156
61 98 160
63 99 166
61 98 164
62 98 160
62 98 161
63 99 170
62 99 169
62 98 163
62 98 162
62 98 161
62 98 164
62 98 161
62 98 162
62 98 157
61 97 151
61 97 162
62 98 162
61 97 160
63 99 163
62 98 156
62 98 162
61 97 160
62 98 161
62 98 159
62 98 164
61 97 155
61 97 155
61 97 158
62 98 165
61 97 152
61 97 156
61 97 157
61 97 158
63 99 163
62 98 158
62 97 155
63 99 166
61 96 152
61 97 150
62 98 158
62 98 155
61 96 153
61 96 147
61 96 153
62 97 155
61 97 150
61 96 155
62 97 158
61 96 149
61 96 153
62 97 153
61 95 149
62 98 155
60 94 143
60 95 146
60 94 138
62 97 152
61 95 141
61 95 148
60 94 145
58 91 129
57 90 133
63 70 66
86 84 11
78 77 16
76 76 14
83 83 12
90 89 14
73 74 11
76 76 18
86 85 20
91 89 3
86 86 15
87 85 12
99 98 19
93 92 22
87 85 26
90 89 16
109 107 20
86 85 17
99 97 22
94 94 27
102 102 29
108 106 24
100 98 25
104 103 31
99 98 24
113 112 25
105 104 33
111 109 25
120 117 41
120 116 33
114 112 25
129 126 38
121 120 38
119 117 39
124 121 39
119 118 32
120 118 37
122 121 37
118 116 40
130 126 42
137 133 42
126 124 37
131 127 40
130 127 47
128 125 41
130 126 46
132 128 47
131 127 39
130 126 43
131 127 39
127 123 36
144 138 45
135 130 42
144 139 41
134 129 42
133 128 42
135 130 37
142 136 47
145 140 44
137 132 44
133 128 45
140 135 40
137 132 44
145 140 51
141 136 47
142 137 41
141 136 42
133 127 36
138 134 45
137 133 44
148 142 53
144 139 52
142 138 36
138 134 34
142 137 47
138 134 32
149 143 51
147 142 48
135 130 39
143 138 39
131 128 41
139 134 41
144 138 51
138 134 37
135 130 42
142 136 39
140 133 45
135 130 37
136 130 34
143 137 41
137 132 45
127 123 36
138 133 32
131 126 32
134 129 37
133 129 34
131 125 36
131 127 34
134 127 45
127 122 36
132 126 36
128 124 37
123 119 30
128 123 36
122 116 37
123 117 25
109 104 25
135 143 22
165 183 0
162 177 0
164 180 0
166 183 0
167 182 0
168 183 0
157 169 0
164 179 0
166 185 0
165 180 0
163 181 0
166 183 0
166 182 0
169 188 0
162 178 0
168 187 0
164 180 0
167 187 0
166 185 0
167 186 0
165 182 0
171 189 0
164 182 0
165 185 0
166 185 0
169 189 0
165 183 0
165 184 0
165 188 0
171 194 36
175 198 57
176 198 62
171 194 44
173 195 57
173 196 51
174 196 62
175 199 51
173 196 44
176 198 36
175 198 44
176 199 36
176 199 57
175 197 36
176 198 44
176 199 44
173 195 0
177 199 51
176 199 62
176 200 62
176 199 44
173 197 25
179 201 67
173 197 25
177 199 25
176 199 57
178 201 76
177 200 62
175 199 51
176 199 44
177 200 62
182 204 102
186 206 120
193 212 151
193 212 151
198 216 169
201 218 181
199 217 173
209 225 204
206 222 194
202 219 186
207 223 198
199 216 173
202 219 188
204 220 188
197 215 169
192 211 142
189 208 133
186 207 120
184 205 95
178 201 76
176 199 44
177 199 57
176 199 44
176 199 44
178 200 51
176 199 44
175 198 44
175 198 36
177 200 57
175 198 44
174 197 51
176 198 57
175 198 51
174 198 44
172 196 36
177 199 44
174 197 44
177 199 62
175 198 67
177 199 57
176 200 62
171 194 44
173 196 44
175 198 57
169 192 44
168 191 25
170 193 57
173 196 57
163 187 25
162 184 44
162 185 44
160 184 36
161 183 47
158 181 36
151 174 36
154 176 31
156 179 51
140 165 90
111 137 111
78 110 149
61 97 157
61 97 155
61 97 154
61 97 153
61 97 159
60 96 158
61 97 165
61 96 158
61 97 163
61 97 154
61 96 148
61 96 157
62 98 163
61 97 153
61 97 158
61 98 160
61 96 156
61 97 160
62 98 164
60 96 155
60 96 157
61 98 164
62 98 159
61 97 162
61 98 164
61 97 159
61 97 161
62 98 161
61 98 170
62 99 170
62 98 169
61 97 164
61 97 164
61 97 162
62 98 167
61 97 157
61 97 163
61 98 169
61 97 165
62 98 167
62 98 168
61 97 168
62 99 169
61 97 158
61 98 165
62 99 169
62 98 168
61 97 160
62 98 166
61 97 169
63 99 165
61 97 162
61 97 156
61 97 162
61 98 165
62 98 166
61 98 168
62 98 164
61 97 158
61 97 161
61 98 164
62 99 174
61 98 162
60 97 159
61 97 162
62 99 172
60 96 158
63 99 166
62 99 167
61 97 163
61 97 162
61 98 164
62 98 168
61 97 159
61 98 163
62 98 168
62 98 165
61 97 160
62 98 170
62 98 168
61 97 161
62 98 161
61 97 161
63 99 169
61 97 164
61 98 161
61 97 164
63 99 170
61 98 160
62 99 166
62 99 170
62 98 165
62 98 163
62 98 160
62 98 163
61 98 159
62 98 165
62 98 168
62 98 160
62 98 163
61 97 158
62 99 167
62 99 168
62 98 166
63 99 167
61 97 160
61 97 160
62 99 168
62 98 159
61 97 156
62 98 162
62 98 162
61 97 160
62 98 158
62 98 163
61 97 155
62 99 167
63 99 171
62 98 162
62 98 166
62 97 163
62 98 165
62 98 165
62 98 161
62 98 163
61 97 155
61 97 157
61 97 157
62 98 164
62 98 162
62 98 162
63 99 164
62 98 161
63 99 166
62 98 162
63 98 157
62 98 160
62 98 162
62 98 155
61 97 153
62 98 160
62 98 166
61 96 148
62 98 160
61 97 153
60 95 153
62 98 163
62 98 158
63 98 160
61 97 151
62 98 162
62 98 159
62 97 152
62 97 151
62 97 160
62 98 157
61 97 158
61 97 145
61 97 154
61 96 152
60 95 145
60 94 144
61 96 148
62 98 158
60 95 147
61 96 154
61 96 152
59 93 140
60 93 143
59 93 140
59 93 142
59 92 135
74 80 63
84 83 18
82 81 18
81 83 17
84 82 12
81 80 18
85 83 3
79 79 16
86 86 18
82 81 16
86 84 8
97 94 14
91 90 4
96 94 12
89 90 21
89 89 15
96 96 20
98 97 15
99 97 29
103 102 20
107 104 29
94 93 21
106 104 29
99 98 23
107 106 22
106 106 24
104 103 14
116 113 29
109 106 31
114 112 44
108 106 30
114 111 30
121 118 38
118 115 32
107 107 32
122 119 37
130 127 44
127 124 41
130 126 46
121 119 43
127 124 35
129 125 41
125 122 35
132 127 34
127 122 45
133 129 45
133 128 38
136 131 50
137 132 39
126 122 34
135 131 32
138 133 39
134 131 35
141 136 45
137 132 49
141 136 47
137 134 36
137 130 54
137 132 47
137 131 39
147 142 51
140 135 44
141 137 44
140 136 32
136 132 37
141 137 41
143 137 45
143 138 47
138 133 41
140 135 44
140 133 37
139 134 47
136 132 37
138 135 44
140 135 47
136 130 34
137 133 37
140 135 44
144 139 44
133 129 32
137 132 44
138 133 42
147 140 47
141 135 51
148 141 44
133 129 37
130 126 37
133 127 39
136 132 41
136 131 36
139 134 45
137 132 37
126 120 28
137 131 37
124 120 30
128 121 36
128 123 36
129 124 32
130 125 36
129 123 41
119 114 34
129 124 39
122 117 30
117 112 22
105 101 25
120 116 32
132 139 16
163 178 0
166 181 0
165 181 0
160 176 0
165 180 0
160 177 0
164 179 0
162 178 0
165 181 0
162 177 0
164 182 0
163 180 0
163 180 0
159 175 0
164 183 0
169 186 0
165 184 0
163 182 0
168 187 0
169 187 0
166 185 0
169 185 0
168 188 0
165 183 0
169 188 0
165 184 0
169 189 0
165 183 0
169 188 0
175 198 57
170 194 44
175 198 25
176 199 44
174 197 44
178 200 67
174 197 57
173 197 44
177 199 72
176 198 36
176 199 57
176 199 44
178 200 51
176 199 62
178 200 62
177 199 57
177 199 57
176 199 51
176 199 44
175 198 25
175 198 51
175 198 25
178 200 72
177 200 51
179 201 67
188 208 130
193 211 151
202 219 188
210 225 211
216 230 228
220 233 241
221 235 248
221 235 248
223 236 252
223 237 253
222 235 250
223 236 253
223 236 253
222 235 250
222 235 250
221 235 248
221 235 249
222 235 249
222 236 252
222 236 252
221 235 248
223 236 252
220 234 248
223 236 252
223 236 253
223 236 250
223 236 250
220 234 244
217 231 234
210 226 211
202 219 184
200 218 177
188 208 125
180 202 95
175 197 36
175 199 44
178 200 62
175 198 44
176 199 57
173 197 25
176 200 62
176 198 36
178 200 57
176 199 51
177 199 67
174 197 36
176 198 62
173 197 44
174 197 44
175 197 62
174 197 36
177 199 67
167 190 60
123 149 121
98 126 135
88 115 135
63 98 143
76 106 149
75 107 139
98 127 126
107 133 116
122 147 100
147 171 67
162 186 36
153 176 46
140 164 47
137 161 80
115 141 107
68 102 160
60 96 154
61 96 152
60 96 143
62 98 161
62 98 159
60 95 151
61 97 151
62 98 162
60 95 149
61 97 161
60 96 156
60 96 157
62 98 167
61 97 160
61 97 155
59 94 154
61 96 150
61 97 160
61 97 162
62 98 166
61 97 159
62 99 165
60 96 159
60 96 158
61 97 161
61 98 167
60 96 164
62 98 167
60 97 164
61 97 158
61 97 161
61 98 167
60 96 159
61 97 164
61 97 169
61 97 160
61 98 164
61 97 161
61 97 159
62 98 162
63 99 169
62 99 169
61 97 162
62 98 169
61 97 163
61 97 160
62 99 168
61 98 169
61 98 166
61 98 170
61 98 166
61 98 163
62 99 168
62 98 163
62 99 167
62 98 163
62 98 166
61 98 164
62 99 167
62 99 172
62 98 167
62 98 168
62 98 164
62 98 163
62 98 168
62 98 165
62 98 169
62 98 167
62 98 164
61 97 157
62 98 168
62 98 163
62 98 163
61 97 163
62 99 170
62 99 167
62 98 160
62 98 165
62 98 168
62 99 170
62 98 163
62 98 167
63 99 167
61 97 157
61 97 159
62 99 165
62 98 168
62 98 161
63 99 169
63 99 162
62 98 163
62 98 166
61 97 157
61 97 168
61 97 158
61 97 157
62 97 155
61 97 160
63 99 161
62 99 167
62 98 163
62 99 167
62 98 160
63 99 166
61 97 160
62 98 165
62 98 165
62 98 159
61 98 159
62 98 163
63 99 164
62 98 165
62 98 163
62 99 164
62 98 163
62 98 161
62 98 162
62 98 163
62 98 166
61 97 153
63 98 161
62 98 160
62 98 159
61 97 158
62 98 162
62 98 161
62 98 157
62 98 161
62 97 158
61 97 155
62 98 161
62 98 161
62 98 162
62 98 160
62 98 153
62 98 156
62 97 156
60 95 150
62 97 155
61 97 156
62 98 160
61 97 150
62 98 164
61 97 156
61 96 149
63 99 159
61 97 156
61 96 151
61 97 153
62 98 161
62 98 160
62 98 159
61 97 156
62 97 150
60 95 147
60 96 149
60 94 146
60 95 146
61 97 154
61 96 147
60 95 147
62 97 157
61 95 141
61 95 147
61 96 145
61 95 145
60 94 145
60 94 140
60 94 145
56 88 121
77 82 66
86 83 16
92 89 8
88 86 12
74 74 11
87 87 10
79 77 14
93 92 12
93 91 19
76 75 15
83 82 15
84 82 22
95 93 14
84 85 8
95 93 18
94 92 16
100 99 19
89 89 24
94 93 22
86 87 25
101 99 24
110 108 27
108 106 35
106 103 27
106 105 32
101 99 21
106 104 30
114 112 28
119 117 25
106 105 31
111 110 29
120 116 23
114 112 30
116 114 18
115 113 30
121 119 38
114 110 34
120 116 32
137 133 44
120 116 40
120 118 35
127 123 39
138 134 41
130 126 37
136 131 45
133 128 39
133 128 39
129 125 36
132 128 45
136 131 41
135 131 41
139 134 51
136 132 41
135 131 44
135 129 32
132 128 30
143 138 54
135 130 44
133 129 37
139 134 41
144 139 45
137 132 42
141 135 47
137 134 36
137 132 42
134 130 36
146 140 47
138 133 45
137 132 48
143 137 42
137 132 41
139 135 39
137 133 36
138 132 44
139 134 41
134 129 39
138 132 42
143 138 41
122 116 36
131 126 34
134 130 36
135 129 44
141 136 39
134 129 28
137 131 37
138 133 41
133 128 39
129 124 39
134 130 36
134 130 37
144 139 42
134 130 42
131 126 30
132 125 45
124 120 32
130 124 39
124 119 37
126 121 34
135 130 39
123 117 28
126 120 36
124 118 28
114 109 22
124 118 41
115 110 28
143 148 28
162 177 0
158 172 0
160 173 0
164 179 0
160 176 0
161 177 0
158 174 0
162 178 0
165 182 0
165 180 0
167 182 0
166 181 0
164 179 0
166 184 0
162 180 0
165 182 0
161 179 0
162 179 0
162 180 0
161 177 0
166 183 0
172 189 0
167 185 0
163 181 0
166 184 0
167 186 0
169 186 0
170 191 0
170 191 0
164 180 0
175 198 51
174 196 44
173 196 72
176 198 51
173 196 36
175 198 0
174 198 36
177 199 62
173 196 44
176 199 44
177 199 44
178 200 57
175 199 57
175 198 51
177 200 62
175 198 44
175 198 51
176 200 62
175 198 25
179 202 84
188 208 137
199 216 173
206 222 194
219 233 240
222 235 248
224 237 254
223 236 252
222 235 250
222 236 254
222 236 253
221 235 250
220 234 248
219 233 248
219 234 246
220 234 248
221 235 252
220 235 249
219 234 249
220 234 250
219 234 246
220 234 249
220 235 250
220 234 252
220 235 250
221 235 253
221 235 252
221 235 249
219 234 249
222 236 254
222 236 254
222 236 255
221 235 252
220 235 249
220 234 248
220 234 248
222 236 253
222 235 252
219 233 244
222 235 249
217 231 231
214 229 224
204 221 193
188 208 140
180 202 84
177 199 62
173 196 25
176 199 36
176 199 44
177 200 57
175 197 57
175 198 44
175 197 44
176 199 44
175 198 57
174 198 25
176 199 62
164 187 65
100 127 154
86 114 153
78 109 147
81 111 159
83 114 158
87 115 160
77 108 154
69 103 153
67 101 145
70 102 140
64 98 144
80 110 134
107 133 120
124 149 94
155 179 44
148 171 47
151 175 52
125 151 113
75 107 147
59 95 151
60 95 145
62 98 157
60 96 157
60 95 153
61 97 159
61 97 155
60 96 161
61 97 154
60 97 161
61 97 163
62 98 159
60 95 155
60 96 156
61 97 163
61 97 159
61 97 157
60 96 158
61 97 157
61 96 156
60 96 162
62 98 166
62 98 164
61 97 171
62 98 167
61 98 164
61 97 160
60 96 162
62 98 163
61 98 164
62 97 164
61 97 159
62 98 166
61 97 167
61 97 160
61 97 159
62 98 165
62 98 170
62 98 165
61 98 163
62 98 167
62 98 168
62 98 167
62 98 166
61 97 160
61 97 160
61 97 163
62 98 166
62 98 164
62 98 163
62 98 174
61 97 161
61 97 156
62 98 164
62 98 167
61 97 164
62 98 165
61 97 157
62 98 160
61 97 162
62 98 168
62 99 171
62 98 166
61 97 160
62 98 163
61 97 159
63 99 173
63 99 166
62 98 162
62 99 169
62 98 169
62 98 161
62 98 165
62 98 162
63 99 174
63 99 164
62 99 169
61 98 164
62 98 165
62 98 167
61 97 158
62 98 163
62 98 168
61 98 164
63 98 161
62 98 163
62 98 163
62 98 162
62 98 168
61 98 165
62 99 170
61 97 158
62 98 163
62 97 154
62 98 163
62 98 165
61 97 160
61 97 158
62 98 158
62 98 159
62 99 170
62 97 159
62 99 167
62 99 165
61 97 158
63 99 168
62 98 160
63 99 168
61 98 163
62 98 160
62 99 166
62 98 162
62 98 162
61 97 160
61 97 159
61 97 155
62 98 158
61 97 156
62 98 157
63 99 169
62 98 158
62 98 160
62 98 163
61 97 159
62 98 160
62 98 162
62 98 159
61 97 158
63 98 164
62 99 162
61 97 159
62 98 156
62 98 159
62 98 156
62 98 159
62 97 152
62 97 157
62 97 158
62 97 155
62 97 155
60 96 149
61 96 157
62 97 155
61 97 152
62 97 153
61 96 144
62 97 153
62 97 152
62 98 158
62 98 159
62 98 156
62 97 152
60 96 149
61 96 151
61 96 151
62 97 149
62 97 153
60 95 142
60 95 140
61 96 152
59 94 149
61 95 148
60 94 138
59 93 133
59 92 138
60 93 139
58 91 133
58 91 134
79 81 39
90 89 14
91 88 8
90 88 12
90 86 8
88 84 12
87 86 0
83 84 14
88 88 14
80 79 11
89 87 12
91 90 16
104 100 14
94 92 14
75 75 8
101 100 11
76 78 16
92 91 24
105 104 26
91 89 12
108 106 30
108 105 33
102 101 25
112 111 16
106 104 22
108 106 24
113 110 25
108 107 22
119 116 34
115 113 28
110 107 18
111 109 21
128 124 33
129 124 38
118 113 32
117 112 29
114 112 33
126 122 37
124 121 33
121 117 41
126 122 39
125 121 32
124 120 32
133 127 38
124 121 22
136 132 41
128 124 21
133 129 37
137 132 35
142 137 39
125 122 33
130 126 32
138 132 34
136 131 44
136 132 40
142 139 45
140 134 42
135 131 41
135 131 37
142 136 48
137 132 38
137 133 36
138 134 37
138 133 39
135 130 48
134 130 38
138 134 30
133 128 42
142 137 41
132 128 41
137 132 44
133 129 39
132 126 39
135 130 37
133 130 25
142 134 48
141 135 44
137 132 34
132 127 36
133 127 42
137 132 37
128 124 36
125 119 34
133 127 41
130 125 34
137 132 34
138 132 42
134 129 37
136 129 41
124 118 32
128 124 41
133 128 28
126 121 22
132 126 39
128 123 34
133 127 37
121 116 32
129 125 34
122 117 34
124 119 34
129 123 36
112 106 28
129 124 36
113 109 30
136 142 22
160 175 0
166 180 0
160 174 0
159 171 0
161 175 0
157 173 0
163 180 0
164 181 0
165 181 0
160 176 0
161 176 0
161 177 0
167 185 0
168 186 0
166 183 0
165 181 0
167 185 0
167 185 0
164 182 0
166 183 0
166 184 0
163 178 0
168 185 0
167 186 0
164 181 0
166 185 0
164 182 0
164 182 0
166 184 0
167 185 0
162 180 0
174 197 44
175 197 51
175 198 25
177 200 51
176 199 51
176 199 67
175 198 25
178 200 76
175 199 57
176 200 62
176 199 51
177 200 62
178 201 62
176 199 51
174 197 44
182 203 92
194 213 151
204 221 191
219 233 238
223 236 252
222 236 249
222 235 250
222 235 250
220 234 248
222 235 250
222 236 253
222 236 253
222 236 254
219 233 248
221 235 253
220 235 252
220 235 254
220 235 253
220 235 253
220 235 254
220 234 252
219 234 253
219 234 252
221 235 255
217 233 246
218 233 248
219 234 252
219 234 252
220 235 254
219 234 252
220 234 252
219 234 252
219 234 249
219 234 250
219 234 252
219 234 249
220 234 252
220 235 252
220 234 250
219 234 249
220 235 253
221 235 252
220 234 248
222 236 253
220 234 248
223 236 253
224 237 255
223 236 252
223 236 252
214 229 227
205 221 191
191 211 147
179 201 72
175 198 25
179 201 76
177 200 62
176 199 44
175 198 51
175 198 44
172 196 25
178 200 67
141 165 111
74 106 166
83 114 163
79 110 159
67 101 158
84 115 164
69 102 152
65 99 148
70 103 152
64 98 150
64 99 161
73 106 150
67 100 142
62 97 148
67 101 142
64 99 150
103 130 127
141 165 84
151 173 47
142 165 67
118 143 115
61 96 150
62 97 151
62 98 162
61 97 153
61 96 152
61 97 157
61 97 163
60 95 153
60 96 151
61 97 152
59 94 154
61 96 161
60 96 155
61 97 162
61 97 161
61 97 162
61 97 169
61 97 164
61 97 161
60 96 154
61 97 157
60 95 159
61 97 161
60 97 157
60 97 161
62 98 167
61 97 162
62 99 171
62 98 167
63 99 170
61 97 161
61 98 162
61 97 159
62 99 169
60 96 155
61 97 165
61 97 164
61 97 164
61 97 165
61 97 161
62 98 163
62 98 166
62 98 166
63 99 168
61 97 157
61 96 157
62 98 163
61 97 163
62 99 171
61 97 164
62 98 166
62 98 164
63 99 168
61 97 164
61 98 165
61 97 157
62 99 170
62 98 166
62 99 171
62 98 169
62 99 169
62 99 167
62 99 167
61 98 161
61 97 162
62 98 163
62 98 169
60 96 160
61 97 159
62 98 168
61 98 166
61 97 155
62 98 164
61 98 163
62 98 163
62 99 168
61 97 160
62 99 168
62 98 164
61 97 158
62 98 160
62 98 162
61 97 160
62 98 164
62 98 166
62 98 164
62 98 163
62 98 161
61 98 168
62 98 163
61 98 163
61 98 164
61 97 158
62 98 166
63 99 167
62 99 167
62 98 162
61 97 157
62 98 163
62 99 165
62 98 164
62 98 161
62 98 163
62 98 164
61 97 156
62 98 162
62 98 159
61 96 158
62 98 165
62 98 165
61 97 162
62 98 157
63 99 171
62 98 155
63 99 162
62 98 161
61 97 163
61 96 153
62 98 155
61 97 157
61 97 159
62 98 160
63 98 160
62 98 161
61 98 162
62 98 163
62 98 154
61 97 157
62 98 161
62 98 161
62 98 162
62 98 161
62 98 157
62 98 162
62 98 163
62 98 158
62 97 154
62 98 164
61 98 160
62 98 162
61 96 148
61 96 152
62 98 157
60 96 148
61 97 149
61 96 150
60 95 147
61 97 153
61 96 145
61 97 149
62 98 151
60 95 140
60 95 149
61 96 150
60 95 148
61 96 147
60 95 144
61 96 145
61 96 149
61 95 147
61 96 145
61 96 148
60 94 134
59 93 143
58 91 132
58 91 135
59 92 130
71 68 25
95 92 14
88 87 12
89 87 8
82 79 22
80 78 5
82 81 8
96 93 18
89 87 0
93 91 3
80 82 11
82 80 19
88 85 8
85 84 18
97 93 14
91 89 14
94 93 18
91 90 14
97 95 25
95 93 11
102 99 23
109 106 20
103 101 19
104 103 18
106 103 18
107 107 25
101 99 22
116 111 31
110 108 24
115 112 35
112 109 32
115 113 32
119 116 22
117 113 37
104 102 35
123 120 41
115 114 16
120 116 36
123 120 34
122 117 33
129 124 32
128 125 36
127 123 42
130 126 37
128 124 37
134 129 31
132 127 39
138 133 44
133 131 25
125 120 33
134 130 42
129 125 30
129 124 45
128 123 35
127 122 29
135 129 36
129 124 34
136 132 42
135 130 38
139 133 32
128 124 25
135 130 35
136 132 37
132 128 32
136 131 36
131 125 36
134 129 37
135 131 39
138 131 37
143 138 41
139 133 39
133 129 36
132 127 44
137 131 41
135 131 39
135 130 34
133 129 28
129 123 42
129 124 41
135 130 39
137 131 34
140 134 39
139 134 39
130 125 41
133 128 34
140 135 36
128 124 34
134 128 41
135 129 45
130 126 34
130 125 28
126 123 36
135 129 39
122 118 25
131 126 45
128 122 19
127 123 30
130 125 32
112 108 25
120 115 34
118 113 36
117 112 32
114 110 22
146 158 11
160 175 0
157 173 0
161 175 0
158 173 0
165 178 0
165 180 0
165 182 0
159 173 0
161 176 0
158 175 0
166 182 0
161 177 0
161 179 0
166 181 0
163 178 0
162 181 0
164 178 0
163 179 0
167 184 0
169 188 0
162 181 0
162 178 0
161 178 0
164 179 0
166 182 0
165 184 0
163 182 0
165 185 0
164 183 0
166 185 0
166 185 0
166 184 0
177 199 57
174 198 44
176 199 51
174 197 0
174 198 72
175 198 57
176 199 67
176 199 62
175 198 57
176 199 62
177 199 57
173 197 25
188 208 125
200 218 179
209 224 206
220 234 245
224 237 254
220 233 248
222 236 253
222 235 252
221 235 249
221 235 253
219 234 248
221 235 254
221 235 253
219 234 250
219 234 252
219 234 249
219 234 254
219 234 252
219 234 254
218 233 250
217 233 250
217 232 248
217 232 246
216 232 245
217 233 250
216 232 249
217 233 252
215 230 249
217 233 253
217 233 252
218 233 253
217 233 252
219 234 254
217 232 249
217 233 250
218 234 253
217 233 250
217 233 250
218 233 252
218 233 249
217 232 246
218 233 250
219 234 252
219 234 250
219 234 252
219 234 249
219 233 248
219 233 248
220 235 250
220 235 250
221 235 250
220 234 249
222 236 253
221 234 249
222 235 249
221 234 245
212 227 215
199 217 173
180 202 88
176 199 51
176 199 51
176 199 57
176 198 44
173 197 44
142 166 120
80 111 159
81 112 156
72 105 164
82 112 168
81 111 158
81 111 163
64 100 156
87 116 161
81 112 156
65 100 160
61 97 158
65 100 150
62 96 148
68 101 148
64 99 153
67 100 134
66 98 138
78 109 125
111 136 103
135 159 86
138 161 78
101 127 124
69 103 159
61 97 158
61 96 158
61 97 162
62 99 168
60 96 155
60 96 153
62 98 170
60 96 158
62 97 161
60 96 163
61 97 159
60 96 160
61 96 161
60 96 157
60 96 157
60 96 162
62 98 164
61 97 158
61 97 159
61 97 157
61 97 163
61 97 161
61 98 161
60 96 159
61 97 164
61 97 160
62 99 167
61 97 160
61 97 163
62 98 161
61 97 160
60 97 159
61 98 166
62 98 171
61 98 164
62 98 165
61 97 162
61 97 159
61 97 164
61 97 156
61 97 166
62 99 168
61 97 158
62 98 164
62 98 170
62 98 168
62 98 166
62 98 161
61 97 163
61 97 156
62 98 166
62 98 166
61 97 156
61 97 160
62 98 164
61 97 160
61 97 160
61 97 163
62 98 163
62 98 162
62 98 164
61 97 155
62 98 159
62 98 164
62 98 164
61 98 161
63 99 164
62 98 165
61 98 165
61 97 159
62 98 160
61 98 161
61 97 157
62 98 167
61 98 167
62 98 170
62 98 163
62 98 164
62 98 166
62 98 166
62 98 165
63 99 164
61 97 161
62 98 164
61 97 162
62 98 166
62 98 163
62 99 169
62 98 165
62 98 167
61 97 159
61 97 161
62 98 162
61 97 158
62 98 160
62 98 159
62 98 163
62 99 163
62 98 163
62 99 162
61 98 164
62 98 157
62 98 160
62 98 159
61 97 158
62 97 155
61 97 157
61 97 159
62 98 162
62 98 162
61 97 160
62 98 163
62 98 156
61 97 157
61 97 156
63 99 170
62 98 160
61 97 155
61 97 160
62 97 161
61 97 154
62 97 153
63 98 160
62 98 159
61 97 156
61 97 156
61 97 159
62 98 163
61 97 158
62 98 162
61 98 158
61 96 145
61 97 153
61 96 151
62 99 163
62 98 157
62 98 160
63 99 157
61 97 151
61 97 156
62 97 153
62 97 159
61 96 152
60 95 140
61 96 150
61 97 149
61 97 154
61 97 155
62 97 155
60 95 145
62 98 158
61 97 151
62 97 153
60 95 149
61 96 145
61 96 146
60 94 139
61 95 143
59 93 135
59 93 137
58 92 134
60 94 143
58 91 135
57 87 122
84 80 11
93 89 11
84 80 11
82 79 14
92 88 0
74 73 2
86 83 18
74 73 0
95 93 12
97 94 8
90 90 9
94 92 8
92 91 14
92 90 14
89 88 8
101 99 14
89 89 16
96 93 12
97 94 20
92 89 24
97 92 16
102 100 22
108 104 24
98 97 14
94 94 19
108 104 22
109 106 18
108 104 27
113 110 29
117 114 32
112 110 18
113 111 25
118 117 21
124 120 35
103 102 23
124 120 39
123 120 32
124 120 30
122 116 32
117 114 28
120 118 25
126 123 35
125 121 36
118 115 26
124 122 39
132 129 42
123 120 24
126 122 35
130 125 37
127 124 37
123 119 32
138 133 42
131 127 31
140 134 38
139 133 42
130 126 37
132 127 37
126 122 25
138 133 30
135 131 47
127 123 34
139 133 47
135 130 37
139 134 36
137 132 38
133 129 30
137 131 34
134 129 37
135 129 37
140 135 44
133 129 36
138 133 37
134 130 47
136 130 37
136 131 37
131 127 37
128 122 39
140 134 39
137 131 37
133 128 41
135 129 36
136 131 36
133 127 34
139 133 45
128 122 28
133 128 34
132 126 36
130 124 34
134 129 34
126 122 37
135 130 30
117 112 28
127 121 32
126 122 25
129 124 36
124 119 32
127 123 28
132 125 37
118 113 25
117 112 32
123 117 28
114 108 25
142 150 16
152 166 0
157 171 0
158 170 0
165 182 0
161 176 0
157 170 0
161 175 0
161 176 0
163 179 0
159 174 0
162 179 0
161 177 0
161 175 0
163 178 0
167 186 0
164 181 0
166 184 0
164 180 0
164 181 0
165 181 0
169 186 0
163 178 0
162 177 0
165 183 0
166 183 0
163 179 0
163 182 0
169 187 0
162 181 0
167 186 0
168 189 0
168 187 0
165 183 0
176 199 51
175 199 36
176 198 57
179 201 80
173 197 36
175 199 44
177 200 72
176 199 51
178 201 62
182 204 102
205 221 193
217 231 234
221 235 248
222 235 249
223 236 254
221 235 252
221 235 250
220 234 249
221 235 252
220 234 252
217 232 245
219 234 249
219 234 253
218 233 249
218 233 250
218 233 252
218 233 250
218 233 253
217 233 250
218 234 255
216 232 249
216 232 249
216 232 249
217 233 254
216 232 249
217 233 254
217 233 255
215 231 248
216 232 252
216 232 249
216 232 252
216 232 252
215 231 245
216 232 250
216 232 252
216 232 249
216 232 250
214 231 245
216 232 250
217 233 252
216 232 252
216 232 249
217 233 252
218 233 254
218 233 253
217 233 250
219 234 255
218 234 252
218 233 250
217 232 249
218 233 249
218 233 249
218 233 249
220 234 250
221 235 254
221 235 250
220 234 248
222 235 250
222 236 250
221 235 248
222 236 249
212 228 220
199 217 175
178 201 80
176 200 62
176 199 51
161 184 84
80 111 169
76 108 161
73 105 163
86 116 162
69 102 153
85 114 169
85 115 165
86 115 164
84 114 161
79 110 170
69 102 159
74 106 153
70 104 153
65 99 153
64 99 153
72 105 150
65 99 144
63 97 148
65 99 140
62 96 133
94 123 131
129 154 83
133 157 81
85 115 137
60 95 147
60 96 154
61 97 154
60 97 158
60 96 156
61 97 161
60 96 154
61 97 159
61 97 159
61 97 159
62 98 163
61 97 161
61 98 163
60 96 156
60 96 157
61 97 166
61 97 153
61 96 159
62 98 162
61 97 165
60 96 160
60 97 162
60 96 156
60 97 162
61 97 164
60 96 161
60 96 158
60 96 161
61 97 158
62 98 168
60 95 151
63 99 167
63 99 172
60 96 159
62 99 169
61 97 162
61 97 162
61 97 164
61 97 160
61 96 159
61 98 162
61 97 167
62 98 165
62 99 168
62 98 169
61 97 161
61 97 156
62 99 167
62 98 162
62 98 163
61 97 164
61 97 155
61 97 160
62 97 159
62 98 163
62 98 170
62 98 164
62 99 167
62 98 161
61 97 160
62 98 164
61 97 160
62 98 167
61 97 165
61 97 154
61 97 156
61 97 160
62 98 164
61 97 162
62 98 168
62 98 160
62 98 163
61 97 155
61 97 155
62 97 154
62 98 164
61 97 163
62 98 157
61 97 159
62 98 159
62 98 166
62 98 165
62 98 165
62 98 166
62 99 166
61 97 158
62 98 163
61 97 158
62 98 160
62 98 163
61 97 162
63 99 165
62 97 154
61 97 162
63 98 159
61 97 154
61 97 160
61 97 154
62 98 163
62 98 163
62 98 162
62 98 161
61 97 153
62 98 157
62 98 163
62 97 154
61 97 159
61 97 153
61 97 157
61 97 157
61 96 154
62 98 157
62 98 158
60 96 154
61 97 159
62 98 162
62 98 158
63 99 163
62 98 163
62 98 160
62 98 158
62 98 159
62 97 158
61 97 151
61 97 153
62 98 161
62 98 160
61 98 160
61 97 149
61 97 161
62 98 161
62 98 160
60 96 149
62 98 160
62 98 154
62 98 159
61 97 153
62 97 154
62 97 153
60 96 145
61 96 145
61 97 157
62 98 156
60 95 144
61 97 151
60 96 146
60 95 140
62 97 155
62 97 151
61 96 152
60 95 149
61 96 154
60 95 147
59 93 142
61 96 149
60 95 139
60 94 134
59 93 131
60 94 141
60 93 136
59 93 143
57 90 135
59 85 110
86 83 19
80 78 14
96 91 11
91 88 19
94 91 0
83 82 16
87 85 0
89 85 11
93 90 0
96 94 8
85 81 8
92 91 11
75 74 3
88 86 14
91 90 9
95 92 8
102 99 8
93 91 11
95 94 18
88 87 5
105 103 18
94 92 11
104 101 18
91 90 9
105 104 14
108 105 16
103 101 23
100 98 14
101 98 21
114 111 22
104 101 23
97 95 24
104 100 24
113 111 25
119 115 19
117 114 29
116 113 25
117 113 25
108 104 16
124 119 33
123 119 29
123 119 29
121 118 28
123 120 32
127 122 29
124 121 25
127 122 35
127 124 26
123 118 37
131 127 37
128 125 37
132 127 32
134 128 37
135 129 37
126 122 34
132 126 39
130 125 32
126 121 22
127 123 16
130 125 26
127 122 28
132 127 39
141 136 42
138 133 34
137 133 30
139 133 34
126 121 36
140 134 34
138 132 41
138 133 34
131 127 32
131 128 36
139 133 42
135 130 34
132 129 37
130 125 36
136 132 36
136 131 37
127 121 39
124 120 22
138 132 39
132 127 37
128 123 28
123 117 36
130 126 34
129 124 37
136 130 37
126 122 30
132 127 34
117 112 25
123 118 36
136 130 32
125 119 39
115 111 30
118 113 25
125 119 32
118 113 25
123 118 36
126 121 28
109 103 19
117 116 28
149 159 28
164 177 0
156 170 0
159 170 0
157 170 0
161 173 0
163 178 0
160 174 0
163 178 0
165 182 0
164 180 0
165 182 0
164 177 0
163 181 0
162 176 0
164 179 0
165 183 0
160 176 0
168 184 0
165 180 0
165 182 0
166 180 0
169 187 0
165 182 0
167 186 0
161 179 0
166 184 0
166 185 0
171 190 0
167 186 0
166 184 0
168 186 0
166 185 0
169 189 0
164 180 0
177 200 57
174 197 57
177 200 62
174 198 25
176 199 62
175 199 44
182 203 88
199 217 177
215 230 227
223 236 250
220 234 245
222 236 252
221 235 250
221 235 250
219 234 248
220 234 250
218 233 249
218 233 248
220 234 254
218 233 250
219 234 254
219 234 254
217 232 248
218 234 255
216 232 248
215 231 246
216 232 250
214 230 245
215 231 248
216 232 253
215 232 249
216 232 253
216 233 255
214 231 249
214 231 249
215 232 253
214 231 254
215 232 252
214 231 248
215 232 254
215 232 254
215 232 254
214 231 249
212 229 244
215 232 252
215 232 252
214 231 250
213 230 248
213 230 245
216 233 255
216 232 252
216 232 253
214 231 248
215 232 250
216 233 253
216 232 250
217 233 252
216 233 252
217 233 250
218 234 253
218 234 254
216 232 249
219 234 253
220 234 254
219 234 253
220 234 250
220 235 252
218 232 246
221 235 252
221 235 252
222 236 254
222 235 250
223 237 254
222 235 249
211 226 212
191 210 142
179 201 80
96 125 151
75 107 166
74 106 160
74 107 161
81 112 164
72 106 164
77 109 168
79 109 159
83 113 152
77 109 160
72 105 152
76 108 165
68 103 162
67 102 159
64 99 161
62 97 149
75 107 137
68 102 147
67 102 159
67 100 146
63 98 153
66 100 145
87 115 124
112 138 110
122 147 90
78 109 146
61 97 157
61 97 159
61 96 156
61 96 161
61 96 152
61 96 161
61 97 159
61 96 158
61 97 161
60 96 157
61 97 161
62 98 159
62 98 162
60 96 158
61 97 156
60 96 153
61 97 156
60 96 153
61 97 168
61 98 163
61 97 156
62 98 161
61 97 165
61 97 164
61 98 168
60 96 160
62 98 168
63 99 163
62 98 165
61 97 162
62 98 166
61 97 160
62 98 162
62 98 166
61 97 159
61 97 161
61 97 162
62 98 163
61 97 163
62 99 168
61 97 164
62 98 168
62 98 165
62 98 168
61 98 169
62 98 162
61 97 162
60 96 160
61 97 164
61 97 158
61 97 167
62 98 170
62 98 163
61 97 159
61 97 161
61 97 162
62 98 165
62 98 166
62 98 163
62 98 164
62 98 166
62 98 166
61 97 161
61 98 163
62 98 161
63 99 170
61 97 163
63 99 167
62 98 164
61 97 162
62 99 168
62 98 165
61 97 165
62 98 157
61 97 156
61 96 157
62 99 171
62 98 164
61 96 156
62 98 164
62 98 159
62 99 165
62 98 161
62 98 160
62 98 160
62 98 164
62 98 159
60 96 159
62 98 167
62 98 161
62 98 161
62 98 158
62 97 153
62 98 164
61 98 158
61 97 156
61 97 153
62 98 162
62 98 163
63 99 169
61 97 155
63 99 166
62 98 159
62 98 162
62 98 165
62 98 156
62 98 166
61 96 154
63 99 170
62 97 160
61 97 154
62 98 161
62 98 156
62 98 162
62 98 158
62 98 162
63 99 164
61 97 157
62 98 159
62 98 156
61 97 155
62 97 154
62 98 162
62 98 158
62 98 161
62 97 155
61 96 148
61 96 154
62 98 158
63 99 164
62 98 157
60 95 145
62 98 157
62 97 158
62 97 150
61 96 152
62 97 152
62 98 161
61 97 148
62 97 152
61 97 149
61 96 152
61 97 155
62 98 156
61 96 150
61 97 148
62 97 155
60 95 149
61 97 149
60 95 142
60 94 149
61 95 147
59 94 138
60 94 145
60 95 148
60 94 138
56 90 124
59 92 135
59 92 140
59 93 131
68 87 108
88 85 3
93 89 14
91 88 14
75 73 11
86 83 8
90 87 8
92 91 0
86 83 0
83 82 8
94 91 8
91 88 14
83 81 0
86 84 0
88 86 8
87 87 16
83 83 14
93 92 12
89 88 3
96 94 14
100 98 11
102 101 24
108 105 22
96 94 16
92 91 20
101 98 18
94 92 14
101 99 19
100 97 19
116 112 22
104 101 26
107 105 22
118 115 24
112 108 26
113 110 22
111 107 19
111 106 22
117 114 28
115 112 23
131 127 35
123 119 32
126 122 32
114 111 21
117 113 24
120 117 29
123 118 24
134 129 38
129 124 29
122 118 25
132 127 28
116 112 25
134 128 43
126 122 26
129 126 29
127 124 26
130 126 23
123 119 28
135 131 35
140 134 32
129 124 32
125 120 22
137 132 44
136 132 32
133 127 32
129 123 39
136 132 34
129 125 34
131 124 32
135 131 30
132 128 19
135 129 34
126 123 30
137 132 37
134 129 32
136 131 39
136 131 39
135 128 32
135 130 30
130 125 39
126 121 37
131 126 30
124 120 25
129 125 34
134 130 30
129 123 37
128 124 22
134 128 36
128 122 34
119 114 30
130 124 28
123 118 25
124 118 41
126 120 28
117 113 25
117 113 28
122 117 32
121 115 25
119 114 25
121 116 36
112 106 30
119 120 19
153 164 0
156 169 0
155 165 0
154 165 0
160 170 0
162 176 0
161 176 0
165 181 0
161 176 0
155 171 0
164 179 0
162 175 0
165 183 0
161 176 0
164 182 0
163 179 0
161 177 0
165 182 0
162 178 0
170 188 0
165 181 0
158 173 0
165 182 0
164 180 0
168 184 0
169 185 0
161 179 0
165 183 0
166 183 0
168 189 0
164 182 0
167 186 0
168 187 0
166 184 0
165 182 0
167 187 0
175 198 44
175 198 36
175 198 36
176 199 67
193 212 147
213 228 223
222 236 249
223 236 253
223 237 254
221 235 252
222 236 254
221 236 255
219 233 248
219 234 250
219 234 250
218 233 250
218 233 253
216 231 245
217 233 250
217 232 250
216 232 249
215 231 246
216 232 252
215 231 248
216 233 255
215 231 249
214 231 249
214 231 249
214 231 249
215 232 253
213 231 250
213 230 249
213 230 249
213 230 250
214 231 253
214 231 252
214 231 252
214 231 252
214 231 252
214 231 253
212 230 250
213 231 250
212 230 249
212 230 249
212 230 249
213 230 249
213 231 250
213 231 253
213 230 249
214 232 254
215 232 254
214 231 250
215 232 254
214 231 250
215 232 252
214 231 252
214 231 248
215 231 249
215 231 248
215 232 249
218 233 254
216 232 249
215 231 246
215 231 245
216 232 248
219 234 255
218 233 250
219 234 252
218 234 250
219 234 249
221 235 253
220 234 249
221 235 252
220 234 249
221 235 250
222 235 248
218 232 237
179 196 208
81 113 170
80 111 168
91 120 170
81 113 166
74 107 167
86 116 175
72 105 170
95 123 180
86 115 167
95 122 164
88 117 159
68 102 162
74 107 160
68 102 156
66 100 162
64 99 153
71 104 155
67 99 145
70 103 149
69 103 149
77 108 148
72 104 139
73 105 141
104 130 110
132 156 94
104 131 127
69 103 155
60 96 155
61 97 156
61 97 161
61 97 164
61 96 150
61 97 160
61 96 157
62 98 157
60 95 153
61 98 168
60 96 161
61 97 164
60 96 151
61 96 161
61 97 162
60 96 154
60 96 157
60 96 159
61 97 163
60 96 157
61 97 162
61 97 156
60 96 157
61 97 164
61 96 157
61 98 163
62 98 163
62 98 164
61 97 165
61 97 160
61 97 163
62 98 166
61 97 163
61 97 162
60 96 158
61 97 153
61 97 161
60 96 162
62 98 167
62 98 163
62 98 164
62 98 162
63 99 166
61 97 164
62 98 164
61 98 160
61 97 164
61 97 161
61 98 161
62 98 162
62 98 168
61 97 158
62 98 165
62 98 161
62 98 164
61 96 158
61 98 165
61 97 168
61 98 162
62 98 163
62 98 160
62 98 161
61 97 156
61 97 157
62 98 164
61 98 159
62 98 165
61 97 158
62 98 163
61 97 162
61 97 159
62 99 167
62 98 163
63 99 166
61 97 163
61 97 158
62 98 164
62 98 164
62 98 165
62 97 158
61 97 160
63 99 165
62 98 162
62 98 160
62 98 163
61 97 156
62 98 156
62 98 164
62 98 161
61 97 160
62 98 164
62 98 162
63 99 165
62 98 160
62 97 159
63 99 163
63 98 160
61 97 158
62 98 161
61 97 155
62 98 164
63 99 166
61 97 161
61 97 156
61 97 150
62 98 160
61 97 156
61 97 160
62 98 158
62 98 159
62 98 164
62 98 158
62 97 156
61 97 155
61 97 152
63 99 169
62 98 159
61 97 148
60 96 150
63 98 158
62 98 158
61 97 151
62 98 164
62 97 159
61 97 157
62 97 154
63 98 159
62 97 154
61 97 157
62 97 157
61 96 144
60 95 147
61 97 156
61 96 153
60 95 148
61 97 154
61 97 153
61 97 150
61 96 153
62 98 154
61 96 147
61 97 155
60 95 143
62 97 154
61 95 142
60 95 145
61 95 148
61 96 152
61 96 149
60 94 141
61 95 145
60 95 139
60 95 148
60 93 135
59 93 137
59 93 133
60 93 140
59 92 134
69 86 99
78 75 19
89 85 18
75 73 18
96 90 11
91 88 14
85 82 11
84 81 14
80 78 8
87 84 0
92 89 0
94 90 0
107 102 18
81 79 8
89 87 11
98 96 8
93 92 3
79 77 8
92 89 8
96 94 0
95 92 14
98 95 8
89 86 14
98 96 0
97 96 24
97 95 14
111 107 11
109 106 20
108 106 8
102 100 24
106 104 16
105 104 11
113 111 11
118 114 0
109 107 25
113 111 21
108 105 21
114 111 16
115 111 30
109 105 16
123 118 26
123 119 26
113 110 21
121 117 30
120 115 22
124 118 30
122 119 22
108 106 19
128 125 19
123 120 21
121 116 35
121 116 30
134 129 29
129 125 37
133 129 36
136 131 31
126 122 35
128 124 30
125 119 30
131 127 32
124 121 32
129 123 28
127 123 32
131 128 30
128 123 36
125 121 22
131 127 32
131 126 22
130 125 36
137 133 37
128 123 22
137 132 28
122 117 25
130 126 32
127 122 28
133 128 32
129 124 36
128 124 25
131 124 16
129 124 37
138 132 39
136 131 39
134 130 36
127 121 25
126 121 30
129 124 36
128 123 30
123 117 25
119 115 22
118 112 22
132 126 32
127 120 36
128 122 30
124 120 30
114 108 22
114 108 22
122 117 19
110 106 34
119 113 30
130 129 19
161 174 11
154 165 0
158 170 0
151 163 0
159 172 0
158 170 0
161 174 0
156 172 0
164 176 0
160 173 0
167 183 0
161 178 0
163 179 0
163 178 0
161 172 0
159 172 0
156 170 0
162 178 0
161 176 0
166 184 0
164 182 0
162 177 0
169 187 0
160 176 0
165 183 0
164 181 0
160 177 0
163 182 0
162 181 0
168 188 0
164 182 0
165 183 0
170 188 0
160 180 0
166 184 0
165 183 0
169 188 0
176 200 57
179 202 88
202 218 181
222 235 246
221 235 249
222 235 250
221 235 252
223 236 254
219 234 249
219 234 249
219 234 250
219 234 250
217 232 248
217 233 249
217 233 252
218 234 254
215 231 246
217 233 254
216 232 250
216 233 253
215 231 250
214 231 249
216 232 254
214 231 250
214 231 252
214 231 252
213 230 249
214 231 253
212 230 248
214 231 254
212 230 249
213 230 250
212 230 249
213 231 254
213 231 255
211 229 248
212 230 252
213 231 254
212 230 250
212 230 252
211 229 249
212 230 252
212 230 253
211 230 250
213 231 253
210 228 245
211 230 249
211 229 248
212 230 252
212 230 250
211 229 246
213 231 253
212 230 248
214 231 254
212 230 249
213 230 249
215 232 255
215 232 254
215 232 254
214 231 250
215 232 252
215 231 250
216 232 252
215 232 250
215 232 249
217 233 253
217 233 252
217 233 250
217 233 250
218 234 252
219 234 252
219 234 252
220 234 250
221 235 253
220 234 249
221 235 250
221 235 252
221 235 251
130 152 195
75 108 172
82 113 179
76 108 169
81 112 175
71 104 170
85 115 165
83 113 166
81 112 171
75 108 168
74 106 169
87 116 168
70 104 167
64 99 162
76 108 155
64 98 150
63 99 160
70 103 146
69 102 149
66 101 155
69 101 141
69 102 152
65 99 148
68 101 143
67 100 134
95 123 112
126 151 106
85 115 140
61 97 156
62 97 159
59 95 149
61 97 157
60 95 157
59 95 153
60 96 158
61 97 157
61 97 162
61 97 157
61 98 171
60 96 156
61 97 162
62 98 166
60 95 155
61 98 172
60 96 154
62 98 168
62 98 166
61 97 166
61 97 161
61 97 161
61 97 160
62 98 164
62 98 164
61 97 162
62 98 163
61 97 163
61 97 163
61 98 166
61 97 165
61 98 166
61 97 166
60 96 156
60 95 160
61 97 159
62 98 161
62 98 168
61 97 164
61 97 156
62 98 164
61 97 161
62 99 172
60 96 160
62 98 164
60 97 159
62 98 164
62 98 157
62 97 158
62 98 166
60 96 161
62 98 165
62 99 169
62 97 165
61 98 161
61 97 160
62 98 163
62 98 164
62 98 161
61 98 160
62 98 166
62 98 162
62 98 165
63 98 156
62 98 163
62 98 164
63 98 160
61 97 156
62 98 165
62 98 165
62 98 162
61 97 156
62 98 159
62 98 159
62 98 161
61 97 154
62 98 159
61 97 159
61 97 160
61 97 154
61 97 161
62 98 162
62 98 162
62 98 158
62 98 157
62 98 158
61 97 156
62 98 159
62 98 162
62 98 164
62 97 160
62 98 162
61 97 159
63 99 165
62 98 167
62 98 165
62 98 164
61 97 157
62 98 162
61 97 154
61 97 154
61 97 157
62 98 162
61 98 162
61 97 157
60 96 153
61 97 155
62 98 156
62 98 157
61 97 158
61 97 154
62 98 160
61 97 153
62 98 157
63 99 164
61 97 157
62 98 161
62 97 154
61 98 160
62 98 159
61 96 153
61 97 153
61 97 152
61 97 153
60 95 144
62 97 155
62 98 156
63 99 164
62 97 156
61 96 147
61 96 151
62 98 161
61 97 152
62 97 150
61 97 151
60 95 148
61 96 153
61 97 154
60 95 145
61 97 155
61 97 151
62 97 151
60 95 139
60 95 140
62 97 156
62 96 151
61 96 145
61 96 150
60 95 147
59 93 135
59 93 138
59 94 140
59 94 143
60 95 145
60 94 141
58 91 125
58 91 128
67 82 108
84 78 16
100 96 16
80 75 14
94 88 11
85 81 21
81 79 8
96 92 14
81 77 14
92 87 11
85 83 0
92 88 14
88 83 8
90 86 3
95 92 12
92 89 14
98 95 0
95 91 12
94 91 11
107 103 8
96 92 14
88 87 8
96 94 8
101 99 12
99 97 12
96 94 9
98 96 11
109 106 8
104 103 8
109 108 18
100 98 8
110 107 18
106 105 24
99 98 16
113 110 31
116 112 31
112 108 22
115 111 19
126 120 22
115 112 21
118 115 14
116 113 19
110 106 14
112 109 28
119 116 22
120 117 18
120 118 24
124 121 21
132 128 29
111 109 11
123 119 21
130 125 28
136 132 36
120 117 18
133 127 32
135 132 25
137 132 35
133 127 32
129 123 30
121 118 22
131 125 37
128 123 28
132 128 28
129 125 28
126 122 36
130 124 32
128 122 32
122 117 22
127 122 28
129 124 30
136 130 34
136 132 19
126 123 30
127 121 36
124 119 25
132 127 36
130 124 34
135 129 30
128 124 25
122 118 32
133 128 28
127 121 22
124 117 25
119 113 32
129 124 22
124 119 34
128 122 30
118 114 22
130 122 34
123 120 19
125 121 22
117 110 32
119 113 30
115 109 30
114 108 25
113 107 22
110 105 25
109 105 28
124 129 11
150 162 0
159 169 0
159 173 0
158 173 0
159 172 0
162 174 0
154 165 0
166 182 0
156 166 0
160 173 0
162 176 0
164 178 0
162 177 0
160 175 0
165 183 0
161 175 0
165 183 0
165 181 0
163 177 0
166 183 0
160 179 0
163 179 0
164 178 0
159 176 0
165 178 0
161 178 0
165 182 0
162 179 0
166 184 0
167 185 0
164 181 0
167 185 0
165 184 0
166 185 0
169 187 0
166 183 0
168 187 0
167 184 0
205 221 193
222 235 246
222 236 252
221 234 250
222 236 252
218 233 246
220 234 252
219 234 250
219 234 249
219 234 254
217 233 249
218 233 253
216 232 250
216 232 250
215 231 248
214 231 249
214 231 246
215 232 252
215 232 252
214 231 252
214 231 250
212 230 248
214 231 253
213 230 250
213 230 250
213 231 254
211 229 249
212 230 250
212 230 253
212 230 252
211 230 252
211 229 252
212 230 254
212 230 253
212 230 255
212 230 254
212 231 255
212 230 253
212 230 255
212 230 255
212 230 255
212 230 255
212 230 255
212 230 255
212 231 255
212 230 255
212 230 255
212 230 254
212 231 255
213 231 255
212 230 255
213 231 255
213 231 254
212 230 254
211 229 249
212 230 249
211 229 252
213 231 253
213 231 252
214 231 253
214 231 250
213 231 250
212 230 246
215 232 252
215 232 252
215 231 249
215 231 249
213 230 242
217 233 252
216 232 252
216 232 249
218 233 249
219 234 250
217 232 245
219 234 250
217 232 250
220 234 254
217 231 250
200 215 240
75 108 179
74 107 176
77 109 179
71 105 173
76 108 170
73 106 167
80 111 174
77 109 173
80 111 177
75 107 172
73 106 174
69 102 157
68 101 158
66 101 162
72 105 151
65 100 158
73 106 153
67 102 162
64 100 160
63 98 156
64 99 151
69 103 156
69 103 150
63 98 156
64 98 147
67 100 139
101 128 111
101 128 122
63 97 148
61 96 158
60 95 161
61 97 150
60 96 157
61 97 160
61 97 161
61 97 165
60 95 152
62 98 162
62 98 157
61 97 160
61 96 156
61 97 158
61 97 165
61 97 154
61 98 163
61 96 151
61 97 168
61 96 156
60 96 159
61 97 165
62 98 165
61 97 159
62 98 166
62 98 158
62 98 161
61 97 159
60 96 153
61 97 157
61 96 161
62 98 166
61 96 157
60 96 164
61 97 160
61 97 161
61 97 166
62 98 160
61 98 164
61 97 161
62 98 166
62 98 164
62 98 163
62 98 166
61 97 161
62 98 162
61 98 164
61 97 160
61 97 161
61 97 166
61 97 161
61 97 161
63 99 164
63 99 167
61 97 157
61 96 154
61 98 161
62 98 159
62 99 167
61 98 164
62 98 167
61 97 163
62 98 161
62 99 169
62 98 164
61 97 159
61 97 156
62 98 166
60 96 157
62 98 164
62 99 168
62 98 168
62 98 161
62 99 164
62 98 170
62 98 161
62 98 164
62 98 159
62 98 159
62 98 160
62 98 162
62 98 163
62 98 160
62 98 163
62 98 160
61 97 154
62 98 160
61 97 162
62 98 157
62 99 164
62 98 159
62 98 162
62 98 157
61 98 162
62 98 160
61 97 158
62 97 158
62 98 162
62 98 161
62 98 164
62 98 161
62 98 160
63 99 163
62 97 155
62 98 156
61 97 158
61 97 155
62 98 162
62 98 158
61 97 159
62 98 159
61 97 149
62 98 164
62 98 157
61 96 148
62 98 156
61 96 155
62 98 155
62 98 153
62 98 157
61 97 156
61 97 152
62 98 160
61 97 152
63 99 160
62 98 159
61 96 143
61 96 145
61 97 151
63 98 157
62 98 159
61 96 145
61 97 153
61 96 147
62 97 148
60 95 145
60 95 147
62 98 159
62 97 157
61 96 151
61 96 153
60 95 145
61 95 146
61 96 148
61 96 148
61 96 149
60 94 143
59 93 135
61 96 144
61 95 143
59 92 139
61 96 144
60 94 134
59 93 137
59 92 133
57 89 123
112 121 65
112 115 0
78 75 11
82 77 0
76 71 11
84 81 12
91 88 0
90 86 0
96 90 19
76 72 11
89 84 3
85 83 0
102 99 0
90 88 8
101 95 8
89 86 8
93 90 12
89 87 0
87 86 18
96 91 11
96 92 11
87 87 14
97 95 12
113 108 0
92 91 8
99 96 12
112 107 18
102 101 8
107 105 11
101 99 18
104 99 11
113 110 18
112 109 16
116 112 19
108 105 8
105 102 19
113 109 24
118 115 26
106 103 18
120 116 25
119 114 25
112 108 16
112 108 14
125 122 19
119 116 11
128 123 22
123 119 22
121 117 19
119 116 24
113 109 23
122 118 22
123 120 26
123 119 24
120 117 25
125 120 28
135 129 34
119 115 25
121 117 26
123 119 28
119 114 11
115 111 25
126 122 22
124 120 30
131 126 25
125 121 16
125 119 22
134 130 36
132 126 39
129 124 28
125 119 30
130 124 28
124 119 22
122 118 19
134 129 30
133 126 25
123 119 19
121 117 22
120 114 11
119 114 22
126 120 30
127 122 25
129 125 19
119 114 22
124 118 34
124 118 32
124 120 30
119 112 28
121 116 25
120 116 25
118 111 22
122 115 30
121 115 28
109 104 28
108 105 0
115 110 30
108 104 22
132 130 25
149 157 0
153 161 0
152 163 0
159 171 0
161 171 0
156 169 0
160 172 0
158 168 0
162 177 0
164 175 0
160 174 0
161 177 0
162 176 0
163 178 0
164 178 0
157 170 0
154 167 0
162 177 0
167 183 0
164 179 0
165 180 0
167 185 0
165 179 0
161 176 0
164 181 0
164 179 0
160 176 0
167 185 0
164 182 0
164 180 0
169 185 0
164 181 0
164 183 0
166 185 0
163 182 0
166 183 0
162 178 0
164 181 0
169 187 0
164 181 0
222 235 249
222 236 252
222 236 253
221 235 252
220 234 252
219 234 252
218 233 249
219 234 253
218 233 252
216 232 248
216 233 253
215 232 250
215 232 249
216 232 254
214 231 249
215 232 253
215 232 254
215 232 254
214 232 254
213 230 250
212 230 252
213 231 254
211 229 248
211 230 250
211 229 249
212 230 254
212 231 254
212 231 255
212 230 255
212 230 255
212 230 255
212 231 255
211 230 255
211 230 255
212 230 255
211 230 255
210 230 255
210 230 255
211 230 255
211 230 255
211 230 255
210 229 255
211 230 255
211 230 255
211 230 255
211 230 255
211 230 255
210 229 254
211 230 254
212 230 255
211 230 255
212 230 255
212 230 255
212 230 255
212 231 255
212 230 254
213 231 255
211 229 250
213 231 254
212 230 252
212 230 252
213 230 252
213 230 250
213 230 249
211 228 241
214 231 250
212 230 245
216 232 253
215 232 252
214 231 248
217 233 255
216 232 250
216 232 250
216 232 246
218 233 253
216 231 252
213 228 250
219 233 254
220 235 254
154 173 213
79 111 180
65 101 176
69 103 176
77 109 179
74 107 170
71 105 169
81 112 176
74 106 170
74 106 171
77 108 168
77 109 168
68 102 163
79 110 169
64 100 167
65 100 161
61 96 160
63 98 151
65 100 161
67 100 155
62 97 147
68 102 161
67 100 147
67 100 147
68 102 152
70 102 143
67 101 145
86 115 127
108 134 125
90 119 136
59 95 151
61 97 156
59 94 153
60 96 157
62 98 158
59 95 148
61 97 163
61 97 159
60 96 158
60 95 154
61 97 157
61 97 159
61 97 161
62 98 162
61 98 167
61 98 165
61 97 160
61 97 160
61 97 159
61 97 164
60 95 151
61 97 159
61 98 166
62 98 164
61 96 163
61 97 159
60 95 151
61 97 164
61 98 161
60 96 156
61 97 165
62 98 168
60 96 153
61 97 166
61 97 160
62 98 170
61 97 167
61 97 159
60 96 156
61 97 158
61 98 164
62 98 163
62 98 163
61 97 157
61 97 163
61 96 160
61 97 159
60 96 154
61 97 163
60 97 163
62 98 165
62 97 162
60 96 157
61 97 160
62 97 160
61 97 161
62 98 164
61 97 161
61 97 164
62 98 157
62 98 160
62 98 162
61 97 164
61 97 158
62 98 162
62 98 159
62 98 166
62 98 163
62 98 162
61 97 158
61 97 157
62 98 161
62 98 165
61 97 153
62 99 170
62 98 158
62 98 156
62 98 164
63 99 166
62 98 155
62 98 162
62 98 166
62 98 160
62 98 158
62 98 164
62 98 164
61 98 160
62 97 158
61 97 154
62 98 162
61 96 147
62 98 158
61 97 159
63 99 164
62 98 162
62 98 158
61 97 151
62 98 159
61 97 150
61 97 160
62 98 162
62 98 165
62 98 158
62 98 157
62 98 165
62 97 151
62 98 157
61 97 152
62 98 165
62 98 163
62 98 158
62 98 160
61 97 153
62 98 161
62 97 157
61 97 150
61 97 155
63 99 165
62 97 157
60 96 144
61 96 151
61 97 151
61 97 153
62 97 150
61 97 154
61 96 151
62 97 154
61 97 154
61 96 152
62 98 157
61 96 152
60 95 136
61 97 151
59 94 139
62 97 157
61 96 145
60 95 140
62 97 153
61 96 145
61 97 155
61 95 149
61 95 142
59 94 140
61 96 145
61 95 147
60 94 138
61 96 148
60 95 139
61 95 144
59 93 139
59 92 127
60 95 142
56 88 123
58 91 126
118 123 48
118 122 0
116 117 0
93 89 19
91 87 11
86 82 11
90 86 8
89 84 16
79 75 11
90 86 8
80 78 8
92 88 11
96 93 8
92 90 8
93 90 9
93 88 0
94 91 0
91 89 8
99 95 0
84 83 16
87 83 8
94 90 11
106 101 11
98 93 0
94 91 0
102 98 11
103 101 12
94 92 14
101 98 11
111 107 0
101 99 12
100 99 11
105 101 11
120 116 18
126 121 16
104 102 14
107 103 11
103 100 14
124 120 19
116 112 16
120 115 30
107 104 0
113 109 19
117 113 19
110 107 24
120 116 28
121 117 19
118 113 28
125 120 19
116 112 25
120 116 19
126 121 25
125 121 22
124 118 16
124 121 22
126 122 25
128 123 35
122 117 25
128 123 11
124 120 25
118 114 22
126 121 25
118 114 19
127 123 18
126 123 22
122 118 0
132 127 19
125 121 19
138 133 28
128 124 25
113 108 30
121 117 11
125 121 22
128 123 30
128 122 28
125 120 19
129 124 25
119 113 30
123 120 22
123 119 22
130 124 25
124 120 19
131 125 28
124 119 22
128 121 25
117 112 22
115 109 11
124 119 32
112 107 16
119 114 22
118 112 16
114 109 30
108 104 28
100 94 22
112 105 16
131 133 16
160 171 0
154 164 0
162 174 0
152 160 0
155 166 0
158 169 0
153 163 0
156 169 0
157 170 0
160 170 0
162 176 0
162 176 0
157 170 0
160 171 0
164 179 0
156 172 0
157 169 0
162 176 0
164 180 0
166 183 0
163 180 0
157 173 0
162 176 0
168 186 0
164 181 0
165 181 0
163 179 0
165 180 0
166 183 0
166 183 0
165 183 0
163 178 0
163 179 0
167 187 0
164 182 0
163 180 0
166 183 0
166 183 0
164 182 0
163 180 0
166 184 0
222 236 253
220 234 250
220 234 250
219 234 252
219 234 252
217 233 250
217 233 250
219 234 255
216 233 252
215 231 248
215 232 252
215 232 254
215 232 254
213 231 250
214 231 253
213 231 252
214 231 254
213 230 252
212 230 250
210 229 246
212 230 254
211 230 253
212 230 255
212 230 255
212 230 255
212 230 255
210 229 255
211 230 255
210 229 255
211 230 255
210 229 255
210 229 255
210 229 255
210 229 254
210 229 255
209 229 255
209 229 255
208 228 254
209 229 255
209 229 255
209 229 255
210 229 255
209 229 254
210 229 255
209 229 255
210 229 255
210 229 255
210 229 255
210 229 255
210 229 255
211 230 255
210 229 255
211 230 255
210 229 255
211 230 255
211 230 255
210 230 255
212 230 255
212 230 255
212 230 255
213 231 255
213 231 254
212 230 253
213 231 254
211 229 248
212 230 252
214 231 253
213 230 249
214 231 249
214 231 249
214 231 252
215 231 248
216 232 250
216 232 250
217 233 254
215 230 252
214 229 252
218 233 254
215 230 252
215 229 251
115 139 194
76 109 176
68 102 173
76 109 179
78 110 176
71 104 175
68 102 166
71 104 171
82 112 172
83 113 179
73 106 171
74 106 170
74 106 167
65 100 168
62 98 166
62 98 164
61 97 165
65 100 159
63 98 164
65 100 156
66 101 163
73 106 152
69 103 151
70 103 156
63 98 153
69 101 144
68 101 150
65 99 147
87 116 129
105 132 127
63 98 157
60 95 155
60 96 154
61 97 155
61 96 154
61 97 157
61 97 160
60 95 153
60 96 154
61 97 160
63 99 165
60 95 149
62 98 166
61 97 157
61 97 158
61 97 165
61 97 161
62 98 159
61 97 162
60 96 160
61 97 163
61 97 157
62 98 165
61 97 162
61 97 159
61 98 168
61 97 161
61 97 162
61 97 160
62 98 163
61 97 159
62 98 162
62 98 163
62 98 164
62 98 165
60 97 159
61 97 163
61 98 162
61 97 164
59 95 149
61 96 156
62 98 161
63 99 168
61 97 156
62 98 156
61 97 158
62 98 165
61 97 160
60 96 158
61 97 152
61 97 161
61 97 157
61 97 157
62 98 159
62 98 160
61 97 159
61 96 155
62 98 156
61 97 151
62 98 161
62 97 158
62 98 163
62 98 159
63 99 162
62 98 160
62 98 167
62 98 161
62 98 165
62 98 161
63 99 160
63 99 166
62 98 160
62 98 161
62 98 163
62 98 156
62 98 158
62 98 166
62 98 165
61 97 157
61 97 155
62 98 158
62 98 163
62 98 160
61 97 152
62 99 168
61 98 158
62 97 153
62 98 157
61 97 154
62 98 160
61 97 149
63 99 167
61 97 155
62 98 159
61 97 158
62 97 157
62 98 160
62 98 157
61 97 157
61 97 154
61 97 150
61 97 154
61 97 156
62 98 157
62 98 159
62 98 156
62 97 153
61 96 150
62 98 162
62 98 159
62 97 154
62 97 155
62 97 152
62 97 153
61 96 145
62 98 155
61 97 154
60 96 148
60 96 149
61 97 155
61 97 154
62 98 156
62 97 154
62 97 155
62 97 158
62 98 159
61 96 148
62 98 157
61 96 144
61 97 148
62 97 149
62 98 153
62 97 150
61 97 150
61 97 151
60 96 150
61 97 152
62 96 147
60 95 141
62 97 152
61 96 150
60 95 145
61 95 145
61 96 145
59 94 140
59 93 133
60 95 146
60 95 138
61 95 142
59 92 126
58 92 131
59 92 137
59 90 122
123 128 0
113 115 0
111 116 0
115 115 0
98 95 0
86 80 11
86 82 16
76 72 0
89 83 16
79 75 0
90 87 11
91 86 16
81 78 11
79 75 8
94 90 12
96 93 0
97 93 0
79 78 0
90 85 0
87 85 8
86 84 0
89 88 0
86 83 0
97 95 11
96 92 12
105 102 11
97 95 8
101 99 8
101 97 0
105 101 8
108 105 21
107 104 12
109 106 11
98 95 14
103 100 11
115 111 14
107 104 16
120 117 14
110 106 14
108 106 14
109 106 14
108 105 14
109 107 0
112 108 19
121 116 19
105 102 22
119 115 24
118 115 16
116 110 22
117 112 19
124 121 11
121 116 11
124 120 11
115 111 19
116 113 22
127 124 16
125 120 11
119 114 26
122 118 19
117 113 11
125 120 16
114 110 16
125 120 22
119 116 16
117 113 16
130 125 19
122 117 19
118 114 11
121 114 25
127 124 19
120 115 16
119 115 22
124 119 30
119 116 19
111 108 16
117 111 22
131 126 34
124 121 25
117 111 25
128 122 30
127 119 30
122 117 22
115 111 16
130 125 22
123 118 30
115 110 16
121 118 19
121 114 22
118 112 22
121 116 30
116 110 28
116 112 19
118 110 28
110 108 0
139 146 11
151 161 0
156 165 0
154 163 0
156 166 0
154 164 0
152 164 0
152 161 0
160 174 0
158 170 0
155 166 0
160 173 0
163 177 0
158 173 0
159 172 0
158 170 0
161 175 0
158 171 0
159 174 0
159 174 0
158 171 0
157 171 0
169 185 0
165 179 0
153 168 0
161 177 0
168 183 0
157 172 0
158 172 0
159 173 0
169 185 0
161 178 0
166 181 0
163 180 0
167 186 0
163 179 0
162 179 0
165 182 0
166 184 0
167 185 0
165 183 0
164 183 0
164 183 0
220 234 250
219 234 250
217 232 245
217 233 252
218 233 253
217 233 253
217 233 253
216 233 254
215 232 252
214 231 252
213 231 249
213 231 250
214 231 253
212 230 250
213 231 253
211 229 248
213 231 254
212 230 254
213 231 255
212 230 255
211 230 254
211 230 255
211 230 255
211 230 255
210 229 254
209 229 255
209 229 255
209 229 255
209 229 255
209 229 255
209 229 255
209 229 255
209 229 255
208 228 252
205 224 245
208 228 249
208 227 244
203 222 230
202 223 224
205 224 230
201 221 221
206 225 233
204 223 224
203 222 221
203 221 227
204 223 223
203 222 224
203 223 224
202 221 220
204 223 236
202 221 226
205 224 234
207 226 241
208 228 248
210 229 254
210 229 255
210 229 255
211 230 255
211 230 255
211 230 255
210 229 254
211 230 255
212 230 254
212 230 255
213 231 254
213 231 255
212 230 252
213 230 252
213 230 252
214 231 253
213 231 250
214 231 253
214 231 249
216 233 255
214 230 253
214 230 251
213 229 250
211 227 250
219 234 254
216 232 254
202 218 244
92 121 183
82 113 182
65 101 175
65 101 177
78 110 173
73 106 174
85 115 181
72 106 166
77 109 175
74 107 173
68 102 164
80 111 174
71 103 162
65 100 161
63 99 164
60 96 159
61 97 159
61 98 172
69 102 160
68 102 156
70 104 159
72 105 150
65 100 154
69 102 155
70 103 149
60 96 155
72 105 150
72 104 140
69 101 137
99 127 120
75 107 145
60 95 155
61 96 161
58 93 150
60 95 158
60 95 153
60 96 159
61 98 164
61 97 163
61 96 158
61 97 160
61 97 165
61 96 159
60 95 153
60 96 160
60 96 155
61 97 160
60 97 163
61 96 160
60 96 155
61 98 164
61 97 161
61 97 163
61 97 151
61 97 155
61 97 165
61 97 155
62 98 166
61 96 155
62 98 158
62 98 163
63 99 167
61 98 164
62 98 167
61 97 160
61 96 156
61 97 163
60 96 155
61 97 163
60 96 161
61 98 165
62 98 164
62 98 167
62 97 162
61 98 162
62 97 161
60 96 158
61 97 162
62 98 165
62 98 162
61 97 161
62 98 166
62 98 162
61 98 161
61 98 167
62 98 162
62 98 167
62 98 160
61 97 154
62 98 160
61 97 156
61 97 159
61 97 159
62 97 155
61 97 156
61 98 166
62 98 162
61 97 154
62 98 160
62 98 160
62 98 162
62 98 164
61 97 156
62 98 160
61 97 155
62 98 161
62 98 161
62 98 164
62 99 163
62 98 157
61 97 156
61 97 159
61 97 151
61 96 149
63 99 161
62 98 160
62 98 160
61 97 157
61 98 163
61 97 156
62 98 156
62 97 155
61 96 148
61 97 155
62 98 156
62 98 160
62 98 157
62 98 163
61 96 148
61 96 154
62 98 159
60 96 153
62 98 155
61 97 154
61 97 160
61 98 162
61 97 160
63 98 157
63 99 164
62 98 157
61 97 153
62 98 160
61 97 151
62 98 163
62 98 156
62 98 155
62 97 154
62 97 153
62 97 157
61 97 153
63 98 156
62 98 162
62 98 155
61 96 147
61 96 151
60 95 152
62 98 154
63 98 154
63 98 156
61 96 148
61 96 143
60 95 146
61 96 153
62 97 155
62 98 157
61 96 149
60 95 133
62 97 152
61 96 150
60 95 147
60 95 142
59 92 132
60 95 149
60 94 138
60 95 147
61 95 140
60 94 136
60 94 142
59 92 137
60 94 139
59 92 135
71 95 109
117 121 0
117 121 0
116 121 0
116 119 0
119 125 0
106 107 0
94 92 22
82 78 14
90 83 16
95 92 11
77 74 11
85 82 0
83 78 11
92 86 8
90 87 0
93 89 0
83 79 0
97 92 0
92 89 8
96 92 0
89 85 11
88 85 3
89 86 0
96 93 8
99 97 0
99 95 0
112 110 8
95 90 8
98 96 0
101 99 8
98 97 8
99 97 8
109 104 8
105 102 14
107 105 14
106 103 14
114 110 12
119 115 11
98 96 11
108 105 11
115 110 16
110 106 14
116 110 11
111 108 0
115 110 16
118 114 18
108 104 16
115 112 21
120 117 11
131 127 14
110 105 16
123 117 21
121 117 0
114 110 0
121 116 19
114 111 0
124 120 22
123 119 16
124 122 16
119 116 16
121 116 11
112 109 19
116 111 19
121 117 22
119 115 0
118 114 19
120 114 22
131 126 19
116 111 16
125 121 25
118 113 19
124 119 11
118 113 19
119 113 30
121 115 25
120 114 19
122 118 16
128 123 30
120 114 25
119 116 16
117 112 19
121 115 30
123 118 22
122 116 28
118 113 16
120 116 22
110 104 25
118 113 16
109 105 11
112 107 19
117 111 28
100 95 22
127 131 11
155 165 0
160 171 0
149 159 0
154 164 0
158 167 0
155 165 0
163 175 0
156 170 0
152 164 0
156 166 0
145 154 0
154 166 0
158 171 0
161 174 0
156 170 0
155 166 0
162 177 0
165 179 0
162 177 0
160 173 0
156 168 0
161 174 0
164 178 0
158 174 0
166 181 0
161 177 0
162 176 0
165 179 0
162 179 0
159 175 0
164 183 0
166 181 0
167 185 0
163 180 0
165 182 0
165 183 0
166 186 0
166 183 0
168 188 0
166 185 0
167 185 0
166 182 0
165 184 0
164 183 0
216 232 244
217 233 249
217 233 250
217 233 252
215 231 248
216 232 253
214 231 249
214 231 252
213 231 252
213 230 249
213 230 250
211 229 248
211 229 248
211 229 249
211 230 253
211 230 254
212 230 255
211 230 255
210 229 255
210 229 255
210 229 255
210 229 255
209 229 255
209 229 255
209 229 255
209 228 255
208 228 253
209 228 250
205 224 237
204 222 223
201 220 220
200 219 211
202 220 206
201 219 201
198 218 199
196 215 194
196 215 186
198 217 196
204 222 211
200 219 204
194 213 181
201 220 204
200 218 199
198 217 194
197 215 188
197 216 186
198 217 188
200 218 201
195 214 188
200 219 198
194 213 175
197 216 189
197 215 186
198 217 194
198 216 188
202 221 209
198 217 212
200 219 215
204 224 233
207 226 240
206 226 244
211 230 255
211 230 255
211 230 255
212 230 255
212 230 254
212 231 255
213 231 255
213 231 255
211 229 248
213 231 254
213 231 252
214 231 252
214 231 254
213 230 254
212 228 251
215 231 254
213 229 252
214 230 252
214 229 251
219 234 255
187 204 234
76 109 179
76 109 177
71 105 179
74 107 175
79 111 180
81 112 178
68 103 176
78 110 173
85 115 180
81 112 174
65 100 166
69 103 171
68 102 169
72 105 170
62 98 164
62 98 167
64 100 167
61 98 164
66 100 163
64 99 161
64 99 157
71 104 158
65 100 159
68 102 155
66 101 155
68 101 158
64 97 143
67 100 143
67 100 142
91 118 117
81 111 146
61 97 157
59 94 150
60 96 159
61 96 159
60 95 149
59 95 160
60 96 154
61 97 164
61 97 163
61 97 157
60 96 150
60 96 157
62 97 159
61 97 154
60 97 160
60 96 156
61 97 160
61 97 156
61 97 164
61 97 165
61 97 162
62 98 165
62 98 162
61 97 159
61 97 157
62 98 165
61 97 163
61 96 158
61 97 164
62 98 162
62 98 165
62 98 161
61 97 157
61 98 165
62 98 160
61 96 157
62 98 160
62 98 162
61 98 164
62 98 161
62 98 160
61 97 159
61 97 161
61 97 159
61 97 156
61 97 155
61 97 163
61 98 168
61 97 162
61 97 154
61 97 158
62 98 158
62 98 164
61 97 163
62 98 159
61 97 155
62 98 164
61 96 151
61 97 154
62 98 160
61 97 157
62 98 157
62 98 163
61 97 149
61 97 160
61 97 156
62 98 161
62 98 164
62 99 166
61 96 157
61 97 159
62 98 160
62 98 159
62 97 158
62 98 163
62 98 162
63 99 168
62 98 162
62 98 163
61 97 154
62 97 154
61 97 154
61 97 158
61 97 156
61 98 160
62 98 156
61 96 151
61 96 151
61 96 152
61 97 156
62 98 164
62 98 157
62 98 155
61 97 155
61 97 155
61 96 154
61 98 158
62 97 156
63 98 159
61 97 155
62 98 163
61 97 151
62 98 156
62 98 163
62 98 161
62 97 157
62 98 159
61 97 160
62 98 163
62 98 160
61 97 157
61 97 153
61 97 153
62 98 156
61 97 155
61 97 150
62 98 159
62 97 151
62 98 155
60 95 141
61 97 154
60 95 142
62 97 150
61 96 145
62 98 156
62 97 149
62 97 152
60 95 148
60 95 142
61 96 142
61 96 148
61 96 144
60 95 139
61 97 148
61 96 151
61 97 152
61 96 149
61 96 147
61 96 148
60 95 148
61 97 149
60 94 140
59 93 136
58 92 124
59 93 133
61 95 143
60 93 134
59 92 118
58 91 126
76 92 89
109 111 0
109 112 0
118 122 0
114 119 0
114 117 0
104 106 0
119 121 0
79 76 0
81 75 0
79 75 0
77 72 11
99 95 0
94 91 8
87 84 16
90 84 0
80 76 14
83 81 0
91 88 0
95 91 0
95 90 0
89 84 0
79 75 0
97 94 0
88 84 0
95 92 11
91 87 0
92 89 0
110 104 0
99 96 0
108 105 11
100 95 0
104 99 8
93 91 0
101 99 0
106 102 0
104 102 3
113 109 16
112 107 16
109 105 11
108 104 16
101 98 8
113 110 11
105 100 8
115 112 11
115 111 8
124 118 16
116 111 0
111 108 11
116 112 16
122 116 0
114 109 19
119 114 16
107 103 25
117 112 16
121 117 19
125 120 22
120 113 16
116 113 11
123 117 16
116 112 16
121 116 16
120 116 16
113 108 19
126 123 16
115 112 11
121 116 19
115 111 16
120 116 16
128 123 22
129 123 25
118 114 0
118 112 11
124 119 19
118 113 22
123 116 30
120 115 28
117 111 19
113 107 22
124 119 16
111 106 19
124 117 19
121 117 19
119 113 11
111 106 28
104 99 16
114 107 22
114 108 11
112 106 19
113 107 28
111 103 11
120 119 16
142 147 0
152 162 0
155 165 0
154 162 0
152 160 0
157 167 0
151 161 0
153 163 0
155 167 0
157 169 0
158 169 0
157 168 0
158 170 0
148 156 0
161 174 0
161 173 0
158 173 0
160 173 0
162 176 0
161 173 0
155 166 0
158 172 0
160 177 0
160 175 0
162 176 0
163 178 0
161 176 0
158 172 0
163 178 0
168 185 0
161 178 0
161 178 0
159 175 0
161 175 0
169 187 0
161 177 0
166 181 0
162 179 0
171 188 0
167 185 0
169 187 0
162 180 0
164 181 0
163 180 0
164 181 0
169 187 0
217 233 253
216 232 252
214 231 246
214 231 249
215 232 252
214 231 253
213 231 250
213 231 252
213 231 253
212 230 253
213 231 254
212 231 255
213 231 255
212 231 255
211 230 255
211 230 255
210 230 255
210 230 255
209 229 255
209 229 255
209 229 255
209 229 255
206 226 241
206 226 244
200 220 214
204 222 221
201 220 199
196 215 189
195 214 193
199 219 204
197 216 194
199 217 203
203 221 215
199 217 199
202 220 209
199 217 196
204 221 211
204 221 211
206 223 214
206 223 218
203 221 204
207 224 227
206 223 215
197 215 194
203 220 199
206 223 217
207 224 217
197 215 198
199 217 198
202 220 206
205 222 209
205 222 212
203 220 207
203 221 201
197 216 191
200 217 193
195 214 181
198 217 186
200 218 191
197 216 188
194 213 186
201 219 211
201 219 218
204 223 226
208 227 242
208 227 241
211 230 255
212 230 255
212 231 255
212 230 255
213 231 255
213 231 254
214 231 255
212 230 252
210 227 252
211 228 253
213 229 254
213 230 254
214 230 252
212 228 250
210 227 250
215 230 253
166 185 222
79 112 185
68 103 175
77 109 173
76 109 178
82 113 181
74 107 176
68 103 173
79 111 182
77 109 175
74 107 174
77 109 177
71 105 172
74 106 170
67 101 159
63 99 162
63 99 161
61 98 165
61 97 161
62 97 161
64 99 166
72 105 157
66 100 157
67 100 154
67 100 153
66 100 150
65 100 157
68 101 147
71 104 148
69 102 143
87 116 129
97 125 133
61 97 161
59 94 155
61 97 158
61 97 158
60 95 151
61 96 158
60 95 153
61 97 159
61 96 153
60 97 162
61 97 160
62 98 163
60 96 152
61 97 167
60 96 154
59 94 144
59 94 153
61 97 160
62 98 163
61 97 159
60 97 160
60 96 155
59 94 150
61 97 156
61 97 159
61 97 162
60 96 160
62 98 163
61 97 156
61 97 162
61 97 158
62 98 165
61 97 159
60 96 155
61 97 156
61 97 163
61 97 157
62 98 159
61 97 157
61 97 159
61 97 163
62 98 163
62 98 162
60 95 157
63 99 168
61 97 158
62 98 163
62 97 156
61 97 157
61 97 158
61 97 160
61 96 154
62 98 160
61 97 162
62 98 164
62 98 167
61 97 153
61 97 158
61 97 158
62 98 161
61 97 151
61 97 149
61 97 154
61 97 161
62 98 164
62 98 157
61 97 156
62 97 156
61 97 154
62 98 158
61 97 152
62 98 159
62 98 156
61 97 154
62 98 160
62 98 157
61 97 152
62 98 161
61 97 159
62 98 156
62 98 162
62 97 154
62 98 162
62 97 154
61 97 157
61 97 155
61 97 157
62 97 160
62 99 165
61 97 160
63 99 161
62 98 159
61 96 150
62 98 158
62 98 156
62 97 155
62 98 159
61 97 149
61 96 152
60 95 141
62 98 161
61 97 152
62 97 159
61 97 155
61 97 155
61 96 152
62 98 156
61 96 148
61 97 151
62 97 159
61 96 148
61 97 150
62 97 152
60 95 140
61 97 155
61 96 145
61 97 156
62 97 153
61 96 143
60 96 151
61 96 148
61 97 151
61 97 161
60 96 154
61 97 152
61 97 153
61 97 156
60 96 147
61 96 148
60 95 145
61 96 146
61 96 150
60 95 142
61 96 145
61 96 151
60 95 142
60 95 138
61 96 144
61 96 153
61 96 148
59 93 138
61 95 147
60 94 149
60 94 141
59 93 135
58 91 127
57 89 123
58 91 116
103 114 68
123 127 0
111 116 0
117 120 0
114 118 0
117 120 0
115 119 0
102 104 0
113 115 0
107 110 0
92 91 11
79 72 11
87 81 11
86 79 0
83 77 11
82 77 0
88 82 0
90 87 0
89 85 0
99 94 0
87 84 0
91 86 3
90 85 0
99 95 0
90 84 0
97 93 3
101 95 0
88 85 0
93 89 0
107 103 0
111 107 0
106 103 0
95 93 0
106 104 0
105 102 0
108 103 0
97 94 0
100 98 0
107 103 16
106 103 0
115 111 11
102 98 8
110 107 11
107 105 0
119 114 0
111 107 16
106 102 0
105 103 11
117 112 14
113 109 19
111 106 0
108 104 0
116 112 11
113 110 0
116 112 0
121 117 11
128 122 16
115 112 0
116 111 19
124 119 28
122 117 11
122 116 22
119 114 11
116 113 11
121 116 28
119 114 19
120 115 28
115 110 16
115 111 0
119 114 11
119 114 22
121 115 11
110 106 16
120 116 19
114 109 16
114 109 16
109 104 11
123 118 16
131 126 28
113 108 11
121 116 25
117 112 25
117 111 32
108 102 16
108 103 16
118 113 22
104 98 25
104 98 22
106 102 22
109 106 16
139 142 19
148 158 0
155 164 0
151 158 0
152 159 0
147 154 0
151 163 0
155 168 0
152 161 0
158 168 0
155 165 0
158 172 0
153 167 0
154 165 0
158 172 0
162 174 0
156 167 0
160 172 0
162 175 0
160 173 0
164 178 0
161 174 0
162 176 0
158 172 0
162 177 0
164 179 0
162 176 0
159 174 0
161 176 0
166 183 0
162 179 0
164 181 0
168 187 0
168 185 0
165 182 0
160 176 0
161 176 0
164 182 0
162 179 0
170 189 0
164 180 0
167 184 0
163 182 0
163 182 0
164 181 0
167 187 0
169 188 0
171 191 0
216 232 250
215 232 252
214 231 252
213 231 249
211 229 242
212 230 250
210 228 242
212 230 252
213 231 254
212 230 255
211 230 255
211 230 255
211 230 255
210 229 254
210 229 255
209 229 255
209 229 255
209 229 255
205 225 248
203 223 233
203 222 221
202 220 207
200 218 198
199 218 201
202 220 204
196 215 189
199 218 189
205 223 218
207 224 221
206 224 218
201 218 199
204 221 209
206 223 218
210 226 224
208 224 228
210 226 218
211 227 231
208 225 218
209 225 220
206 222 214
212 227 231
208 225 221
207 223 218
208 224 217
213 229 228
211 226 228
212 227 228
210 226 221
210 225 221
210 225 227
207 223 224
206 223 217
202 219 203
208 223 217
204 222 206
209 225 218
208 224 217
204 221 212
210 227 226
202 219 207
202 219 198
203 220 207
197 216 194
196 215 181
200 219 198
199 218 194
198 216 201
207 225 231
203 222 224
210 229 252
212 230 255
212 230 254
213 231 255
213 231 255
209 226 252
210 228 252
212 229 253
213 230 254
213 230 253
212 229 253
209 225 249
212 228 250
214 230 252
130 152 203
68 103 178
76 109 175
73 107 181
81 113 181
68 102 173
74 107 179
69 104 176
80 112 180
72 105 170
82 113 173
73 106 175
71 104 169
65 100 164
65 100 170
62 98 169
61 97 159
62 98 164
62 98 162
62 98 166
62 98 162
60 96 155
72 105 157
66 101 158
69 103 155
63 97 155
66 100 155
63 96 148
60 95 150
67 100 149
70 103 140
85 114 134
62 96 150
61 97 164
60 96 155
60 96 159
60 96 158
61 97 161
61 96 155
60 96 156
61 97 153
61 97 155
61 96 151
61 97 155
61 97 163
62 98 161
61 96 155
60 95 147
60 96 155
61 97 154
61 97 163
60 95 156
62 97 159
61 97 158
62 98 165
61 97 165
62 98 165
59 95 150
62 97 163
61 97 154
61 97 165
60 96 153
62 97 158
62 98 163
61 97 154
60 96 151
60 96 152
61 97 159
62 98 161
61 97 165
61 97 159
60 95 152
60 96 153
60 96 147
62 98 163
62 98 166
62 97 160
61 97 153
61 98 162
61 97 160
61 97 155
61 97 153
62 98 161
62 98 161
62 98 159
61 96 155
61 97 158
62 98 161
61 97 161
62 97 159
61 97 158
62 97 158
61 97 154
62 98 161
61 97 157
61 97 153
61 97 157
61 96 157
61 97 155
62 98 162
62 98 160
61 97 158
62 98 162
62 98 159
61 97 158
61 97 154
62 98 157
62 98 162
60 96 156
62 98 157
61 96 152
62 98 160
61 97 152
60 95 149
62 97 154
62 98 161
63 99 161
61 97 156
60 96 155
62 98 158
62 97 153
61 98 159
61 97 153
61 97 156
62 98 158
61 98 158
62 98 158
62 98 159
61 97 152
61 97 158
61 97 151
61 97 150
62 98 156
61 97 159
62 98 165
61 97 153
61 97 154
62 98 160
61 96 148
62 98 157
62 98 155
61 96 150
62 97 156
61 97 154
61 97 145
61 97 154
61 96 145
60 96 150
61 97 154
61 97 150
62 98 156
60 96 143
60 96 147
62 98 157
62 98 154
61 97 147
61 97 151
60 95 147
62 98 149
61 96 147
62 97 153
61 96 148
61 96 143
61 96 152
61 96 145
61 95 143
60 95 144
62 97 152
60 95 133
60 95 140
60 94 141
60 95 141
61 95 141
60 94 143
59 93 134
59 92 131
61 95 146
59 93 132
58 91 119
108 117 57
113 121 0
112 115 0
109 114 0
103 107 0
110 112 0
123 127 0
111 114 0
104 105 0
106 108 0
104 104 0
96 94 0
97 90 11
68 65 11
82 76 11
74 70 0
95 90 11
82 75 11
94 90 11
77 73 0
92 86 11
93 87 0
100 97 0
82 80 0
96 89 0
95 90 8
97 92 0
86 80 0
95 90 0
84 81 0
93 88 0
104 98 0
119 114 0
105 100 0
101 98 0
103 100 0
110 105 0
111 105 0
108 103 0
112 107 0
108 103 11
103 99 0
111 106 0
112 107 0
111 108 0
107 99 16
111 108 0
110 107 0
114 111 8
114 111 0
113 108 16
121 115 19
123 118 0
114 109 16
116 110 19
109 105 11
120 114 16
117 112 11
111 106 0
115 110 0
124 118 22
117 114 0
117 111 11
125 119 19
117 113 16
115 111 16
117 113 19
105 101 11
118 113 19
111 104 11
115 111 19
118 112 25
115 110 0
112 106 11
106 102 11
119 113 30
114 109 16
109 103 22
125 116 22
121 115 16
121 116 11
117 111 22
111 106 11
114 106 22
112 106 16
109 102 16
113 107 16
116 114 19
130 129 16
151 157 0
150 160 0
141 146 0
149 160 0
158 168 0
152 163 0
156 168 0
152 162 0
158 170 0
154 165 0
152 163 0
155 166 0
149 157 0
150 162 0
161 174 0
156 168 0
153 162 0
153 164 0
161 174 0
163 175 0
159 171 0
162 176 0
155 169 0
153 166 0
160 175 0
167 181 0
158 173 0
160 176 0
162 176 0
166 181 0
166 182 0
161 175 0
167 185 0
164 180 0
165 180 0
161 176 0
162 178 0
162 180 0
163 180 0
164 181 0
165 184 0
166 183 0
167 182 0
160 177 0
166 185 0
165 182 0
167 185 0
169 187 0
163 181 0
214 231 250
213 230 248
214 232 254
213 231 253
212 230 252
212 231 254
212 230 254
212 230 254
212 230 255
210 229 255
211 230 255
210 229 255
209 229 255
209 229 255
208 228 252
206 226 237
198 218 209
200 219 203
194 214 184
200 218 194
199 218 193
204 222 211
201 218 198
202 220 201
203 220 204
201 219 207
204 221 211
204 221 212
209 225 221
209 225 217
211 226 226
210 225 224
211 226 228
207 222 221
209 225 223
206 222 215
206 222 212
206 222 209
199 218 188
200 217 189
196 215 169
200 218 182
191 210 159
194 213 169
189 209 140
188 208 155
190 210 149
194 213 165
184 205 149
196 214 165
187 207 142
192 212 159
196 214 182
201 219 188
201 218 196
200 218 199
211 227 230
210 225 215
209 225 215
208 224 220
209 224 220
209 225 221
203 220 212
202 220 203
204 222 209
197 216 196
197 216 194
202 219 199
196 214 179
196 215 194
200 219 203
208 226 236
210 229 249
212 230 255
212 230 255
211 230 254
212 230 254
209 227 252
211 229 253
213 230 254
213 230 254
212 229 252
212 228 252
213 229 252
113 138 197
68 103 178
71 105 180
78 110 177
75 108 176
84 115 184
81 113 182
77 109 181
77 109 178
74 106 168
77 110 182
74 107 173
81 112 173
71 105 174
74 106 169
61 97 168
62 98 172
61 97 160
62 98 158
59 95 161
61 97 160
60 96 158
61 97 159
66 101 162
67 101 158
61 97 155
68 101 143
61 96 153
64 98 136
67 101 145
59 94 145
84 114 141
75 106 150
61 97 163
59 95 153
60 96 150
60 96 160
60 95 156
61 97 160
60 96 155
60 95 151
60 95 158
60 96 161
59 94 156
61 97 162
60 96 151
61 96 158
60 96 155
59 95 152
60 96 153
60 96 156
60 96 155
61 96 158
61 98 163
61 96 154
60 95 149
61 97 159
60 96 159
61 96 157
60 95 150
61 97 156
61 98 165
61 97 165
61 97 159
60 96 153
61 97 156
61 97 159
61 97 156
62 98 156
61 97 160
61 97 158
61 97 160
61 97 159
61 97 153
62 98 162
61 97 162
60 96 151
62 98 158
62 98 163
61 96 155
62 98 164
61 97 157
62 97 154
61 97 159
61 96 151
61 96 150
61 96 154
62 97 154
62 97 155
60 96 153
62 98 159
62 98 157
60 96 143
61 97 160
62 98 161
61 97 155
60 95 148
62 98 161
61 97 158
62 98 155
63 99 163
61 96 153
61 97 159
61 97 156
62 98 160
62 98 158
61 97 158
61 97 152
62 97 156
62 98 163
60 96 148
61 97 152
62 98 161
63 98 158
62 97 155
63 99 163
63 99 165
62 98 155
62 98 161
62 98 164
61 97 159
62 98 162
62 98 164
62 97 148
61 97 150
62 97 158
61 96 151
62 98 157
63 98 157
63 99 165
62 98 155
61 96 145
63 99 159
62 98 156
60 96 148
61 96 150
61 97 151
61 97 157
60 95 149
61 97 154
62 98 155
60 96 149
62 98 162
62 97 151
60 95 151
60 96 143
61 97 153
61 97 149
62 98 158
62 97 152
62 98 156
62 97 153
61 96 143
61 97 148
62 97 145
61 96 149
59 94 142
60 94 142
60 95 145
60 95 140
60 95 142
60 95 141
60 94 144
60 94 137
61 96 144
60 94 141
60 95 144
60 95 140
60 94 139
59 93 142
60 94 132
59 93 129
60 95 142
59 93 133
61 95 134
57 90 128
56 88 107
62 92 128
126 132 0
113 117 0
115 121 0
119 123 0
107 112 0
114 118 0
107 111 0
105 107 0
110 115 0
104 105 0
99 102 0
107 108 0
102 106 0
103 98 0
86 83 11
79 76 0
96 91 0
79 74 16
86 77 0
78 72 0
83 79 11
82 77 16
84 80 0
92 86 0
91 84 0
98 93 0
98 95 0
101 95 0
99 96 0
97 91 0
101 96 0
95 89 0
89 85 0
92 89 0
100 96 0
104 98 0
113 108 0
99 94 0
112 106 0
116 112 0
108 104 0
107 102 0
105 100 0
96 93 0
104 100 0
111 107 16
103 98 11
113 108 11
105 102 11
116 112 16
117 112 0
118 111 0
112 107 11
113 109 11
116 113 11
112 107 0
116 111 0
112 106 11
126 118 19
99 96 11
116 111 16
112 106 0
119 115 0
123 118 0
121 116 11
115 111 19
116 111 16
125 120 22
114 110 11
109 104 11
123 118 16
121 117 16
114 108 16
108 103 11
109 103 19
97 92 16
106 99 19
114 108 25
103 98 16
112 106 19
117 111 19
115 107 11
105 99 16
114 108 25
103 95 16
101 98 11
133 137 11
142 146 0
143 150 0
147 153 0
144 149 0
146 153 0
152 161 0
151 161 0
151 160 0
144 151 0
152 161 0
154 164 0
152 161 0
154 166 0
156 166 0
150 158 0
158 167 0
158 171 0
159 171 0
160 171 0
158 169 0
153 165 0
161 175 0
157 169 0
153 167 0
155 167 0
161 175 0
164 177 0
162 175 0
156 168 0
156 170 0
160 173 0
156 169 0
167 183 0
164 182 0
164 178 0
161 176 0
163 178 0
163 180 0
162 179 0
161 178 0
162 175 0
164 183 0
165 182 0
161 180 0
164 181 0
164 181 0
167 184 0
166 182 0
165 183 0
164 181 0
170 188 0
213 231 252
214 231 254
211 229 246
212 230 254
213 231 255
212 230 254
212 230 255
211 230 255
210 229 255
209 229 254
209 229 255
208 228 253
206 226 238
201 221 212
203 221 211
200 219 204
197 217 194
198 216 193
199 217 193
203 221 209
200 218 201
203 221 214
206 223 215
201 218 204
210 226 228
208 224 221
207 223 221
216 230 236
214 229 228
210 226 214
200 218 196
188 208 151
189 210 157
186 206 127
179 201 105
177 200 92
173 196 72
174 197 51
172 195 62
175 198 80
175 198 62
175 198 76
170 194 72
173 197 62
175 198 72
172 195 62
174 197 67
175 198 80
173 197 44
175 199 76
173 197 51
173 196 62
177 200 92
173 196 67
173 196 80
170 194 57
174 197 72
176 199 84
182 204 125
189 209 142
194 214 171
199 217 181
203 221 199
202 218 198
213 228 226
200 216 201
203 220 201
203 219 199
205 222 214
201 219 201
199 218 196
194 213 190
180 199 194
189 208 207
200 218 236
203 222 246
207 226 252
209 227 253
211 228 253
212 230 254
212 230 254
209 226 252
213 229 253
209 226 250
206 222 248
98 126 193
74 107 181
74 107 178
76 108 174
74 107 179
73 107 177
82 113 179
78 110 174
72 106 179
69 103 177
80 111 180
84 115 176
81 111 170
65 100 170
74 107 174
61 97 162
62 99 174
62 98 168
64 100 168
63 99 159
63 98 163
61 97 159
60 95 151
64 99 156
71 104 154
70 102 158
68 101 150
66 100 145
64 98 148
67 99 136
66 100 140
72 104 141
72 105 154
60 95 155
61 96 157
59 94 154
61 97 162
60 95 156
61 96 156
61 97 157
60 95 152
61 97 158
60 96 158
61 96 157
61 96 156
60 95 152
62 98 158
61 97 161
60 96 158
60 95 159
60 96 160
61 97 156
60 96 155
61 96 157
61 96 156
61 97 157
62 98 160
60 96 153
62 98 158
60 95 151
61 97 154
61 97 157
62 98 163
61 97 165
61 97 160
61 97 157
61 97 160
61 97 156
61 97 157
62 98 160
61 97 157
61 96 151
62 98 158
62 97 160
61 97 159
60 96 156
61 97 163
61 97 154
62 98 160
61 97 153
62 98 162
62 98 162
61 97 157
61 97 154
61 98 161
61 97 155
61 97 155
61 97 155
61 97 158
61 96 153
62 98 159
61 97 153
61 97 154
62 98 162
61 97 155
62 98 153
62 98 155
62 98 158
61 97 153
62 98 161
61 97 152
61 97 158
62 98 159
61 97 155
62 98 160
61 97 152
62 98 163
62 98 157
61 98 158
62 98 157
62 99 164
61 97 156
61 97 154
61 97 147
61 97 154
61 97 157
61 97 154
61 96 153
61 97 158
63 98 158
62 98 157
61 97 155
61 97 157
61 97 153
62 98 160
60 96 152
62 97 154
62 98 155
61 97 156
62 98 156
61 96 145
61 97 151
62 97 157
60 95 144
60 96 150
62 98 158
60 95 143
62 98 159
60 96 142
62 97 150
61 96 151
61 97 150
61 96 151
62 97 153
60 95 141
61 97 153
61 97 152
61 97 152
61 97 152
62 98 158
61 96 145
61 97 150
61 96 143
60 95 137
61 97 149
62 98 155
61 97 148
62 97 151
60 96 137
61 96 150
59 94 136
61 96 150
60 94 144
60 95 145
60 95 144
60 94 138
61 96 147
60 95 140
61 95 139
60 94 135
59 93 130
60 94 136
60 94 137
59 92 125
60 93 138
58 90 128
76 96 112
113 117 0
111 116 0
116 119 0
115 119 0
111 115 0
115 119 0
102 105 0
93 94 0
102 102 0
113 118 0
104 108 0
98 100 0
111 113 0
103 102 0
102 103 0
86 83 0
90 88 0
76 71 0
86 82 11
90 85 0
84 80 0
89 84 0
83 79 0
94 88 0
91 87 0
88 82 0
96 91 0
99 93 0
98 94 0
100 95 0
89 85 0
92 86 0
104 100 0
99 95 0
96 92 0
105 100 0
101 97 0
93 91 0
102 97 0
104 100 0
110 107 0
101 96 0
108 104 0
111 107 0
104 101 0
110 106 0
114 111 0
104 101 0
119 115 11
104 100 0
119 114 0
114 110 11
107 104 11
117 113 0
96 91 0
117 111 11
115 110 16
109 103 11
120 115 16
109 105 16
110 104 11
116 112 16
114 109 0
115 111 16
107 103 0
117 113 16
118 111 11
117 111 16
95 90 11
114 108 11
109 104 11
105 100 19
113 109 11
119 113 22
114 109 11
110 103 16
113 108 16
118 113 19
105 100 11
102 97 11
110 103 16
115 108 11
109 102 11
115 115 0
122 125 11
148 156 0
142 147 0
154 162 0
145 151 0
153 164 0
148 158 0
150 157 0
158 168 0
149 157 0
150 156 0
148 156 0
151 162 0
152 161 0
163 176 0
152 163 0
154 166 0
153 163 0
157 167 0
154 165 0
153 167 0
158 172 0
155 168 0
155 169 0
156 169 0
160 172 0
159 173 0
155 170 0
162 178 0
163 177 0
157 168 0
160 173 0
160 175 0
158 172 0
160 177 0
158 172 0
161 177 0
161 176 0
162 178 0
168 185 0
165 181 0
165 182 0
169 188 0
164 180 0
162 178 0
163 179 0
160 178 0
167 184 0
163 183 0
165 183 0
162 179 0
166 182 0
163 182 0
167 186 0
213 230 252
213 231 254
212 230 254
212 231 255
212 230 255
211 230 255
210 229 255
209 229 255
208 228 254
204 224 237
203 222 223
199 217 203
199 218 199
197 216 189
200 219 201
201 219 204
199 217 201
209 225 218
204 222 217
203 220 204
210 226 223
211 226 231
209 225 221
204 220 217
203 220 196
191 211 159
189 210 147
177 200 80
177 200 88
175 198 72
176 200 67
174 197 57
173 198 67
173 198 62
173 197 67
175 198 62
174 198 88
173 196 62
171 195 80
176 200 62
175 198 67
173 197 62
175 198 88
175 199 57
177 201 92
174 198 76
175 198 76
173 197 88
173 196 51
177 200 72
173 197 76
176 199 67
175 198 57
174 198 72
174 197 67
175 199 72
175 198 80
172 195 72
173 196 76
177 199 62
176 199 76
174 197 57
172 196 76
177 200 80
181 204 111
183 204 125
196 214 173
201 219 193
207 223 215
207 222 221
205 221 215
204 220 211
199 217 203
190 207 213
177 196 206
176 195 203
182 201 219
184 204 229
203 222 249
210 228 254
209 227 252
211 229 254
212 229 252
210 227 252
215 232 255
195 212 240
87 117 186
79 111 183
69 104 181
73 107 180
81 113 181
72 106 181
80 111 178
68 102 170
65 100 172
77 109 176
69 103 175
79 111 178
82 113 176
72 106 175
73 105 166
61 97 157
61 97 167
62 98 161
62 98 162
61 97 164
61 97 166
60 96 158
60 95 153
65 100 154
65 99 157
68 101 147
70 102 142
62 97 152
66 99 148
73 105 148
66 100 153
73 104 137
73 104 141
60 96 158
60 95 153
59 94 148
60 95 151
59 95 157
62 98 160
61 97 157
60 95 151
61 97 157
59 95 154
61 96 156
61 97 164
61 96 158
60 96 152
61 97 160
61 97 156
61 97 161
60 95 152
61 96 152
60 95 151
61 96 162
62 98 160
60 95 150
61 97 164
61 97 161
61 97 165
61 96 149
61 97 158
60 96 156
61 97 163
61 96 155
60 96 148
61 97 162
60 96 143
61 97 159
62 97 156
61 97 149
62 98 162
60 96 155
61 96 152
60 96 153
62 98 159
61 96 149
61 97 158
61 97 155
60 96 153
61 97 156
62 97 158
62 98 158
61 96 151
61 97 158
62 98 157
61 97 155
61 97 156
61 97 155
62 97 157
62 98 162
61 97 161
61 96 156
61 97 156
61 97 159
61 97 157
61 97 155
62 98 156
62 98 155
61 98 160
61 96 150
61 96 147
62 98 158
61 97 152
61 97 154
63 99 161
61 96 145
62 99 163
62 97 155
61 97 156
61 97 155
61 97 155
61 97 153
61 97 155
61 97 149
61 97 157
61 96 153
61 97 154
61 97 158
62 98 161
61 96 148
61 96 149
62 97 154
61 97 156
61 96 151
62 97 151
62 98 158
62 97 153
61 97 152
62 98 158
63 98 159
61 97 155
62 97 152
62 98 157
61 97 150
62 97 155
61 97 150
61 96 149
62 98 156
62 98 158
60 96 143
62 98 155
62 97 155
62 97 149
61 96 145
61 96 149
60 95 143
61 97 148
62 97 156
61 96 152
62 97 155
61 97 153
61 96 145
60 95 136
62 97 156
61 96 148
61 96 147
60 94 137
61 96 151
62 96 147
61 96 144
61 96 144
60 95 148
61 96 150
60 95 139
60 95 143
61 96 141
61 95 146
60 95 144
59 93 135
60 94 139
59 92 123
60 94 142
59 92 129
59 93 134
56 88 118
89 103 80
111 116 0
124 130 0
103 106 0
116 117 0
116 117 0
118 123 0
111 115 0
109 116 0
116 116 0
112 111 0
105 106 0
102 101 0
99 100 0
103 105 0
112 115 0
104 105 0
96 95 0
93 91 0
77 72 0
81 74 16
83 75 0
88 83 0
84 81 0
78 73 0
83 79 0
92 86 0
83 78 0
97 92 0
93 88 0
88 84 0
97 93 0
89 85 0
93 88 0
90 86 0
104 100 0
97 93 0
95 90 2
100 96 0
103 96 0
96 92 0
111 105 0
86 83 0
113 108 0
106 101 0
104 100 0
111 106 8
110 105 11
109 104 0
112 106 0
105 101 11
108 103 0
99 96 0
108 104 0
111 104 0
114 108 0
111 106 0
98 95 11
112 106 0
112 107 11
111 104 11
112 107 11
106 101 11
112 107 11
115 110 0
112 107 16
104 100 0
102 98 0
110 105 11
107 101 16
100 95 0
122 116 16
112 106 11
114 110 22
106 98 22
116 109 16
105 100 16
113 106 19
106 99 0
107 98 22
118 112 19
105 98 16
123 122 0
129 132 0
131 134 0
139 141 0
144 150 0
149 158 0
149 155 0
150 156 0
150 157 0
148 157 0
149 160 0
151 158 0
149 157 0
150 157 0
149 156 0
149 159 0
154 165 0
155 166 0
151 161 0
152 162 0
156 169 0
158 168 0
157 169 0
149 161 0
159 173 0
161 175 0
162 174 0
157 171 0
158 172 0
149 160 0
158 172 0
162 177 0
163 178 0
165 180 0
160 174 0
165 181 0
161 173 0
160 175 0
165 179 0
164 183 0
166 181 0
165 181 0
162 178 0
164 180 0
165 182 0
165 179 0
161 175 0
166 183 0
163 183 0
168 185 0
160 177 0
169 187 0
164 182 0
170 187 0
170 188 0
167 185 0
163 183 0
213 231 255
213 231 255
211 230 255
211 230 255
210 229 255
209 229 255
209 228 254
204 224 236
200 219 207
194 213 179
199 218 201
196 215 181
207 224 217
206 223 215
204 221 209
208 224 218
206 222 214
206 223 214
211 226 227
210 226 224
206 222 207
194 214 179
180 201 120
173 195 72
173 197 72
172 196 62
175 199 57
174 196 76
172 195 25
173 197 62
176 200 84
169 193 51
174 197 51
173 197 84
174 197 57
174 197 62
174 197 57
173 198 80
174 197 67
175 199 76
170 193 67
176 199 62
174 198 67
174 197 76
176 198 80
172 196 72
176 200 99
174 198 76
175 198 80
175 199 57
175 198 67
177 200 67
174 197 62
174 197 84
176 199 72
174 198 80
175 198 80
173 197 76
174 197 84
175 198 76
173 197 67
174 197 62
176 199 72
177 200 76
170 194 51
178 201 95
175 198 72
176 200 84
175 198 62
182 203 127
195 213 163
185 204 186
159 179 186
131 155 157
121 145 158
137 160 163
141 164 184
132 155 172
160 181 203
186 205 228
210 228 253
213 231 255
204 222 248
208 225 250
212 229 252
215 232 255
188 206 237
71 106 183
79 111 185
74 108 183
74 107 182
65 101 179
74 108 181
69 104 178
65 101 173
68 102 173
65 101 170
71 105 173
80 111 177
77 109 178
79 110 175
77 108 171
63 99 171
63 99 160
61 98 169
62 97 160
59 95 153
60 97 162
61 97 160
61 97 161
64 99 162
65 99 159
65 99 151
65 99 139
65 99 155
71 104 148
62 97 148
62 96 146
64 97 138
71 103 135
59 94 145
59 95 154
59 95 150
61 96 153
61 96 160
60 95 158
61 96 157
61 97 161
60 96 155
59 94 153
60 95 148
61 96 154
61 97 161
61 97 161
61 96 157
62 97 164
60 95 144
60 96 157
61 96 152
60 96 154
61 97 158
60 96 158
61 97 163
60 95 149
61 97 158
61 97 161
62 98 163
61 97 155
62 98 161
61 97 162
62 98 160
61 97 161
61 97 157
61 97 159
61 96 153
61 96 158
60 95 155
61 96 156
61 98 163
61 97 155
61 97 160
61 97 156
61 97 157
61 97 158
61 97 156
60 96 151
60 96 149
62 98 162
61 97 159
61 96 155
61 97 156
61 97 156
62 97 154
62 98 161
62 97 160
61 96 149
62 98 158
62 98 156
60 96 154
61 97 153
62 98 164
62 98 160
62 98 154
62 98 162
61 97 155
61 97 155
63 98 159
61 97 155
60 96 156
62 99 165
62 98 156
61 97 155
61 96 152
60 96 152
61 96 160
61 97 148
61 97 155
61 96 153
62 98 161
61 97 152
61 97 157
61 97 151
62 98 160
62 98 154
61 97 157
61 97 156
60 96 149
61 97 152
61 96 145
61 97 155
62 97 154
62 98 158
62 98 155
61 97 154
61 97 157
62 98 155
62 98 161
62 98 153
61 96 147
60 95 145
62 98 155
60 95 143
62 97 152
62 98 151
61 96 149
61 97 155
61 97 147
61 96 145
61 97 150
60 96 144
60 96 150
61 96 139
61 97 153
60 95 142
61 96 147
61 96 141
61 96 144
59 94 135
61 97 144
61 96 148
60 95 145
60 95 133
60 95 140
61 97 149
61 96 142
61 96 149
60 95 141
60 95 136
61 96 147
60 94 142
61 95 141
61 96 150
58 91 125
59 94 135
61 95 141
59 93 133
59 93 130
58 92 129
58 92 128
59 92 132
58 91 128
95 105 60
122 128 0
116 121 0
111 116 0
106 112 0
109 113 0
121 125 0
117 121 0
108 112 0
106 113 0
113 116 0
108 109 0
111 112 0
110 113 0
108 107 0
103 104 0
93 92 0
112 114 0
98 98 0
111 111 0
98 98 0
83 81 0
89 86 0
86 77 11
78 73 0
89 85 0
89 83 0
90 85 0
78 72 0
92 86 0
83 78 0
93 88 3
91 87 0
102 98 0
89 85 0
92 85 0
87 83 8
90 86 0
93 88 0
103 96 0
93 90 0
96 92 0
94 90 0
96 91 0
104 98 0
94 87 0
104 99 0
108 102 11
103 97 0
107 101 0
110 104 0
96 92 0
99 94 0
109 103 0
100 94 0
103 100 11
107 102 0
107 101 11
109 103 11
105 101 0
97 93 0
107 101 0
120 112 11
104 99 0
109 103 0
114 109 16
100 96 19
112 106 0
109 104 0
112 106 11
110 104 16
109 103 19
115 109 0
112 106 11
107 102 11
104 98 16
108 102 11
96 91 11
105 100 11
113 108 11
136 140 0
142 144 11
140 144 0
135 140 0
145 148 0
136 139 0
147 153 0
143 148 0
135 141 0
141 146 0
153 161 0
147 156 0
154 163 0
143 148 0
151 160 0
153 162 0
154 166 0
156 165 0
152 163 0
153 164 0
156 168 0
152 160 0
152 161 0
157 170 0
155 167 0
155 165 0
153 164 0
160 174 0
162 175 0
159 173 0
160 173 0
158 171 0
155 164 0
153 166 0
157 169 0
157 170 0
157 170 0
162 179 0
168 184 0
161 173 0
159 172 0
161 175 0
162 177 0
166 183 0
158 173 0
159 173 0
160 175 0
163 179 0
165 183 0
162 180 0
161 178 0
163 180 0
166 183 0
166 185 0
167 185 0
164 182 0
165 182 0
166 184 0
166 183 0
211 230 255
211 230 255
210 229 255
210 229 255
207 227 246
204 223 227
199 217 199
200 218 203
197 215 194
203 221 203
205 222 212
206 223 218
205 221 212
215 230 234
211 227 221
213 228 228
206 222 211
195 214 167
183 204 114
172 195 72
174 197 62
175 198 80
171 195 57
175 199 76
174 198 80
174 197 67
172 196 67
175 198 57
174 198 72
177 200 102
175 198 72
177 199 67
175 198 84
174 198 57
176 199 80
174 198 80
170 194 76
178 201 92
172 196 72
172 197 76
175 198 76
174 198 72
173 197 51
175 198 57
175 198 62
174 197 44
172 196 51
176 200 84
174 198 62
174 198 76
172 196 72
172 195 67
175 199 95
173 197 84
173 197 51
172 196 62
174 198 76
174 197 84
173 197 76
176 200 84
175 198 57
172 195 80
175 199 88
174 197 62
173 196 76
173 196 62
176 199 80
175 198 84
172 196 80
173 197 76
171 195 67
117 144 151
108 135 154
115 142 141
114 140 159
118 143 149
120 147 153
91 120 155
100 128 149
106 132 170
125 148 168
168 188 214
200 219 246
212 230 254
209 227 252
209 226 252
214 231 255
170 190 228
73 107 184
83 115 188
79 111 183
73 107 175
66 102 179
69 103 177
68 103 175
74 107 180
68 102 171
74 107 175
72 105 177
65 100 169
79 111 178
71 104 170
68 102 164
62 99 172
60 96 154
61 97 162
62 98 166
61 97 163
62 98 164
63 99 165
62 98 166
59 95 148
61 96 161
64 99 157
72 104 145
64 98 156
67 100 149
73 105 139
67 101 150
69 101 141
63 97 149
60 96 155
60 95 145
59 94 149
61 97 150
59 94 148
60 96 150
61 96 158
60 96 153
60 96 153
61 97 161
61 96 152
60 95 154
60 95 154
61 96 157
61 96 149
60 96 158
59 95 150
60 96 152
60 95 148
59 94 142
60 96 152
60 95 154
62 98 161
61 97 157
60 95 148
61 96 151
61 97 160
61 96 144
61 97 161
61 96 156
60 96 158
61 97 155
59 94 147
61 97 151
61 96 149
61 97 160
61 97 159
61 96 160
62 98 160
60 96 145
61 97 155
61 97 155
61 97 160
61 97 151
61 97 161
61 96 149
61 96 146
60 95 146
60 96 150
61 97 161
62 98 154
62 97 156
61 97 150
62 97 155
61 97 157
62 98 156
62 98 158
62 98 159
62 97 156
61 97 153
60 96 151
61 97 149
61 97 151
60 96 151
61 97 157
62 98 155
61 96 151
62 98 155
61 96 152
60 96 150
61 97 159
61 97 161
62 97 152
61 97 151
62 98 157
62 98 154
62 98 162
61 97 155
61 97 158
62 97 155
61 97 152
61 97 153
62 98 160
61 97 153
62 98 162
62 98 158
61 96 145
63 98 156
61 97 150
61 97 151
62 97 153
61 97 152
61 96 152
61 96 151
62 98 156
61 97 154
62 97 154
61 96 151
62 97 161
60 96 151
61 96 147
62 97 152
62 97 152
61 97 147
61 96 144
61 97 152
62 97 155
61 96 144
62 98 158
61 97 156
61 96 148
62 98 159
60 95 142
62 97 151
60 95 135
61 97 151
60 95 137
62 97 153
61 97 147
60 95 136
60 95 133
61 96 136
61 96 143
60 95 137
59 94 138
62 97 147
61 96 146
60 94 136
59 94 130
62 97 150
61 96 139
59 93 137
61 95 146
60 95 138
58 91 125
61 95 144
60 94 133
60 94 135
59 91 124
76 101 113
114 122 0
121 126 0
112 119 0
113 120 0
113 117 0
107 112 0
98 97 0
111 113 0
108 115 0
107 112 0
99 103 0
119 121 0
101 103 0
93 96 0
109 112 0
101 105 0
110 111 0
100 100 0
101 100 0
95 95 0
105 105 0
100 101 0
99 99 0
93 93 0
81 75 0
75 72 11
78 72 0
83 78 0
86 78 0
93 85 0
75 70 0
93 88 0
90 85 0
95 89 0
99 93 0
92 88 0
88 84 0
94 89 0
94 88 0
92 86 0
97 91 0
95 89 0
102 97 0
103 97 0
95 92 0
103 96 11
102 95 0
101 96 0
92 89 0
113 105 0
112 105 0
107 101 0
106 100 0
108 103 0
88 82 0
103 98 0
108 101 0
103 97 11
112 106 0
107 100 0
108 102 0
103 97 11
109 103 16
101 94 0
118 111 11
106 101 0
103 96 0
104 97 19
109 102 11
113 107 11
105 100 11
112 105 16
107 101 0
109 102 11
114 107 19
112 105 11
116 109 16
115 110 16
134 135 0
139 143 0
142 146 0
142 145 0
136 137 0
141 144 0
142 146 0
138 145 0
147 155 0
139 144 0
150 156 0
147 154 0
147 155 0
145 151 0
143 150 0
154 162 0
155 164 0
152 161 0
152 160 0
149 160 0
145 154 0
157 166 0
151 159 0
157 167 0
154 163 0
153 165 0
163 177 0
154 164 0
162 176 0
160 173 0
152 163 0
159 170 0
156 168 0
161 174 0
156 170 0
162 175 0
162 176 0
153 167 0
159 174 0
153 168 0
163 179 0
161 176 0
161 178 0
164 178 0
162 177 0
162 176 0
163 178 0
162 177 0
165 179 0
163 180 0
165 182 0
163 180 0
163 180 0
160 176 0
166 183 0
165 184 0
162 180 0
167 185 0
167 186 0
163 180 0
168 187 0
211 230 255
210 230 255
208 227 248
202 222 215
198 217 194
196 215 193
202 219 207
199 216 193
203 220 209
209 226 223
207 223 217
214 229 231
207 222 215
207 223 211
190 210 151
183 204 111
174 197 62
173 196 51
173 196 72
174 198 72
176 198 62
174 198 62
172 196 51
175 198 57
174 198 80
174 198 67
174 198 95
171 195 44
176 200 88
175 199 72
175 198 57
176 200 80
174 197 57
174 199 95
174 197 62
176 200 84
175 199 57
173 196 57
173 197 72
174 198 80
173 197 67
172 196 80
173 197 76
173 197 51
175 199 67
174 198 88
172 196 62
177 199 67
172 195 72
175 198 72
172 195 62
175 199 76
173 196 67
175 198 76
177 200 62
173 196 67
176 199 88
175 198 67
169 194 44
173 197 72
175 199 67
171 194 57
175 198 72
174 199 72
174 197 80
175 198 62
177 199 84
174 197 67
175 198 67
174 197 72
146 171 127
92 120 145
110 136 136
98 126 149
111 137 147
99 127 142
106 133 151
106 132 153
109 135 152
105 133 159
108 135 152
109 136 162
110 137 170
152 173 201
192 210 241
205 223 249
212 230 254
208 225 249
162 182 223
76 109 185
62 99 177
83 115 186
84 115 186
68 103 179
74 107 181
74 107 181
74 107 178
65 100 173
77 110 177
71 105 170
74 106 171
74 107 171
74 106 170
75 107 169
62 98 170
62 98 168
60 96 155
62 98 161
61 97 162
64 100 164
62 98 171
59 95 157
61 97 156
63 97 147
72 105 161
59 94 155
67 100 149
69 101 146
65 99 156
65 98 143
62 97 148
77 109 142
59 95 155
60 95 148
60 95 152
60 95 157
61 96 154
60 96 148
60 95 156
60 95 149
60 95 151
61 97 154
61 97 153
60 95 158
60 96 160
61 96 151
59 95 152
60 96 156
61 96 157
61 97 159
61 96 151
61 97 154
61 97 155
61 97 156
61 96 155
61 96 150
61 96 157
61 97 160
61 97 160
60 96 150
60 95 150
60 95 148
61 97 160
60 96 154
62 98 162
60 96 149
62 97 155
62 98 162
62 98 159
62 97 160
60 96 151
62 98 155
61 96 149
62 97 152
61 97 152
61 97 149
62 98 166
62 98 162
60 96 148
61 97 156
61 96 156
63 99 165
61 97 153
63 99 165
61 97 162
61 97 156
61 97 156
60 96 154
60 96 145
62 98 159
62 98 158
61 97 158
61 96 151
62 97 158
63 99 159
61 96 148
62 97 154
61 97 157
62 98 163
62 98 154
61 96 150
61 97 156
62 98 156
61 97 155
61 96 144
62 98 155
61 97 158
61 97 155
60 96 148
62 98 156
61 97 156
61 97 151
61 97 158
61 97 155
61 97 153
62 98 159
62 98 158
61 96 148
62 98 154
61 97 148
60 96 142
61 97 149
63 99 159
62 98 153
61 97 152
62 97 153
61 97 148
61 96 144
61 96 145
59 94 141
62 98 157
62 97 149
61 97 154
60 95 137
60 96 143
61 96 147
62 97 151
61 96 152
62 97 151
62 97 153
62 97 155
61 97 150
61 96 150
62 97 152
62 97 147
62 97 149
61 97 145
62 97 157
60 96 140
60 95 143
60 95 142
62 97 151
61 96 139
62 98 155
61 96 148
60 95 145
62 97 152
61 96 149
60 94 138
59 93 141
61 96 152
59 93 134
59 93 129
60 94 136
59 93 134
60 94 132
59 93 128
59 92 134
58 91 127
58 92 128
101 118 95
117 126 0
104 109 0
109 114 0
111 118 0
109 115 0
107 110 0
107 110 0
112 116 0
114 118 0
112 117 0
114 116 0
112 114 0
106 109 0
103 107 0
115 118 0
109 109 0
102 105 0
104 105 0
103 104 0
101 105 0
107 109 0
98 100 0
97 95 0
99 100 0
98 100 0
106 104 0
93 90 0
93 89 0
74 69 0
88 82 0
88 80 0
81 74 0
85 79 0
88 81 0
93 85 0
89 83 0
91 87 0
90 85 0
95 89 0
94 88 0
92 86 0
96 91 0
102 96 0
101 95 0
105 98 0
106 102 0
100 94 0
104 99 0
96 91 0
106 100 0
100 94 0
102 99 0
101 94 0
110 105 0
104 97 0
103 97 0
106 100 11
94 88 0
112 104 11
108 102 0
98 92 0
98 93 11
105 99 16
106 98 19
103 98 0
95 89 16
105 97 11
109 101 0
100 93 0
99 92 0
100 90 11
106 99 11
95 89 11
116 108 11
108 105 11
130 129 0
133 134 0
145 147 0
144 148 0
137 140 0
139 140 0
143 149 0
139 140 0
144 149 0
147 153 0
141 145 0
143 149 0
146 151 0
147 153 0
153 162 0
146 154 0
142 150 0
150 158 0
153 162 0
150 158 0
146 153 0
155 166 0
156 169 0
150 159 0
155 166 0
151 160 0
156 168 0
162 174 0
163 177 0
158 169 0
155 167 0
157 169 0
155 166 0
158 171 0
152 165 0
158 169 0
159 171 0
160 172 0
160 173 0
160 177 0
158 172 0
163 177 0
160 176 0
159 172 0
162 177 0
164 179 0
159 176 0
161 176 0
162 178 0
165 182 0
161 175 0
159 174 0
165 182 0
164 182 0
162 178 0
165 183 0
164 181 0
162 179 0
163 180 0
167 185 0
168 187 0
168 187 0
170 187 0
166 185 0
208 227 245
201 219 218
198 216 194
204 221 204
202 220 198
208 225 221
202 219 204
203 220 217
209 225 221
207 223 218
208 224 209
192 212 151
176 198 114
173 197 67
173 198 72
173 197 76
171 195 62
174 197 72
173 197 57
176 199 67
174 199 67
174 197 80
177 200 76
174 199 80
176 200 80
172 196 67
175 199 80
173 198 92
177 200 76
175 198 88
176 199 62
175 198 76
173 197 72
172 196 72
173 197 67
175 198 57
175 199 76
173 197 76
175 198 57
171 195 51
176 200 76
174 197 80
174 197 57
172 196 72
171 195 72
174 198 51
172 196 76
173 197 80
176 200 84
174 197 57
173 197 72
172 195 76
175 197 51
177 200 76
173 197 44
173 196 57
175 198 76
174 198 62
176 199 62
174 198 80
174 198 72
175 199 80
174 197 72
174 198 76
173 197 92
173 197 57
175 199 62
169 193 72
172 196 62
175 198 67
128 154 134
92 121 148
94 122 151
94 122 152
107 134 151
101 129 153
117 142 153
115 142 155
117 143 154
120 145 147
94 123 150
102 130 160
95 122 160
112 138 165
92 121 163
148 170 205
201 219 242
208 226 251
209 226 251
148 169 214
71 105 180
71 105 182
71 105 176
71 105 180
69 104 180
79 111 180
65 101 176
65 100 173
68 103 176
74 107 178
71 105 171
74 106 172
82 113 173
74 107 167
69 103 175
61 97 160
62 98 171
62 99 170
61 97 157
61 96 160
61 97 162
60 96 158
61 96 158
61 96 157
60 96 157
64 99 147
74 106 145
64 98 155
68 101 144
61 96 144
72 103 143
73 105 142
77 108 140
61 97 158
60 95 158
61 96 160
60 95 151
60 95 152
61 97 157
61 96 155
61 97 160
60 96 150
59 93 143
60 95 156
59 94 150
60 95 151
61 97 162
59 94 147
61 96 150
59 95 152
61 96 159
61 97 157
61 97 151
61 97 158
60 96 156
61 96 154
60 96 151
62 97 161
61 96 154
60 96 151
61 98 162
62 97 157
62 98 159
61 97 155
61 97 155
62 98 159
62 97 161
61 97 156
61 97 161
61 96 151
61 96 154
61 97 160
60 95 147
62 97 158
60 96 153
61 96 145
60 96 153
61 96 153
60 96 152
61 96 155
61 97 149
62 97 150
62 97 155
60 96 153
62 98 160
61 97 156
60 95 136
61 97 156
62 98 153
62 98 161
61 96 145
61 96 153
61 97 155
62 97 156
62 98 157
61 97 154
61 97 154
62 98 152
61 97 152
61 97 152
62 97 157
60 95 140
62 97 159
61 97 152
63 99 163
61 97 152
62 97 149
61 97 154
62 98 156
61 97 152
59 95 141
61 96 151
61 97 155
63 99 163
62 97 154
61 97 153
62 98 158
61 96 150
63 98 159
61 97 155
61 96 149
61 97 147
62 98 155
60 95 143
62 97 154
61 96 151
61 97 151
61 97 150
61 97 152
61 96 141
61 97 152
61 97 153
61 97 150
63 99 159
61 96 147
61 97 152
62 97 156
60 96 151
61 97 148
60 96 142
59 94 141
61 95 145
61 96 143
61 97 153
61 96 144
60 96 145
60 95 139
62 97 152
60 95 139
60 95 141
61 96 137
60 95 134
61 96 141
61 96 148
60 95 141
60 95 136
60 96 141
61 96 146
60 95 137
60 94 145
59 93 134
60 94 140
59 93 132
60 94 142
59 93 134
60 95 135
59 93 138
59 93 134
59 93 133
60 94 138
106 117 41
114 122 0
105 111 0
99 103 0
108 113 0
119 123 0
113 117 0
110 114 0
108 112 0
109 116 0
109 114 0
102 103 0
107 112 0
112 117 0
100 102 0
104 106 0
103 104 0
89 93 0
106 105 0
98 99 0
110 113 0
109 108 0
98 99 0
91 88 0
111 109 0
94 94 0
93 91 0
100 99 0
104 102 0
100 97 0
101 101 0
88 86 0
91 84 0
80 72 11
86 79 0
80 73 0
83 76 0
79 74 0
98 90 0
84 78 0
91 84 0
84 79 0
95 89 0
93 87 0
102 95 0
103 96 0
103 96 0
98 92 0
84 79 0
93 87 0
103 97 0
91 86 0
101 95 0
102 95 0
105 99 0
100 93 11
94 90 0
100 93 11
90 85 0
98 90 0
103 96 16
96 90 11
96 88 0
108 98 0
102 96 11
104 96 19
101 94 11
92 85 0
102 95 11
103 95 11
84 79 0
125 125 0
125 126 0
127 129 0
134 134 0
143 147 0
133 135 0
128 130 0
132 132 0
142 145 0
142 149 0
136 138 0
136 136 0
131 133 0
149 156 0
144 146 0
148 152 0
143 149 0
139 142 0
138 141 0
150 159 0
147 154 0
149 156 0
150 155 0
148 155 0
156 164 0
153 162 0
148 156 0
155 164 0
156 167 0
157 166 0
158 171 0
159 172 0
158 169 0
155 168 0
157 166 0
156 170 0
153 162 0
159 175 0
155 168 0
158 172 0
156 168 0
159 173 0
166 182 0
161 175 0
163 175 0
159 172 0
163 177 0
157 169 0
155 168 0
160 174 0
160 174 0
159 175 0
163 181 0
158 172 0
158 173 0
165 181 0
165 181 0
163 179 0
158 172 0
159 174 0
165 183 0
161 177 0
164 181 0
165 183 0
163 179 0
164 182 0
163 181 0
166 183 0
165 180 0
199 218 191
196 216 188
200 218 203
200 217 198
203 220 209
205 221 206
213 228 233
209 225 215
196 215 175
182 204 120
176 200 84
176 199 76
174 198 51
174 198 62
176 199 67
173 196 62
171 194 67
175 198 67
175 199 62
173 197 72
175 199 88
175 199 76
169 193 51
176 200 80
172 197 72
175 200 84
175 198 57
177 200 80
174 198 51
176 200 84
176 199 72
171 195 62
172 196 76
173 197 76
175 199 76
174 197 67
173 196 76
173 197 57
172 196 67
172 195 76
175 199 72
174 197 67
170 194 62
174 197 72
171 195 51
176 200 67
175 199 62
175 198 57
173 196 62
173 197 84
175 198 72
175 198 67
175 198 80
172 196 72
176 199 76
173 197 80
176 199 57
174 197 72
174 198 88
173 196 62
172 196 67
174 198 84
172 194 72
175 198 51
174 198 76
175 198 57
178 201 92
171 195 62
174 198 62
171 195 51
120 146 126
93 121 144
97 126 158
107 134 148
114 140 147
104 131 150
109 136 151
100 128 159
118 143 147
100 128 158
104 132 151
113 139 154
114 140 165
98 126 166
96 125 166
98 126 158
103 130 156
156 177 209
203 221 246
210 227 252
127 150 205
78 111 183
73 107 182
79 111 182
76 109 183
68 102 178
66 101 175
79 112 184
69 103 176
74 108 180
74 107 175
74 107 175
74 107 180
70 104 169
72 105 177
68 102 172
61 98 163
62 99 166
61 97 165
61 97 163
61 98 163
60 96 158
61 96 160
61 96 157
60 96 162
61 96 152
63 97 150
67 100 147
67 102 158
62 96 150
71 103 145
68 101 139
63 97 136
71 103 150
59 94 157
60 95 151
60 95 155
60 95 150
61 96 153
60 95 151
59 95 148
61 96 157
57 92 149
60 95 153
61 97 159
59 94 144
61 96 157
60 95 150
60 96 154
61 97 153
59 94 147
61 96 154
60 95 154
61 97 159
61 97 149
61 97 155
60 95 148
61 97 162
61 97 151
60 96 156
60 96 153
60 96 146
61 97 156
60 96 149
61 97 154
61 97 158
60 96 148
62 98 161
62 98 160
61 97 162
62 97 159
61 97 159
61 97 159
61 97 154
60 96 152
62 98 162
62 98 156
61 97 156
61 97 156
61 97 153
61 96 150
61 97 153
61 96 150
61 96 147
61 97 157
60 95 153
61 97 156
61 97 153
61 96 151
62 98 153
62 97 158
61 97 154
61 96 148
61 97 153
59 95 143
61 97 150
62 98 158
61 97 147
61 97 156
61 96 150
61 97 152
61 97 156
61 97 158
62 98 161
60 96 148
61 96 145
61 97 152
61 97 152
61 97 154
61 97 156
61 97 157
61 97 154
62 98 158
61 97 155
60 96 148
61 96 148
61 97 155
62 97 154
61 97 151
61 96 143
61 96 145
61 97 153
62 97 156
61 97 162
62 98 156
60 95 139
63 99 160
61 96 148
60 96 142
63 98 157
61 96 151
62 97 154
62 98 155
60 95 141
62 97 152
61 96 145
61 96 147
62 97 153
62 97 152
61 97 148
61 96 140
61 96 144
61 96 142
62 97 153
60 96 139
61 96 151
61 95 146
61 96 149
61 96 142
61 96 143
60 95 141
60 94 136
62 97 152
60 95 139
61 96 150
60 95 140
61 96 145
61 96 143
61 96 141
60 95 143
61 95 148
58 92 128
58 91 129
58 92 133
58 91 118
57 90 121
61 96 144
58 92 130
58 92 123
60 92 120
113 119 25
106 111 0
114 121 0
124 130 0
119 125 0
109 113 0
108 116 0
119 128 0
116 123 0
117 123 0
100 102 0
98 101 0
123 128 0
112 116 0
114 119 0
103 104 0
105 107 0
99 100 0
101 102 0
105 104 0
105 108 0
109 110 0
101 106 0
108 107 0
92 90 0
101 101 0
98 96 0
103 104 0
103 102 0
98 96 0
103 99 0
101 98 0
90 90 0
98 96 0
96 95 0
77 72 0
91 88 0
71 64 0
92 84 11
89 81 0
81 75 0
83 75 0
85 79 0
91 86 0
92 86 0
86 80 0
97 90 0
96 89 0
90 85 0
95 86 0
88 79 0
98 90 11
98 90 11
77 71 0
100 92 0
89 82 0
98 88 0
101 94 11
95 88 0
86 80 0
99 93 0
96 89 16
99 90 11
91 84 0
105 98 0
92 82 0
101 94 0
107 104 0
118 113 11
124 123 0
136 138 0
135 137 0
124 121 0
131 134 0
132 133 0
128 130 0
142 146 0
124 124 0
128 128 0
134 136 0
138 144 0
141 145 0
146 149 0
138 143 0
142 146 0
148 154 0
150 155 0
149 158 0
146 154 0
140 148 0
152 161 0
151 159 0
148 156 0
150 156 0
155 164 0
155 165 0
150 159 0
153 163 0
154 163 0
148 158 0
154 165 0
159 170 0
153 165 0
158 170 0
158 169 0
156 167 0
156 167 0
159 171 0
160 174 0
154 165 0
163 176 0
161 176 0
158 171 0
158 169 0
159 172 0
159 173 0
162 176 0
158 172 0
162 174 0
161 176 0
162 177 0
163 179 0
161 178 0
163 181 0
162 178 0
160 175 0
161 176 0
160 176 0
166 182 0
165 181 0
164 180 0
160 174 0
168 185 0
167 184 0
164 182 0
155 172 0
166 183 0
163 181 0
165 181 0
164 183 0
201 219 199
204 222 212
204 220 211
207 223 215
211 227 223
205 222 203
195 214 171
181 203 105
176 199 76
173 197 57
174 197 67
173 196 67
172 196 72
172 195 67
175 199 76
173 196 62
174 198 62
176 200 95
174 197 72
173 197 62
174 197 72
173 197 44
175 198 57
174 197 62
174 198 62
173 196 72
176 198 62
176 199 88
174 197 44
174 197 57
175 199 92
175 198 80
173 197 67
174 198 62
175 198 67
171 196 84
176 199 76
170 194 67
175 198 76
173 197 72
173 197 76
175 199 84
172 195 76
171 194 67
175 199 76
172 196 62
174 198 51
175 199 67
174 198 84
175 199 67
174 197 72
174 196 51
171 195 51
172 196 67
172 195 76
175 198 76
171 194 62
171 194 57
172 196 62
173 197 62
174 197 84
174 197 62
175 198 80
173 197 57
174 197 76
174 198 84
176 199 76
172 196 62
172 194 62
172 197 76
127 152 137
97 125 156
103 130 144
100 128 150
106 133 155
119 145 164
108 135 152
96 125 164
104 131 150
106 133 160
103 131 159
109 136 163
128 154 147
107 134 157
105 132 157
103 130 164
99 127 156
100 128 158
90 120 172
160 180 216
207 224 249
110 136 198
78 111 185
83 114 184
65 101 179
74 107 180
74 107 180
71 105 180
71 105 175
82 113 177
68 102 170
71 104 172
68 102 171
65 100 169
71 104 167
71 104 163
68 102 167
62 98 170
61 97 162
61 96 160
60 96 165
60 96 162
61 97 164
60 95 156
60 96 162
61 97 155
61 96 161
60 95 155
66 99 143
65 98 147
59 93 141
60 95 144
67 100 151
60 94 140
71 102 126
60 96 147
60 95 152
61 97 158
59 95 146
60 96 155
59 94 149
60 96 153
61 97 158
59 94 161
60 96 154
61 96 152
60 96 151
61 97 155
60 96 155
61 97 156
62 98 161
61 97 158
60 96 157
60 96 157
59 94 150
60 96 163
61 96 152
60 96 149
60 95 148
60 95 150
61 97 155
60 95 144
60 96 152
60 96 151
61 96 153
61 97 159
60 96 150
61 97 163
61 97 156
61 97 158
61 97 158
61 97 150
62 98 162
61 97 155
61 96 155
61 97 158
61 97 152
61 97 157
62 98 160
61 97 157
61 97 155
61 98 158
61 97 161
61 97 156
61 96 153
61 97 151
62 98 157
61 97 154
62 97 157
60 96 144
62 98 162
63 99 164
61 96 150
59 94 142
63 98 160
61 97 152
61 96 151
61 97 152
62 97 153
61 97 156
60 95 145
62 97 153
61 97 150
61 97 149
61 97 153
61 97 156
61 97 150
62 98 152
62 97 151
60 96 149
61 97 152
62 98 158
61 97 156
61 97 152
61 96 155
61 97 149
62 97 152
61 97 158
60 95 139
62 98 156
60 95 148
60 96 150
61 97 150
61 97 153
62 97 151
62 97 155
61 96 143
61 96 148
61 96 148
62 97 155
61 97 155
61 97 148
62 98 152
61 96 144
61 96 150
61 97 150
61 96 145
62 97 154
60 95 134
60 95 143
61 96 142
61 96 141
61 96 142
62 97 152
60 95 139
61 95 140
60 95 140
60 96 140
60 95 133
60 95 140
60 95 135
61 96 144
60 95 149
61 96 143
62 97 143
60 95 144
61 96 149
60 95 133
61 96 141
59 94 133
60 94 137
59 94 134
60 94 139
61 96 139
58 92 121
59 93 135
57 90 123
57 90 123
57 89 127
87 105 96
126 135 0
117 124 0
114 121 0
121 131 0
116 124 0
105 110 0
120 126 0
111 117 0
117 122 0
118 125 0
110 114 0
110 116 0
108 113 0
112 118 0
107 110 0
106 109 0
106 109 0
114 119 0
113 115 0
110 115 0
102 103 0
96 95 0
107 108 0
113 116 0
106 108 0
106 106 0
113 114 0
100 101 0
98 97 0
104 105 0
99 98 0
88 88 0
104 103 0
105 104 0
112 113 0
106 106 0
101 97 0
98 94 0
95 94 0
82 76 0
103 99 0
86 84 0
81 75 0
90 85 0
95 89 0
88 82 0
91 85 0
84 79 0
82 76 0
83 75 0
89 82 0
88 82 0
85 77 0
92 83 0
93 86 0
89 82 11
97 92 0
95 90 0
98 92 0
96 89 0
104 97 0
106 101 0
115 116 0
103 100 0
126 126 0
112 109 0
132 128 0
134 134 0
135 135 0
120 119 0
130 132 0
128 130 0
140 147 0
131 134 0
137 142 0
137 142 0
139 141 0
140 143 0
139 144 0
145 149 0
133 135 0
141 145 0
139 143 0
146 152 0
138 140 0
143 145 0
137 141 0
148 154 0
149 155 0
151 159 0
145 153 0
150 158 0
154 164 0
148 156 0
152 161 0
144 154 0
150 156 0
147 155 0
155 166 0
158 169 0
145 152 0
153 166 0
160 173 0
155 167 0
158 169 0
158 171 0
159 168 0
160 174 0
155 166 0
163 178 0
160 173 0
162 176 0
161 176 0
160 172 0
158 172 0
154 168 0
159 173 0
160 174 0
160 173 0
163 178 0
159 176 0
161 178 0
161 176 0
163 176 0
159 175 0
161 179 0
159 174 0
162 178 0
161 177 0
161 178 0
162 179 0
164 181 0
162 178 0
164 183 0
162 178 0
164 180 0
163 182 0
165 182 0
166 186 0
165 182 0
201 219 204
208 224 221
212 227 227
205 222 204
182 203 108
179 202 88
173 196 44
174 198 57
173 196 44
175 198 44
173 196 67
173 196 72
175 199 62
171 195 67
176 199 57
174 198 76
172 196 57
175 198 67
175 199 51
172 195 51
173 197 62
173 196 51
173 197 67
173 198 99
175 198 72
173 197 76
173 197 51
175 198 67
172 195 92
173 196 57
173 196 72
173 197 76
174 197 62
172 196 76
175 199 88
172 196 72
172 196 84
173 197 57
175 199 72
173 198 72
171 194 62
175 198 76
174 198 80
170 194 67
176 200 76
172 196 72
171 194 51
172 196 76
174 197 57
172 195 72
174 198 62
172 195 57
172 195 62
172 196 72
171 195 62
169 194 76
172 196 80
173 197 84
175 198 80
172 195 67
175 199 72
174 197 72
173 197 57
174 198 76
174 197 67
172 195 36
174 197 80
175 198 72
171 194 36
172 197 57
136 161 117
94 123 152
95 123 142
103 131 154
94 123 161
91 120 151
109 136 163
104 131 161
93 122 148
101 129 163
94 123 163
100 128 156
106 133 155
111 137 162
104 131 144
99 126 154
95 124 160
110 136 161
98 126 142
108 134 165
121 145 174
170 189 223
97 125 193
71 105 182
76 109 181
68 103 180
71 105 180
77 109 178
77 109 181
74 107 179
74 107 181
82 113 175
79 111 180
71 105 177
83 114 182
74 107 173
69 103 171
72 105 169
62 98 165
61 97 165
61 97 159
63 98 159
63 99 156
62 98 160
61 97 159
60 96 163
61 97 158
60 95 152
63 98 160
73 105 148
67 100 145
65 98 151
65 98 148
63 96 136
66 99 137
70 101 134
59 94 149
60 95 155
60 96 161
59 95 146
60 96 155
60 96 153
60 96 157
61 97 153
61 96 154
59 94 143
60 96 155
60 96 155
60 95 145
61 97 155
59 94 143
60 95 151
61 96 147
60 96 157
61 96 151
61 96 158
59 94 150
61 97 156
60 95 151
61 96 159
60 96 156
60 96 153
61 96 153
60 95 155
62 97 156
61 97 155
60 96 148
61 96 148
61 96 154
61 97 153
62 98 162
61 97 156
60 96 153
61 97 153
60 96 153
61 97 155
61 97 157
62 98 157
61 97 154
61 97 159
60 96 145
61 97 154
61 96 151
61 96 155
62 98 158
61 97 153
60 96 155
61 97 155
61 96 151
60 95 147
61 96 151
60 95 142
61 97 150
61 97 149
61 97 153
61 97 149
61 97 151
61 96 148
61 96 142
61 96 152
61 97 153
62 97 155
61 96 144
61 97 154
63 98 156
61 97 150
61 97 156
61 96 153
62 98 154
61 96 149
61 97 153
62 97 152
60 95 143
61 97 150
61 96 151
62 97 155
62 97 154
61 96 147
62 97 153
60 96 143
61 96 148
62 97 153
60 95 142
62 98 157
62 97 155
61 96 145
62 97 152
60 96 143
61 96 139
62 97 151
62 97 147
60 95 144
60 95 142
61 97 155
61 96 144
61 96 150
60 95 144
61 97 153
61 97 150
61 96 144
61 96 149
61 96 144
59 93 127
61 96 142
60 96 142
60 95 139
62 97 147
61 96 143
61 95 145
62 97 149
61 96 148
60 95 143
61 95 142
62 97 157
61 96 144
60 96 141
61 96 138
59 93 131
60 94 141
60 94 139
59 93 124
60 95 141
58 91 128
60 94 133
58 92 123
59 93 133
60 94 127
58 91 131
57 90 114
92 105 58
118 124 0
114 118 0
123 128 0
108 115 0
116 124 0
105 114 0
101 106 0
107 114 0
112 116 0
113 117 0
115 120 0
117 122 0
127 134 0
123 130 0
113 119 0
112 116 0
110 114 0
102 106 0
102 104 0
102 105 0
104 106 0
104 104 0
102 101 0
103 108 0
106 108 0
109 112 0
98 99 0
106 109 0
106 106 0
106 106 0
104 102 0
97 95 0
108 103 0
109 107 0
94 92 0
100 99 0
108 105 0
96 93 0
106 104 0
111 108 0
108 107 0
106 105 0
102 99 0
103 101 0
111 104 0
109 104 0
109 109 0
114 113 0
107 102 0
110 108 0
120 118 0
111 107 0
112 107 0
101 94 0
105 103 0
111 111 0
105 101 0
117 115 0
117 113 0
121 121 0
120 116 0
125 123 0
125 124 0
127 129 0
123 123 0
123 120 0
124 121 0
133 131 0
123 122 0
125 122 0
128 128 0
138 138 0
136 138 0
128 129 0
138 141 0
138 143 0
136 135 0
138 142 0
143 146 0
126 129 0
138 143 0
138 143 0
137 142 0
148 154 0
140 144 0
150 157 0
141 147 0
148 154 0
149 160 0
147 155 0
152 160 0
153 164 0
149 157 0
144 151 0
155 163 0
159 167 0
148 156 0
147 157 0
150 161 0
144 151 0
156 167 0
155 167 0
156 166 0
155 166 0
151 161 0
154 164 0
153 163 0
152 164 0
161 174 0
152 162 0
157 169 0
163 176 0
160 175 0
160 174 0
155 169 0
155 170 0
166 183 0
161 176 0
163 180 0
157 168 0
163 176 0
162 176 0
168 184 0
161 176 0
161 177 0
162 177 0
159 175 0
164 178 0
158 173 0
160 175 0
163 179 0
166 182 0
165 181 0
167 185 0
165 181 0
166 183 0
170 186 0
164 180 0
165 184 0
167 185 0
206 221 218
199 216 186
184 206 125
173 197 67
173 197 44
175 198 72
171 195 44
173 196 44
173 196 72
175 199 72
174 197 57
170 193 62
175 198 57
172 196 51
174 197 88
173 197 80
172 197 88
174 198 67
174 197 62
174 199 76
175 199 84
175 198 51
172 196 62
170 193 62
175 199 57
175 198 67
174 198 72
176 200 76
176 200 72
171 195 67
174 198 76
173 197 76
175 199 95
171 195 72
170 193 76
174 197 62
172 196 62
175 197 67
176 199 67
173 195 67
175 198 88
174 198 62
168 192 72
176 200 76
175 198 80
174 198 72
170 193 62
176 199 80
175 198 67
172 196 67
171 194 72
173 196 80
173 197 88
176 200 76
173 196 62
172 196 76
170 194 80
170 193 67
175 198 88
174 198 67
169 191 57
171 195 76
172 196 84
173 196 25
176 199 84
170 194 76
174 197 72
174 196 72
170 193 76
175 198 57
158 181 100
85 115 154
98 126 154
103 130 143
94 123 147
98 125 154
95 124 158
103 131 155
100 128 148
99 127 158
93 122 156
92 121 161
104 131 145
103 130 152
102 129 153
110 136 156
98 126 158
112 138 161
90 119 154
90 119 157
106 132 170
94 122 166
114 139 182
77 110 183
79 111 185
70 105 181
71 105 179
68 103 178
68 103 178
76 109 178
65 101 176
70 104 176
77 109 173
71 105 172
65 101 170
62 99 169
61 97 168
68 102 165
70 103 165
61 97 163
62 98 159
60 97 164
61 97 164
62 98 163
61 97 157
60 96 157
61 96 153
61 96 157
60 96 159
61 96 149
68 101 157
64 97 151
67 100 145
64 97 142
61 95 141
66 99 142
65 99 147
61 96 153
58 94 154
60 96 145
59 95 158
59 95 153
61 96 155
60 95 150
60 96 156
60 96 151
59 94 149
59 94 150
59 94 138
60 96 147
61 97 155
60 96 150
61 97 156
59 94 150
60 95 149
61 97 155
60 95 150
60 96 154
60 96 148
61 96 157
62 97 152
61 96 152
62 98 158
61 96 154
62 97 160
61 97 154
60 96 155
62 98 157
61 96 150
60 95 142
60 95 147
60 95 140
61 97 156
60 96 152
61 97 157
61 97 156
62 97 156
62 97 156
62 97 153
62 97 149
61 96 155
61 97 158
61 97 153
61 96 147
61 97 153
61 96 148
61 97 154
62 98 156
61 96 154
60 95 142
62 97 151
61 97 152
61 96 143
61 96 149
61 96 154
61 97 156
61 97 147
62 98 155
62 97 153
61 96 150
60 96 152
61 97 152
61 96 147
61 96 141
61 97 151
61 97 155
61 97 155
61 97 151
60 96 149
61 97 150
61 96 149
60 95 141
61 96 153
62 97 153
62 98 161
61 96 145
62 98 157
61 97 149
62 97 152
61 97 149
61 96 154
61 97 150
62 97 148
60 95 147
62 97 144
61 97 149
61 97 150
62 98 155
60 95 144
61 96 142
61 96 145
62 97 154
60 94 141
60 96 147
60 95 140
62 97 149
62 97 145
61 96 147
60 95 142
62 97 148
61 96 151
61 96 147
61 96 147
61 96 144
61 96 149
61 96 141
61 96 142
60 95 139
61 96 140
62 97 150
62 97 151
60 95 139
61 96 140
61 96 150
61 96 141
60 94 134
61 95 136
59 94 133
60 94 134
60 95 141
60 94 131
62 96 141
59 92 130
61 96 139
59 94 134
58 91 124
59 92 124
57 89 121
62 92 123
106 115 18
114 119 0
120 126 0
110 118 0
118 126 0
113 118 0
110 118 0
122 128 0
105 112 0
109 115 0
113 119 0
112 117 0
115 121 0
106 109 0
114 120 0
104 108 0
108 113 0
118 121 0
110 113 0
111 118 0
108 114 0
107 110 0
111 114 0
115 117 0
104 108 0
126 131 0
103 105 0
97 95 0
105 105 0
97 96 0
111 111 0
103 102 0
109 110 0
100 100 0
113 112 0
119 119 0
118 121 0
111 111 0
108 106 0
107 105 0
100 96 0
114 113 0
100 98 0
110 112 0
103 104 0
102 100 0
109 108 0
115 113 0
115 114 0
103 102 0
115 113 0
112 111 0
109 107 0
111 110 0
113 113 0
114 109 0
115 114 0
113 110 0
118 120 0
119 118 0
130 130 0
124 123 0
123 123 0
116 112 0
128 129 0
127 127 0
123 120 0
114 115 0
126 127 0
127 128 0
123 122 0
127 127 0
134 136 0
137 138 0
129 129 0
134 134 0
135 139 0
137 140 0
134 136 0
137 142 0
149 156 0
140 144 0
145 149 0
141 146 0
146 149 0
147 154 0
149 156 0
142 150 0
153 161 0
144 151 0
143 150 0
150 158 0
155 163 0
153 163 0
149 158 0
157 169 0
157 168 0
156 165 0
150 160 0
149 159 0
158 167 0
146 156 0
153 162 0
156 167 0
153 165 0
162 174 0
154 165 0
159 171 0
159 172 0
153 169 0
159 170 0
156 167 0
159 172 0
161 175 0
159 173 0
159 173 0
159 172 0
161 174 0
156 168 0
162 177 0
158 172 0
160 174 0
160 175 0
167 184 0
160 176 0
162 178 0
163 179 0
160 178 0
166 183 0
161 176 0
163 180 0
165 181 0
167 185 0
162 179 0
166 184 0
163 181 0
165 182 0
164 180 0
164 179 0
167 187 0
165 182 0
182 204 120
173 197 62
174 197 76
171 195 76
175 198 84
171 195 84
171 195 67
172 196 57
175 199 67
173 197 76
171 194 67
174 198 72
174 197 57
174 198 80
172 196 67
173 196 67
175 198 95
173 196 72
171 196 76
175 198 44
173 197 57
174 197 72
174 199 80
172 197 80
171 195 72
175 198 62
172 196 84
173 197 80
172 196 72
175 198 72
174 198 80
171 195 84
174 198 72
170 194 62
174 198 84
175 199 80
172 197 84
174 198 62
172 195 67
173 197 51
172 196 76
177 201 88
170 194 62
171 195 80
172 196 80
171 195 62
171 195 67
172 196 67
174 198 92
169 193 80
170 194 76
172 194 62
171 195 25
169 192 88
171 195 72
169 193 67
171 194 84
171 194 62
171 194 67
173 197 67
172 195 62
171 194 67
172 195 57
172 196 80
170 193 80
173 196 67
167 191 76
174 197 80
172 195 92
174 197 72
173 197 84
95 122 126
97 125 143
98 126 148
90 119 147
96 125 152
107 133 147
92 121 160
90 119 149
94 123 149
99 126 156
109 136 163
99 127 158
102 129 161
97 125 154
104 131 150
102 130 141
111 137 149
102 129 148
98 126 168
98 126 163
97 125 153
105 131 145
96 124 164
92 121 181
68 103 181
71 105 182
68 103 179
79 112 184
71 106 181
71 105 174
71 105 179
80 111 181
74 107 175
62 99 173
68 103 171
69 103 176
80 111 170
68 102 167
70 103 162
62 98 170
62 98 171
61 97 163
60 96 154
61 98 167
61 97 160
61 97 158
60 96 155
61 97 157
60 95 158
65 99 157
70 102 147
69 102 147
70 101 143
70 102 141
62 96 143
65 96 129
68 101 134
61 97 154
61 97 160
60 96 151
59 94 145
60 95 154
61 96 154
61 97 159
60 95 149
60 96 162
60 94 147
59 95 153
59 94 151
59 95 148
60 95 149
60 96 155
61 96 149
60 96 150
62 99 162
60 95 147
60 95 148
60 96 145
60 95 143
61 96 154
61 97 157
61 96 153
60 95 148
60 96 151
60 96 147
61 97 155
59 95 148
61 97 149
61 97 155
60 96 147
60 95 148
61 97 152
61 97 157
60 96 150
62 97 160
61 96 154
60 96 145
61 96 152
62 97 151
61 97 159
61 97 152
60 96 156
61 96 148
60 96 148
61 97 152
61 96 145
61 96 151
62 97 153
61 96 143
61 97 156
61 97 148
61 97 150
62 98 155
61 96 154
60 95 136
61 96 151
60 95 144
61 97 153
62 97 156
61 96 152
60 95 143
61 97 151
59 95 141
62 97 152
61 97 152
61 97 153
62 98 154
62 97 151
60 96 144
62 97 150
61 97 148
62 98 161
61 97 155
61 96 147
63 98 159
61 97 151
60 96 147
59 94 134
61 96 145
62 98 158
61 97 149
60 96 143
60 95 135
60 96 143
61 96 150
60 96 142
62 98 159
62 97 150
61 96 150
61 96 141
60 96 149
61 96 145
62 97 154
61 96 147
61 96 140
61 96 151
61 96 143
60 95 145
60 96 147
61 96 144
61 96 142
61 97 151
61 97 144
61 97 152
61 96 143
62 97 148
62 97 152
62 97 145
59 93 127
61 96 147
61 96 142
61 96 140
60 95 144
61 96 140
60 95 131
59 93 127
61 96 142
60 94 123
59 93 129
59 93 135
59 93 134
59 94 134
60 94 128
58 92 123
57 90 120
58 91 123
59 93 135
100 119 79
119 127 0
124 133 0
122 128 0
127 139 0
120 128 0
108 114 0
118 126 0
109 116 0
118 124 0
124 133 0
106 110 0
111 118 0
122 129 0
106 111 0
119 126 0
102 106 0
105 107 0
110 115 0
114 116 0
102 104 0
108 113 0
104 105 0
103 105 0
107 109 0
105 108 0
104 106 0
110 115 0
114 115 0
101 103 0
106 108 0
119 120 0
116 116 0
106 103 0
101 98 0
111 107 0
119 121 0
108 106 0
108 110 0
103 103 0
101 99 0
109 109 0
101 100 0
101 100 0
115 117 0
114 110 0
110 108 0
101 100 0
116 113 0
108 104 0
115 113 0
108 107 0
115 111 0
112 108 0
117 118 0
114 113 0
123 122 0
114 113 0
121 118 0
114 112 0
113 109 0
120 120 0
134 135 0
122 122 0
127 124 0
133 133 0
127 130 0
130 129 0
138 142 0
125 128 0
134 136 0
122 120 0
137 141 0
134 134 0
132 136 0
133 135 0
130 132 0
138 143 0
134 136 0
143 145 0
137 144 0
146 153 0
140 144 0
144 150 0
139 144 0
140 146 0
145 152 0
151 158 0
144 150 0
146 152 0
142 147 0
143 151 0
147 155 0
153 162 0
146 155 0
151 158 0
150 159 0
148 153 0
152 162 0
155 164 0
150 159 0
153 166 0
155 166 0
153 162 0
159 171 0
150 161 0
149 159 0
147 158 0
160 174 0
155 169 0
157 170 0
156 170 0
159 175 0
154 166 0
153 165 0
159 173 0
160 176 0
160 174 0
156 171 0
163 178 0
160 173 0
158 173 0
164 178 0
159 173 0
158 174 0
160 177 0
159 173 0
162 175 0
161 177 0
161 178 0
165 182 0
165 183 0
165 182 0
157 171 0
166 186 0
164 181 0
163 180 0
163 180 0
167 184 0
168 185 0
166 184 0
170 188 0
175 198 51
176 199 51
175 198 92
175 198 62
177 200 88
174 198 57
175 198 67
175 198 57
171 195 80
175 198 72
172 195 62
174 197 80
170 193 36
174 198 72
174 197 51
173 197 51
173 197 84
175 197 76
175 199 84
172 196 57
176 199 84
172 196 62
174 198 76
175 198 84
169 192 51
175 198 62
170 193 67
173 196 62
175 199 92
174 198 76
172 195 57
174 198 51
172 195 51
173 196 57
173 197 84
176 200 84
171 195 62
173 197 76
172 196 57
174 197 67
174 198 92
175 199 72
173 196 62
173 197 80
168 191 84
174 198 99
175 198 76
173 196 72
171 194 72
168 192 57
168 192 76
166 190 72
172 196 88
170 194 76
174 197 67
171 194 76
170 194 62
173 197 62
173 196 62
173 197 76
176 199 80
175 198 72
174 197 84
169 193 67
169 192 72
170 193 67
174 197 57
175 198 80
172 195 88
172 196 57
174 197 84
117 143 134
105 133 156
95 123 140
92 121 143
96 124 145
96 124 148
103 131 158
103 131 161
99 126 152
106 134 159
115 141 161
97 125 161
101 128 155
101 128 157
103 130 156
113 140 166
94 122 155
106 133 156
115 141 168
94 123 149
95 123 153
96 124 157
98 126 160
88 117 154
72 105 164
64 101 177
86 117 187
74 107 181
76 109 181
82 113 184
81 113 182
69 103 175
74 107 177
74 107 173
68 103 177
68 102 174
77 109 175
79 110 171
64 99 157
61 98 164
62 98 170
61 97 159
61 97 163
61 97 164
61 97 161
61 97 159
61 96 158
61 97 162
60 96 160
59 94 153
65 99 151
73 104 146
65 100 145
66 99 144
68 101 156
66 99 149
72 103 140
60 96 150
60 95 151
59 93 142
60 96 151
61 96 155
60 96 149
59 94 146
61 97 164
62 98 156
60 94 147
59 94 141
61 96 157
61 96 152
59 95 146
61 97 157
59 93 145
61 97 149
61 96 152
60 96 153
60 95 155
60 96 155
59 95 145
60 95 147
61 97 152
61 96 154
62 97 159
60 95 150
61 97 159
60 96 147
61 96 153
60 95 150
60 95 150
60 96 154
61 97 154
60 95 143
61 96 150
60 96 145
61 96 147
62 98 162
61 96 150
62 98 159
61 96 151
62 97 156
61 97 157
61 96 151
60 95 144
61 96 154
61 97 150
61 96 145
61 96 152
61 97 155
62 97 155
61 97 148
61 97 152
61 96 151
61 97 156
61 96 145
61 97 154
60 95 137
62 97 151
61 97 150
62 98 154
61 96 145
61 96 148
61 96 147
62 97 157
62 97 149
61 97 154
61 96 142
62 97 151
61 96 144
62 97 155
61 97 150
62 97 145
62 97 151
62 98 152
62 97 158
62 98 153
61 96 145
62 97 153
61 97 154
61 97 144
61 96 143
61 96 150
61 97 152
61 97 148
61 97 154
61 97 152
61 96 144
62 98 161
60 95 143
61 96 143
61 96 143
61 96 151
62 97 151
61 96 151
61 96 144
59 94 141
61 96 144
60 95 140
60 95 145
61 96 142
62 97 153
60 95 142
59 94 139
60 95 129
61 96 137
61 97 152
60 95 147
61 96 140
60 95 142
61 96 144
59 94 125
60 95 139
58 92 124
61 96 138
60 95 140
61 96 141
60 94 142
59 94 133
59 93 131
61 96 142
60 95 136
60 94 127
60 95 139
58 92 121
59 92 124
59 93 129
59 93 132
59 92 126
109 121 45
126 135 0
113 119 0
108 115 0
115 124 0
109 118 0
123 129 0
114 121 0
106 110 0
114 121 0
124 130 0
102 109 0
119 126 0
113 118 0
109 116 0
108 111 0
111 117 0
113 119 0
118 126 0
108 112 0
116 121 0
108 113 0
109 112 0
106 109 0
112 117 0
120 121 0
114 112 0
106 108 0
110 112 0
111 113 0
106 109 0
117 118 0
115 115 0
114 116 0
121 122 0
108 109 0
119 119 0
112 113 0
109 110 0
102 102 0
96 91 0
106 106 0
116 114 0
107 105 0
104 103 0
109 111 0
106 105 0
113 112 0
123 122 0
127 130 0
111 111 0
114 114 0
119 119 0
114 115 0
110 109 0
110 110 0
124 120 0
123 122 0
119 116 0
129 131 0
107 107 0
123 121 0
129 130 0
127 126 0
131 131 0
126 127 0
124 126 0
125 124 0
131 135 0
138 143 0
130 133 0
130 133 0
129 134 0
136 139 0
142 147 0
129 133 0
141 146 0
138 144 0
132 133 0
135 141 0
137 141 0
146 153 0
143 148 0
130 132 0
144 151 0
144 149 0
138 143 0
148 154 0
148 154 0
147 151 0
151 159 0
152 160 0
153 163 0
151 160 0
151 160 0
147 156 0
152 161 0
156 168 0
150 160 0
148 159 0
151 163 0
153 163 0
155 167 0
153 165 0
155 167 0
151 163 0
159 170 0
162 175 0
159 171 0
154 165 0
155 167 0
153 163 0
160 173 0
158 171 0
163 177 0
159 172 0
162 175 0
158 169 0
162 177 0
163 177 0
157 173 0
165 180 0
163 177 0
157 173 0
157 175 0
162 178 0
158 171 0
165 182 0
159 175 0
162 177 0
165 182 0
160 176 0
166 180 0
163 180 0
167 183 0
161 176 0
160 179 0
167 185 0
162 181 0
171 191 0
165 184 0
168 184 0
174 197 67
176 200 95
173 197 67
174 197 57
177 200 76
173 197 44
174 196 67
173 196 62
173 197 80
174 197 62
175 199 95
175 199 72
173 196 51
177 200 80
174 198 76
174 197 57
170 193 57
171 194 51
173 198 72
173 197 62
176 199 92
173 197 36
173 197 62
172 196 72
172 195 57
170 194 62
173 197 80
173 196 80
170 194 62
175 198 57
171 195 84
171 194 95
172 196 67
168 192 57
170 193 57
172 196 67
172 195 72
171 195 72
173 197 80
176 200 84
172 195 72
173 197 62
174 197 76
169 192 76
173 196 57
174 197 76
174 197 72
175 198 80
171 196 92
167 192 62
172 194 67
173 195 57
170 195 62
169 193 76
170 194 67
173 196 67
168 192 44
173 197 80
171 195 62
172 196 67
172 195 67
165 188 57
172 197 88
173 197 105
175 199 84
169 193 62
170 193 76
169 192 67
169 193 51
170 194 76
171 195 72
155 178 103
89 118 139
97 126 143
93 121 151
87 116 154
95 122 145
94 123 150
84 115 147
95 124 159
106 133 163
85 115 164
86 116 155
96 124 164
105 133 155
84 115 158
93 121 151
96 125 159
95 123 153
106 133 155
107 134 160
114 140 150
99 127 164
86 116 159
92 121 151
84 114 167
82 113 170
76 109 176
78 111 183
76 109 181
66 102 178
71 105 181
66 101 174
72 105 177
77 109 177
65 100 175
68 102 169
74 107 175
77 108 171
64 100 167
81 112 179
62 98 163
62 98 162
62 98 168
61 97 162
61 97 162
60 96 156
60 96 155
60 95 150
60 96 153
61 96 155
60 95 151
63 97 158
69 103 153
62 96 148
65 98 141
61 96 149
73 104 146
70 102 149
62 96 149
59 94 152
61 96 151
60 96 148
60 95 145
59 94 143
59 95 150
59 94 149
60 95 152
61 96 147
60 96 155
60 95 145
59 94 142
60 96 154
60 95 153
60 95 145
59 94 144
59 94 154
60 95 150
60 95 146
60 96 155
60 95 144
60 96 150
61 97 157
61 96 152
61 96 151
60 96 149
61 97 152
61 95 145
61 96 157
62 97 156
60 95 140
61 96 153
61 97 148
61 96 150
61 96 150
61 97 155
61 96 147
61 96 144
61 96 152
61 96 145
61 97 154
62 98 155
61 97 151
62 99 166
61 97 153
61 97 158
61 97 152
62 97 158
62 97 155
61 96 151
60 96 148
61 96 150
61 96 145
61 97 149
61 96 152
61 97 153
60 95 142
61 97 150
60 96 142
62 97 153
61 96 148
61 97 153
60 96 149
61 96 141
61 96 153
62 98 157
61 97 153
60 96 148
61 96 150
61 97 152
61 97 152
61 96 148
61 97 152
62 98 155
62 97 155
62 98 157
59 94 140
61 96 151
60 96 144
60 95 142
61 96 148
61 96 149
61 96 142
61 96 144
61 97 153
61 97 150
60 95 143
61 97 149
60 95 142
61 95 139
61 96 141
60 96 140
61 97 153
59 94 136
61 97 145
61 97 148
62 98 151
61 97 152
60 95 136
62 97 156
61 96 143
61 95 140
61 96 140
61 95 141
60 94 140
60 95 140
60 96 140
59 94 139
60 94 140
60 95 133
62 97 150
60 94 135
61 95 140
61 96 141
58 92 126
59 92 136
59 93 134
61 95 146
60 94 144
59 93 120
59 93 128
59 93 129
59 92 124
60 93 135
58 92 125
55 86 104
58 91 125
81 101 96
123 130 0
118 126 0
125 130 0
112 123 0
117 124 0
123 130 0
112 118 0
113 120 0
112 122 0
108 116 0
108 116 0
109 112 0
111 117 0
124 130 0
112 120 0
116 127 0
118 124 0
115 121 0
107 112 0
115 119 0
114 121 0
113 117 0
117 124 0
108 112 0
120 126 0
122 126 0
116 122 0
101 101 0
111 113 0
104 106 0
120 123 0
103 107 0
107 107 0
114 115 0
112 114 0
118 118 0
112 115 0
101 102 0
104 106 0
109 113 0
106 109 0
118 119 0
105 107 0
119 117 0
112 117 0
108 107 0
114 115 0
119 121 0
124 128 0
120 120 0
117 116 0
114 116 0
120 119 0
113 112 0
120 121 0
118 120 0
124 126 0
120 119 0
124 123 0
125 126 0
124 125 0
127 128 0
132 134 0
124 124 0
132 131 0
129 131 0
140 141 0
131 134 0
127 128 0
133 135 0
136 137 0
129 134 0
137 141 0
141 146 0
141 147 0
130 134 0
133 135 0
140 146 0
143 149 0
142 146 0
139 144 0
141 147 0
150 159 0
151 160 0
142 147 0
148 156 0
151 157 0
153 162 0
148 156 0
148 157 0
143 150 0
150 157 0
143 150 0
156 165 0
158 169 0
151 161 0
154 164 0
154 165 0
155 167 0
152 160 0
153 163 0
150 159 0
153 164 0
151 161 0
151 160 0
152 164 0
159 173 0
158 171 0
160 172 0
157 169 0
152 164 0
158 172 0
156 170 0
158 171 0
164 180 0
157 171 0
161 174 0
161 175 0
156 170 0
160 173 0
161 176 0
161 174 0
158 172 0
159 171 0
166 182 0
162 179 0
163 179 0
157 172 0
167 182 0
161 176 0
165 181 0
164 180 0
165 184 0
160 177 0
164 180 0
161 178 0
167 184 0
168 185 0
167 186 0
168 184 0
167 185 0
167 185 0
172 196 44
174 197 76
175 198 25
175 198 72
172 197 80
172 195 57
176 200 92
172 195 51
174 197 57
175 198 67
175 198 62
175 198 67
175 198 76
173 196 67
170 194 57
176 199 84
173 196 57
172 196 57
171 195 72
171 194 67
171 195 80
173 197 62
175 198 67
172 196 80
175 199 92
174 198 72
172 196 62
174 198 72
171 196 57
170 194 76
170 194 62
170 194 62
173 197 44
174 198 67
171 195 44
171 195 72
171 195 72
176 200 72
171 195 80
174 197 84
170 193 67
172 196 80
173 197 72
170 195 84
174 197 84
173 197 72
166 190 72
174 197 80
169 194 88
172 196 72
173 196 67
171 196 67
169 194 62
174 197 84
170 194 51
169 194 57
170 193 80
170 193 84
172 196 76
174 197 72
172 196 84
171 195 80
174 198 84
170 194 80
169 193 76
170 193 62
173 196 72
170 194 67
170 193 72
169 193 62
172 195 62
171 195 62
100 128 144
86 115 151
94 122 133
95 123 154
100 128 155
93 121 150
83 113 149
91 120 163
100 127 157
96 124 164
99 126 151
88 117 154
97 125 150
95 124 154
96 125 150
103 131 163
103 130 151
94 122 155
112 138 158
101 128 147
100 128 155
91 120 161
98 125 160
101 129 165
91 119 163
82 113 160
81 112 169
79 111 183
74 107 175
77 109 180
80 111 180
79 110 177
81 112 178
82 113 182
74 107 174
71 105 172
74 107 175
77 108 166
71 104 171
72 105 171
61 98 171
62 98 163
63 98 160
61 98 165
67 102 165
61 97 160
61 97 162
62 97 153
59 94 143
60 95 156
60 96 150
63 97 144
66 100 150
76 108 145
68 100 148
70 101 141
64 97 137
70 101 137
62 96 147
59 95 144
59 94 141
59 95 148
60 95 151
62 97 153
60 96 151
59 94 144
61 96 150
60 96 150
59 94 147
61 96 155
59 95 148
61 97 156
62 97 155
61 96 148
60 96 154
62 98 158
61 97 156
59 95 154
61 96 157
60 96 153
60 95 140
59 94 133
62 97 151
61 96 150
61 97 157
61 97 158
60 95 149
60 95 143
61 96 152
60 95 151
60 94 141
61 96 148
59 94 148
60 95 146
61 97 152
61 97 149
62 97 155
61 96 153
60 95 149
61 96 154
62 98 155
61 96 152
60 95 145
59 95 140
62 97 154
61 96 147
61 97 157
62 97 155
60 95 149
61 96 149
62 97 155
61 96 153
61 97 150
60 96 150
61 97 154
61 96 151
61 97 152
61 97 153
61 96 144
62 97 157
60 96 144
60 95 147
62 97 148
61 96 150
61 96 150
60 96 147
62 98 154
60 96 140
60 95 145
61 97 147
62 97 151
61 96 151
61 97 147
60 95 139
62 98 157
61 96 147
61 96 144
61 96 144
61 96 154
62 97 152
60 95 136
62 97 150
60 95 142
61 96 143
60 95 140
61 96 143
61 96 150
61 96 152
61 97 149
59 94 140
61 97 148
61 96 143
61 96 147
61 96 150
61 96 147
61 96 144
60 95 126
60 95 139
61 96 149
60 96 143
61 96 143
60 95 137
60 96 139
61 95 135
61 96 139
61 96 140
59 93 134
60 94 135
59 93 130
59 94 139
60 94 134
59 93 135
58 92 121
60 95 143
61 96 141
60 94 135
58 92 129
57 90 114
59 93 134
60 95 138
61 96 146
60 95 142
60 93 129
58 91 128
57 90 114
108 120 65
122 130 0
112 124 0
115 125 0
118 129 0
122 132 0
107 112 0
115 123 0
130 137 0
106 112 0
116 124 0
131 140 0
121 130 0
118 126 0
106 110 0
121 125 0
113 121 0
113 120 0
105 106 0
118 125 0
116 123 0
117 124 0
120 125 0
117 121 0
117 122 0
120 126 0
116 119 0
100 105 0
109 112 0
111 112 0
112 114 0
107 111 0
109 112 0
111 112 0
110 111 0
119 119 0
113 116 0
125 127 0
105 108 0
109 110 0
99 101 0
112 115 0
111 113 0
118 121 0
121 121 0
112 114 0
113 118 0
132 134 0
111 111 0
111 112 0
119 124 0
118 121 0
122 122 0
117 117 0
121 123 0
115 113 0
124 123 0
117 113 0
124 123 0
121 119 0
129 134 0
123 125 0
131 134 0
126 126 0
124 127 0
124 124 0
131 134 0
126 127 0
135 139 0
126 130 0
132 136 0
137 141 0
127 132 0
126 129 0
130 133 0
143 146 0
125 127 0
139 143 0
129 132 0
135 139 0
142 145 0
149 152 0
145 153 0
143 149 0
146 154 0
140 142 0
146 151 0
146 154 0
150 155 0
142 149 0
150 157 0
146 153 0
145 151 0
154 163 0
153 163 0
154 163 0
154 163 0
147 155 0
153 164 0
155 168 0
156 168 0
152 162 0
153 163 0
154 165 0
157 170 0
152 161 0
158 169 0
157 172 0
155 169 0
160 173 0
153 167 0
163 176 0
155 168 0
155 169 0
156 168 0
158 172 0
158 173 0
161 176 0
155 169 0
162 177 0
163 178 0
158 173 0
161 176 0
164 181 0
157 172 0
156 171 0
165 181 0
164 181 0
163 177 0
162 177 0
159 176 0
160 175 0
162 180 0
165 181 0
164 181 0
167 185 0
165 184 0
168 188 0
164 181 0
164 181 0
161 178 0
165 182 0
165 184 0
173 196 72
175 198 67
173 197 84
175 199 76
175 198 67
173 196 57
174 198 72
172 196 88
172 196 67
172 195 44
171 194 62
173 196 62
173 197 72
173 196 76
176 200 92
175 199 80
170 193 62
174 197 57
171 195 67
172 196 76
175 199 57
171 195 88
173 197 72
171 195 44
177 200 80
170 194 62
171 195 76
171 196 72
173 197 76
173 197 99
174 198 102
172 196 57
172 197 84
173 198 84
173 197 88
173 197 80
174 198 105
170 194 67
173 197 67
171 195 67
170 194 62
171 194 72
173 196 67
174 198 76
172 194 72
168 192 67
173 197 80
171 195 76
170 195 80
170 193 76
169 192 88
171 195 51
170 194 76
173 197 80
171 194 76
171 195 84
172 195 62
173 196 95
171 196 80
170 193 62
173 196 51
171 195 67
171 195 88
171 195 80
171 193 80
169 193 62
169 192 80
169 194 51
174 198 84
172 196 76
170 194 76
174 197 80
140 164 113
83 112 143
104 131 153
83 113 148
94 122 149
95 123 150
93 121 143
93 121 155
101 128 157
93 122 164
97 124 152
94 122 151
93 121 145
93 121 147
76 107 147
108 135 160
97 124 155
103 129 159
99 126 164
108 135 147
111 137 156
122 146 161
110 135 155
93 121 157
99 126 159
93 121 160
87 117 159
75 108 166
67 102 174
68 103 180
71 105 177
65 100 172
84 114 178
79 111 177
71 105 174
68 103 172
68 103 175
74 107 173
71 105 172
71 104 167
82 112 168
61 98 165
61 97 156
61 96 158
61 97 162
61 97 157
61 96 157
60 96 159
61 97 160
60 96 155
60 95 156
62 97 155
62 97 157
66 100 149
65 97 137
66 98 144
61 95 139
60 94 141
63 96 136
59 95 154
60 95 149
60 95 148
59 95 150
59 94 139
61 97 157
60 96 152
60 96 152
60 95 148
59 95 151
60 95 150
62 98 155
61 96 151
60 95 139
60 96 151
59 94 140
60 95 151
60 96 148
60 95 146
61 96 155
60 95 148
60 95 145
61 96 153
60 96 148
61 96 147
60 95 148
60 96 152
61 96 151
59 94 140
60 95 150
61 96 149
61 97 156
61 97 153
61 96 145
61 97 155
61 97 152
61 96 145
60 95 147
60 95 142
61 97 159
61 97 158
60 95 143
61 96 153
61 96 153
62 98 156
61 97 151
61 97 154
61 96 142
61 96 155
62 98 158
61 96 148
61 97 154
61 97 150
61 96 151
62 97 150
61 97 155
61 97 154
62 98 154
62 98 156
60 95 145
62 98 153
61 97 151
60 95 143
61 96 151
61 96 151
60 96 140
60 95 145
62 98 157
62 97 152
61 96 149
61 96 140
61 97 147
62 97 151
61 97 147
62 97 154
60 95 148
61 96 145
60 94 143
61 97 151
61 97 150
61 97 152
61 96 141
61 96 148
62 97 155
61 96 140
61 96 143
60 95 143
61 96 149
61 96 139
61 96 139
61 97 149
62 97 152
61 96 147
59 94 134
61 96 144
61 96 147
61 96 143
61 96 152
59 94 131
61 97 147
61 96 145
59 94 136
59 93 134
62 97 148
60 94 135
60 95 139
60 95 135
61 95 139
61 96 143
61 96 136
61 96 144
59 93 132
60 95 134
61 95 136
60 94 138
60 95 136
60 94 135
58 91 121
59 92 125
59 93 129
58 92 129
58 91 132
60 95 141
59 92 126
58 91 122
65 93 102
116 127 19
116 126 0
119 130 0
127 135 0
111 120 0
120 129 0
112 121 0
112 119 0
106 111 0
111 118 0
120 128 0
112 116 0
103 110 0
114 123 0
118 124 0
126 132 0
121 129 0
113 119 0
108 115 0
97 102 0
118 128 0
122 128 0
110 114 0
120 126 0
115 117 0
107 112 0
112 116 0
107 111 0
107 112 0
109 113 0
117 122 0
115 120 0
118 122 0
111 114 0
103 106 0
115 117 0
105 106 0
122 127 0
104 101 0
117 123 0
114 116 0
111 111 0
110 115 0
117 120 0
125 127 0
111 114 0
124 126 0
114 115 0
123 125 0
125 125 0
119 120 0
123 126 0
124 126 0
125 124 0
128 130 0
122 123 0
118 118 0
121 123 0
126 128 0
121 123 0
124 128 0
125 131 0
133 135 0
125 127 0
122 121 0
123 124 0
127 130 0
124 124 0
128 129 0
133 137 0
135 139 0
125 128 0
136 141 0
130 134 0
139 142 0
132 136 0
141 150 0
147 153 0
136 139 0
137 141 0
137 141 0
144 149 0
142 147 0
147 153 0
139 144 0
137 145 0
149 157 0
142 148 0
154 163 0
142 147 0
149 158 0
148 156 0
145 152 0
148 157 0
148 156 0
150 159 0
146 155 0
153 162 0
152 160 0
151 163 0
155 164 0
153 165 0
153 164 0
156 169 0
155 167 0
155 167 0
159 171 0
161 173 0
158 171 0
154 168 0
156 167 0
149 161 0
155 169 0
156 169 0
157 169 0
162 174 0
159 172 0
164 180 0
161 174 0
160 174 0
158 174 0
159 173 0
161 179 0
163 179 0
160 176 0
159 174 0
163 180 0
169 185 0
162 178 0
164 181 0
166 183 0
164 181 0
165 182 0
163 180 0
162 180 0
160 177 0
165 181 0
162 177 0
163 180 0
164 183 0
163 182 0
164 183 0
156 175 0
177 200 72
174 198 80
175 199 44
172 195 62
173 196 36
173 196 44
175 199 84
174 198 84
177 200 88
172 197 67
173 197 62
176 200 88
176 199 76
174 197 36
175 199 76
173 196 80
170 194 62
172 196 62
174 199 88
173 197 76
171 195 51
173 197 72
175 199 95
175 199 88
173 197 84
171 194 36
174 198 72
172 195 57
173 196 62
171 196 62
171 195 72
173 197 72
173 196 72
168 191 72
173 197 80
172 196 76
171 195 57
169 192 76
174 196 67
170 193 76
171 196 102
167 190 36
175 199 80
171 195 76
172 197 76
173 196 92
170 194 67
174 197 88
172 195 72
171 194 84
169 194 76
171 196 88
171 195 62
170 194 67
170 194 84
169 193 57
172 196 62
169 192 51
171 195 72
171 194 84
170 194 76
171 194 80
169 193 80
167 191 57
171 195 80
171 194 72
165 189 80
172 194 84
171 194 67
170 194 72
166 190 67
168 191 76
163 186 92
99 127 148
96 125 149
97 125 153
87 116 138
99 128 156
90 119 148
94 122 149
89 118 144
97 124 155
97 125 138
95 123 163
103 130 161
96 125 159
90 119 153
97 125 155
101 128 153
103 130 154
94 122 150
90 118 148
105 132 166
89 118 147
104 132 162
111 136 152
97 124 149
92 121 146
92 120 142
71 104 151
94 123 161
81 112 179
74 107 179
72 106 181
74 107 179
71 105 176
70 104 169
71 104 168
74 106 172
85 116 181
71 105 169
77 109 174
68 102 168
76 108 169
61 97 162
63 98 161
62 97 154
62 97 154
61 97 158
63 98 160
60 95 151
60 95 157
61 96 155
59 94 149
60 95 155
59 94 141
65 99 148
66 98 137
67 99 142
63 96 138
60 95 139
59 94 135
59 94 143
60 95 146
60 96 153
59 94 147
60 95 151
61 97 153
60 95 147
60 95 144
60 95 147
58 93 139
59 94 145
61 97 157
61 96 156
60 95 149
60 95 146
61 96 159
61 96 145
60 95 155
60 95 154
61 97 158
60 96 150
59 94 142
61 96 150
61 97 151
61 96 143
61 97 155
62 98 157
60 96 150
61 97 151
60 95 147
62 97 157
60 96 145
61 96 145
61 97 147
60 95 149
61 96 147
60 96 154
60 95 148
61 96 155
62 98 158
61 97 149
62 97 150
61 96 144
62 97 153
60 96 147
61 96 149
61 96 149
61 96 149
61 96 148
62 97 147
62 97 157
61 96 151
59 94 133
59 94 135
62 97 154
61 96 144
61 97 145
62 97 150
62 97 148
60 95 143
61 97 152
61 96 149
61 96 148
61 95 139
61 97 152
61 96 147
61 96 147
62 97 159
61 96 148
60 95 143
60 95 135
62 98 156
60 95 145
60 95 148
61 96 147
61 96 145
60 96 144
60 96 142
62 97 150
60 95 143
61 96 145
62 97 154
60 96 140
60 96 142
60 95 129
60 95 142
60 96 145
61 97 149
61 96 145
60 95 135
61 96 141
61 96 141
59 94 136
60 95 137
61 97 147
60 94 135
60 95 141
60 95 143
61 97 153
59 94 133
60 95 137
61 96 141
60 95 139
60 95 136
59 94 135
61 95 141
61 96 140
60 95 139
60 94 136
59 93 135
60 94 130
59 93 133
60 95 140
59 94 130
60 95 142
59 93 124
60 94 131
60 95 131
60 94 136
59 92 120
60 93 138
61 95 138
59 92 126
59 92 127
98 115 85
122 132 0
106 116 0
131 142 0
120 131 0
113 122 0
125 134 0
117 126 0
120 132 0
106 116 0
106 112 0
119 130 0
112 121 0
116 122 0
126 132 0
118 125 0
113 120 0
101 108 0
116 122 0
119 126 0
118 126 0
118 123 0
113 120 0
113 118 0
103 108 0
122 127 0
121 128 0
119 123 0
117 120 0
118 124 0
117 121 0
126 132 0
120 122 0
118 124 0
119 123 0
108 112 0
112 115 0
112 115 0
120 126 0
119 126 0
125 128 0
114 120 0
120 122 0
109 112 0
121 124 0
115 115 0
114 114 0
120 124 0
127 129 0
122 125 0
120 121 0
117 119 0
119 123 0
129 131 0
121 124 0
122 123 0
124 125 0
121 122 0
116 116 0
127 125 0
126 128 0
129 129 0
124 125 0
131 134 0
130 132 0
129 135 0
138 144 0
131 134 0
129 131 0
128 133 0
136 142 0
129 133 0
137 142 0
133 135 0
136 141 0
135 137 0
139 144 0
138 142 0
138 138 0
147 154 0
137 143 0
138 143 0
140 146 0
139 144 0
142 147 0
144 149 0
141 149 0
147 153 0
146 153 0
145 152 0
149 156 0
147 155 0
148 157 0
149 158 0
143 151 0
144 151 0
146 156 0
150 157 0
155 167 0
151 161 0
152 160 0
151 162 0
148 156 0
153 164 0
154 164 0
145 154 0
155 166 0
153 164 0
154 166 0
155 168 0
155 168 0
159 174 0
157 168 0
157 171 0
160 173 0
156 169 0
158 173 0
159 174 0
157 172 0
159 172 0
163 179 0
161 177 0
157 173 0
164 180 0
159 175 0
159 171 0
164 181 0
163 180 0
166 183 0
165 181 0
165 183 0
164 181 0
161 177 0
166 183 0
164 180 0
167 185 0
161 178 0
163 182 0
162 178 0
164 181 0
165 182 0
163 180 0
162 181 0
165 183 0
175 198 99
175 199 62
175 199 99
172 197 72
177 200 88
174 197 67
176 199 62
172 196 80
173 196 44
173 197 80
173 197 72
174 198 72
173 197 84
171 195 67
171 194 44
172 196 76
175 199 92
175 198 67
175 198 72
170 194 76
174 197 76
172 196 62
173 198 72
173 196 88
165 189 67
171 195 67
171 194 72
173 197 72
171 195 80
174 198 62
173 197 67
168 192 57
171 194 80
175 198 72
173 197 76
172 195 67
171 195 92
173 196 67
169 193 62
170 193 80
168 193 62
173 196 62
174 198 95
173 196 62
171 195 72
171 196 76
171 195 80
169 193 72
173 196 76
167 191 76
171 195 80
169 193 72
174 198 95
165 188 36
170 193 67
169 192 76
170 193 76
168 192 76
166 190 67
174 198 80
171 194 84
170 194 72
171 194 62
171 195 84
171 195 67
172 196 88
168 192 92
169 193 67
168 192 80
175 198 84
171 195 84
173 197 72
170 193 62
121 147 133
97 125 150
88 118 157
96 123 149
90 118 149
86 115 139
92 121 149
88 117 156
99 126 140
98 125 156
103 130 172
86 115 150
98 125 160
94 121 142
95 123 154
104 130 148
99 126 156
98 125 150
95 123 152
98 125 155
106 133 153
110 136 159
107 133 155
111 137 153
99 127 167
105 130 163
85 115 158
88 117 150
80 110 154
74 107 172
74 107 179
82 113 180
74 107 175
74 107 175
74 107 172
72 106 175
65 100 174
77 109 173
71 104 161
71 105 167
77 109 170
65 100 164
62 98 160
61 97 163
62 98 167
63 98 158
60 96 153
60 96 153
61 97 156
61 96 154
59 95 151
62 97 158
62 97 151
69 101 135
62 95 137
70 101 134
64 97 144
74 105 133
65 98 134
61 94 136
60 95 152
60 95 140
61 96 148
58 94 143
60 94 140
59 95 148
59 95 146
60 94 142
60 95 151
59 94 140
60 95 143
60 95 155
60 95 142
59 94 136
59 95 148
60 96 154
60 95 145
60 95 143
60 96 145
60 96 147
61 96 154
61 96 155
60 95 148
61 97 158
61 97 148
60 95 149
60 95 144
60 95 152
60 95 147
60 95 144
60 95 150
61 96 153
61 96 148
61 96 150
61 96 151
62 97 147
61 96 148
59 94 139
60 96 145
61 97 153
60 95 145
60 96 152
61 97 145
61 97 154
62 97 151
60 96 152
61 96 157
61 96 140
61 97 151
60 95 149
60 95 145
62 97 153
60 95 143
61 96 149
62 97 158
60 95 146
61 97 151
62 97 155
61 96 143
62 97 152
62 97 153
60 95 141
62 97 157
62 97 151
62 97 145
61 96 150
61 96 145
61 96 148
61 96 145
61 96 143
62 97 147
61 97 153
62 98 161
60 96 150
60 95 148
62 98 154
61 96 144
62 97 149
61 96 141
61 96 148
60 95 149
61 97 149
61 95 141
60 95 142
61 97 144
61 96 143
62 97 153
61 96 140
60 96 140
61 96 147
61 97 149
62 97 150
61 96 142
61 96 143
61 96 145
61 95 139
60 94 131
61 96 137
60 95 137
60 94 131
60 95 136
60 95 133
61 97 143
60 94 136
60 94 142
61 95 134
61 95 137
60 95 141
61 96 142
59 94 137
59 93 134
59 94 134
60 95 135
60 95 136
60 94 138
59 93 129
57 90 121
59 93 124
57 91 124
59 93 140
57 90 117
57 89 119
56 89 114
122 133 40
104 115 0
124 132 0
120 129 0
124 134 0
111 120 0
115 126 0
115 124 0
124 133 0
101 110 0
127 137 0
117 125 0
126 134 0
111 118 0
113 124 0
112 118 0
110 116 0
118 125 0
127 134 0
105 110 0
110 114 0
108 115 0
104 112 0
122 127 0
122 129 0
117 121 0
117 123 0
110 115 0
111 117 0
121 127 0
118 121 0
113 116 0
119 125 0
119 122 0
116 120 0
121 125 0
119 122 0
110 111 0
123 129 0
116 122 0
113 117 0
118 124 0
121 124 0
117 122 0
121 124 0
112 112 0
126 132 0
121 122 0
125 132 0
121 124 0
122 126 0
123 125 0
109 111 0
130 132 0
123 125 0
128 132 0
129 130 0
131 137 0
124 127 0
127 129 0
128 129 0
131 136 0
123 124 0
127 128 0
133 136 0
127 131 0
131 135 0
140 146 0
140 146 0
131 134 0
135 137 0
134 136 0
132 137 0
137 141 0
139 144 0
135 139 0
132 134 0
143 150 0
142 149 0
144 150 0
149 155 0
146 156 0
141 146 0
137 144 0
147 153 0
142 150 0
150 158 0
149 157 0
146 152 0
149 155 0
146 157 0
145 155 0
147 157 0
153 162 0
151 158 0
147 159 0
143 151 0
152 159 0
153 162 0
151 160 0
152 161 0
153 163 0
157 169 0
156 166 0
152 164 0
157 172 0
150 159 0
160 174 0
155 168 0
157 168 0
157 171 0
153 166 0
153 166 0
167 184 0
157 171 0
160 174 0
159 173 0
157 173 0
161 175 0
163 177 0
162 179 0
163 178 0
163 178 0
158 173 0
162 176 0
162 177 0
159 175 0
165 181 0
164 181 0
163 178 0
164 178 0
162 178 0
162 178 0
163 178 0
162 179 0
165 183 0
163 179 0
164 183 0
164 182 0
165 182 0
169 189 0
164 183 0
164 184 0
163 181 0
175 199 76
174 197 62
175 199 67
173 197 76
173 196 72
174 198 72
170 194 51
172 195 44
174 198 72
174 198 80
176 199 76
169 193 57
175 198 72
173 196 72
174 198 80
172 196 72
176 198 57
170 193 44
174 198 76
172 196 80
171 194 72
171 195 84
175 198 57
173 196 72
173 198 80
175 198 88
172 195 67
174 198 76
175 198 67
167 191 67
171 196 102
170 194 62
170 194 67
170 193 67
171 195 25
173 196 76
173 196 92
171 196 72
169 193 80
171 194 92
175 198 67
173 197 72
168 191 67
168 192 72
172 195 88
174 199 92
173 196 57
170 193 76
169 191 62
173 197 80
169 192 72
172 196 80
171 195 76
170 194 67
168 193 67
174 197 92
173 196 62
169 192 72
169 193 57
173 197 80
167 192 62
168 191 76
175 198 92
169 193 72
168 192 62
165 189 44
170 193 67
165 188 57
169 192 67
167 191 62
171 194 62
169 192 57
169 193 102
151 175 86
88 117 146
94 122 147
87 116 142
81 111 142
82 112 144
94 122 143
98 126 141
96 125 154
98 125 138
83 113 143
96 124 151
95 122 135
89 118 156
96 124 152
90 118 146
95 123 154
104 130 142
102 129 154
88 117 156
86 115 151
107 134 159
101 128 152
91 119 144
101 129 156
107 134 164
95 122 157
80 110 153
92 121 149
86 116 159
71 105 166
68 103 173
76 109 172
79 111 182
79 111 180
68 103 171
88 117 177
72 105 174
79 110 171
80 111 177
68 102 167
74 106 168
64 99 158
61 97 158
63 98 160
60 96 160
61 96 157
61 97 161
60 95 149
59 95 153
60 96 156
59 94 144
61 96 149
60 96 154
58 93 146
66 100 149
66 99 141
65 98 135
63 96 144
68 101 140
58 93 142
59 94 145
60 96 149
60 96 146
61 97 154
58 92 134
61 96 154
60 96 148
59 94 143
59 94 144
60 95 153
58 93 141
60 95 143
60 95 148
59 95 145
60 95 149
61 96 152
59 94 146
60 95 153
60 95 147
61 96 154
59 94 136
60 95 141
58 93 148
61 97 148
61 96 152
60 95 143
60 96 145
60 95 143
60 96 148
59 94 144
61 97 148
62 97 149
60 96 150
60 96 147
60 95 146
60 96 142
61 96 151
61 96 148
60 96 150
60 95 144
61 96 148
61 96 147
61 97 153
62 97 150
62 97 150
62 97 150
62 98 154
61 96 149
62 98 154
62 97 152
60 95 142
61 96 150
61 96 150
60 95 136
60 95 145
62 97 156
62 97 153
62 97 154
61 96 145
61 97 152
60 95 140
61 96 152
61 97 154
62 97 151
61 97 149
60 95 141
60 95 140
62 97 150
61 96 150
60 95 144
61 96 140
61 96 142
60 95 142
61 96 145
62 97 150
61 96 147
60 96 150
59 94 137
60 95 140
62 97 147
60 95 134
60 95 139
61 96 141
61 96 147
60 95 136
60 95 143
62 97 149
60 95 133
61 96 143
61 96 151
58 93 127
62 98 157
60 94 129
60 95 139
61 96 145
60 95 139
60 95 143
61 96 145
60 95 139
60 95 139
61 96 139
59 93 133
61 96 142
60 94 139
60 95 133
61 96 142
60 94 136
60 94 139
60 94 133
59 93 117
60 94 129
59 93 129
59 92 124
60 94 139
58 92 108
60 93 126
59 93 131
59 92 129
59 93 136
56 89 108
56 88 112
92 109 88
108 117 0
112 125 0
117 126 0
112 124 0
126 134 0
119 128 0
112 122 0
116 129 0
109 117 0
114 120 0
130 139 0
120 130 0
121 131 0
107 112 0
113 122 0
116 123 0
122 130 0
114 119 0
122 129 0
122 131 0
113 120 0
119 127 0
120 128 0
118 126 0
124 134 0
118 123 0
108 113 0
122 133 0
124 131 0
114 120 0
117 122 0
120 127 0
118 123 0
128 134 0
126 130 0
122 127 0
117 120 0
124 130 0
119 124 0
123 127 0
128 134 0
131 135 0
124 127 0
123 126 0
119 123 0
119 121 0
120 123 0
120 124 0
120 125 0
127 130 0
126 130 0
127 130 0
123 127 0
125 128 0
118 122 0
121 126 0
134 139 0
129 133 0
130 131 0
131 135 0
126 131 0
130 135 0
138 142 0
141 149 0
121 126 0
131 135 0
124 130 0
137 140 0
128 130 0
132 135 0
134 141 0
140 147 0
129 134 0
138 146 0
138 143 0
138 141 0
137 140 0
135 142 0
126 130 0
146 153 0
135 142 0
140 149 0
147 158 0
137 143 0
143 149 0
141 149 0
147 156 0
149 158 0
143 150 0
152 163 0
154 164 0
147 158 0
145 153 0
144 152 0
144 152 0
153 163 0
158 168 0
153 163 0
160 172 0
150 163 0
153 161 0
157 168 0
145 152 0
157 169 0
150 162 0
156 170 0
154 166 0
157 170 0
153 167 0
156 169 0
155 165 0
159 173 0
157 171 0
156 169 0
157 170 0
161 174 0
158 172 0
157 173 0
161 174 0
161 175 0
162 177 0
160 173 0
154 171 0
162 177 0
163 179 0
163 182 0
167 182 0
164 180 0
155 171 0
159 175 0
162 178 0
165 180 0
164 181 0
162 179 0
164 181 0
167 185 0
165 182 0
166 183 0
165 182 0
165 182 0
167 186 0
161 181 0
164 183 0
160 179 0
172 195 67
173 196 67
172 195 51
173 197 84
175 198 80
172 196 62
175 198 80
174 198 88
171 195 36
174 198 84
174 197 57
174 197 72
176 199 44
172 196 72
172 196 88
171 194 67
171 195 67
171 195 76
169 193 72
171 194 72
170 194 57
170 193 51
170 195 72
170 194 62
168 192 62
172 196 72
171 195 92
173 197 62
173 197 57
169 193 57
171 195 51
172 196 62
172 197 67
171 195 80
174 197 72
170 193 67
169 193 67
171 195 95
169 193 76
168 192 51
173 197 72
170 193 84
170 194 99
169 193 51
173 196 80
172 195 84
168 193 72
169 193 88
170 194 76
174 197 88
165 188 76
172 195 62
168 192 76
172 195 67
169 192 72
169 192 76
172 196 95
171 195 76
171 193 51
172 196 76
172 196 62
171 195 84
166 190 62
168 192 67
173 196 95
168 193 76
170 192 62
168 191 95
167 191 88
167 190 67
171 194 62
167 189 51
169 194 57
167 191 62
109 135 111
82 112 135
99 126 150
86 117 156
93 121 136
97 125 143
105 132 159
86 115 154
91 119 140
95 123 157
95 123 149
98 126 145
94 122 145
94 122 160
91 119 144
94 122 154
104 131 160
81 111 144
82 112 149
95 123 148
95 123 157
112 138 164
107 134 162
110 136 160
98 125 150
87 116 158
89 117 146
82 113 158
90 119 153
93 122 138
75 108 165
67 102 174
74 107 178
71 105 176
77 109 179
74 107 174
71 105 176
82 113 176
67 101 161
71 104 164
72 105 170
72 104 166
65 100 158
62 97 160
61 97 160
61 97 163
60 97 163
60 96 159
60 96 156
61 97 156
60 95 154
60 96 156
60 95 151
61 95 147
65 99 156
61 95 139
65 97 141
63 97 144
61 95 136
73 103 135
58 93 136
59 94 148
60 95 142
58 92 139
59 94 141
60 95 144
59 94 147
59 94 141
60 95 151
60 96 149
60 95 143
60 95 136
61 97 151
61 97 153
61 97 158
59 95 144
60 95 149
58 93 141
59 94 150
60 95 135
60 95 143
60 95 153
61 97 155
61 96 152
60 95 136
61 96 150
61 96 149
60 95 146
61 96 143
61 97 153
61 96 148
61 96 157
61 96 147
61 97 142
62 97 154
61 97 151
61 96 149
62 97 151
61 97 154
61 96 153
60 95 138
61 96 143
60 96 150
60 95 145
59 93 141
61 96 143
62 97 149
60 95 143
62 97 153
61 96 151
61 97 150
62 97 148
61 96 148
60 95 142
62 97 151
61 96 144
61 96 148
60 95 137
62 97 152
61 96 147
61 96 142
61 96 145
61 96 149
62 96 154
60 95 141
60 95 140
61 96 148
61 96 145
61 97 151
61 96 145
62 97 154
60 95 135
61 96 145
61 95 139
61 96 147
61 96 143
61 97 144
60 95 136
60 94 134
62 97 150
61 96 144
61 96 143
61 96 147
60 95 133
62 98 152
61 96 143
60 96 142
61 96 148
61 97 144
61 96 149
61 95 143
61 96 140
61 95 141
61 96 141
60 95 131
61 96 145
61 95 135
61 96 137
61 96 145
62 97 150
61 96 139
59 94 131
60 95 129
60 94 132
62 97 147
59 93 134
61 96 141
58 92 118
59 93 130
61 95 135
59 93 129
58 93 129
60 94 135
59 94 122
58 92 127
59 92 116
59 93 133
58 91 115
58 91 124
60 93 138
56 87 108
114 125 32
113 123 0
123 135 0
125 135 0
122 131 0
120 132 0
117 128 0
116 125 0
114 126 0
115 127 0
122 129 0
113 123 0
120 128 0
113 122 0
114 125 0
118 126 0
127 136 0
109 117 0
118 128 0
115 125 0
112 118 0
124 135 0
119 127 0
124 132 0
123 133 0
111 119 0
124 132 0
112 118 0
126 134 0
123 130 0
124 132 0
114 123 0
118 122 0
126 134 0
128 137 0
114 120 0
118 122 0
122 127 0
120 126 0
121 128 0
114 118 0
126 131 0
111 118 0
115 118 0
122 129 0
127 132 0
125 130 0
126 133 0
129 134 0
126 131 0
121 124 0
127 131 0
120 124 0
117 122 0
121 122 0
124 129 0
117 119 0
127 132 0
124 130 0
126 128 0
128 133 0
130 134 0
128 130 0
132 139 0
135 139 0
144 150 0
135 139 0
139 146 0
134 138 0
129 135 0
135 141 0
139 148 0
132 135 0
133 136 0
139 146 0
136 144 0
148 155 0
140 148 0
136 143 0
129 134 0
138 144 0
143 148 0
143 151 0
145 152 0
142 148 0
139 146 0
140 147 0
156 165 0
146 153 0
146 155 0
146 156 0
140 147 0
147 156 0
147 155 0
147 154 0
152 163 0
153 164 0
155 166 0
148 160 0
154 165 0
156 167 0
153 163 0
148 157 0
154 167 0
145 151 0
155 168 0
156 170 0
158 172 0
158 172 0
155 168 0
157 169 0
151 162 0
159 171 0
157 170 0
155 169 0
156 171 0
153 170 0
159 175 0
159 176 0
159 175 0
157 172 0
159 173 0
164 180 0
158 173 0
163 182 0
164 181 0
156 170 0
165 183 0
165 182 0
160 176 0
166 183 0
158 175 0
159 175 0
161 178 0
158 172 0
166 184 0
163 179 0
163 180 0
165 182 0
164 182 0
161 178 0
162 179 0
167 185 0
168 187 0
165 184 0
175 199 76
172 196 67
176 199 57
175 198 67
174 198 72
175 199 72
172 197 76
175 199 76
174 198 72
171 195 80
171 195 62
173 197 84
171 195 80
171 194 51
171 195 84
173 197 62
174 197 72
167 190 57
175 198 102
172 195 84
175 199 72
175 198 84
172 196 88
174 198 88
167 191 67
170 193 80
171 195 57
169 194 80
174 197 62
171 195 80
173 197 67
172 195 67
177 200 76
172 196 76
171 194 57
169 192 62
172 195 67
170 193 80
171 195 76
170 194 57
171 195 92
167 191 62
173 197 84
170 194 76
168 191 72
169 194 99
175 199 84
166 189 72
168 191 57
173 195 44
169 193 76
172 197 88
167 190 67
169 193 88
167 191 84
170 194 92
170 194 88
170 194 88
167 191 67
169 193 62
167 189 80
171 196 76
170 194 84
172 196 84
164 188 72
169 193 88
165 187 57
170 192 62
168 192 62
169 193 84
168 190 76
169 192 67
168 192 92
167 190 62
143 168 108
89 118 139
91 121 150
93 121 150
79 109 141
84 114 145
78 109 144
111 137 156
82 112 145
89 117 140
103 130 151
90 119 159
99 126 141
108 134 147
94 122 147
106 132 158
97 123 149
103 130 153
101 128 154
98 126 149
90 119 160
97 125 161
101 128 148
104 130 151
114 139 149
110 136 141
111 137 158
97 125 166
95 122 131
92 120 157
89 117 150
77 108 163
76 108 174
74 107 174
70 104 174
87 116 178
84 115 179
73 106 170
74 106 165
80 110 170
72 105 168
74 106 163
76 107 164
63 98 160
61 97 160
62 97 152
63 99 162
64 100 163
62 97 151
61 96 154
61 97 157
60 95 147
60 95 145
60 96 150
62 96 147
70 102 137
67 101 145
63 96 135
59 93 122
73 104 143
63 96 143
60 95 145
58 93 130
60 94 150
59 94 139
60 95 147
60 95 137
60 94 143
60 94 141
60 95 147
60 94 141
61 96 148
60 96 150
60 95 137
61 96 146
61 96 149
59 94 137
60 94 142
60 96 148
60 95 147
61 96 152
61 96 140
61 96 148
59 94 148
61 96 151
60 95 143
62 97 149
58 93 129
60 96 148
61 96 148
60 95 150
60 95 137
59 94 140
60 95 145
62 98 154
61 97 151
60 95 140
61 96 155
61 96 144
60 95 139
59 94 136
60 95 145
61 97 150
60 96 145
61 96 149
61 96 145
60 95 142
60 95 142
61 96 146
60 95 137
61 96 147
60 95 142
61 96 152
61 97 152
61 97 145
60 95 135
61 97 150
60 96 145
60 95 139
60 95 143
60 95 140
62 98 154
61 96 140
61 96 143
61 96 137
61 96 144
61 96 145
61 96 142
62 98 159
61 96 141
60 95 139
61 96 147
61 96 148
60 95 134
61 96 143
60 94 141
60 95 139
60 95 139
61 97 147
61 96 140
60 95 145
61 96 145
62 97 145
60 96 136
60 95 143
61 96 148
60 96 144
61 96 141
60 95 139
60 95 139
60 95 130
61 97 144
60 95 140
61 96 139
61 96 144
61 96 145
60 95 139
61 95 134
60 95 136
61 96 149
61 96 142
60 95 140
59 94 133
59 93 136
60 94 134
59 93 127
61 96 143
61 95 137
59 93 129
59 93 125
61 96 142
60 95 133
59 94 125
59 94 130
60 94 131
59 92 120
57 90 123
57 90 120
59 92 128
57 91 114
80 101 84
127 139 0
110 120 0
121 133 0
120 130 0
122 133 0
112 122 0
117 127 0
123 132 0
126 137 0
128 137 0
129 141 0
119 129 0
113 124 0
118 128 0
114 123 0
118 125 0
120 127 0
120 130 0
118 127 0
122 128 0
118 126 0
125 133 0
122 130 0
133 143 0
116 122 0
128 134 0
116 122 0
115 123 0
121 129 0
113 124 0
115 121 0
116 122 0
118 123 0
117 127 0
118 125 0
122 127 0
123 131 0
117 122 0
130 139 0
124 130 0
121 126 0
120 126 0
123 129 0
120 125 0
128 135 0
127 133 0
122 129 0
124 128 0
123 128 0
126 131 0
123 128 0
122 126 0
124 128 0
128 133 0
126 131 0
141 146 0
139 146 0
126 134 0
132 136 0
126 129 0
136 139 0
136 139 0
121 125 0
133 137 0
131 137 0
132 135 0
138 143 0
132 137 0
130 135 0
138 143 0
130 136 0
136 140 0
146 152 0
139 145 0
140 144 0
142 149 0
145 155 0
148 156 0
137 145 0
140 145 0
141 147 0
140 146 0
140 148 0
148 155 0
145 153 0
143 154 0
148 157 0
152 161 0
149 158 0
149 162 0
149 160 0
151 160 0
139 145 0
151 162 0
146 155 0
155 168 0
158 168 0
150 158 0
146 156 0
148 157 0
153 165 0
147 160 0
157 169 0
155 164 0
155 170 0
148 160 0
151 163 0
155 166 0
157 171 0
163 177 0
164 179 0
159 175 0
158 172 0
158 172 0
153 167 0
154 167 0
161 175 0
158 171 0
161 174 0
162 179 0
162 177 0
159 174 0
160 175 0
159 175 0
163 178 0
154 167 0
161 177 0
162 177 0
159 176 0
161 178 0
160 174 0
159 175 0
166 183 0
159 174 0
166 185 0
157 175 0
164 181 0
164 183 0
164 182 0
161 176 0
166 185 0
162 179 0
163 182 0
167 185 0
164 183 0
173 197 57
174 197 72
174 198 88
172 196 84
175 199 80
173 196 67
172 196 62
172 196 76
174 197 62
171 194 57
171 195 57
176 200 72
169 193 80
173 197 88
177 200 76
174 197 62
174 197 67
171 194 51
171 195 67
174 197 67
170 194 57
170 194 72
167 191 76
175 198 84
172 197 80
169 194 72
174 198 92
172 196 80
168 191 72
173 197 88
168 192 80
172 196 88
170 193 62
172 196 67
174 196 57
172 195 80
171 195 76
169 192 44
171 194 80
173 197 80
170 194 84
167 190 36
167 191 62
173 197 80
167 190 67
171 194 76
168 191 80
171 195 76
170 194 102
172 196 72
170 194 92
172 196 84
167 191 72
170 194 72
171 196 84
171 195 80
165 188 84
169 192 84
168 191 76
174 197 67
169 192 57
166 188 72
170 193 76
164 188 67
171 195 67
174 198 72
172 196 67
169 193 67
170 194 92
169 192 57
166 190 62
166 190 72
172 195 67
162 186 76
173 196 80
110 137 122
89 118 144
90 119 144
98 125 136
87 116 145
80 109 136
87 116 150
96 123 158
89 118 155
90 117 135
88 117 145
95 122 140
107 134 152
97 125 154
88 117 146
85 114 140
101 129 151
96 124 143
95 123 166
98 125 160
93 121 149
94 123 156
104 130 147
107 133 156
91 118 154
89 117 144
98 126 160
94 121 155
76 107 156
90 119 166
87 116 157
81 112 164
79 111 181
66 101 172
79 110 172
77 109 175
70 104 169
82 112 167
68 102 163
71 104 161
76 107 161
74 106 167
70 102 155
61 97 162
61 97 163
61 97 158
61 97 161
60 95 156
61 96 154
61 97 154
60 95 143
59 94 139
59 94 148
59 94 141
60 95 147
60 94 135
69 101 140
69 101 145
65 99 143
69 101 126
62 95 140
60 95 139
61 96 151
60 95 148
60 95 147
59 95 143
59 94 141
59 93 142
62 97 150
60 95 146
60 95 146
58 93 134
59 94 147
60 95 153
60 95 142
61 96 148
60 95 139
60 96 154
59 94 144
60 96 147
59 93 137
60 95 144
59 94 144
60 96 150
60 95 141
61 96 145
60 94 135
61 96 149
60 95 144
60 95 137
59 93 143
60 95 146
60 96 150
61 97 148
62 97 155
61 96 148
60 96 145
61 96 145
60 95 148
60 96 141
61 97 156
61 96 151
61 96 147
62 98 154
60 95 141
60 96 151
61 96 139
59 94 140
60 95 155
59 94 139
62 98 152
61 97 154
60 95 143
61 97 152
60 96 144
60 96 143
61 96 148
60 95 139
61 96 143
60 96 150
61 96 146
60 95 142
61 96 150
60 95 137
61 96 141
61 96 145
61 96 144
62 97 154
60 96 141
61 97 145
62 97 153
60 94 134
60 96 145
62 97 149
61 95 142
60 95 139
60 95 140
61 96 143
61 96 141
60 95 137
60 95 139
61 95 143
61 96 147
61 96 142
61 96 144
61 96 148
61 97 144
59 94 133
60 95 134
61 95 139
61 96 141
60 95 147
61 96 145
60 95 139
61 96 148
60 95 134
59 93 133
62 97 149
58 92 134
60 95 142
60 95 128
62 96 140
59 94 136
60 95 135
60 95 136
60 95 144
60 95 132
58 92 121
60 94 137
59 93 130
60 94 130
59 93 135
60 94 125
59 92 128
58 92 125
57 90 117
60 94 135
57 90 123
61 92 116
111 124 31
119 128 0
127 140 0
116 128 0
113 123 0
112 122 0
123 132 0
123 133 0
124 134 0
123 134 0
125 135 0
125 134 0
130 143 0
120 131 0
123 135 0
119 131 0
125 134 0
123 131 0
119 126 0
130 138 0
120 128 0
127 137 0
116 124 0
113 121 0
111 120 0
129 139 0
124 132 0
124 130 0
126 135 0
124 130 0
118 123 0
128 137 0
119 126 0
125 132 0
119 127 0
122 128 0
125 131 0
127 134 0
122 129 0
120 125 0
116 122 0
125 132 0
125 133 0
117 123 0
125 131 0
127 133 0
123 126 0
128 132 0
119 123 0
128 135 0
132 137 0
126 131 0
132 138 0
118 123 0
137 143 0
124 129 0
130 137 0
132 137 0
130 134 0
127 134 0
130 133 0
139 144 0
133 138 0
130 138 0
136 142 0
137 144 0
142 148 0
141 146 0
133 141 0
139 146 0
133 141 0
147 156 0
133 139 0
141 148 0
143 152 0
136 142 0
136 144 0
140 149 0
139 146 0
136 143 0
143 149 0
147 155 0
131 137 0
141 151 0
145 154 0
140 148 0
150 160 0
149 159 0
150 160 0
153 164 0
154 165 0
148 157 0
155 164 0
150 161 0
151 162 0
142 150 0
154 166 0
158 172 0
156 168 0
153 164 0
154 166 0
148 158 0
157 166 0
152 167 0
154 166 0
156 167 0
153 164 0
152 166 0
155 167 0
157 172 0
158 170 0
161 174 0
154 165 0
155 167 0
156 168 0
157 172 0
155 170 0
159 174 0
163 178 0
155 170 0
159 174 0
156 171 0
161 177 0
167 186 0
165 183 0
159 174 0
156 172 0
160 177 0
167 185 0
157 172 0
162 179 0
165 182 0
159 175 0
162 178 0
166 185 0
164 180 0
162 178 0
164 181 0
163 181 0
161 178 0
164 180 0
167 187 0
161 180 0
165 183 0
167 185 0
164 181 0
170 194 51
175 199 88
176 200 108
174 197 80
174 197 62
174 197 80
171 195 67
174 197 57
174 198 84
174 198 92
174 198 67
172 195 51
174 198 57
174 198 84
172 196 51
169 193 62
174 198 80
172 195 67
169 193 76
172 195 62
173 197 67
172 196 88
173 197 80
170 194 62
172 196 72
172 197 80
172 196 76
174 198 84
172 195 51
169 194 76
173 198 76
170 194 92
170 194 80
172 195 80
172 195 95
171 196 67
170 194 57
171 195 84
170 193 57
171 195 76
167 191 72
169 192 51
168 192 62
171 195 76
170 194 67
168 193 67
171 194 67
171 195 99
171 194 62
171 195 76
171 194 62
169 192 62
168 192 88
171 196 76
171 194 76
167 190 67
163 187 62
167 191 67
166 190 76
168 191 80
170 192 67
168 192 62
167 192 76
162 186 67
169 192 67
169 193 72
163 187 80
169 192 67
167 190 67
171 195 84
165 189 51
168 192 84
171 195 76
170 193 76
168 190 76
150 173 76
94 121 137
94 121 142
94 123 149
92 120 151
84 114 147
87 116 148
79 109 145
97 124 155
93 120 140
93 120 150
90 117 139
95 123 153
89 118 150
92 120 145
98 125 157
92 120 163
95 123 149
108 134 156
100 127 147
92 121 157
89 117 143
93 121 145
98 126 162
102 128 151
109 135 159
107 133 149
93 121 155
94 122 159
92 120 144
87 117 155
82 113 154
75 107 166
76 109 179
76 109 177
71 105 173
92 120 180
73 106 166
76 108 169
71 105 168
74 106 167
71 104 164
73 105 166
70 101 157
63 98 163
60 96 157
61 97 160
61 97 159
61 96 151
61 97 156
63 99 159
60 96 144
62 97 149
60 96 153
60 96 150
62 96 132
68 101 142
64 97 143
63 97 140
67 99 133
66 96 124
60 95 142
58 92 129
59 94 146
58 93 136
59 94 141
59 94 144
60 94 139
59 94 141
60 94 147
60 96 151
60 95 136
59 95 147
60 95 141
60 95 143
61 96 153
60 95 146
61 96 152
60 95 148
60 95 145
60 95 134
59 94 137
60 96 149
61 96 148
60 95 145
60 96 146
60 96 142
59 94 138
61 96 143
59 94 140
60 95 141
61 96 149
60 95 140
62 97 149
61 96 149
61 96 148
61 96 149
61 96 140
60 95 137
61 96 145
59 95 141
59 94 144
61 97 148
60 95 145
60 96 149
59 94 134
62 97 150
61 96 149
61 96 143
61 96 143
61 96 148
60 96 148
62 97 151
62 97 154
61 96 152
60 95 140
61 96 145
60 94 136
60 95 142
60 95 139
63 98 155
61 96 143
61 96 149
60 95 143
61 96 142
60 95 139
61 97 148
60 95 139
62 97 149
60 95 142
61 96 148
61 96 137
60 95 140
61 97 150
60 95 134
60 95 140
60 95 140
61 96 142
60 95 142
61 96 142
61 96 143
61 96 147
62 97 150
61 96 141
60 94 133
59 94 129
61 97 143
60 95 144
61 96 143
60 95 139
60 95 144
59 94 137
61 96 151
61 96 150
59 94 133
60 95 136
62 97 143
60 94 133
60 95 131
59 94 133
59 94 126
60 94 131
59 94 134
60 95 137
59 93 126
59 93 133
60 94 134
58 92 120
58 92 125
61 95 137
59 93 124
57 91 117
58 91 120
60 94 131
58 92 123
57 91 113
58 91 124
57 89 119
79 100 99
116 126 0
123 134 0
111 120 0
122 129 0
104 115 0
119 130 0
121 130 0
119 126 0
118 131 0
118 129 0
114 122 0
117 128 0
119 129 0
113 124 0
136 144 0
121 130 0
114 124 0
125 131 0
121 133 0
125 132 0
121 131 0
124 130 0
127 133 0
130 138 0
120 130 0
119 127 0
124 132 0
125 134 0
123 131 0
125 135 0
115 124 0
121 127 0
125 130 0
119 128 0
110 115 0
119 126 0
125 133 0
131 138 0
133 144 0
122 128 0
111 117 0
128 135 0
125 134 0
124 129 0
124 128 0
128 135 0
132 138 0
134 143 0
131 137 0
125 132 0
131 140 0
126 132 0
128 135 0
127 130 0
134 141 0
136 141 0
129 132 0
136 147 0
130 135 0
128 136 0
141 149 0
134 141 0
135 141 0
140 145 0
142 149 0
135 141 0
131 136 0
145 154 0
136 140 0
137 143 0
147 153 0
134 142 0
141 147 0
143 150 0
139 144 0
144 149 0
142 149 0
138 147 0
141 149 0
146 155 0
144 151 0
144 155 0
134 145 0
145 152 0
148 156 0
144 152 0
142 151 0
145 155 0
147 158 0
143 150 0
149 157 0
151 162 0
147 156 0
145 151 0
154 166 0
151 159 0
154 166 0
151 159 0
149 159 0
144 156 0
153 163 0
152 162 0
151 160 0
146 158 0
161 175 0
156 168 0
158 172 0
152 164 0
161 177 0
148 161 0
158 172 0
154 168 0
157 169 0
154 168 0
161 175 0
160 175 0
162 176 0
160 176 0
159 174 0
161 176 0
162 177 0
165 181 0
163 179 0
157 171 0
161 177 0
158 174 0
160 176 0
157 173 0
160 176 0
163 178 0
163 180 0
163 182 0
163 180 0
162 177 0
164 182 0
165 184 0
166 184 0
159 175 0
164 181 0
167 186 0
166 184 0
166 185 0
164 182 0
168 186 0
165 184 0
166 183 0
171 195 57
175 199 67
173 197 76
173 196 88
170 194 57
173 197 80
172 196 92
170 194 80
173 198 84
169 191 67
173 197 72
173 197 62
176 199 88
173 196 67
171 195 88
171 195 72
174 197 67
172 196 72
171 195 99
167 190 36
171 196 84
167 191 88
174 198 80
169 194 76
171 196 84
168 192 80
170 194 72
169 192 72
170 193 80
170 194 67
170 194 88
172 197 72
172 196 67
167 191 67
175 198 67
172 196 72
166 190 51
166 190 62
170 194 62
169 192 62
172 196 76
169 192 62
166 191 84
169 192 51
170 194 76
168 192 44
165 189 57
168 192 67
170 194 76
168 192 72
170 194 72
170 194 80
174 197 72
164 188 80
170 193 76
165 190 67
164 188 57
164 189 88
164 188 51
167 191 80
165 188 67
165 190 76
166 188 57
171 195 57
167 190 72
170 193 80
169 192 67
167 191 88
169 192 88
170 194 76
166 189 51
164 186 67
167 191 76
166 190 80
163 187 67
170 193 80
114 140 130
88 117 148
88 117 133
88 116 133
96 124 148
86 115 143
82 111 144
89 118 151
89 118 153
96 123 141
94 121 133
86 114 148
96 124 136
93 121 144
90 119 152
86 115 137
93 122 152
100 126 141
101 128 143
99 127 153
98 126 157
99 127 156
112 137 162
99 126 155
93 121 145
102 129 156
123 147 167
91 117 144
83 113 155
93 121 147
92 120 141
73 105 148
79 110 166
81 113 178
77 109 175
77 109 173
68 102 165
75 107 174
80 111 173
72 105 172
73 105 168
74 106 166
66 100 165
63 98 158
61 97 160
60 96 153
61 96 160
60 95 156
60 95 151
61 96 157
60 95 145
60 95 151
59 93 144
62 97 148
59 94 148
66 98 138
64 96 124
63 96 133
71 102 122
63 96 129
65 97 120
59 94 148
59 94 144
59 93 137
59 94 147
60 95 144
58 92 137
59 93 148
59 94 143
60 95 141
60 95 153
60 95 144
59 93 140
60 95 141
60 95 138
60 95 145
60 95 147
60 95 143
60 95 152
61 96 144
60 95 144
60 95 145
60 96 150
61 96 150
62 98 165
61 97 153
60 95 147
60 96 142
60 95 145
61 97 153
62 98 154
59 94 140
60 95 138
60 95 148
60 96 149
60 95 135
61 96 147
59 94 142
61 97 145
61 96 150
61 96 142
60 95 143
61 96 152
61 96 144
60 95 142
59 93 136
61 97 154
61 96 143
60 95 137
61 97 155
62 97 151
61 96 143
60 95 141
61 96 144
60 95 145
61 96 143
60 95 142
61 96 143
61 96 148
61 96 139
60 96 140
62 97 150
61 97 148
62 97 149
61 97 149
61 95 142
61 97 144
61 96 150
60 95 139
61 96 142
61 97 150
61 96 145
61 96 144
60 94 134
61 96 141
61 96 141
61 96 144
61 96 136
60 95 136
59 94 133
60 95 139
62 97 155
59 94 133
60 94 137
60 95 137
60 95 136
60 95 141
61 96 147
60 95 140
60 95 142
59 94 134
60 94 136
59 94 137
61 96 148
60 94 141
60 95 136
60 95 142
61 96 140
60 95 131
60 95 137
58 92 122
61 95 136
59 92 122
57 91 117
61 95 140
59 93 130
59 92 124
60 94 130
58 92 124
59 92 127
60 94 137
58 91 126
59 92 128
57 90 114
58 91 117
57 90 108
61 92 116
115 129 36
118 129 0
115 126 0
102 114 0
120 131 0
128 140 0
122 135 0
117 127 0
132 143 0
120 131 0
119 130 0
119 130 0
110 121 0
134 144 0
117 128 0
122 131 0
120 130 0
124 134 0
126 135 0
116 128 0
123 132 0
113 123 0
115 123 0
130 140 0
122 133 0
122 132 0
122 131 0
124 134 0
111 118 0
114 122 0
123 133 0
129 139 0
115 122 0
130 138 0
128 136 0
126 132 0
114 120 0
121 129 0
127 135 0
119 127 0
122 130 0
124 132 0
123 127 0
127 136 0
127 131 0
127 134 0
128 134 0
132 139 0
131 140 0
130 139 0
122 129 0
129 135 0
119 124 0
136 143 0
123 130 0
131 139 0
132 140 0
137 143 0
126 133 0
129 136 0
133 141 0
139 146 0
141 149 0
137 145 0
134 140 0
135 144 0
137 147 0
135 142 0
143 153 0
147 154 0
148 154 0
138 145 0
135 142 0
134 142 0
138 145 0
143 151 0
138 145 0
138 147 0
141 149 0
141 150 0
140 150 0
147 157 0
138 146 0
141 151 0
140 150 0
148 156 0
144 149 0
148 156 0
147 158 0
142 149 0
141 150 0
147 158 0
151 161 0
149 159 0
153 166 0
152 163 0
156 168 0
150 161 0
153 165 0
146 156 0
156 167 0
146 156 0
153 167 0
156 169 0
153 168 0
146 159 0
158 172 0
155 167 0
156 170 0
156 169 0
157 169 0
150 163 0
162 176 0
157 172 0
160 177 0
157 170 0
158 171 0
164 179 0
155 167 0
161 177 0
160 174 0
163 178 0
160 174 0
161 176 0
163 180 0
160 173 0
164 182 0
165 184 0
161 175 0
156 171 0
160 176 0
156 172 0
161 177 0
167 186 0
165 182 0
161 178 0
160 178 0
158 177 0
160 174 0
166 185 0
161 179 0
166 184 0
164 182 0
164 184 0
163 180 0
168 187 0
164 184 0
172 196 88
174 198 67
174 197 84
173 197 72
171 195 62
172 197 84
173 196 72
173 196 84
170 194 76
170 194 57
169 192 57
175 199 72
174 196 57
175 199 84
172 196 80
173 196 72
171 194 76
171 195 72
168 193 95
172 196 67
168 191 76
172 196 76
170 193 51
171 195 76
170 195 57
173 197 84
174 198 84
170 195 62
169 194 80
171 196 95
173 196 72
171 194 72
172 196 57
169 193 62
170 193 67
170 194 67
168 192 80
172 195 72
168 192 80
170 193 80
164 189 80
166 190 72
172 196 72
169 193 57
170 193 57
171 195 76
172 196 88
168 193 57
171 194 76
167 191 80
168 192 80
167 191 67
168 193 84
169 193 72
168 191 72
162 186 62
170 194 62
165 189 67
171 195 76
170 194 80
169 192 67
165 190 76
161 185 62
166 191 99
166 189 67
164 189 67
164 186 67
168 191 44
168 192 84
165 188 51
167 189 76
163 187 88
168 191 76
162 185 62
168 191 76
168 192 95
152 175 100
80 110 133
89 118 140
84 113 126
98 126 140
90 119 156
90 119 144
78 108 139
94 123 156
103 130 147
87 116 147
92 119 134
92 120 145
87 115 146
89 118 147
87 116 154
96 124 164
85 115 150
104 131 152
92 119 135
97 125 151
106 133 158
105 131 153
96 123 149
96 124 151
87 115 140
105 132 156
116 141 169
95 123 145
89 118 150
79 110 152
91 120 156
84 113 154
88 117 164
71 105 175
65 100 167
76 108 168
71 105 168
72 106 174
80 111 171
80 110 168
80 111 173
64 99 161
69 101 154
66 100 159
62 98 158
61 97 152
60 96 156
60 95 151
61 97 160
60 96 152
61 97 150
59 93 141
60 95 145
59 94 152
62 96 141
69 102 147
64 98 143
63 97 149
62 96 137
57 92 135
61 95 131
58 92 136
59 94 142
59 93 143
60 95 144
60 95 139
60 95 148
60 95 145
59 94 142
60 95 147
59 94 143
59 94 137
60 94 143
60 96 147
60 94 141
59 94 141
60 95 141
60 95 136
60 96 147
61 96 139
59 94 142
60 95 147
62 97 153
60 95 143
62 97 153
61 96 147
60 95 142
59 93 133
61 96 145
61 96 144
60 95 134
59 94 143
59 94 133
60 95 141
61 96 142
61 96 151
61 96 149
60 95 139
60 95 146
61 96 148
60 96 147
61 96 148
62 97 152
60 95 143
59 94 137
61 96 140
59 94 136
59 94 139
61 96 142
60 95 141
60 95 143
60 95 141
61 96 144
60 95 143
61 96 144
62 97 143
59 94 135
60 95 143
60 95 140
60 95 139
60 95 133
60 95 140
60 95 140
60 95 137
59 94 133
62 97 147
61 96 141
60 95 140
59 93 127
62 97 149
60 95 141
61 96 148
60 95 139
59 93 130
60 95 135
60 95 141
60 94 140
62 97 150
61 96 149
61 96 137
60 96 134
61 96 135
61 95 144
60 94 131
62 97 149
60 95 134
61 96 144
59 93 129
61 96 148
61 96 137
59 93 134
60 95 134
60 94 130
60 95 137
60 95 137
62 97 145
59 93 125
59 94 127
59 93 134
60 94 133
58 92 125
59 93 124
61 96 137
60 95 140
59 93 130
60 95 137
58 91 121
59 93 136
59 93 124
59 92 124
59 93 130
59 92 121
56 89 117
57 90 113
57 89 114
99 117 65
119 131 0
124 135 0
124 138 0
118 127 0
128 139 0
114 128 0
114 125 0
124 136 0
119 131 0
116 128 0
118 129 0
119 129 0
118 130 0
121 135 0
112 123 0
136 147 0
113 121 0
116 128 0
130 141 0
124 134 0
121 131 0
123 132 0
120 131 0
114 125 0
120 130 0
121 131 0
120 128 0
122 129 0
123 131 0
127 136 0
128 139 0
121 131 0
125 134 0
119 126 0
124 131 0
131 141 0
129 139 0
125 133 0
127 136 0
124 131 0
125 132 0
122 127 0
118 126 0
125 133 0
136 146 0
127 136 0
131 138 0
130 139 0
127 134 0
125 132 0
127 133 0
131 137 0
134 142 0
136 140 0
127 133 0
132 142 0
125 131 0
129 135 0
130 137 0
133 138 0
125 131 0
132 142 0
133 140 0
140 148 0
131 139 0
137 142 0
139 145 0
135 143 0
135 141 0
143 150 0
140 145 0
132 139 0
136 143 0
145 152 0
144 153 0
138 146 0
148 157 0
144 151 0
140 146 0
140 147 0
142 153 0
145 156 0
138 148 0
145 154 0
147 155 0
148 157 0
151 163 0
148 158 0
152 165 0
149 157 0
147 157 0
148 158 0
153 168 0
149 159 0
151 161 0
155 168 0
158 170 0
149 162 0
148 160 0
156 168 0
149 162 0
150 162 0
149 160 0
156 168 0
153 165 0
157 171 0
163 176 0
157 171 0
160 174 0
161 175 0
164 180 0
158 170 0
156 172 0
158 171 0
155 169 0
161 177 0
162 176 0
160 176 0
161 176 0
163 181 0
162 178 0
161 177 0
155 169 0
159 172 0
159 174 0
158 174 0
158 175 0
163 180 0
161 177 0
163 179 0
159 175 0
165 182 0
161 178 0
164 181 0
161 178 0
161 179 0
165 181 0
167 185 0
162 178 0
162 182 0
166 186 0
161 178 0
164 183 0
158 176 0
167 185 0
167 185 0
167 186 0
173 198 99
176 200 95
171 194 62
172 195 72
172 196 62
173 197 76
173 196 80
171 195 84
170 194 72
173 196 88
167 191 57
174 198 67
171 195 80
170 194 62
171 195 72
175 198 84
171 195 51
175 198 76
167 190 44
169 192 76
170 193 62
169 193 62
171 195 67
171 195 57
171 194 76
171 195 67
170 194 67
170 193 57
172 196 92
169 193 62
172 196 57
172 195 62
168 191 62
170 195 99
165 188 57
170 194 88
172 196 76
169 193 51
171 195 80
171 194 51
167 191 72
170 194 72
166 192 92
169 193 80
169 193 67
172 196 76
170 193 62
170 194 92
170 194 80
167 191 67
171 195 88
166 190 76
164 187 51
172 195 72
171 196 72
171 195 72
170 194 84
165 189 72
166 191 88
165 189 72
162 186 67
172 195 57
170 193 72
165 187 57
166 191 95
171 194 76
161 184 51
169 192 95
166 189 88
170 191 51
166 190 62
166 189 36
165 188 80
169 192 67
167 191 72
168 192 80
164 187 80
115 141 135
87 116 138
93 122 147
99 127 159
108 134 154
90 119 145
89 116 136
82 111 152
94 123 142
82 112 138
88 115 141
102 129 155
77 108 132
93 120 133
89 117 151
75 106 147
98 125 155
89 117 145
87 115 155
102 129 157
101 128 155
87 115 141
88 115 143
90 117 138
106 132 154
95 122 157
99 126 151
112 136 154
101 127 147
78 109 159
87 116 157
91 119 141
82 111 149
83 114 173
75 107 176
79 110 169
68 102 164
74 107 172
77 109 174
71 104 165
72 105 170
72 104 164
62 98 154
69 101 156
60 96 157
60 96 153
61 97 155
62 97 151
61 97 159
62 97 158
62 97 145
61 96 155
59 94 147
63 97 151
58 93 133
67 100 144
64 98 148
62 96 136
63 97 146
63 96 133
59 93 132
60 94 131
59 93 137
58 92 133
59 94 143
59 93 141
57 92 131
58 92 131
60 96 148
60 95 143
60 94 144
60 96 150
60 95 144
59 94 136
60 94 140
59 94 144
59 94 141
58 93 139
60 95 143
59 94 140
59 94 139
60 95 145
59 94 136
60 95 140
60 95 145
60 95 140
60 95 147
61 96 144
59 95 148
61 96 145
61 96 147
59 93 143
61 96 144
60 96 143
59 93 140
61 96 144
61 96 145
61 96 143
59 95 139
60 94 133
61 97 149
60 95 137
61 96 144
61 96 152
60 95 141
61 96 150
61 96 140
60 95 143
61 97 150
61 96 141
60 96 147
60 95 139
61 97 148
61 95 139
60 95 140
59 94 131
61 96 142
60 96 142
60 95 136
60 95 142
61 96 147
60 95 134
60 95 143
61 96 143
61 96 144
60 95 142
59 94 134
61 96 137
60 95 136
60 96 141
61 96 136
61 96 139
59 94 139
59 93 127
61 97 153
60 95 133
59 93 127
60 95 135
60 95 139
61 96 142
61 96 147
61 96 141
61 96 140
59 93 126
59 93 127
59 93 127
59 93 126
59 93 131
59 93 124
59 94 134
59 93 131
60 94 137
59 93 139
61 96 141
60 94 127
60 95 136
58 92 125
61 96 138
59 93 125
60 95 134
60 94 137
58 92 129
59 93 125
59 93 127
60 95 136
59 93 124
58 92 118
58 92 113
57 91 118
57 91 125
58 92 117
58 91 129
56 89 111
58 91 129
71 98 98
114 129 18
113 124 0
116 130 0
105 117 0
118 128 0
122 135 0
115 127 0
117 131 0
131 142 0
111 121 0
126 139 0
120 133 0
123 132 0
126 134 0
113 125 0
125 137 0
120 135 0
130 143 0
118 127 0
130 141 0
120 127 0
116 127 0
129 141 0
128 138 0
124 133 0
121 132 0
127 135 0
115 125 0
120 129 0
126 134 0
128 139 0
121 131 0
122 133 0
130 140 0
121 127 0
124 135 0
126 136 0
127 136 0
121 129 0
128 135 0
130 139 0
138 146 0
125 135 0
132 138 0
128 136 0
134 142 0
124 131 0
136 146 0
120 127 0
125 132 0
129 134 0
136 142 0
131 139 0
139 148 0
128 134 0
130 135 0
142 150 0
135 142 0
138 145 0
134 141 0
135 140 0
143 151 0
132 138 0
129 136 0
136 147 0
137 145 0
138 146 0
142 151 0
137 145 0
134 142 0
135 145 0
121 129 0
139 149 0
149 158 0
141 150 0
144 154 0
150 160 0
146 154 0
141 149 0
146 155 0
151 163 0
142 154 0
149 159 0
144 155 0
148 158 0
144 156 0
146 156 0
154 165 0
144 156 0
149 161 0
144 154 0
144 155 0
153 165 0
145 156 0
155 166 0
152 164 0
152 163 0
147 157 0
149 159 0
159 172 0
158 169 0
158 170 0
150 161 0
153 167 0
157 169 0
159 171 0
162 179 0
156 168 0
160 174 0
160 174 0
154 167 0
154 168 0
160 175 0
161 175 0
160 174 0
155 169 0
157 171 0
154 168 0
157 173 0
160 177 0
155 169 0
156 171 0
163 178 0
162 178 0
156 173 0
162 178 0
164 180 0
157 174 0
156 173 0
157 174 0
158 175 0
160 175 0
163 178 0
166 183 0
162 179 0
163 180 0
161 181 0
159 175 0
160 176 0
161 179 0
161 178 0
160 178 0
166 183 0
159 174 0
160 178 0
163 181 0
164 182 0
166 185 0
170 195 72
171 194 62
173 197 72
173 197 80
169 193 67
173 197 72
172 196 67
175 198 80
172 195 84
174 197 80
170 194 67
169 192 62
170 193 36
174 199 95
173 197 67
172 196 84
172 194 67
170 193 62
167 191 76
171 194 62
172 196 67
174 198 67
168 191 62
172 196 80
171 195 44
171 195 76
172 196 62
169 192 36
170 194 72
172 195 67
168 192 62
169 193 67
168 191 51
168 193 62
170 193 72
168 192 84
170 194 95
170 194 51
171 194 51
169 193 72
174 197 76
171 194 62
171 195 95
167 190 62
171 195 76
172 195 67
168 192 88
169 193 80
168 193 88
170 194 88
167 191 62
171 195 76
167 192 88
170 193 51
171 195 72
166 190 72
169 192 72
166 190 72
168 190 76
162 186 80
163 186 67
166 189 62
167 190 51
163 187 57
164 188 92
169 193 84
167 191 67
164 187 67
169 193 80
160 183 67
159 182 51
168 192 76
166 191 67
163 187 62
168 191 92
161 185 57
165 188 62
160 183 86
91 119 117
95 123 135
83 112 127
90 118 144
88 117 136
98 124 137
78 108 136
86 115 136
81 110 140
85 114 148
92 119 152
89 118 150
106 133 161
90 119 159
98 125 142
90 118 156
97 124 148
92 120 153
91 119 150
91 119 147
106 132 155
90 118 156
102 129 156
90 119 145
108 134 162
93 121 142
87 116 146
103 130 144
101 128 148
84 113 145
95 123 151
86 116 157
76 107 155
77 109 164
74 107 168
71 105 173
74 106 170
74 107 172
74 107 168
72 105 163
77 108 162
71 103 163
71 101 154
63 96 150
61 96 155
60 96 157
59 95 146
61 96 154
60 96 151
60 94 148
60 95 147
61 96 155
59 94 141
61 96 141
59 93 133
59 94 142
60 94 134
62 95 138
67 98 126
69 100 120
67 99 133
59 94 139
57 91 133
58 91 122
60 95 147
60 95 145
59 94 138
60 96 148
59 93 137
60 94 141
61 96 149
60 95 139
61 96 143
60 96 150
60 95 147
61 96 149
61 96 143
60 96 139
60 96 147
60 95 144
60 96 144
59 93 131
61 96 145
61 96 146
59 94 134
59 94 137
60 95 143
61 96 150
61 97 151
60 96 148
59 94 139
61 96 151
60 96 144
60 95 142
60 94 133
60 96 142
61 96 149
60 96 149
61 97 144
59 94 137
61 96 142
61 96 144
61 96 151
61 96 144
60 94 136
61 97 149
60 96 141
60 95 136
61 96 142
60 94 130
60 94 137
60 95 139
61 96 151
61 97 154
61 97 152
60 94 137
60 94 140
61 96 141
61 97 149
61 97 152
61 96 142
59 93 131
60 95 145
61 96 144
60 95 136
60 95 144
59 93 130
60 95 145
60 94 134
62 97 145
59 93 136
61 97 143
61 96 140
60 95 140
60 95 136
61 96 135
61 96 148
60 95 135
59 94 135
60 94 137
61 96 148
58 93 126
61 96 144
59 93 130
59 93 126
60 95 137
59 93 129
61 95 143
59 94 129
61 95 129
59 94 130
59 94 131
60 95 140
60 94 130
59 94 125
59 93 133
59 93 122
58 92 121
60 95 135
60 94 137
60 95 133
59 94 133
58 93 124
59 92 126
58 91 127
58 91 118
58 92 129
58 92 121
57 90 114
58 92 124
58 91 124
58 92 116
56 89 115
97 112 68
122 132 0
127 139 0
125 135 0
116 128 0
127 139 0
121 133 0
124 135 0
125 137 0
123 137 0
127 138 0
132 144 0
126 138 0
121 133 0
131 142 0
120 132 0
130 141 0
128 141 0
118 128 0
127 139 0
116 126 0
118 129 0
127 137 0
129 138 0
121 134 0
117 124 0
122 130 0
127 138 0
122 134 0
132 143 0
116 125 0
106 112 0
130 140 0
125 137 0
135 144 0
127 134 0
127 134 0
137 146 0
119 129 0
125 133 0
113 123 0
122 132 0
129 138 0
137 148 0
123 131 0
132 138 0
125 133 0
132 138 0
135 142 0
138 146 0
139 148 0
128 135 0
135 143 0
126 134 0
138 147 0
131 140 0
133 143 0
127 132 0
142 151 0
133 143 0
134 141 0
135 143 0
138 145 0
151 161 0
137 143 0
139 146 0
137 145 0
144 152 0
139 149 0
135 145 0
138 144 0
143 151 0
140 145 0
143 152 0
140 147 0
144 153 0
140 150 0
140 147 0
147 158 0
147 155 0
138 146 0
147 158 0
144 152 0
147 157 0
138 148 0
145 156 0
151 163 0
147 160 0
154 168 0
157 167 0
144 156 0
140 151 0
151 163 0
149 162 0
154 165 0
156 169 0
156 168 0
150 161 0
151 164 0
147 160 0
158 173 0
151 163 0
155 167 0
156 168 0
152 163 0
151 163 0
159 173 0
155 169 0
164 175 0
153 166 0
157 171 0
153 168 0
151 164 0
151 162 0
151 165 0
162 175 0
159 175 0
159 176 0
157 171 0
159 173 0
153 166 0
160 175 0
158 173 0
157 173 0
166 182 0
156 169 0
163 180 0
165 182 0
161 178 0
166 183 0
160 178 0
158 174 0
158 175 0
164 182 0
164 182 0
160 177 0
165 182 0
167 184 0
162 181 0
165 183 0
161 178 0
160 175 0
164 183 0
164 181 0
164 185 0
158 174 0
162 179 0
161 178 0
166 185 0
170 194 67
174 198 92
171 195 76
171 195 62
170 194 84
174 198 88
172 196 67
174 197 62
175 199 102
174 198 76
171 195 51
170 194 76
170 193 62
172 196 92
170 194 62
174 198 80
174 197 76
173 197 72
172 196 57
173 196 72
174 198 72
174 199 92
172 196 76
171 195 62
173 197 88
170 194 72
172 196 84
171 194 57
170 193 72
171 195 67
167 189 51
168 193 67
170 194 88
166 191 88
172 197 95
171 195 62
170 195 72
171 195 76
169 193 88
168 192 76
168 192 88
167 191 84
168 192 76
170 194 88
167 191 62
170 194 72
168 192 67
168 192 72
171 195 76
166 190 67
163 188 67
164 188 62
169 193 67
167 191 99
167 191 67
161 185 62
169 193 80
165 189 51
171 195 92
165 188 44
166 190 76
165 189 76
165 189 67
163 186 67
164 188 80
167 190 57
168 192 62
165 188 80
167 191 72
168 191 72
160 183 72
166 189 76
164 188 88
160 184 44
166 189 80
164 187 76
162 185 72
159 182 62
119 144 102
98 125 144
90 118 140
86 114 126
100 126 151
97 125 140
85 114 141
94 121 140
88 117 137
89 117 139
92 120 155
93 120 149
89 118 146
91 119 138
84 113 133
102 128 151
98 126 153
88 117 157
94 120 139
92 120 149
104 130 147
87 115 150
95 123 152
100 127 145
103 129 155
89 117 154
103 129 154
109 135 150
103 129 136
98 125 148
95 122 147
93 121 148
88 117 145
90 119 155
76 107 170
82 113 176
67 101 164
68 102 161
77 108 168
74 106 166
67 101 157
70 102 159
74 104 156
69 100 148
63 98 157
62 98 162
60 95 149
61 97 158
60 96 156
62 97 148
61 96 140
60 95 151
60 95 144
59 94 139
61 97 149
61 95 133
68 101 138
58 92 131
62 94 133
65 97 136
71 102 113
58 93 133
59 94 140
59 94 137
60 94 138
59 93 137
60 95 142
60 94 134
60 95 143
59 94 137
59 94 137
59 94 142
59 94 140
61 96 147
59 93 139
59 94 133
59 94 140
60 95 141
58 91 126
61 96 146
60 96 152
60 95 139
60 95 136
61 96 151
60 95 146
60 95 139
59 93 136
60 95 144
60 95 145
60 95 137
60 95 141
60 95 148
59 94 131
61 96 147
60 95 134
59 94 140
60 95 141
60 94 137
59 93 126
61 96 146
60 95 139
61 96 144
60 95 142
60 95 136
61 96 144
61 96 142
61 96 147
62 97 145
61 96 143
61 96 150
60 94 141
60 95 145
60 95 137
60 95 135
61 96 141
60 95 139
60 95 143
62 97 145
61 96 145
60 95 134
61 97 156
61 96 137
60 95 141
60 94 137
61 96 140
58 93 133
60 95 137
61 96 141
60 95 140
61 96 144
61 96 141
60 95 136
61 96 141
60 94 134
61 96 143
61 96 137
61 96 145
61 96 144
59 94 130
61 96 144
59 94 135
60 94 133
59 93 131
59 93 122
59 94 133
60 94 130
61 96 140
60 95 135
61 96 148
59 93 130
60 95 136
60 94 140
59 93 127
60 95 136
59 93 134
60 95 137
61 95 131
60 94 126
57 91 118
60 94 125
60 95 134
58 92 133
59 92 121
58 92 122
59 93 131
59 92 120
60 95 130
59 93 127
58 91 117
59 92 120
58 91 111
58 91 121
79 100 78
116 127 0
111 123 0
113 128 0
123 137 0
112 123 0
121 136 0
129 141 0
118 129 0
121 133 0
124 135 0
118 127 0
108 122 0
118 131 0
121 131 0
121 130 0
125 138 0
116 127 0
111 123 0
121 132 0
115 121 0
127 139 0
122 134 0
119 132 0
129 140 0
126 137 0
123 133 0
117 128 0
127 140 0
132 142 0
122 129 0
117 124 0
112 121 0
125 138 0
126 135 0
133 144 0
124 131 0
125 139 0
122 133 0
121 131 0
129 138 0
135 142 0
130 139 0
126 136 0
126 132 0
133 144 0
124 134 0
142 151 0
132 139 0
126 135 0
135 142 0
125 133 0
134 144 0
135 144 0
128 138 0
137 147 0
127 137 0
137 145 0
131 139 0
142 151 0
144 153 0
140 149 0
140 150 0
133 140 0
140 149 0
131 139 0
131 139 0
140 151 0
134 145 0
144 154 0
144 153 0
146 153 0
138 147 0
129 137 0
146 153 0
140 150 0
145 153 0
147 157 0
142 153 0
149 159 0
132 144 0
143 153 0
147 159 0
148 158 0
149 160 0
143 153 0
144 154 0
141 151 0
148 160 0
148 159 0
149 162 0
151 160 0
154 164 0
147 158 0
144 155 0
155 169 0
153 166 0
147 160 0
148 161 0
148 158 0
155 167 0
158 173 0
149 160 0
164 179 0
151 162 0
154 166 0
155 171 0
148 161 0
152 166 0
161 177 0
150 163 0
161 176 0
159 174 0
157 174 0
148 159 0
161 177 0
162 177 0
158 173 0
154 167 0
158 173 0
159 175 0
154 168 0
159 174 0
155 170 0
162 178 0
157 174 0
162 176 0
159 174 0
162 179 0
163 180 0
160 175 0
162 179 0
158 173 0
156 174 0
162 179 0
160 176 0
163 180 0
159 177 0
163 181 0
164 180 0
163 180 0
167 185 0
162 180 0
160 180 0
161 177 0
163 181 0
163 181 0
163 182 0
167 187 0
162 180 0
172 195 72
173 197 72
172 195 95
171 194 51
172 196 80
175 198 51
169 193 76
173 197 84
171 195 62
172 195 57
169 192 36
173 197 62
173 198 80
170 194 51
170 193 67
170 193 76
172 197 88
169 193 76
170 194 72
172 197 92
172 196 67
171 195 72
170 193 67
169 194 95
173 197 80
169 192 51
170 193 67
169 192 67
165 189 57
167 191 67
166 190 88
171 194 44
169 193 76
171 195 72
168 191 62
168 193 72
166 189 51
167 190 67
165 190 88
171 195 84
171 195 80
173 196 76
169 193 51
165 188 67
172 196 67
167 190 67
169 193 72
168 191 67
167 191 67
162 186 72
167 190 51
166 190 80
172 196 84
166 190 72
166 190 72
162 185 92
167 192 57
170 194 99
165 189 51
164 187 72
168 191 44
165 189 67
164 188 76
165 190 84
164 187 57
162 186 67
168 192 84
165 189 76
165 189 62
170 193 62
164 188 76
163 186 62
165 187 67
163 187 67
167 190 62
168 190 76
169 192 76
167 190 72
162 185 88
107 133 139
90 118 139
109 135 150
98 124 136
88 115 136
89 117 134
98 126 144
100 127 145
90 118 143
89 118 148
88 116 148
104 131 152
95 122 153
82 112 145
81 110 138
86 114 136
90 117 143
86 115 147
90 118 145
90 117 148
88 117 146
100 127 148
100 126 145
106 132 158
94 122 143
94 122 148
106 132 144
98 124 147
108 133 150
94 121 143
80 111 148
84 114 148
88 116 141
87 116 154
81 112 169
71 105 168
81 112 173
71 105 165
90 119 177
80 111 168
74 107 165
65 99 157
64 98 154
65 97 146
65 99 159
63 99 162
62 98 159
60 95 149
61 96 154
60 95 145
60 95 143
59 94 146
60 94 134
60 95 149
61 97 150
66 99 141
62 95 131
57 91 124
67 99 126
65 98 134
72 102 120
59 94 143
57 91 138
59 93 135
57 92 126
59 93 134
59 94 140
58 92 137
61 96 148
60 95 140
59 93 132
59 93 134
59 94 137
60 95 140
60 96 150
59 94 140
60 95 138
60 95 135
60 95 137
58 93 129
60 94 135
62 97 150
60 95 147
60 95 148
60 95 137
61 96 152
59 94 142
60 95 149
59 93 130
59 94 130
60 95 131
60 95 140
60 95 139
61 95 140
60 95 137
60 95 145
61 97 146
60 95 140
59 95 137
61 96 141
60 95 142
61 97 144
59 94 137
62 97 155
61 96 150
60 95 137
61 96 148
60 95 139
59 94 134
61 96 140
60 95 141
60 95 143
61 96 154
61 96 139
60 95 140
60 95 143
60 95 135
58 93 132
60 95 135
61 96 141
60 95 140
61 96 144
61 96 142
61 95 137
60 95 143
60 95 139
59 93 124
61 96 137
59 94 131
61 95 137
61 96 143
61 95 134
60 95 133
60 94 145
61 96 144
59 94 130
59 93 126
60 95 137
61 96 143
62 97 147
60 95 135
60 94 135
60 95 130
59 93 126
60 95 136
59 94 133
59 93 133
61 96 142
60 95 137
60 95 129
60 95 139
61 96 145
59 94 131
59 93 129
61 95 143
59 93 122
60 95 133
60 95 134
59 93 127
59 93 126
58 92 126
58 92 117
57 90 125
58 92 131
59 93 129
58 91 126
58 92 122
60 93 131
56 89 105
57 89 111
61 92 108
121 135 25
109 119 0
113 126 0
127 137 0
131 144 0
129 142 0
115 130 0
131 144 0
118 130 0
117 130 0
129 143 0
113 124 0
120 133 0
117 128 0
121 134 0
127 139 0
116 128 0
119 130 0
125 138 0
125 139 0
118 129 0
131 141 0
120 130 0
130 141 0
132 144 0
126 139 0
117 127 0
131 143 0
122 136 0
123 134 0
122 134 0
125 135 0
130 139 0
121 130 0
124 134 0
134 145 0
129 140 0
132 144 0
123 133 0
124 136 0
126 136 0
133 144 0
122 134 0
125 134 0
132 139 0
137 147 0
129 139 0
135 145 0
135 148 0
124 132 0
128 134 0
139 146 0
132 143 0
135 144 0
140 151 0
137 146 0
127 136 0
128 136 0
129 137 0
135 144 0
133 140 0
139 147 0
136 146 0
136 143 0
141 151 0
138 147 0
149 158 0
136 147 0
135 143 0
148 158 0
137 148 0
142 153 0
143 156 0
141 150 0
145 156 0
143 152 0
136 143 0
147 159 0
142 152 0
148 158 0
143 157 0
143 152 0
142 153 0
148 159 0
142 152 0
150 160 0
155 168 0
154 164 0
144 154 0
148 159 0
151 162 0
150 163 0
153 165 0
147 158 0
139 147 0
159 173 0
156 171 0
154 165 0
151 165 0
157 167 0
153 164 0
156 170 0
160 173 0
154 169 0
154 166 0
157 170 0
156 169 0
150 159 0
152 165 0
152 166 0
154 169 0
151 163 0
161 175 0
154 169 0
149 163 0
157 172 0
156 171 0
150 165 0
163 178 0
164 179 0
159 175 0
159 175 0
159 174 0
156 170 0
155 170 0
161 179 0
160 175 0
162 175 0
164 184 0
160 178 0
161 177 0
164 182 0
160 179 0
164 182 0
166 184 0
165 180 0
161 179 0
163 179 0
163 180 0
166 184 0
162 180 0
161 177 0
161 179 0
166 182 0
163 180 0
163 179 0
167 186 0
166 185 0
162 179 0
167 187 0
172 195 62
171 196 80
174 198 84
172 195 62
171 195 76
175 199 88
171 195 72
171 195 67
171 195 76
171 195 76
174 198 84
168 191 51
171 196 67
176 200 92
172 196 51
169 193 72
171 195 80
171 195 67
168 192 67
171 195 62
172 197 80
171 195 76
171 194 67
171 195 84
171 196 80
169 192 67
170 193 44
173 196 62
167 190 76
167 192 72
172 195 67
168 192 44
168 192 44
170 194 84
168 192 76
168 193 95
169 193 62
167 191 51
167 191 72
165 189 80
169 193 67
171 194 62
166 190 57
172 196 62
170 194 76
169 193 80
167 192 62
169 193 76
167 192 67
165 188 62
168 192 84
168 192 72
166 190 67
166 189 72
168 193 72
166 191 76
167 192 88
168 192 62
168 191 57
168 192 95
163 187 92
168 192 88
167 191 76
164 187 84
164 187 62
167 190 67
163 187 62
165 188 57
164 187 72
163 186 67
164 188 67
165 189 84
165 189 67
165 189 76
165 188 72
165 188 105
163 186 84
158 182 67
159 182 80
133 157 82
98 124 123
96 123 127
95 122 136
88 116 147
94 122 145
94 122 147
91 119 137
88 117 147
97 124 149
91 119 126
96 123 144
93 120 142
105 131 157
102 128 150
94 120 137
92 119 140
92 120 150
97 124 141
78 108 141
94 121 151
105 131 157
91 119 153
93 120 144
104 129 143
90 118 145
106 133 146
110 136 141
100 127 145
95 123 150
88 117 147
80 110 148
88 115 128
90 119 151
87 116 159
84 114 179
72 105 169
74 106 170
79 110 169
78 109 174
74 106 163
66 100 165
64 98 153
67 99 154
62 96 149
61 97 161
62 97 160
62 97 158
60 95 144
60 95 150
59 94 145
60 95 147
59 94 135
63 97 151
60 95 144
58 93 149
59 94 143
63 97 141
73 103 136
61 94 129
63 95 129
68 101 136
59 94 137
61 95 147
60 96 152
59 94 137
59 93 131
58 93 140
57 91 134
60 95 140
59 94 138
60 95 141
61 96 146
60 95 152
60 94 137
60 95 141
57 91 124
59 94 135
60 95 140
60 95 142
60 96 148
60 95 139
60 95 135
59 93 136
60 95 139
58 92 124
61 96 137
61 96 150
58 93 137
61 96 143
61 96 150
60 94 136
61 96 143
60 95 144
60 95 139
60 95 140
60 95 140
61 96 141
61 97 144
59 94 135
60 94 129
61 96 142
60 95 137
60 95 139
59 93 141
60 95 133
59 94 142
61 96 140
61 96 140
60 96 142
60 95 145
58 92 128
61 96 141
59 94 134
60 95 139
60 95 137
61 95 145
61 97 152
59 94 140
60 95 141
59 93 121
61 96 142
60 94 133
59 94 134
61 96 139
60 94 137
60 95 136
61 95 140
61 95 140
60 95 139
60 95 135
60 95 137
60 95 136
60 95 133
60 95 133
60 95 143
60 95 134
59 94 131
60 95 139
60 95 143
59 94 135
60 94 137
60 95 140
58 93 127
60 95 139
60 95 133
60 95 141
61 96 143
60 94 133
59 93 130
60 95 135
60 94 126
60 95 139
60 95 129
60 94 129
60 95 137
60 95 131
59 92 121
61 96 139
60 94 126
59 93 125
59 92 135
58 91 121
60 94 124
57 91 121
59 93 117
57 89 115
57 89 122
56 89 104
56 88 104
94 111 65
112 125 0
124 138 0
126 140 0
117 129 0
116 128 0
134 148 0
120 136 0
125 139 0
122 138 0
124 137 0
121 131 0
128 141 0
124 137 0
126 137 0
128 141 0
120 131 0
125 138 0
122 133 0
120 132 0
126 137 0
132 147 0
129 141 0
126 137 0
125 135 0
128 140 0
124 135 0
125 135 0
124 135 0
130 141 0
126 139 0
124 133 0
133 141 0
121 131 0
139 150 0
130 139 0
135 147 0
122 133 0
127 138 0
130 144 0
142 156 0
126 134 0
144 155 0
130 142 0
136 146 0
134 145 0
135 145 0
140 152 0
129 139 0
138 147 0
138 148 0
141 152 0
135 146 0
144 156 0
139 149 0
129 139 0
135 147 0
136 147 0
134 145 0
137 145 0
123 131 0
142 153 0
132 144 0
140 148 0
141 152 0
141 151 0
137 147 0
140 153 0
148 158 0
140 151 0
131 141 0
141 151 0
134 143 0
141 151 0
133 140 0
142 151 0
141 151 0
142 149 0
145 158 0
147 158 0
141 152 0
147 159 0
147 157 0
147 155 0
143 153 0
148 161 0
142 153 0
148 159 0
140 151 0
147 157 0
154 166 0
154 164 0
154 164 0
152 164 0
153 164 0
152 162 0
157 170 0
145 158 0
153 167 0
154 168 0
153 167 0
151 168 0
157 172 0
156 169 0
151 163 0
158 175 0
150 164 0
153 166 0
150 163 0
156 170 0
159 173 0
157 171 0
154 167 0
157 173 0
158 169 0
158 173 0
159 173 0
150 164 0
161 178 0
160 175 0
151 167 0
159 175 0
160 177 0
157 174 0
158 173 0
160 178 0
163 180 0
158 175 0
163 180 0
159 175 0
162 178 0
156 170 0
160 176 0
158 175 0
157 173 0
163 179 0
164 182 0
157 174 0
164 181 0
165 182 0
168 186 0
159 175 0
161 180 0
159 176 0
161 179 0
165 183 0
165 184 0
162 180 0
164 180 0
162 180 0
166 183 0
173 196 84
174 197 88
170 194 84
171 195 80
172 196 76
172 195 57
175 198 76
173 196 67
172 196 72
171 194 51
170 194 84
172 196 95
170 194 57
171 194 62
174 197 80
171 195 84
170 194 72
170 195 88
172 196 92
175 199 84
170 194 67
170 193 51
171 197 99
167 192 84
170 194 72
168 192 57
165 189 76
174 197 57
170 194 72
171 195 76
166 189 72
171 194 72
171 195 62
171 196 80
171 195 62
172 197 105
169 193 72
164 188 72
171 195 76
165 189 67
170 195 76
165 188 57
167 191 62
168 192 80
168 192 62
164 188 57
167 191 62
167 191 62
167 191 44
165 189 62
159 183 76
167 191 57
169 193 62
165 188 57
164 188 76
168 193 92
169 192 57
168 193 88
165 189 76
168 191 76
168 191 72
162 185 44
164 187 76
165 188 67
162 186 51
160 183 44
166 189 67
165 189 72
164 187 67
167 190 72
163 186 51
164 188 76
163 185 76
162 185 76
162 185 62
157 181 92
164 187 88
165 188 67
166 190 80
161 183 47
106 131 122
92 120 128
98 125 129
92 120 142
84 113 131
81 109 127
76 106 133
97 125 155
108 133 149
103 130 146
92 119 141
98 125 144
93 120 143
87 114 138
97 122 127
95 122 151
95 123 154
86 114 147
90 118 148
93 121 152
107 133 156
104 131 156
81 111 142
91 119 155
93 120 150
111 136 151
115 139 152
91 119 137
98 124 141
105 131 123
79 109 134
82 111 137
85 114 145
90 118 144
88 117 155
71 105 174
73 106 164
72 105 166
77 109 172
71 104 165
67 101 153
64 98 160
66 99 152
66 100 157
62 97 156
63 96 149
61 97 156
61 96 156
61 97 151
60 96 145
61 97 154
60 94 150
60 95 150
60 95 143
58 92 133
62 96 131
64 98 146
63 96 134
62 96 134
66 98 124
77 106 113
58 92 131
60 95 139
58 92 136
60 94 143
59 94 130
59 94 136
59 93 135
59 93 135
60 95 140
59 93 142
59 94 134
59 94 150
60 94 139
59 93 136
60 95 144
60 95 134
61 96 141
59 93 137
59 93 133
59 93 145
59 94 139
59 94 138
60 95 137
60 94 141
60 94 137
59 94 136
59 94 139
59 94 137
61 96 144
61 96 147
60 96 149
60 95 141
60 95 143
60 95 141
61 96 139
60 95 135
60 95 135
59 93 133
60 95 137
59 94 140
59 94 137
61 96 142
61 95 141
59 95 141
61 96 141
61 96 148
60 95 135
61 96 145
61 96 148
61 96 142
61 96 136
60 95 133
60 95 139
61 96 142
60 94 139
60 95 135
60 95 141
60 95 134
60 94 129
60 94 133
60 95 136
60 95 134
60 95 139
61 95 137
60 95 141
60 95 136
61 96 140
60 95 140
60 94 130
60 94 134
60 95 139
62 97 148
59 94 133
61 96 140
61 96 139
58 92 125
61 96 136
60 95 137
59 94 127
60 95 127
60 94 126
59 93 121
59 93 125
60 94 127
59 93 125
59 93 121
59 93 126
59 94 126
59 93 120
60 94 126
58 92 131
60 94 134
59 93 125
59 93 124
61 96 144
60 94 131
59 94 121
58 91 126
59 93 126
58 91 124
57 91 118
57 90 117
57 90 117
56 88 107
56 88 108
58 90 118
57 90 110
80 102 84
122 137 0
113 126 0
110 123 0
104 117 0
114 126 0
122 137 0
109 124 0
125 137 0
126 138 0
116 129 0
134 147 0
126 138 0
128 140 0
121 132 0
121 132 0
128 140 0
112 126 0
125 138 0
118 131 0
122 136 0
122 135 0
123 136 0
125 139 0
124 137 0
125 138 0
116 129 0
132 144 0
117 130 0
116 126 0
129 141 0
122 135 0
131 143 0
128 138 0
134 146 0
122 134 0
131 142 0
133 145 0
132 140 0
124 136 0
130 138 0
129 138 0
126 136 0
127 140 0
131 141 0
136 146 0
130 140 0
136 148 0
132 144 0
127 139 0
137 145 0
131 142 0
127 138 0
137 149 0
127 136 0
146 157 0
137 146 0
141 152 0
129 139 0
131 141 0
134 144 0
136 148 0
132 143 0
131 143 0
132 143 0
143 153 0
137 150 0
137 147 0
140 153 0
139 148 0
138 150 0
146 155 0
135 144 0
138 149 0
138 147 0
145 152 0
141 150 0
147 157 0
144 154 0
143 155 0
150 163 0
141 152 0
151 168 0
152 161 0
142 151 0
145 155 0
145 154 0
143 152 0
153 164 0
152 161 0
139 149 0
156 168 0
155 166 0
148 159 0
157 170 0
156 169 0
154 166 0
151 163 0
155 166 0
154 166 0
150 163 0
154 171 0
155 168 0
155 170 0
157 170 0
155 165 0
155 169 0
154 169 0
158 173 0
151 162 0
155 170 0
153 167 0
157 172 0
155 169 0
158 172 0
159 177 0
159 173 0
152 168 0
161 176 0
159 174 0
160 177 0
156 172 0
158 172 0
164 181 0
154 172 0
161 177 0
161 179 0
154 172 0
160 175 0
159 175 0
158 172 0
163 182 0
158 173 0
161 178 0
164 181 0
161 175 0
165 182 0
160 178 0
162 180 0
164 184 0
153 168 0
161 177 0
164 179 0
163 182 0
164 184 0
165 184 0
160 178 0
167 187 0
168 188 0
165 185 0
157 176 0
167 185 0
173 198 99
174 198 84
173 196 88
173 197 57
171 195 92
173 196 67
175 199 84
171 195 72
170 195 57
172 196 72
171 195 88
172 196 62
170 194 67
171 195 76
173 198 62
169 193 67
171 195 88
173 197 67
172 196 76
172 195 72
171 194 62
168 193 76
169 194 84
166 191 88
168 193 62
168 192 76
171 195 72
165 188 57
170 194 67
172 196 67
170 194 57
169 193 76
168 191 57
168 193 80
167 191 92
168 192 88
169 194 80
171 194 44
165 190 80
168 192 105
165 189 72
170 195 88
168 192 51
170 194 80
165 188 67
168 193 102
163 189 92
166 191 80
171 195 62
161 185 80
165 189 72
170 193 57
168 192 67
163 187 72
169 193 76
166 190 72
161 185 67
160 184 57
168 192 67
164 187 72
167 191 80
158 181 44
165 189 62
160 183 67
162 185 84
161 184 57
162 185 51
162 186 67
161 185 88
162 186 76
167 192 92
165 188 72
155 179 80
161 183 67
163 186 76
168 191 99
157 181 62
162 184 62
163 187 67
162 185 88
149 172 108
90 117 127
97 125 133
93 120 124
80 110 144
96 123 134
102 129 156
99 126 143
99 126 149
97 124 148
98 124 137
81 109 137
94 121 152
82 110 143
93 120 139
80 108 139
76 106 142
97 124 141
89 117 145
88 116 142
98 125 153
95 123 152
101 127 144
89 116 151
98 125 149
102 128 140
110 135 152
110 135 145
103 128 134
98 124 135
95 122 145
97 124 138
84 114 152
81 111 144
95 122 149
81 112 159
72 105 170
91 119 172
71 105 168
68 102 159
71 104 158
74 105 162
77 105 149
69 100 151
66 98 150
63 97 154
59 95 151
61 96 151
61 96 152
61 96 155
61 96 149
61 96 154
60 95 145
59 94 136
61 96 145
59 95 147
73 104 129
67 99 133
64 96 122
66 97 120
69 100 117
81 110 121
58 91 130
60 95 146
57 91 133
58 92 131
57 92 122
59 93 134
60 95 145
59 94 135
58 93 133
58 92 132
59 93 141
60 95 139
59 94 139
59 94 139
60 95 139
59 94 139
61 96 142
60 95 134
59 94 136
58 93 128
61 96 144
61 96 143
59 94 133
60 95 142
60 95 144
61 96 150
59 94 140
61 97 148
61 96 148
59 94 140
61 97 152
59 94 141
60 95 143
60 94 134
60 95 144
59 94 145
60 94 129
60 96 136
60 94 135
60 95 135
60 95 139
61 96 143
59 94 131
61 96 142
59 94 134
60 95 140
60 95 134
61 96 140
61 96 137
60 95 141
60 96 136
61 96 144
59 93 129
60 95 136
60 95 131
60 95 139
61 96 143
59 94 136
59 94 135
59 94 137
60 94 142
61 96 139
60 95 133
59 94 131
60 94 142
60 94 135
60 94 130
60 95 140
60 95 136
61 96 140
61 96 143
59 94 126
60 95 137
60 95 133
59 94 131
61 95 137
60 95 137
60 95 133
59 94 133
60 94 142
59 93 133
60 94 131
60 95 137
60 94 137
60 95 131
60 94 133
59 94 131
60 95 142
60 95 133
60 94 131
59 94 126
60 94 130
57 91 117
58 92 124
59 93 122
58 91 115
60 94 130
59 93 131
59 93 124
57 90 115
60 94 130
58 91 116
58 91 118
57 90 110
59 92 120
66 94 95
105 120 25
113 126 0
125 136 0
123 137 0
117 129 0
116 127 0
130 145 0
108 124 0
123 135 0
119 131 0
129 142 0
116 128 0
122 135 0
120 133 0
119 132 0
120 132 0
125 139 0
127 141 0
123 135 0
127 139 0
114 127 0
126 138 0
124 138 0
118 128 0
126 139 0
130 143 0
128 141 0
130 143 0
127 140 0
125 138 0
129 141 0
129 141 0
126 138 0
124 134 0
124 135 0
137 150 0
133 142 0
129 141 0
127 135 0
130 139 0
124 136 0
132 143 0
135 148 0
132 144 0
122 132 0
134 148 0
131 143 0
138 150 0
122 133 0
131 141 0
132 144 0
128 137 0
139 151 0
130 142 0
132 142 0
135 145 0
138 150 0
141 152 0
139 147 0
138 150 0
135 147 0
133 143 0
133 143 0
145 155 0
142 154 0
135 147 0
138 145 0
142 152 0
145 154 0
136 148 0
140 153 0
142 150 0
148 161 0
147 161 0
146 158 0
146 156 0
143 155 0
144 157 0
144 152 0
150 163 0
145 159 0
147 159 0
151 163 0
150 158 0
145 160 0
140 152 0
146 160 0
149 163 0
146 158 0
149 163 0
152 166 0
158 175 0
155 167 0
145 158 0
145 157 0
154 168 0
154 166 0
157 171 0
148 160 0
150 162 0
154 166 0
158 175 0
155 168 0
143 155 0
151 163 0
149 163 0
150 164 0
157 172 0
161 178 0
155 169 0
158 170 0
153 168 0
157 171 0
157 172 0
158 173 0
159 175 0
155 167 0
162 179 0
152 167 0
156 171 0
157 173 0
160 178 0
159 175 0
156 171 0
163 180 0
160 178 0
158 175 0
159 176 0
160 178 0
158 174 0
161 178 0
159 175 0
164 182 0
160 176 0
162 181 0
164 181 0
165 183 0
162 180 0
161 178 0
164 182 0
163 182 0
157 175 0
159 177 0
163 182 0
165 184 0
159 176 0
164 183 0
163 182 0
168 188 0
165 184 0
162 181 0
163 180 0
173 197 67
171 196 44
169 193 44
170 194 72
174 198 95
171 195 62
173 197 72
169 193 51
172 196 76
172 196 62
171 195 76
173 197 88
167 192 72
171 195 88
173 197 95
169 193 88
171 194 84
170 193 72
170 195 72
170 194 80
171 195 57
169 193 51
169 192 57
171 195 80
171 195 92
167 191 51
170 193 80
169 193 88
168 191 51
157 181 76
168 191 67
169 193 72
169 194 105
174 198 84
171 195 84
165 188 62
170 194 57
168 192 80
167 192 95
162 187 92
164 188 76
169 194 76
166 190 67
167 191 62
167 192 76
167 190 36
167 193 92
165 189 67
166 191 84
165 189 80
165 189 67
165 189 92
168 192 88
169 193 72
168 192 57
168 192 80
166 190 76
168 192 92
167 191 72
160 183 76
161 185 92
166 191 80
166 190 88
170 193 67
163 186 57
163 186 67
160 183 67
163 187 80
161 184 62
165 188 51
161 183 51
164 187 67
161 185 67
165 188 72
163 187 84
166 188 62
163 186 80
162 185 57
160 182 67
160 182 72
159 183 72
121 145 121
91 120 141
87 115 111
94 121 132
90 118 131
101 128 143
85 113 127
93 121 144
90 117 139
98 126 151
100 126 142
95 123 147
96 122 134
90 118 145
87 114 141
87 115 137
91 118 140
93 120 147
94 120 147
95 121 141
91 118 139
88 116 141
91 118 141
106 131 148
99 125 153
103 129 149
102 129 155
94 122 151
123 146 152
95 121 141
86 112 137
85 113 136
98 125 134
81 111 141
70 102 147
73 105 160
72 105 173
72 105 170
74 106 165
74 107 169
74 106 163
67 101 155
69 101 152
64 98 151
70 101 156
63 98 152
60 96 153
61 96 151
60 94 148
62 97 153
59 94 150
64 99 162
61 96 147
60 95 142
59 94 138
60 94 133
62 96 142
61 95 143
65 96 128
62 95 126
84 111 119
59 94 141
59 94 133
58 92 127
59 93 147
60 95 140
60 94 148
59 94 133
58 92 133
57 91 139
59 93 123
59 94 137
61 96 146
59 94 137
61 96 148
60 95 141
60 95 139
59 94 137
58 92 126
61 96 149
61 95 143
62 96 141
59 93 130
60 95 139
59 94 137
62 96 148
60 94 140
60 95 136
59 94 130
60 96 145
59 94 137
60 95 135
60 95 145
61 96 143
60 95 139
60 95 143
61 95 147
61 96 141
59 94 135
59 94 136
59 94 138
59 94 127
59 94 134
60 95 137
61 96 144
60 95 141
60 95 140
60 94 134
59 93 124
60 94 136
60 94 130
60 94 137
61 96 141
61 96 144
61 97 148
59 93 135
59 94 133
60 94 140
60 95 140
60 94 134
60 96 136
60 94 126
59 94 136
61 96 141
61 96 142
58 93 125
60 95 139
60 95 131
60 94 133
60 95 139
61 96 143
59 93 124
58 93 122
60 94 129
59 93 131
60 94 133
57 91 126
60 94 129
62 97 144
60 95 133
60 94 136
60 95 134
60 94 131
59 93 129
57 91 121
59 94 135
59 93 125
58 93 129
59 93 121
58 93 121
59 94 133
58 93 133
59 93 127
57 90 120
61 95 136
59 92 127
58 92 120
58 92 115
60 94 134
58 91 114
57 91 114
57 91 120
59 92 126
57 90 110
56 89 113
53 84 94
110 129 44
110 120 0
127 143 0
122 138 0
125 138 0
126 139 0
123 136 0
122 137 0
125 138 0
126 139 0
127 140 0
123 136 0
120 132 0
127 141 0
118 132 0
125 137 0
121 134 0
114 125 0
132 145 0
116 128 0
117 130 0
123 136 0
117 130 0
128 140 0
119 133 0
128 139 0
128 139 0
125 139 0
129 142 0
126 138 0
123 133 0
141 155 0
136 150 0
140 151 0
138 149 0
128 138 0
128 137 0
124 136 0
132 141 0
131 142 0
125 136 0
134 147 0
129 142 0
128 138 0
127 138 0
133 144 0
140 155 0
139 149 0
130 140 0
139 152 0
131 143 0
134 145 0
133 146 0
129 140 0
134 147 0
134 148 0
134 145 0
139 150 0
143 156 0
140 151 0
145 156 0
144 156 0
138 151 0
139 150 0
138 151 0
146 157 0
143 151 0
144 155 0
138 151 0
143 157 0
138 148 0
144 156 0
148 159 0
141 151 0
141 151 0
146 158 0
145 156 0
142 155 0
147 157 0
144 155 0
152 166 0
149 160 0
146 158 0
143 155 0
147 160 0
150 163 0
139 154 0
148 160 0
145 158 0
147 159 0
147 159 0
154 165 0
153 167 0
156 171 0
152 163 0
151 164 0
151 167 0
151 164 0
154 169 0
149 163 0
155 171 0
155 169 0
159 173 0
160 173 0
150 163 0
157 173 0
157 172 0
148 161 0
153 169 0
159 174 0
159 174 0
156 170 0
158 174 0
156 172 0
155 170 0
157 171 0
158 174 0
157 173 0
158 173 0
157 172 0
160 176 0
158 174 0
162 180 0
156 170 0
161 178 0
162 178 0
160 173 0
153 169 0
164 180 0
166 182 0
153 167 0
159 176 0
162 179 0
163 178 0
167 184 0
165 184 0
160 176 0
162 180 0
161 180 0
161 179 0
156 173 0
168 188 0
168 186 0
165 184 0
162 181 0
163 178 0
166 185 0
163 179 0
166 185 0
165 184 0
161 180 0
162 181 0
163 179 0
168 191 62
174 198 67
170 195 44
171 195 72
169 193 62
169 192 44
174 197 67
173 197 72
172 196 51
169 193 72
173 197 84
172 196 84
172 195 51
170 194 92
172 196 72
163 188 67
169 193 67
168 192 80
172 196 80
169 193 62
171 194 67
173 197 62
170 195 76
167 190 62
169 193 51
166 191 102
170 195 67
168 192 76
172 197 95
168 192 62
167 192 80
169 193 67
166 191 51
165 189 57
167 191 72
171 195 88
168 193 95
165 190 67
171 193 76
164 189 67
170 195 76
164 188 80
165 190 67
169 193 67
168 192 72
169 193 88
165 188 44
165 190 80
169 193 72
169 192 62
168 192 84
162 187 88
170 194 51
158 182 57
159 183 76
166 191 102
159 182 62
168 192 44
169 192 76
166 189 76
167 190 72
167 190 72
164 187 80
163 186 57
164 187 72
160 184 76
158 182 76
163 186 76
159 182 84
166 189 44
164 188 62
163 186 88
160 184 92
164 186 62
161 185 62
162 186 67
162 186 80
168 190 67
163 187 84
159 182 67
156 178 67
158 181 60
100 127 121
96 123 140
102 128 143
90 118 140
87 115 124
80 109 134
82 111 140
82 111 136
92 119 137
95 122 139
91 118 141
86 115 140
94 122 153
89 117 149
101 127 141
92 118 148
104 130 145
89 117 135
108 133 165
105 130 150
90 120 153
94 121 148
91 118 141
94 120 150
95 122 143
103 128 149
95 122 148
107 133 122
94 121 135
93 119 137
82 111 149
81 111 151
99 127 144
94 120 137
85 115 157
79 110 171
65 100 160
77 108 166
77 108 164
77 109 164
75 106 164
67 99 152
67 99 147
63 98 151
67 99 145
64 97 151
61 97 157
61 97 159
59 94 136
60 96 150
59 93 140
59 94 140
62 97 136
63 97 147
59 94 138
66 98 126
60 93 127
64 97 132
65 98 132
70 100 127
79 108 115
59 93 136
59 93 134
60 94 147
60 95 144
58 91 124
58 92 129
57 91 135
60 95 143
59 93 124
59 94 126
58 92 127
60 95 144
60 95 140
59 93 127
60 95 136
59 94 135
59 93 132
59 94 134
58 92 134
60 94 138
59 94 136
60 94 131
59 94 134
60 96 141
60 94 136
59 94 133
59 94 141
60 96 145
61 96 144
58 93 130
60 95 137
60 95 143
58 93 130
60 95 143
59 94 137
60 94 139
60 95 134
61 95 137
60 94 141
61 96 140
59 94 135
58 93 133
60 95 141
60 95 139
60 95 135
60 94 129
60 95 140
60 95 142
60 95 140
59 94 127
59 93 126
61 96 137
60 94 143
61 96 144
59 93 135
61 96 148
59 93 130
60 94 136
59 93 129
59 93 139
60 94 133
61 96 144
59 94 125
59 94 131
60 95 134
60 94 134
58 92 122
58 92 120
59 93 129
59 93 129
60 94 129
59 93 129
60 95 137
60 94 131
60 95 135
60 94 129
60 95 130
60 95 136
59 93 130
60 95 137
59 94 131
58 92 125
59 93 129
59 94 131
61 95 131
58 91 117
58 92 122
58 91 118
59 92 127
58 92 129
59 93 130
59 93 122
59 93 127
59 93 122
58 92 125
59 92 118
57 90 115
59 93 124
58 91 108
57 90 121
58 92 121
57 88 114
56 88 99
89 108 62
122 136 0
119 135 0
116 128 0
119 133 0
122 136 0
120 133 0
129 141 0
117 131 0
126 140 0
119 134 0
129 141 0
123 136 0
126 138 0
123 139 0
114 127 0
125 139 0
121 136 0
127 142 0
124 137 0
129 142 0
125 140 0
116 129 0
128 141 0
130 145 0
131 145 0
134 146 0
131 145 0
132 144 0
137 147 0
126 138 0
122 135 0
123 135 0
124 134 0
131 145 0
124 136 0
134 147 0
125 139 0
129 139 0
130 143 0
139 153 0
133 145 0
131 143 0
134 148 0
139 154 0
127 135 0
131 141 0
136 148 0
125 134 0
142 155 0
139 150 0
133 145 0
131 142 0
140 152 0
129 140 0
137 151 0
142 154 0
134 146 0
143 156 0
139 150 0
136 147 0
144 158 0
144 155 0
145 158 0
146 159 0
137 147 0
142 150 0
145 159 0
141 152 0
139 150 0
142 153 0
148 160 0
146 159 0
145 156 0
147 156 0
141 154 0
145 159 0
148 159 0
146 159 0
144 154 0
145 159 0
142 154 0
143 156 0
150 161 0
151 163 0
149 161 0
151 166 0
147 160 0
148 160 0
155 172 0
150 166 0
148 160 0
154 166 0
151 163 0
151 165 0
153 166 0
151 163 0
144 156 0
149 162 0
152 165 0
154 168 0
150 163 0
150 164 0
155 170 0
154 168 0
150 161 0
152 166 0
160 177 0
159 176 0
160 175 0
157 171 0
157 171 0
153 167 0
158 173 0
161 176 0
158 175 0
158 174 0
157 173 0
156 171 0
164 181 0
158 174 0
157 173 0
158 174 0
161 179 0
160 176 0
151 166 0
160 175 0
163 180 0
162 178 0
160 177 0
155 170 0
163 180 0
157 174 0
161 177 0
159 174 0
162 179 0
162 180 0
161 178 0
161 178 0
160 177 0
162 179 0
163 181 0
163 180 0
166 184 0
164 182 0
162 181 0
165 182 0
161 180 0
167 185 0
163 180 0
163 182 0
169 187 0
161 180 0
164 184 0
171 195 76
175 199 95
172 196 80
173 197 76
172 195 67
169 193 80
176 199 76
172 196 57
171 195 67
174 197 84
169 192 57
170 194 88
167 191 72
170 194 57
171 195 80
172 197 84
173 197 62
171 196 84
169 193 72
169 193 57
174 197 72
168 192 62
168 192 67
170 194 80
168 193 62
171 196 76
172 196 67
171 194 80
169 193 76
170 194 67
167 191 51
167 191 72
169 193 72
171 195 72
167 190 76
168 192 72
171 196 84
166 190 72
167 191 67
164 188 72
172 196 84
169 192 88
165 189 80
161 185 72
164 188 62
165 189 72
168 192 51
164 188 67
166 191 80
164 188 76
163 187 76
164 188 67
164 188 67
170 193 62
162 186 72
168 193 76
164 188 72
161 186 80
159 184 67
166 190 84
168 193 76
168 192 76
169 192 88
163 187 80
164 186 72
162 186 76
166 190 76
163 187 92
163 186 72
163 187 108
165 188 88
159 183 72
162 184 62
152 174 62
161 183 76
162 186 72
161 183 62
160 184 76
158 180 62
157 180 62
153 177 67
163 186 72
126 149 80
102 128 138
90 118 134
86 113 127
91 118 134
87 115 124
85 113 122
85 113 134
88 116 143
98 125 130
96 123 143
98 125 152
74 103 137
96 123 144
102 127 149
97 122 141
109 134 150
91 118 144
86 113 143
92 119 142
87 114 139
93 120 141
104 130 137
82 111 140
106 132 154
97 124 143
90 118 143
104 129 157
108 134 158
101 127 148
93 120 146
85 114 145
100 127 150
81 110 147
75 107 145
66 100 158
71 105 166
77 108 162
77 109 168
77 108 170
70 102 156
63 96 149
66 99 150
65 98 156
65 98 152
67 99 142
63 97 149
61 96 151
60 95 145
60 96 151
61 96 144
62 96 142
62 96 136
60 95 142
61 96 137
60 93 129
68 100 139
65 97 126
66 99 127
60 92 113
71 102 129
58 92 135
59 93 139
59 93 135
59 93 136
58 92 133
57 91 125
59 94 143
58 93 138
61 96 145
58 92 124
59 95 145
59 93 132
59 94 139
60 95 141
59 93 130
56 90 123
59 94 135
59 94 140
59 93 136
59 93 137
60 94 140
60 95 144
59 94 130
60 94 138
60 94 137
59 93 122
60 95 139
61 96 144
60 94 144
61 96 145
59 94 141
60 96 150
61 96 145
59 94 139
59 94 133
59 94 134
60 95 135
60 94 132
59 94 130
59 94 134
59 94 125
59 94 130
59 94 141
59 93 130
60 95 139
60 95 140
59 94 133
60 95 140
61 97 141
62 97 152
61 96 139
59 94 133
60 95 139
60 95 130
60 95 141
60 95 129
60 95 137
60 95 136
60 95 130
59 93 125
60 94 134
60 94 140
61 97 141
59 93 131
58 92 127
60 95 136
60 95 130
58 92 124
59 93 127
61 96 136
60 95 136
60 95 136
59 93 121
60 95 134
59 93 131
59 93 118
59 93 135
58 92 130
60 95 131
58 92 122
57 90 113
61 96 139
59 93 126
59 94 135
58 91 114
59 93 120
59 93 120
60 94 127
58 92 126
58 92 121
61 95 130
59 93 124
58 92 120
59 93 114
57 90 118
58 92 117
59 94 126
58 91 116
59 93 122
57 90 108
58 91 125
57 90 111
71 96 92
109 122 25
118 133 0
127 141 0
114 129 0
120 133 0
125 139 0
124 134 0
132 145 0
122 133 0
125 139 0
127 139 0
129 144 0
125 139 0
120 134 0
127 141 0
124 139 0
132 147 0
125 140 0
114 128 0
126 139 0
128 140 0
119 132 0
127 140 0
133 146 0
128 142 0
122 135 0
124 137 0
136 149 0
117 127 0
128 143 0
119 130 0
131 144 0
122 134 0
131 140 0
127 139 0
124 138 0
132 145 0
127 138 0
126 140 0
133 148 0
129 139 0
128 142 0
125 136 0
140 151 0
134 145 0
133 143 0
126 137 0
135 149 0
134 148 0
132 146 0
133 145 0
135 147 0
129 142 0
136 146 0
141 151 0
136 150 0
130 142 0
138 151 0
136 145 0
134 144 0
139 151 0
141 151 0
150 162 0
136 145 0
139 153 0
145 158 0
142 156 0
143 156 0
144 155 0
145 157 0
138 149 0
144 159 0
144 156 0
140 152 0
147 159 0
133 144 0
137 148 0
145 157 0
144 158 0
154 167 0
149 165 0
143 152 0
144 154 0
147 162 0
154 166 0
149 161 0
146 156 0
151 166 0
147 159 0
148 164 0
153 166 0
150 161 0
149 164 0
148 161 0
150 163 0
154 170 0
153 166 0
143 156 0
154 167 0
153 167 0
152 165 0
155 166 0
156 170 0
153 168 0
158 171 0
155 170 0
159 176 0
146 159 0
155 171 0
153 169 0
153 168 0
158 175 0
157 174 0
155 170 0
156 173 0
163 179 0
159 174 0
160 176 0
158 173 0
157 172 0
163 180 0
157 174 0
156 174 0
162 180 0
157 173 0
161 179 0
166 183 0
161 176 0
160 176 0
163 182 0
158 173 0
162 177 0
164 180 0
159 176 0
167 185 0
165 181 0
168 186 0
161 179 0
163 180 0
162 178 0
159 177 0
164 184 0
166 186 0
163 182 0
166 183 0
166 185 0
165 184 0
163 181 0
165 182 0
163 181 0
166 186 0
164 182 0
163 183 0
168 186 0
174 198 62
170 194 72
173 197 80
175 198 57
173 196 51
173 197 57
170 194 80
170 194 67
171 194 67
172 196 57
172 197 84
168 192 67
167 191 76
171 195 72
167 191 72
169 193 67
170 194 72
172 197 72
166 190 62
172 196 76
170 195 88
167 191 67
169 193 67
172 196 67
166 191 62
167 191 76
172 195 62
164 188 72
169 193 44
171 196 99
169 194 92
166 190 57
165 190 80
168 193 84
171 195 80
163 188 72
167 192 80
166 191 67
164 189 88
162 187 57
171 196 76
167 191 80
172 195 72
165 189 67
166 190 102
167 191 72
166 191 92
159 183 44
162 187 57
166 190 80
164 189 44
166 191 72
169 193 76
170 194 84
165 190 88
165 190 62
167 191 84
169 194 92
164 187 76
166 189 57
161 185 57
163 188 72
159 183 51
166 190 80
163 187 80
162 185 62
163 186 62
162 185 80
163 187 72
163 186 84
163 187 72
162 186 72
161 186 76
159 181 57
164 187 67
157 181 76
159 182 80
157 180 76
163 186 95
162 186 84
155 178 62
155 177 72
156 180 57
115 140 122
107 132 144
91 119 136
90 117 129
87 115 136
84 112 125
97 124 150
94 121 147
89 116 138
89 116 126
98 125 139
96 122 135
102 127 136
92 119 145
88 116 135
84 112 132
91 119 136
91 118 134
93 120 152
100 127 150
84 111 144
102 128 142
98 124 142
84 113 141
97 123 155
86 114 145
97 124 137
102 128 159
102 127 131
104 128 145
100 124 131
88 116 140
85 114 133
94 122 150
80 109 148
71 104 157
71 105 171
74 107 166
74 106 163
68 102 159
65 100 157
68 100 150
64 97 152
70 100 149
64 97 151
66 100 155
63 99 155
60 96 145
60 95 147
59 95 144
61 97 151
60 95 144
57 91 129
59 94 133
61 94 133
68 99 122
59 92 125
59 91 112
59 92 124
75 105 99
72 103 134
60 95 137
58 92 136
57 91 131
58 93 133
59 94 129
57 91 130
60 95 144
58 93 127
58 92 129
58 92 122
60 94 135
60 95 141
61 96 146
59 93 129
61 96 137
60 94 126
60 95 132
59 93 136
60 94 134
59 93 140
59 94 131
60 94 136
61 96 140
59 93 133
58 92 116
60 95 143
59 93 126
59 94 133
59 94 135
61 96 139
59 94 131
60 95 142
61 96 144
60 94 133
60 95 127
59 93 130
60 94 140
60 95 136
58 92 127
59 94 131
61 96 142
59 93 127
60 95 135
59 93 134
60 95 140
60 95 129
60 94 139
60 95 140
58 92 120
60 94 135
61 96 141
61 95 141
60 94 129
60 95 139
60 95 127
60 95 137
61 96 139
59 94 134
59 93 130
58 92 118
60 94 129
60 94 134
61 95 133
60 94 133
59 93 129
60 94 142
59 94 126
59 94 133
59 93 125
60 94 136
60 95 133
60 95 136
60 94 126
59 93 117
58 92 121
59 94 126
60 94 126
59 93 124
60 94 121
59 93 130
59 92 121
58 92 124
60 95 131
59 94 131
59 93 126
59 93 124
59 94 129
59 93 127
58 92 120
59 94 129
58 92 114
58 91 116
59 93 122
57 90 114
58 92 124
56 88 110
57 90 108
57 90 111
55 87 103
57 90 111
67 94 103
108 122 40
118 131 0
135 151 0
112 126 0
106 119 0
117 130 0
126 140 0
121 135 0
124 138 0
108 122 0
117 132 0
129 143 0
127 141 0
129 143 0
138 152 0
116 126 0
120 135 0
132 146 0
125 141 0
111 123 0
145 160 0
125 137 0
129 144 0
123 137 0
134 148 0
123 136 0
132 147 0
123 135 0
130 146 0
130 142 0
136 151 0
139 152 0
141 155 0
122 133 0
130 141 0
139 152 0
138 153 0
129 144 0
129 142 0
138 153 0
136 147 0
141 155 0
141 155 0
127 139 0
126 136 0
135 149 0
139 154 0
129 143 0
128 139 0
120 131 0
130 142 0
135 145 0
134 146 0
139 150 0
132 145 0
145 155 0
142 155 0
139 152 0
129 142 0
141 154 0
140 151 0
130 143 0
143 155 0
138 150 0
141 153 0
150 164 0
141 153 0
135 148 0
127 137 0
153 164 0
137 149 0
133 144 0
144 159 0
141 154 0
143 154 0
141 154 0
150 160 0
141 155 0
146 155 0
152 165 0
153 166 0
142 152 0
148 159 0
140 152 0
145 155 0
150 164 0
154 169 0
151 163 0
151 165 0
156 167 0
155 170 0
157 172 0
152 164 0
154 168 0
151 167 0
153 167 0
151 163 0
148 161 0
150 167 0
155 166 0
150 162 0
151 164 0
152 166 0
160 176 0
152 166 0
160 175 0
152 166 0
155 171 0
151 165 0
157 172 0
155 170 0
158 174 0
151 164 0
151 166 0
160 177 0
154 168 0
161 175 0
152 165 0
156 171 0
160 177 0
155 171 0
158 175 0
157 173 0
154 170 0
156 170 0
161 178 0
161 177 0
155 169 0
160 175 0
159 177 0
162 180 0
160 176 0
161 180 0
162 178 0
162 178 0
156 170 0
161 180 0
154 173 0
166 184 0
160 177 0
162 178 0
168 188 0
166 184 0
159 177 0
163 180 0
165 184 0
164 184 0
165 183 0
159 177 0
161 178 0
159 176 0
161 180 0
160 179 0
168 186 0
168 188 0
172 196 72
174 197 84
167 192 72
168 193 57
170 193 62
170 194 102
173 197 88
167 190 67
172 196 88
172 196 84
172 195 76
172 196 76
170 193 84
173 197 76
171 195 57
166 191 72
170 194 80
171 195 92
167 191 67
169 193 62
166 190 72
167 191 44
171 195 88
171 196 72
167 192 67
168 192 88
167 190 62
171 195 51
168 192 84
161 186 67
174 197 57
172 195 57
169 193 62
167 191 62
167 191 80
171 196 92
168 193 80
170 194 88
168 192 76
164 189 84
168 192 44
169 194 80
163 188 80
165 188 51
164 189 72
164 188 102
165 189 67
163 187 51
165 190 92
166 191 80
160 184 84
167 190 72
162 186 76
163 188 76
171 195 92
167 192 84
162 187 76
165 189 67
169 192 62
161 184 72
163 186 72
164 188 76
151 174 44
164 188 36
160 184 44
161 185 88
164 189 76
164 188 62
156 180 80
160 184 62
163 186 95
159 183 57
158 181 57
156 180 57
161 185 62
158 182 76
157 179 76
154 177 62
156 180 84
157 180 57
152 175 51
161 183 72
155 178 72
145 168 82
89 115 96
89 117 118
89 117 134
88 116 136
92 119 137
88 116 129
90 117 138
83 112 130
86 113 128
82 109 129
86 113 139
88 115 136
85 113 129
90 117 140
88 116 140
95 122 149
97 123 146
90 117 143
82 110 144
90 115 126
86 114 142
83 111 136
100 126 146
87 115 151
91 119 151
88 117 144
109 134 144
94 121 151
92 118 138
91 117 130
92 119 141
82 111 148
87 115 139
88 117 149
84 113 149
66 101 169
84 114 164
83 113 173
71 104 159
68 101 154
79 109 162
74 103 151
70 101 145
65 97 141
67 98 147
63 97 144
61 96 148
59 93 130
60 96 150
60 94 137
58 92 133
60 95 141
56 90 128
59 93 132
64 97 133
65 97 134
64 97 133
69 100 129
63 94 122
78 106 98
60 95 139
59 93 135
58 92 129
59 93 136
60 94 129
59 93 141
59 94 135
59 94 131
59 93 137
61 95 141
58 93 128
58 92 126
60 94 145
58 92 126
59 94 145
60 95 140
60 95 137
59 93 132
59 93 133
60 95 142
59 93 136
60 94 141
59 94 135
60 95 140
60 94 136
60 95 139
60 94 135
59 93 132
60 94 132
61 96 145
59 94 125
60 94 126
59 94 131
60 94 134
60 94 134
59 94 127
59 94 134
59 93 132
60 95 136
60 95 124
61 96 140
60 95 137
59 94 128
61 95 130
59 93 134
59 93 130
60 94 129
59 93 136
60 95 135
60 94 138
60 94 137
59 94 142
59 93 122
60 95 136
61 96 143
60 94 131
61 95 130
58 93 127
59 94 130
58 93 125
58 92 120
60 94 129
61 96 142
59 93 129
59 94 135
59 94 127
60 95 135
60 94 131
59 94 135
59 93 127
60 95 134
58 92 124
60 94 135
59 94 133
60 95 130
59 93 131
58 92 120
59 93 117
58 91 122
58 91 115
59 93 124
60 94 127
57 90 121
58 92 121
58 92 126
59 93 122
59 94 121
58 92 115
59 93 129
60 94 129
58 91 115
57 90 115
59 93 124
58 92 121
58 92 117
59 92 121
57 90 114
56 88 102
57 90 111
55 87 100
101 118 60
117 129 0
107 121 0
122 137 0
123 138 0
116 130 0
121 137 0
125 140 0
117 132 0
124 139 0
111 125 0
120 136 0
123 138 0
135 150 0
124 137 0
125 139 0
118 132 0
125 139 0
112 127 0
124 137 0
123 138 0
120 135 0
114 128 0
130 146 0
131 146 0
132 144 0
125 139 0
123 138 0
130 145 0
130 143 0
128 141 0
133 149 0
127 143 0
132 145 0
139 151 0
131 144 0
128 141 0
127 142 0
135 147 0
127 139 0
135 146 0
131 142 0
140 153 0
131 140 0
136 152 0
135 148 0
130 142 0
136 150 0
136 148 0
131 140 0
138 149 0
132 143 0
138 152 0
145 155 0
128 143 0
136 149 0
138 148 0
136 147 0
144 155 0
145 159 0
138 151 0
135 148 0
143 155 0
155 171 0
133 145 0
140 153 0
139 153 0
142 153 0
142 156 0
145 158 0
142 154 0
149 163 0
139 150 0
140 155 0
132 146 0
151 164 0
136 148 0
140 153 0
146 160 0
148 158 0
147 161 0
137 146 0
144 158 0
144 156 0
151 164 0
143 153 0
150 165 0
150 163 0
143 156 0
155 170 0
145 157 0
143 155 0
156 171 0
148 163 0
145 159 0
153 166 0
154 169 0
155 170 0
153 167 0
158 171 0
157 173 0
153 166 0
156 171 0
159 174 0
156 170 0
155 173 0
148 163 0
155 171 0
151 165 0
154 170 0
156 172 0
159 174 0
152 167 0
150 163 0
153 168 0
159 174 0
158 173 0
151 167 0
161 177 0
156 171 0
157 173 0
156 171 0
161 177 0
158 174 0
158 174 0
158 174 0
160 177 0
161 178 0
157 176 0
157 175 0
161 179 0
161 176 0
161 178 0
163 179 0
159 175 0
161 179 0
161 179 0
163 182 0
158 175 0
165 184 0
159 175 0
157 174 0
159 175 0
165 183 0
160 175 0
161 179 0
163 184 0
164 184 0
164 183 0
165 183 0
166 184 0
165 186 0
159 176 0
165 185 0
165 185 0
166 186 0
171 195 99
172 195 72
168 193 67
174 198 84
169 193 76
169 193 72
170 194 67
172 196 76
172 196 72
172 195 80
173 197 67
166 190 51
171 195 72
171 196 76
167 191 51
168 193 62
169 193 62
170 194 72
171 196 67
170 194 67
169 193 76
170 193 62
170 195 76
168 192 76
168 193 80
168 193 76
169 193 76
170 195 57
172 195 76
169 192 57
163 187 76
169 192 67
171 195 95
168 193 72
168 192 84
165 189 88
167 192 80
165 189 72
165 189 62
161 185 62
167 190 57
166 191 67
166 190 44
167 191 62
167 191 72
165 189 67
165 189 62
166 190 67
166 189 62
167 190 76
169 192 67
161 183 51
168 192 67
166 190 76
166 190 76
163 187 67
161 185 36
163 187 62
160 183 72
160 184 57
158 182 76
160 184 72
163 187 88
165 189 92
164 188 76
165 188 57
158 181 67
166 190 84
165 189 72
157 181 62
160 184 62
165 188 62
165 189 95
159 181 72
160 183 62
164 187 99
156 179 76
163 186 72
160 182 84
157 179 51
158 182 80
158 182 67
150 173 88
154 177 72
136 159 84
88 116 124
90 117 139
86 113 129
91 119 131
94 122 147
94 121 139
91 118 132
85 113 144
97 122 136
91 118 140
95 122 124
91 118 142
93 119 137
89 116 128
91 118 143
95 121 140
93 119 127
92 119 142
83 111 131
96 122 140
93 120 143
95 121 145
92 119 137
110 135 152
99 124 147
84 113 133
93 119 137
103 128 143
105 128 116
110 134 138
99 125 143
90 117 149
76 106 131
95 123 145
74 106 154
77 108 164
71 104 159
86 115 172
81 111 169
71 104 161
74 103 153
67 100 151
69 100 146
72 100 142
71 102 145
64 97 144
61 97 152
60 95 153
59 94 128
59 94 141
60 94 144
60 95 145
58 92 134
58 93 128
64 97 133
65 97 127
62 95 127
66 98 121
71 101 122
84 113 129
57 91 124
56 89 126
58 92 123
59 93 136
58 92 127
59 93 130
59 93 140
60 95 134
60 94 137
59 94 141
57 91 127
60 95 139
59 94 127
58 93 134
60 94 129
60 94 136
60 94 139
58 92 121
60 94 135
59 93 133
58 93 121
60 95 136
62 97 143
59 93 126
61 96 145
60 94 130
60 95 139
58 92 123
60 94 135
59 94 127
59 94 134
59 94 134
60 94 142
59 93 126
58 92 122
61 96 139
59 94 124
60 94 134
59 94 136
59 93 137
59 93 125
59 94 136
60 95 139
61 96 141
60 94 132
60 94 133
59 94 140
60 95 139
60 95 140
60 94 135
60 95 135
60 94 137
58 92 123
58 92 125
61 96 135
57 91 124
58 92 120
59 93 131
60 94 127
60 94 126
59 94 133
60 94 130
60 95 140
60 94 126
59 93 131
58 92 126
60 95 136
57 91 117
61 95 139
59 93 131
60 94 135
60 95 142
58 92 125
59 93 126
59 93 139
60 94 125
60 94 126
58 92 125
60 94 130
60 94 136
58 93 126
59 93 122
58 92 118
58 91 126
58 92 122
57 91 120
58 92 120
59 93 125
58 92 124
58 92 125
58 92 111
57 91 114
57 90 113
57 90 117
57 90 111
56 88 103
56 89 111
56 88 111
104 122 78
106 116 0
114 127 0
121 136 0
121 137 0
119 133 0
124 137 0
124 138 0
121 135 0
117 130 0
122 137 0
117 129 0
121 131 0
132 146 0
124 138 0
124 140 0
120 134 0
121 137 0
124 139 0
131 145 0
127 144 0
129 146 0
126 136 0
127 141 0
118 129 0
137 153 0
131 143 0
129 144 0
131 148 0
130 144 0
125 139 0
126 140 0
126 140 0
133 148 0
130 143 0
132 148 0
129 144 0
125 138 0
140 156 0
125 136 0
132 146 0
131 144 0
131 145 0
137 152 0
138 153 0
133 146 0
127 142 0
139 150 0
129 143 0
130 143 0
124 135 0
130 144 0
146 161 0
137 150 0
128 142 0
141 154 0
139 152 0
141 154 0
149 164 0
143 155 0
147 163 0
142 155 0
138 149 0
136 148 0
137 150 0
137 150 0
139 152 0
143 153 0
143 155 0
140 152 0
145 159 0
138 149 0
147 160 0
145 159 0
136 150 0
151 165 0
144 158 0
144 156 0
148 161 0
145 159 0
144 157 0
149 162 0
143 156 0
142 155 0
148 162 0
146 158 0
148 161 0
144 159 0
153 168 0
148 161 0
150 162 0
153 168 0
150 163 0
152 165 0
143 158 0
147 162 0
148 158 0
150 163 0
150 163 0
158 172 0
155 169 0
152 167 0
151 166 0
156 172 0
152 165 0
154 168 0
153 167 0
163 177 0
156 170 0
150 165 0
157 175 0
158 174 0
153 167 0
151 163 0
155 172 0
150 166 0
156 171 0
162 178 0
151 167 0
159 178 0
154 168 0
151 167 0
160 177 0
154 170 0
156 171 0
155 173 0
155 172 0
157 173 0
162 178 0
158 175 0
162 179 0
163 179 0
159 176 0
162 179 0
159 176 0
163 181 0
158 174 0
164 183 0
167 186 0
165 186 0
165 183 0
158 178 0
160 174 0
162 180 0
157 174 0
163 183 0
163 180 0
166 185 0
162 180 0
169 187 0
159 177 0
165 184 0
162 178 0
166 185 0
161 179 0
164 183 0
168 187 0
170 194 76
170 194 72
170 195 72
173 197 51
173 196 95
172 195 76
172 196 51
174 198 92
171 195 72
169 192 67
171 196 72
173 197 88
171 195 67
172 197 95
167 192 76
171 195 76
167 190 67
167 191 51
169 193 62
168 192 51
172 195 62
169 194 80
165 189 62
172 196 88
167 191 72
168 193 72
172 196 51
167 192 80
169 194 80
169 194 62
169 192 51
167 191 57
166 190 80
168 192 67
165 189 67
165 190 80
161 186 67
164 188 67
165 190 92
167 191 72
166 190 62
164 188 72
163 187 62
169 193 62
165 189 76
167 191 76
167 191 62
164 187 44
161 186 72
167 190 44
171 194 57
162 187 84
165 189 72
159 184 76
165 189 76
162 186 76
164 187 67
160 184 72
156 180 57
165 188 76
163 188 88
158 181 62
164 188 67
161 184 67
161 185 57
159 182 88
162 186 62
155 179 62
157 180 72
159 183 62
161 184 72
156 179 76
162 186 67
157 181 62
157 179 72
161 185 72
163 186 72
148 172 44
159 182 57
158 182 51
155 177 62
154 177 51
148 169 57
153 176 67
155 177 44
121 145 126
84 113 124
101 127 126
106 131 140
97 123 134
79 108 124
93 119 134
90 116 118
88 115 129
84 112 131
92 119 139
94 118 129
90 118 130
84 111 133
85 112 133
91 117 141
91 118 143
97 122 137
86 113 138
81 110 131
95 123 155
93 119 143
94 122 142
93 120 148
96 122 153
105 130 148
108 133 159
94 121 142
92 117 135
100 126 141
101 127 131
77 108 141
92 119 138
89 116 138
82 111 144
74 106 163
77 109 173
71 104 157
71 104 157
67 101 152
76 106 156
69 100 140
65 97 147
70 101 147
67 98 142
61 96 151
59 94 143
60 95 137
60 95 143
61 95 143
59 94 141
57 92 133
58 92 139
66 98 133
60 94 136
61 95 135
63 96 125
64 96 126
66 98 113
96 122 94
59 93 134
58 92 127
58 92 133
59 93 127
58 93 133
58 92 115
59 93 134
59 94 136
58 92 128
60 95 140
57 91 117
59 93 130
58 92 136
59 94 140
59 93 124
59 94 131
59 94 137
58 92 122
59 93 139
59 93 133
60 94 133
60 94 131
59 93 133
61 96 137
60 95 134
60 94 133
59 94 136
59 93 128
60 94 135
60 94 135
59 93 132
59 93 129
60 95 135
60 94 135
60 95 136
59 93 129
60 94 133
59 93 131
60 96 137
59 94 129
60 94 136
59 93 121
59 93 133
57 91 120
61 95 134
59 94 134
60 95 136
59 93 129
60 95 129
58 91 129
59 93 131
59 94 139
58 93 124
58 93 127
59 94 136
58 93 126
59 92 118
60 95 137
60 95 135
60 95 139
60 94 134
60 94 137
58 92 115
59 94 133
60 95 140
58 93 125
59 93 118
60 94 126
59 93 124
60 94 124
60 94 130
59 93 129
58 93 125
58 92 113
59 93 134
60 95 131
58 92 113
60 95 139
59 93 114
60 94 130
58 92 122
59 93 126
59 93 126
57 90 108
57 91 114
56 89 113
58 92 122
58 91 121
59 93 126
55 88 117
55 87 111
57 90 102
57 90 107
60 93 127
59 93 125
59 92 122
56 88 107
86 108 82
110 123 0
110 123 0
111 125 0
116 130 0
120 133 0
127 141 0
112 126 0
123 137 0
116 130 0
120 133 0
119 134 0
117 132 0
119 135 0
118 132 0
122 136 0
111 128 0
120 136 0
129 143 0
128 143 0
126 140 0
117 131 0
120 134 0
135 152 0
132 150 0
129 142 0
134 146 0
130 143 0
126 139 0
125 139 0
132 149 0
123 135 0
133 148 0
132 148 0
141 154 0
131 146 0
124 140 0
134 146 0
126 140 0
135 150 0
126 140 0
137 151 0
135 150 0
127 139 0
147 163 0
142 156 0
133 147 0
135 148 0
132 146 0
136 151 0
133 147 0
138 152 0
136 149 0
136 150 0
138 154 0
133 146 0
142 159 0
135 148 0
136 150 0
134 147 0
138 150 0
150 164 0
138 152 0
138 153 0
142 152 0
143 157 0
144 158 0
145 158 0
143 156 0
137 151 0
144 160 0
135 148 0
149 161 0
148 160 0
149 161 0
149 163 0
148 163 0
144 159 0
145 157 0
146 157 0
155 169 0
149 163 0
146 162 0
155 171 0
149 164 0
156 170 0
154 167 0
152 165 0
152 168 0
157 172 0
150 163 0
150 167 0
158 173 0
146 159 0
150 166 0
145 159 0
151 166 0
153 167 0
153 167 0
149 165 0
160 175 0
149 161 0
149 162 0
153 169 0
153 170 0
160 178 0
156 171 0
152 168 0
144 157 0
156 171 0
156 172 0
160 177 0
157 174 0
158 175 0
160 176 0
158 173 0
159 173 0
150 164 0
151 166 0
158 176 0
154 170 0
164 183 0
155 172 0
157 175 0
160 178 0
157 174 0
159 178 0
157 174 0
158 175 0
158 174 0
159 176 0
155 169 0
157 172 0
165 181 0
159 175 0
167 184 0
160 178 0
160 177 0
165 183 0
163 180 0
162 178 0
158 177 0
163 180 0
159 180 0
162 180 0
159 178 0
164 183 0
166 186 0
164 181 0
164 182 0
163 183 0
168 188 0
165 183 0
165 185 0
162 182 0
165 185 0
162 181 0
168 188 0
169 193 84
173 196 67
172 195 62
171 195 67
169 193 80
171 195 62
171 194 62
169 193 67
170 194 62
170 194 80
169 194 88
172 196 67
171 195 67
169 192 51
169 193 84
168 193 95
171 196 84
171 194 72
169 194 84
164 189 88
169 193 76
170 194 76
166 191 76
166 191 44
168 193 88
165 190 67
170 194 80
168 193 76
168 191 57
171 195 62
166 190 57
165 190 67
164 189 67
163 187 57
165 189 44
170 195 95
162 186 72
164 189 72
167 191 44
170 194 62
168 192 84
164 188 57
163 187 67
167 192 111
166 189 62
167 191 72
165 189 88
166 190 76
166 190 80
164 188 62
164 189 88
164 187 80
162 186 57
162 186 80
165 189 62
161 185 62
159 183 36
158 182 57
164 188 57
166 189 72
163 188 92
159 183 72
165 189 88
159 184 76
167 191 88
153 175 51
160 184 72
168 191 80
154 177 51
160 183 67
166 190 72
160 183 72
162 185 95
162 186 80
163 185 72
155 179 67
155 179 72
158 181 67
160 183 80
159 181 76
162 186 80
159 182 95
154 177 51
154 177 84
155 178 72
153 175 82
104 130 127
90 117 129
89 116 119
93 119 114
87 115 129
98 124 140
87 114 121
88 116 138
94 120 136
90 117 131
88 116 131
98 123 139
91 117 133
86 113 139
90 118 133
91 118 134
93 120 140
87 115 143
99 125 128
89 116 135
92 119 145
99 125 140
93 120 155
86 114 139
96 122 133
95 121 143
100 126 152
86 114 147
100 126 123
92 117 138
94 118 125
85 113 134
86 115 133
86 114 129
92 120 156
77 108 162
85 114 157
74 106 163
71 104 159
80 110 157
66 100 162
69 99 141
68 100 144
73 102 147
66 99 144
75 103 145
60 95 143
61 96 149
60 95 149
60 94 138
60 95 141
59 93 138
59 94 139
68 99 134
58 91 116
71 103 131
62 95 121
60 92 110
89 116 100
72 102 116
57 91 122
59 93 131
58 92 129
59 93 129
59 94 135
58 92 138
59 92 126
59 94 133
60 94 136
60 94 136
60 94 126
59 94 136
57 91 114
58 92 125
59 94 139
59 93 125
60 94 138
58 92 129
60 95 135
59 94 137
58 93 121
58 93 128
60 95 137
59 93 134
59 93 136
59 93 117
61 95 141
58 93 138
58 92 126
61 96 139
59 94 136
59 94 127
58 92 124
58 92 126
60 94 135
60 95 136
59 93 129
60 94 140
59 94 137
58 93 125
61 96 143
59 93 132
60 95 141
59 93 120
59 94 130
60 95 145
59 93 126
59 93 127
59 93 131
59 94 130
60 95 134
59 94 127
59 93 127
59 94 131
59 94 135
59 93 126
58 93 125
59 93 122
58 92 120
59 93 122
60 94 130
59 94 131
60 95 134
60 95 134
59 93 129
59 93 133
59 92 120
59 93 117
58 92 118
58 92 127
58 92 118
58 93 129
59 94 131
57 90 117
60 95 141
58 92 118
58 91 111
56 89 117
60 94 129
59 93 115
60 94 134
59 93 124
59 93 125
58 92 125
59 93 122
59 92 124
57 90 120
59 93 127
57 90 115
57 90 121
57 90 114
56 87 108
57 90 111
56 88 97
54 85 99
80 104 90
111 125 0
116 130 0
119 134 0
113 129 0
110 124 0
124 136 0
114 128 0
123 139 0
121 135 0
123 138 0
126 139 0
125 138 0
117 133 0
126 140 0
128 141 0
120 136 0
117 132 0
117 131 0
121 135 0
130 146 0
119 133 0
129 144 0
119 134 0
116 130 0
123 139 0
131 145 0
131 145 0
131 145 0
135 152 0
129 145 0
135 151 0
129 144 0
127 143 0
134 148 0
140 154 0
128 142 0
116 129 0
139 155 0
135 150 0
119 131 0
131 146 0
134 149 0
130 144 0
131 146 0
140 156 0
131 144 0
132 145 0
142 156 0
136 152 0
135 150 0
138 152 0
135 149 0
135 148 0
132 143 0
135 149 0
135 149 0
141 155 0
135 148 0
137 150 0
145 160 0
141 156 0
135 149 0
144 158 0
141 156 0
130 140 0
140 155 0
149 163 0
139 151 0
137 152 0
139 151 0
138 150 0
151 168 0
144 159 0
139 155 0
134 146 0
144 159 0
146 159 0
146 161 0
149 162 0
150 165 0
145 158 0
150 166 0
146 160 0
155 169 0
148 162 0
148 163 0
152 168 0
153 168 0
152 165 0
154 168 0
142 156 0
149 162 0
151 165 0
156 170 0
149 161 0
148 162 0
148 163 0
156 172 0
152 164 0
154 168 0
161 176 0
149 165 0
158 172 0
155 170 0
147 162 0
150 165 0
157 172 0
154 170 0
152 170 0
150 166 0
159 176 0
160 177 0
152 169 0
158 174 0
155 170 0
158 175 0
152 166 0
158 176 0
158 176 0
161 178 0
161 177 0
159 176 0
159 174 0
160 177 0
159 175 0
157 174 0
160 178 0
158 175 0
161 178 0
163 181 0
158 176 0
157 175 0
160 176 0
164 182 0
162 179 0
157 175 0
160 177 0
160 177 0
164 180 0
159 177 0
160 179 0
163 179 0
159 178 0
161 180 0
164 184 0
166 183 0
159 177 0
165 185 0
165 185 0
162 180 0
165 184 0
164 183 0
165 186 0
167 187 0
166 185 0
165 185 0
162 180 0
164 185 0
169 192 72
168 192 57
172 196 80
164 189 67
173 196 95
166 189 76
171 195 57
168 192 57
171 194 51
170 194 72
169 193 62
169 192 67
170 194 72
168 193 72
166 191 84
172 195 67
169 193 44
172 196 84
168 193 72
169 193 72
167 191 62
167 192 99
167 192 84
169 193 72
167 191 76
169 193 76
164 188 80
168 191 51
171 195 80
165 191 95
167 191 80
167 191 51
169 193 72
166 191 92
169 193 92
165 190 80
169 193 84
171 195 80
168 193 95
162 187 51
166 191 72
166 190 72
165 189 76
165 189 44
169 192 72
164 187 72
167 191 80
165 189 57
164 188 62
171 196 88
166 191 95
166 190 72
156 180 62
166 189 72
166 189 72
168 192 84
161 186 57
160 183 57
163 186 36
163 186 67
161 185 80
158 182 62
165 189 76
162 186 76
160 183 72
163 187 72
153 177 67
164 188 88
158 181 72
164 188 76
163 186 57
159 183 90
160 185 78
162 186 95
160 183 62
156 178 72
157 180 67
164 187 84
146 169 57
157 180 80
153 176 67
150 173 76
153 176 76
153 176 80
162 186 92
157 179 80
139 162 110
97 123 126
90 118 135
91 119 131
86 114 125
88 115 111
82 111 127
82 110 129
78 107 133
76 105 119
93 119 136
82 110 133
81 110 137
97 123 141
95 122 134
91 118 147
97 123 129
100 124 150
84 112 137
90 117 141
107 133 158
94 120 137
91 118 133
99 125 143
88 115 141
102 128 155
106 131 151
100 126 150
96 122 141
101 127 130
93 119 127
101 127 134
91 119 142
88 116 151
98 124 139
80 111 163
66 100 157
71 104 160
71 104 158
75 107 164
78 108 166
62 96 146
72 101 139
69 99 137
63 96 140
71 101 147
62 95 141
60 96 145
61 97 156
60 95 141
60 94 132
60 95 144
59 94 136
60 94 129
67 99 129
62 96 139
60 93 129
63 96 118
66 97 115
89 116 110
58 92 127
57 92 120
58 92 122
58 92 127
57 90 112
60 94 131
58 92 126
59 93 127
58 91 128
59 93 124
58 92 126
59 93 132
58 91 120
59 93 124
58 92 127
60 95 136
61 96 139
61 96 150
58 92 124
59 94 124
58 93 118
58 93 129
58 92 118
60 94 133
58 91 130
59 93 133
58 93 132
58 92 135
60 95 130
59 93 129
56 90 113
59 93 135
59 94 139
59 93 121
60 95 135
59 94 134
60 95 133
58 92 124
61 96 142
59 94 134
59 94 134
60 95 137
61 96 142
59 93 132
58 92 126
58 92 118
58 93 136
60 94 129
61 96 134
60 94 126
59 94 127
61 96 139
59 93 129
59 94 134
58 92 117
60 94 135
59 93 120
59 93 124
59 93 121
60 95 133
58 91 121
60 95 133
59 93 120
58 92 118
58 92 124
59 93 121
59 93 129
62 96 149
59 92 122
58 91 122
60 94 126
59 93 129
58 92 125
57 90 103
57 90 113
59 93 129
59 93 120
58 91 124
59 93 125
59 93 122
58 91 113
58 92 120
58 93 118
59 93 126
57 90 113
60 94 122
57 89 113
57 90 117
56 88 108
57 91 110
58 92 114
57 90 124
57 90 110
56 88 108
82 108 92
105 118 18
116 133 0
115 130 0
128 142 0
122 136 0
107 122 0
111 124 0
115 131 0
121 133 0
126 141 0
124 139 0
123 137 0
117 131 0
113 125 0
121 137 0
119 132 0
121 136 0
115 129 0
122 136 0
133 146 0
126 143 0
131 147 0
119 131 0
125 140 0
126 141 0
123 137 0
113 127 0
135 149 0
128 145 0
140 155 0
133 147 0
132 145 0
136 152 0
126 140 0
133 146 0
134 148 0
129 144 0
138 155 0
127 142 0
141 157 0
138 152 0
136 152 0
140 154 0
135 150 0
139 155 0
144 160 0
139 154 0
140 154 0
131 145 0
141 155 0
147 163 0
139 152 0
132 146 0
135 150 0
127 139 0
141 155 0
145 160 0
141 155 0
144 159 0
141 156 0
143 156 0
142 157 0
144 160 0
136 149 0
141 154 0
134 147 0
142 157 0
142 155 0
154 169 0
137 151 0
150 164 0
141 154 0
146 159 0
146 159 0
144 158 0
149 163 0
148 162 0
144 159 0
144 155 0
148 166 0
144 156 0
151 166 0
151 167 0
153 168 0
146 160 0
151 167 0
150 165 0
153 170 0
147 162 0
148 163 0
152 166 0
148 165 0
146 157 0
157 172 0
149 166 0
152 166 0
149 164 0
152 166 0
155 173 0
155 171 0
152 169 0
151 163 0
148 163 0
152 169 0
152 167 0
147 162 0
150 165 0
155 169 0
155 171 0
161 175 0
163 180 0
156 172 0
158 175 0
159 175 0
160 180 0
152 167 0
159 174 0
155 170 0
164 182 0
158 175 0
159 174 0
156 171 0
159 176 0
160 179 0
162 180 0
156 173 0
162 180 0
160 176 0
161 176 0
158 175 0
159 177 0
156 173 0
160 177 0
159 177 0
162 180 0
162 179 0
160 177 0
159 177 0
158 176 0
160 180 0
164 181 0
169 188 0
165 184 0
163 183 0
163 182 0
165 181 0
164 183 0
164 182 0
161 180 0
163 181 0
160 178 0
167 187 0
162 180 0
162 182 0
165 183 0
168 187 0
163 183 0
160 179 0
169 190 0
169 193 72
172 195 36
171 195 76
172 196 62
170 194 88
172 196 76
169 192 57
168 192 51
173 197 67
168 192 57
172 195 51
164 187 51
172 195 57
172 197 92
173 197 62
168 191 57
168 192 72
170 195 72
166 190 67
169 193 67
168 192 67
166 190 72
167 192 88
164 188 72
164 188 76
169 194 95
169 193 67
167 191 76
166 192 88
166 190 57
167 192 88
169 193 62
170 194 67
171 195 72
170 194 72
167 191 67
164 188 76
165 188 51
169 192 57
167 190 57
165 189 72
163 188 62
165 190 84
163 187 76
162 186 62
166 190 67
167 191 62
161 185 57
167 191 80
164 189 88
159 182 57
160 184 80
162 186 72
163 187 84
157 181 67
162 186 62
173 197 80
160 184 80
161 185 67
163 187 76
169 193 57
158 182 72
158 182 84
164 189 95
155 179 72
165 189 72
158 180 67
162 185 76
162 185 72
158 182 80
159 182 84
156 180 95
154 176 57
158 180 92
153 177 57
156 178 72
161 185 72
149 171 57
164 187 62
159 182 88
153 176 67
157 181 67
156 178 76
151 174 76
159 181 95
149 172 76
155 177 67
126 148 102
93 119 125
100 125 126
91 117 118
96 121 125
96 123 133
95 122 142
92 119 136
99 125 142
87 114 126
88 116 133
94 120 142
81 109 122
83 111 131
91 117 136
97 122 121
104 129 146
76 105 126
84 112 137
89 117 146
83 112 126
90 117 132
104 129 156
100 125 124
92 119 139
91 118 137
97 123 142
96 122 136
95 118 120
102 127 138
105 130 125
89 116 147
105 131 150
89 117 136
78 109 144
75 107 164
74 106 161
69 103 162
74 105 154
84 113 167
68 100 151
60 95 144
63 96 140
70 101 152
68 99 141
72 102 145
65 98 138
60 96 147
60 95 131
59 94 141
60 94 140
59 93 133
60 95 140
63 96 130
65 97 126
63 96 129
60 93 122
61 93 120
90 116 97
66 97 127
58 92 129
59 93 123
60 95 130
56 90 119
57 90 120
59 93 125
59 94 136
59 93 131
59 92 124
58 92 121
58 92 122
59 93 131
59 94 127
58 91 115
59 94 134
59 93 128
58 92 120
58 92 125
59 94 135
58 91 121
58 92 125
60 94 130
60 94 122
58 92 121
59 94 131
59 93 122
59 93 137
56 90 122
60 94 135
58 92 127
58 92 120
58 92 127
58 91 120
59 94 130
59 93 131
59 93 125
60 94 133
60 95 136
59 94 125
60 95 130
60 95 147
58 92 124
57 91 124
60 94 134
58 92 122
61 96 145
60 94 127
61 96 140
60 95 141
61 96 135
59 93 134
58 92 120
60 95 133
60 95 131
60 94 129
58 92 122
60 94 124
58 93 120
57 91 118
60 94 129
60 94 131
60 95 131
59 94 131
58 92 124
60 94 129
58 92 125
59 92 132
58 92 125
59 93 126
58 92 126
58 92 122
58 92 113
57 90 113
58 92 118
59 93 127
60 94 130
57 90 120
57 91 115
58 92 121
58 91 114
59 94 129
58 92 124
57 90 107
57 90 111
57 91 107
58 92 124
58 91 114
59 92 114
58 91 120
57 91 113
56 88 107
53 84 108
78 103 92
118 133 18
118 131 0
126 142 0
109 123 0
115 129 0
108 123 0
117 131 0
117 133 0
112 127 0
121 135 0
112 127 0
116 131 0
118 133 0
125 140 0
132 148 0
115 129 0
134 150 0
119 135 0
118 133 0
128 142 0
126 141 0
129 144 0
133 148 0
133 149 0
125 139 0
127 139 0
131 146 0
129 144 0
131 146 0
135 150 0
130 145 0
130 147 0
132 147 0
143 159 0
146 159 0
127 141 0
116 131 0
135 148 0
133 149 0
135 151 0
151 167 0
140 155 0
131 146 0
128 143 0
127 142 0
141 157 0
138 155 0
138 152 0
138 150 0
138 151 0
133 148 0
136 148 0
138 153 0
141 157 0
129 140 0
143 157 0
146 161 0
135 150 0
138 151 0
140 155 0
142 158 0
134 147 0
136 151 0
141 156 0
144 159 0
137 150 0
147 161 0
146 162 0
150 166 0
149 163 0
140 154 0
138 149 0
146 158 0
145 158 0
145 158 0
147 161 0
142 156 0
136 150 0
142 156 0
151 167 0
144 159 0
141 154 0
143 157 0
142 154 0
147 159 0
144 157 0
142 156 0
146 159 0
151 166 0
148 162 0
144 157 0
148 162 0
156 171 0
149 164 0
146 163 0
153 170 0
146 161 0
147 164 0
153 169 0
149 166 0
152 167 0
155 169 0
150 164 0
153 167 0
155 171 0
164 181 0
157 171 0
155 173 0
154 169 0
159 178 0
157 173 0
154 170 0
158 175 0
151 167 0
151 166 0
157 173 0
155 171 0
151 166 0
158 175 0
156 171 0
158 174 0
156 172 0
162 180 0
157 176 0
158 175 0
157 173 0
156 175 0
159 177 0
155 170 0
161 179 0
163 179 0
162 179 0
161 179 0
159 175 0
165 183 0
158 174 0
162 182 0
158 175 0
157 173 0
165 182 0
163 179 0
164 182 0
164 183 0
161 177 0
163 182 0
161 179 0
167 186 0
158 176 0
166 185 0
164 181 0
160 177 0
163 184 0
168 187 0
167 185 0
167 186 0
163 181 0
165 183 0
167 187 0
169 188 0
166 186 0
173 197 76
174 198 95
174 198 102
172 196 62
170 194 80
168 192 76
173 196 57
172 195 62
167 192 67
172 196 67
170 194 62
168 192 80
169 194 67
170 193 76
168 193 80
169 193 80
172 196 84
169 193 67
168 192 72
172 196 76
170 194 62
169 193 76
167 192 84
168 192 95
167 190 57
168 192 88
169 192 76
169 192 67
166 190 72
168 192 62
168 192 80
167 191 62
169 193 76
164 188 72
166 190 67
170 195 76
167 191 67
162 186 72
167 192 84
166 190 67
171 195 80
161 186 72
162 186 67
161 184 62
166 189 67
165 190 67
159 182 72
164 188 84
164 188 51
167 191 72
159 184 88
165 188 57
166 190 88
167 192 76
168 192 76
157 181 88
164 189 67
159 183 76
162 185 72
165 189 76
164 188 80
160 184 80
163 187 80
161 185 72
163 186 36
166 190 62
154 178 76
164 187 99
159 182 72
159 182 76
159 182 76
160 183 72
154 178 80
160 184 84
162 184 72
157 181 92
156 179 88
162 185 80
155 178 62
155 178 76
148 171 67
154 177 76
144 167 54
155 177 57
151 174 72
157 179 80
148 170 80
147 170 62
112 136 118
88 114 113
90 116 125
90 118 131
85 112 120
88 115 134
94 121 139
89 116 134
83 111 131
96 122 137
98 123 129
99 124 125
84 112 139
97 123 131
90 116 147
91 117 137
88 116 143
90 117 147
88 115 114
92 118 140
91 118 141
87 114 144
105 131 158
95 121 144
85 113 140
94 121 142
106 131 141
89 115 138
94 120 121
94 119 121
91 116 126
85 113 137
88 116 151
81 109 146
76 106 151
77 108 157
82 112 160
74 105 152
77 108 157
73 104 150
66 98 142
63 97 149
65 98 146
67 98 139
63 97 147
70 99 135
60 95 147
59 94 137
61 95 139
61 97 153
61 96 141
62 97 139
60 94 130
67 99 125
67 98 129
62 95 122
68 99 110
64 96 121
89 117 113
58 93 126
59 93 130
58 92 124
57 91 122
58 93 137
60 94 140
57 91 123
59 93 135
58 92 124
59 93 129
59 93 131
59 93 117
57 91 126
58 92 129
59 93 134
59 93 138
58 92 131
59 93 133
57 90 121
59 93 124
57 91 117
59 93 129
58 92 114
59 93 126
60 95 128
57 90 118
58 92 117
60 95 134
61 96 144
58 92 125
57 91 121
59 93 129
58 93 118
58 92 118
58 93 125
60 94 135
59 94 140
60 94 137
58 92 117
60 94 127
59 93 122
58 93 129
60 95 131
58 92 110
59 94 127
60 94 129
59 93 127
60 95 137
59 93 131
58 93 117
58 92 125
59 93 117
60 94 131
60 95 135
60 94 129
60 94 126
60 94 129
59 94 125
59 93 117
59 94 125
59 93 134
60 94 133
59 93 117
59 93 131
58 92 124
58 92 126
58 92 120
58 92 126
59 93 124
60 94 126
58 92 122
59 93 122
58 92 129
59 93 126
58 92 122
60 94 131
59 93 124
58 91 111
57 91 113
59 93 122
58 92 125
58 92 121
57 91 114
58 91 113
55 88 100
55 88 103
56 89 108
55 88 108
56 88 113
56 88 100
56 89 105
81 103 72
104 118 18
117 132 0
119 134 0
108 122 0
121 135 0
117 131 0
121 136 0
110 123 0
126 142 0
108 123 0
120 133 0
112 127 0
115 128 0
126 141 0
121 137 0
124 140 0
123 138 0
119 134 0
116 130 0
127 141 0
132 149 0
131 145 0
132 147 0
125 141 0
130 144 0
132 147 0
125 140 0
118 132 0
134 151 0
132 148 0
134 150 0
124 138 0
129 144 0
126 141 0
128 142 0
127 143 0
137 151 0
139 154 0
132 148 0
126 143 0
135 152 0
144 161 0
131 145 0
142 158 0
135 151 0
130 144 0
134 149 0
138 154 0
131 145 0
134 148 0
130 146 0
135 151 0
136 151 0
132 146 0
137 152 0
147 162 0
133 148 0
136 149 0
135 149 0
138 153 0
137 152 0
146 162 0
143 158 0
136 150 0
142 157 0
143 157 0
142 157 0
146 161 0
142 158 0
148 164 0
139 152 0
139 156 0
141 157 0
143 156 0
146 159 0
141 155 0
136 149 0
154 170 0
150 166 0
139 155 0
155 172 0
147 163 0
146 160 0
147 163 0
149 163 0
153 170 0
147 160 0
148 163 0
153 168 0
150 165 0
154 169 0
143 157 0
152 168 0
151 167 0
157 173 0
144 159 0
155 169 0
146 163 0
153 169 0
151 167 0
150 164 0
156 173 0
150 165 0
151 166 0
154 170 0
153 169 0
155 174 0
157 173 0
152 166 0
152 167 0
159 175 0
149 163 0
158 174 0
154 171 0
165 182 0
159 176 0
158 175 0
152 167 0
157 174 0
162 180 0
156 171 0
155 171 0
149 164 0
164 177 0
159 176 0
160 179 0
157 175 0
159 175 0
155 174 0
160 177 0
162 178 0
156 172 0
158 176 0
162 180 0
161 180 0
163 183 0
161 181 0
161 179 0
167 183 0
163 180 0
164 183 0
159 178 0
159 177 0
165 183 0
161 179 0
163 181 0
157 177 0
163 183 0
159 179 0
168 185 0
160 179 0
165 184 0
159 179 0
162 182 0
163 182 0
161 179 0
164 184 0
166 186 0
163 182 0
168 190 0
168 190 0
172 196 92
168 193 67
171 195 84
171 195 76
171 195 72
168 193 88
170 194 67
171 194 72
172 196 76
165 189 62
168 192 51
169 193 80
171 194 67
168 193 84
170 193 92
165 190 57
167 192 67
171 195 76
168 193 72
163 187 51
167 191 72
168 192 57
166 190 67
168 193 62
172 196 84
170 195 88
170 193 36
169 193 88
172 196 76
165 190 76
164 189 80
168 192 67
168 191 51
161 185 72
166 190 51
163 187 62
167 192 57
167 191 62
168 191 67
169 193 67
169 192 62
167 191 80
166 189 67
163 187 95
169 192 72
166 191 80
161 185 76
166 190 76
168 193 88
162 185 57
162 186 62
165 189 84
163 187 62
165 190 92
165 189 72
161 186 67
156 181 72
163 187 67
162 187 84
161 186 84
157 181 67
168 192 80
165 190 76
158 181 84
156 179 51
164 186 76
160 185 76
160 184 76
155 179 72
165 189 72
159 182 92
154 176 76
164 186 67
150 173 72
151 173 36
155 178 44
156 179 67
157 180 80
158 181 72
156 179 62
153 175 72
154 177 99
151 174 62
155 176 36
149 172 67
145 167 72
153 175 72
147 169 51
134 156 70
110 135 116
89 117 133
80 107 115
96 123 131
85 112 126
93 120 134
79 107 135
92 118 122
78 106 111
95 121 134
86 114 133
86 114 117
99 124 144
93 119 145
89 117 134
86 114 137
91 117 132
97 121 137
95 121 139
76 106 130
76 105 129
87 115 131
92 119 148
89 116 139
103 129 143
96 122 142
96 123 135
103 126 138
111 133 133
95 119 121
89 114 126
90 116 129
86 113 127
84 113 139
74 106 153
69 103 162
74 105 154
65 99 152
74 105 157
73 104 151
71 100 139
62 95 134
73 102 145
80 105 139
71 99 136
59 94 140
60 95 142
60 96 147
60 95 137
59 93 137
60 95 143
58 93 127
69 99 115
65 96 121
59 91 110
63 96 131
55 87 100
102 127 92
60 93 119
60 94 131
57 91 115
59 93 122
56 89 115
57 91 118
59 93 124
59 93 134
57 90 122
59 93 136
59 93 133
59 94 129
59 92 127
59 93 121
59 93 126
58 92 130
59 93 126
59 94 126
58 92 129
60 94 127
59 94 137
59 93 131
59 94 136
59 93 126
59 93 130
59 93 134
58 92 118
59 93 130
59 93 124
58 93 127
59 93 124
59 93 122
60 94 130
58 91 115
59 94 128
60 95 137
58 91 133
59 94 136
59 94 126
59 93 127
60 95 131
59 93 125
59 93 126
59 92 126
60 95 130
57 91 110
59 94 127
59 93 124
58 92 129
58 92 121
59 93 122
59 93 126
59 92 120
59 93 120
57 90 118
58 92 126
58 93 125
59 93 127
60 94 127
58 92 117
57 91 107
57 90 115
59 92 120
58 92 127
60 94 131
57 91 118
59 93 127
59 93 126
60 94 129
58 92 121
60 94 127
58 91 118
57 91 105
58 92 122
58 92 122
57 90 107
58 92 122
58 91 120
58 92 115
59 93 114
57 90 113
57 91 111
55 87 102
58 90 122
56 89 97
58 92 113
59 92 120
55 87 95
54 86 107
54 85 92
74 97 70
114 128 25
123 139 0
104 118 0
119 135 0
114 128 0
103 118 0
107 120 0
120 134 0
111 126 0
121 138 0
116 133 0
120 136 0
115 131 0
113 127 0
128 143 0
110 125 0
124 139 0
130 145 0
119 135 0
123 140 0
116 130 0
132 147 0
121 138 0
130 143 0
126 141 0
132 150 0
125 142 0
125 141 0
113 128 0
131 145 0
131 146 0
129 142 0
132 148 0
142 156 0
132 147 0
130 146 0
134 147 0
128 142 0
136 153 0
129 143 0
123 136 0
141 157 0
129 143 0
129 144 0
134 150 0
140 155 0
133 148 0
138 154 0
136 151 0
145 160 0
136 152 0
137 153 0
134 149 0
139 154 0
145 161 0
141 158 0
140 155 0
138 155 0
138 153 0
142 157 0
149 165 0
145 159 0
146 161 0
135 149 0
145 160 0
142 157 0
144 160 0
141 156 0
141 155 0
143 159 0
151 165 0
146 160 0
150 164 0
140 154 0
145 160 0
139 153 0
143 156 0
143 155 0
146 162 0
146 163 0
146 161 0
154 171 0
151 167 0
149 162 0
145 159 0
149 165 0
148 163 0
148 162 0
152 170 0
148 164 0
144 159 0
152 167 0
145 161 0
155 172 0
149 163 0
151 166 0
148 162 0
149 167 0
146 160 0
151 166 0
151 168 0
152 170 0
153 169 0
149 167 0
156 173 0
153 166 0
160 177 0
154 173 0
160 176 0
150 166 0
155 172 0
152 167 0
156 172 0
158 173 0
159 176 0
155 173 0
156 172 0
158 176 0
157 172 0
157 174 0
157 175 0
160 177 0
158 174 0
160 178 0
154 170 0
159 176 0
158 175 0
159 177 0
161 177 0
164 180 0
163 182 0
160 178 0
157 174 0
162 178 0
163 182 0
163 181 0
156 172 0
166 185 0
161 181 0
161 180 0
159 176 0
159 174 0
158 175 0
158 177 0
163 183 0
170 190 0
166 185 0
162 181 0
161 178 0
167 186 0
160 178 0
164 183 0
163 183 0
165 184 0
163 182 0
161 179 0
167 186 0
169 188 0
162 182 0
163 182 0
167 187 0
164 183 0
170 193 67
173 197 80
169 193 84
166 190 57
168 192 88
173 197 76
168 192 72
164 189 51
172 196 80
169 193 62
168 193 67
171 196 72
171 195 62
168 192 67
166 192 80
170 194 84
170 195 80
170 194 72
173 197 62
173 197 84
169 193 80
164 188 67
167 191 62
167 192 76
167 191 72
171 194 62
167 190 57
170 195 111
164 188 67
164 189 80
166 192 105
168 192 67
167 191 72
168 192 67
167 190 62
165 190 92
167 192 92
169 194 57
168 192 76
167 192 76
169 193 84
168 192 80
160 185 76
155 179 76
168 193 99
164 188 57
161 183 51
166 190 95
165 189 72
163 187 80
163 187 84
168 192 67
162 186 62
156 180 72
168 192 84
165 189 67
162 186 67
154 178 72
164 188 72
165 188 51
156 179 67
162 185 67
162 187 84
154 177 51
163 186 72
165 189 92
155 179 67
155 179 76
160 183 92
164 187 76
158 181 72
156 180 72
156 179 62
157 181 76
155 178 57
154 177 80
156 179 67
160 184 76
164 188 92
158 180 62
147 169 72
150 173 80
158 181 76
155 177 62
148 169 72
157 180 80
145 167 62
153 175 72
153 174 80
135 156 81
92 118 121
93 119 124
89 116 115
78 105 113
89 116 117
100 125 125
78 106 111
82 109 126
90 117 128
91 118 131
85 112 127
86 113 124
92 117 136
91 117 131
90 117 131
77 105 123
94 120 139
101 126 139
91 117 139
95 121 136
90 117 139
105 129 147
96 121 140
104 130 152
110 134 144
93 119 131
96 122 128
101 126 124
104 128 141
100 124 138
90 116 137
82 112 147
78 108 147
80 109 156
77 108 160
71 103 153
80 110 154
74 105 149
83 112 156
68 101 151
70 100 142
65 98 145
62 95 146
71 101 151
68 99 135
60 95 134
62 97 143
60 95 147
59 94 137
58 92 118
60 95 137
66 99 131
58 93 114
65 97 122
63 94 101
61 93 107
93 119 95
72 101 113
57 91 115
57 91 123
57 91 113
57 90 118
57 91 119
57 91 124
58 92 128
58 92 130
59 93 124
59 93 115
58 92 126
59 93 122
59 93 121
58 92 117
59 93 121
59 93 136
58 92 134
57 91 117
59 93 136
59 94 125
59 93 130
59 94 133
60 94 133
58 92 118
58 92 120
59 94 125
56 89 110
60 95 137
60 95 135
60 95 131
58 92 120
59 93 128
60 94 139
58 92 124
59 93 130
58 92 130
58 91 122
59 93 126
59 93 126
58 92 121
60 94 130
58 92 120
59 93 125
58 92 121
56 89 108
59 93 126
60 95 129
59 93 134
58 92 122
60 95 137
57 91 118
59 94 125
59 94 127
60 94 129
58 92 122
59 93 127
60 95 139
59 93 129
59 93 127
58 92 115
59 93 126
58 92 114
57 91 118
59 93 125
60 94 126
60 94 131
60 94 127
57 91 114
58 92 118
59 93 120
57 91 103
58 92 121
59 93 121
58 91 115
59 93 121
58 91 120
58 91 107
57 90 118
58 91 114
55 88 107
55 88 103
56 89 107
58 91 117
58 91 114
54 86 92
58 92 120
56 89 107
51 81 70
75 100 84
99 113 31
106 120 0
115 129 0
119 134 0
111 126 0
123 137 0
126 141 0
130 145 0
111 127 0
118 132 0
117 131 0
124 139 0
124 138 0
128 143 0
113 130 0
124 141 0
111 124 0
134 148 0
122 137 0
123 140 0
120 134 0
130 146 0
114 129 0
133 149 0
126 141 0
128 144 0
121 137 0
126 142 0
129 145 0
142 160 0
129 146 0
141 158 0
137 152 0
131 147 0
131 147 0
140 156 0
137 153 0
136 150 0
142 157 0
136 152 0
137 152 0
130 148 0
132 148 0
136 152 0
127 142 0
138 155 0
137 153 0
131 144 0
136 150 0
141 156 0
139 156 0
143 159 0
136 151 0
130 144 0
146 162 0
140 157 0
142 157 0
136 151 0
136 150 0
144 158 0
138 151 0
141 156 0
152 167 0
142 155 0
145 160 0
144 158 0
141 158 0
138 152 0
146 162 0
147 163 0
141 154 0
138 154 0
150 166 0
144 159 0
142 159 0
147 162 0
147 161 0
140 155 0
139 153 0
154 170 0
143 157 0
144 160 0
152 166 0
147 160 0
150 168 0
145 161 0
148 164 0
149 165 0
149 163 0
149 166 0
154 171 0
147 161 0
151 168 0
153 170 0
154 171 0
146 164 0
160 174 0
142 158 0
151 166 0
148 163 0
160 177 0
153 166 0
149 166 0
153 166 0
158 175 0
156 171 0
156 172 0
141 153 0
154 170 0
160 176 0
154 171 0
149 164 0
155 171 0
157 173 0
155 171 0
161 179 0
158 173 0
158 175 0
158 173 0
160 176 0
153 171 0
158 174 0
152 170 0
157 172 0
162 179 0
163 182 0
157 174 0
161 179 0
153 168 0
160 178 0
159 177 0
155 173 0
166 186 0
162 181 0
163 182 0
160 180 0
156 172 0
164 183 0
164 182 0
160 178 0
159 177 0
165 186 0
163 181 0
164 182 0
161 181 0
158 177 0
166 185 0
163 183 0
164 181 0
164 183 0
163 182 0
162 181 0
161 180 0
167 185 0
165 185 0
166 187 0
166 185 0
162 182 0
167 188 0
159 179 0
163 182 0
167 187 0
166 184 0
173 197 76
172 196 88
174 198 76
168 192 62
173 197 57
172 196 67
172 196 76
169 192 72
169 194 80
169 193 62
167 191 76
162 186 67
171 196 99
166 190 76
169 193 76
170 195 72
170 194 51
171 195 67
168 192 51
166 189 57
166 190 57
169 194 76
169 194 67
167 191 67
171 195 62
168 192 57
168 192 57
168 192 80
166 191 72
167 192 80
169 192 62
169 193 92
164 188 62
171 195 72
162 186 76
170 194 72
166 191 76
160 184 67
163 187 76
161 185 67
166 191 76
165 190 76
167 190 76
157 181 80
161 186 84
164 190 84
162 186 72
162 186 51
159 183 67
164 189 99
159 183 62
166 191 92
168 192 95
167 192 92
162 186 67
162 186 92
159 183 67
164 187 72
158 181 72
160 184 84
160 183 57
156 179 62
166 190 88
157 181 72
161 184 76
161 184 72
157 180 62
160 183 76
161 184 57
156 179 44
161 184 84
162 185 76
156 178 62
153 175 57
159 182 67
152 175 67
160 182 62
147 170 54
157 180 84
156 178 62
156 178 67
154 177 72
146 168 67
148 170 88
155 176 57
155 178 88
154 176 76
146 168 76
153 175 80
149 171 57
134 156 92
91 117 120
93 119 120
87 114 115
105 131 135
97 123 136
103 129 148
105 130 148
102 128 137
84 113 121
95 120 137
93 119 135
87 115 133
82 110 129
87 114 131
85 112 128
86 113 128
86 112 124
82 108 126
93 119 124
100 125 127
98 123 150
90 116 132
93 119 136
93 120 132
86 113 131
99 124 129
91 116 137
98 123 133
99 122 125
90 114 131
84 111 136
82 111 134
93 121 141
76 108 161
75 106 158
68 102 156
74 105 153
74 104 150
77 107 151
71 101 143
68 99 145
72 102 150
64 96 137
67 99 142
59 94 140
61 96 137
60 95 135
60 95 137
57 91 124
58 93 134
62 95 123
71 103 121
68 99 113
60 92 115
64 94 102
70 99 103
110 134 80
57 91 122
58 91 121
57 91 114
58 91 119
57 91 124
58 92 113
56 89 125
59 94 135
58 92 129
59 93 126
60 94 125
56 89 117
56 90 117
58 92 127
57 91 121
60 94 131
58 92 126
58 92 120
59 94 126
59 94 126
60 95 136
59 93 122
56 90 114
59 93 133
59 93 127
58 93 129
58 92 120
59 93 127
59 93 138
59 94 128
58 92 124
60 94 133
58 92 131
59 93 125
59 92 120
59 93 124
59 93 122
57 91 127
59 93 126
57 91 120
60 94 129
58 92 117
59 93 122
59 93 126
59 94 131
59 93 124
57 91 114
58 92 117
59 94 130
60 95 135
59 93 125
58 92 121
60 94 131
60 95 124
58 91 115
58 92 121
59 94 130
58 91 118
58 92 118
59 93 118
58 92 115
57 90 117
58 92 124
59 93 125
59 92 117
59 93 117
58 91 124
60 94 131
57 91 115
58 92 127
58 92 114
58 92 118
58 91 115
58 91 125
58 92 114
59 92 122
58 92 120
57 90 110
59 93 124
59 93 121
57 90 100
55 87 99
57 90 113
58 91 114
57 90 111
55 87 100
57 89 103
71 98 102
103 116 18
99 113 0
117 134 0
113 126 0
109 124 0
118 133 0
118 134 0
116 131 0
112 126 0
119 135 0
118 135 0
120 136 0
116 132 0
123 138 0
122 138 0
119 135 0
124 137 0
124 138 0
129 145 0
122 137 0
127 143 0
118 133 0
120 137 0
115 130 0
133 150 0
133 151 0
137 151 0
132 148 0
117 134 0
123 139 0
126 141 0
129 141 0
135 151 0
128 142 0
123 139 0
130 145 0
136 151 0
137 150 0
133 150 0
135 152 0
132 148 0
133 149 0
134 151 0
142 158 0
130 144 0
138 154 0
131 146 0
132 148 0
134 151 0
134 149 0
140 157 0
145 162 0
136 153 0
130 143 0
145 163 0
135 148 0
142 160 0
139 155 0
144 160 0
150 166 0
146 161 0
138 155 0
149 165 0
145 162 0
148 165 0
141 157 0
143 158 0
148 164 0
148 162 0
137 151 0
148 165 0
147 161 0
142 156 0
145 160 0
143 157 0
147 160 0
156 171 0
152 167 0
150 165 0
148 162 0
150 166 0
146 161 0
150 165 0
152 168 0
155 171 0
147 165 0
151 166 0
157 172 0
146 161 0
148 163 0
148 163 0
147 163 0
143 158 0
148 165 0
148 164 0
153 169 0
159 176 0
146 161 0
157 169 0
148 164 0
152 168 0
144 160 0
160 175 0
158 175 0
146 162 0
160 179 0
148 164 0
150 167 0
155 169 0
146 163 0
156 173 0
157 174 0
158 174 0
156 173 0
154 172 0
154 170 0
158 174 0
158 177 0
162 179 0
161 178 0
156 173 0
156 174 0
161 179 0
159 177 0
159 176 0
155 172 0
160 178 0
163 180 0
156 173 0
157 174 0
161 181 0
157 175 0
166 185 0
162 176 0
161 179 0
158 175 0
162 182 0
159 177 0
161 179 0
163 181 0
163 180 0
156 176 0
161 179 0
166 186 0
165 186 0
163 182 0
161 178 0
160 178 0
161 179 0
164 181 0
162 181 0
159 179 0
167 186 0
163 184 0
165 183 0
165 184 0
162 180 0
165 184 0
166 186 0
167 186 0
164 184 0
161 181 0
162 182 0
161 181 0
173 197 62
172 196 92
168 192 57
173 197 67
171 195 62
171 195 67
172 196 72
167 191 80
171 195 67
170 194 72
166 191 76
169 193 51
171 195 51
170 194 72
169 192 62
170 193 44
170 194 72
165 190 80
166 191 67
169 194 76
168 192 84
172 196 92
162 187 76
168 193 62
168 193 62
171 196 76
166 190 80
170 195 92
168 192 51
170 193 80
169 193 80
164 188 72
171 196 80
168 192 67
162 186 72
166 191 72
170 194 76
166 191 80
163 188 72
162 186 67
168 191 72
163 187 51
168 193 80
168 191 72
170 194 72
164 189 62
166 190 72
163 187 72
163 187 76
163 187 76
162 186 76
159 183 62
165 188 67
163 186 76
158 182 72
161 185 62
165 189 80
162 185 62
161 184 72
163 187 80
154 178 51
160 185 76
161 184 80
165 189 84
165 188 92
161 185 80
166 190 62
161 184 57
160 183 80
155 178 51
161 182 62
164 187 57
153 176 57
153 175 80
158 181 88
149 172 51
161 183 57
154 176 95
155 178 72
158 181 84
155 178 80
150 173 57
156 178 80
147 170 62
156 178 62
151 173 84
144 166 62
143 165 57
154 176 76
150 172 76
143 164 57
109 133 94
82 111 117
82 110 122
89 116 128
90 118 117
88 115 125
100 125 133
93 119 111
91 116 115
86 113 120
89 115 120
82 109 123
91 117 122
91 117 139
91 117 126
87 113 127
99 125 139
92 118 129
89 117 141
90 118 137
89 115 126
99 124 133
97 123 128
96 122 141
85 113 131
107 131 144
101 126 134
85 113 123
107 131 128
102 127 144
95 119 131
83 112 132
91 118 137
78 108 141
72 104 159
75 106 153
78 109 160
71 103 150
71 103 149
65 100 151
65 97 142
68 99 141
67 97 135
67 97 126
59 91 115
61 96 137
60 94 130
62 96 134
61 95 133
59 93 131
58 92 113
62 94 126
65 96 111
64 96 111
60 94 121
62 94 118
112 134 57
63 96 121
59 93 127
57 91 118
58 92 137
58 91 115
56 89 105
58 92 113
58 92 122
56 90 112
56 89 117
59 93 132
57 91 120
59 93 126
59 94 131
56 89 112
57 91 124
56 90 112
58 91 121
58 93 127
58 92 113
57 91 127
57 91 117
57 90 118
58 93 124
60 94 131
58 92 121
60 95 135
58 93 124
60 94 136
59 93 125
57 91 120
58 92 121
59 93 121
58 92 120
61 95 129
57 91 115
59 93 127
57 91 119
59 94 129
59 94 124
60 94 124
59 94 124
58 92 120
59 92 116
58 91 118
57 91 114
59 93 117
58 92 124
58 91 125
60 94 134
59 93 134
59 92 122
59 93 131
58 92 122
59 93 129
58 92 124
59 93 121
58 92 122
58 92 118
60 94 134
59 93 129
58 92 121
59 93 126
59 92 127
58 91 118
58 92 114
57 90 107
59 93 118
57 90 120
58 92 118
59 93 114
57 90 122
59 92 118
57 91 107
58 91 115
58 92 117
56 89 100
57 90 114
56 90 115
55 87 103
56 89 107
55 87 99
56 89 110
58 91 115
57 90 117
54 86 90
85 106 76
113 130 25
126 141 0
112 129 0
119 134 0
111 124 0
113 129 0
118 134 0
114 128 0
111 126 0
115 130 0
118 134 0
118 132 0
128 144 0
116 130 0
118 132 0
115 131 0
129 145 0
124 140 0
114 130 0
120 135 0
130 146 0
121 136 0
119 136 0
127 142 0
124 140 0
117 133 0
127 139 0
127 140 0
136 154 0
124 140 0
126 143 0
127 143 0
126 142 0
132 147 0
126 140 0
132 149 0
139 156 0
127 142 0
126 142 0
133 148 0
133 150 0
135 150 0
139 155 0
138 154 0
138 155 0
141 156 0
133 149 0
125 141 0
139 157 0
133 148 0
148 165 0
140 156 0
142 160 0
143 159 0
142 159 0
128 144 0
135 150 0
142 158 0
142 157 0
147 163 0
142 159 0
141 156 0
145 162 0
137 152 0
152 167 0
146 162 0
144 160 0
145 161 0
143 159 0
146 161 0
146 162 0
151 166 0
156 172 0
146 161 0
148 164 0
150 166 0
155 174 0
147 162 0
151 168 0
150 165 0
151 167 0
148 165 0
146 158 0
144 157 0
143 158 0
146 161 0
147 161 0
158 177 0
148 166 0
154 171 0
156 173 0
146 162 0
156 169 0
152 170 0
148 163 0
148 164 0
154 172 0
152 169 0
151 168 0
150 165 0
154 169 0
151 166 0
157 172 0
152 168 0
155 171 0
158 176 0
157 175 0
156 173 0
155 172 0
153 167 0
155 174 0
155 173 0
155 175 0
152 166 0
159 174 0
162 179 0
155 171 0
154 173 0
156 173 0
157 174 0
159 177 0
158 177 0
162 179 0
157 176 0
159 175 0
155 171 0
157 174 0
160 178 0
161 179 0
157 174 0
159 177 0
155 172 0
159 174 0
160 178 0
159 177 0
165 183 0
162 180 0
163 180 0
156 172 0
159 177 0
162 182 0
164 182 0
163 181 0
162 179 0
167 186 0
165 184 0
166 186 0
158 176 0
165 185 0
161 181 0
163 183 0
164 183 0
164 183 0
167 188 0
161 179 0
164 182 0
161 181 0
160 179 0
165 185 0
162 181 0
164 185 0
165 183 0
161 180 0
165 186 0
162 183 0
172 196 76
170 195 95
170 194 76
168 192 88
170 195 92
169 194 62
171 195 80
169 193 62
169 195 95
170 194 99
167 191 76
170 193 57
166 190 76
166 190 67
168 193 92
173 198 92
170 194 67
163 187 67
174 198 95
166 189 62
168 193 84
170 193 62
169 193 84
168 191 84
166 190 80
168 192 62
165 189 72
167 191 62
168 192 67
165 189 57
167 192 72
167 191 76
165 189 62
165 188 51
164 188 62
164 187 51
166 190 76
166 191 62
170 193 62
166 188 57
167 191 57
162 186 62
163 187 51
164 189 99
167 191 92
167 191 67
166 190 57
162 185 62
159 182 36
162 186 51
170 194 84
161 185 62
163 187 76
164 188 67
159 184 76
163 186 67
161 185 62
164 188 84
161 185 88
165 189 57
157 181 67
155 178 57
161 185 84
164 187 76
162 185 67
157 181 72
156 179 51
156 178 44
155 178 92
157 180 57
159 181 44
163 186 72
158 181 76
153 175 62
160 184 72
159 182 84
159 182 62
158 181 51
153 176 62
150 173 84
151 174 84
150 172 67
147 169 57
152 175 57
148 171 72
149 172 72
143 166 51
155 176 88
158 181 67
156 178 80
149 171 62
150 171 76
95 120 95
84 110 111
83 110 115
95 121 131
95 121 115
89 115 103
95 121 131
89 115 128
88 116 120
82 110 107
93 119 140
86 111 122
82 110 126
93 119 134
85 113 119
85 112 116
97 121 133
86 115 145
85 113 133
92 117 121
84 112 126
98 123 128
100 125 137
99 124 131
88 116 143
104 129 143
107 132 120
105 129 119
82 109 131
80 109 126
93 119 141
95 121 151
88 115 129
77 108 162
91 118 162
74 105 152
74 105 149
71 102 152
78 108 156
73 103 148
63 97 145
68 98 135
70 99 136
64 96 137
62 95 131
60 95 137
60 95 137
61 95 135
56 90 116
60 93 124
61 94 131
59 92 107
67 99 119
63 95 121
59 92 113
87 111 84
90 117 110
56 89 120
57 90 110
58 91 118
57 91 122
57 91 124
58 92 118
58 92 122
58 91 124
57 91 111
58 93 133
58 92 120
56 89 118
61 96 140
58 92 125
58 93 118
58 91 118
59 93 121
58 92 125
58 92 120
58 92 114
59 93 118
59 93 122
58 92 121
59 93 126
58 93 121
58 92 120
59 93 126
60 94 131
58 92 131
59 93 122
56 89 107
60 94 126
57 91 115
58 92 121
59 94 125
58 91 113
59 93 122
58 92 116
57 92 109
58 92 130
58 91 120
58 92 117
59 94 126
60 94 129
57 91 117
58 92 131
59 93 122
59 94 122
59 93 124
58 92 121
59 93 122
58 92 124
56 90 108
58 91 114
60 95 130
58 91 113
57 90 111
57 91 114
57 91 117
58 92 121
57 91 113
60 93 124
58 91 117
58 92 114
58 93 117
57 90 118
59 92 115
58 91 122
57 91 113
58 92 114
58 91 110
58 91 113
57 90 114
57 91 108
56 89 113
55 87 110
56 89 115
56 89 107
57 90 108
55 87 102
55 87 102
58 91 108
54 85 95
55 87 103
72 92 67
103 116 0
116 131 0
103 117 0
113 128 0
109 123 0
103 118 0
115 129 0
112 127 0
103 118 0
115 130 0
108 121 0
125 139 0
119 133 0
118 133 0
127 142 0
125 139 0
119 136 0
127 142 0
113 127 0
116 132 0
119 135 0
123 138 0
129 146 0
129 143 0
132 150 0
137 154 0
123 136 0
122 139 0
114 130 0
130 145 0
128 144 0
128 145 0
133 150 0
132 148 0
135 152 0
129 147 0
133 148 0
127 142 0
131 147 0
140 156 0
133 150 0
132 147 0
136 151 0
135 152 0
148 163 0
125 140 0
129 144 0
133 151 0
144 161 0
139 155 0
143 158 0
141 160 0
137 153 0
139 156 0
146 162 0
136 152 0
151 166 0
148 165 0
146 163 0
140 156 0
138 152 0
142 157 0
150 168 0
139 155 0
148 165 0
143 161 0
144 161 0
144 159 0
149 165 0
143 156 0
144 160 0
144 160 0
147 163 0
149 164 0
143 161 0
147 163 0
148 163 0
145 160 0
146 164 0
150 168 0
148 166 0
145 161 0
150 165 0
151 167 0
148 164 0
151 167 0
151 167 0
154 172 0
150 166 0
150 166 0
151 168 0
154 171 0
153 170 0
146 162 0
151 165 0
141 156 0
159 175 0
158 174 0
143 161 0
154 170 0
148 162 0
157 175 0
157 174 0
153 171 0
155 173 0
150 165 0
157 173 0
152 169 0
156 173 0
159 177 0
157 173 0
149 164 0
152 169 0
162 181 0
159 177 0
158 175 0
162 182 0
159 177 0
159 176 0
149 166 0
155 171 0
160 177 0
157 177 0
159 177 0
160 179 0
159 178 0
156 172 0
161 179 0
158 176 0
156 172 0
157 175 0
157 174 0
157 175 0
159 177 0
164 183 0
162 178 0
154 173 0
157 176 0
158 175 0
164 183 0
161 180 0
167 186 0
161 179 0
161 180 0
160 177 0
164 184 0
166 187 0
154 173 0
165 185 0
164 184 0
162 180 0
157 176 0
165 184 0
163 184 0
163 183 0
168 187 0
162 180 0
163 180 0
160 178 0
164 183 0
164 182 0
165 185 0
161 181 0
169 190 0
162 181 0
169 189 0
166 190 62
170 193 76
167 191 67
168 193 102
171 196 84
165 189 57
170 194 88
171 195 76
169 193 57
166 191 92
170 194 76
169 193 72
168 192 67
167 191 76
166 191 84
169 194 76
166 191 76
171 194 72
169 193 76
169 193 62
168 192 72
168 193 84
167 192 62
170 194 67
169 192 67
170 194 67
167 192 80
168 193 67
169 192 51
169 194 62
165 189 80
169 193 62
163 187 72
167 191 76
169 193 84
166 190 72
163 187 72
164 188 67
169 193 67
168 193 72
172 197 95
169 193 80
169 194 88
160 184 67
168 192 62
166 192 108
163 187 72
157 181 67
166 191 92
167 191 62
164 188 88
165 188 80
166 190 80
166 190 84
165 189 84
168 191 92
161 183 76
162 185 76
165 189 62
154 177 57
164 187 80
157 182 72
156 179 84
161 184 72
166 190 95
160 183 88
151 174 72
159 182 44
162 185 51
159 183 72
156 179 67
155 179 80
153 178 76
152 175 57
156 179 72
155 177 57
150 173 76
153 176 80
153 176 80
154 177 80
149 172 57
150 173 72
144 167 72
151 174 84
152 174 44
152 176 76
150 172 84
142 163 76
147 169 67
147 168 76
146 168 80
155 176 72
139 161 80
90 114 100
86 112 108
86 113 122
75 103 101
90 115 117
91 118 127
85 112 130
90 115 122
102 127 113
92 119 127
97 123 137
99 125 144
91 118 131
84 111 122
84 112 134
77 104 115
87 112 125
94 119 122
90 116 133
95 120 131
103 128 136
100 127 145
94 120 140
93 118 121
103 127 131
101 126 118
97 122 136
100 124 118
102 125 117
83 108 126
89 116 132
90 117 129
72 104 147
75 106 156
75 106 157
69 102 154
77 107 149
73 104 152
80 109 151
69 99 138
62 94 127
63 96 133
70 100 148
70 99 132
65 97 139
60 94 133
58 91 116
59 94 120
61 94 117
57 90 118
61 94 125
63 95 116
58 90 108
60 90 94
87 112 76
114 137 79
59 93 129
57 91 111
57 91 118
58 91 118
56 89 114
58 91 122
58 92 123
59 94 123
56 89 107
57 90 122
58 92 117
57 90 115
58 91 118
57 91 109
59 93 126
60 94 130
57 90 110
59 93 134
58 92 122
59 93 131
58 92 113
58 92 113
57 91 110
59 94 122
59 93 122
58 92 115
57 90 110
59 93 128
59 93 131
56 89 118
59 94 129
57 89 118
60 94 125
57 90 108
59 93 126
57 90 118
57 90 113
57 91 124
57 91 105
58 92 122
59 93 120
58 92 114
57 91 114
57 91 120
60 95 133
56 89 113
60 94 122
58 92 103
58 92 115
58 92 118
58 91 120
56 90 114
59 93 120
58 92 118
57 91 108
58 92 124
59 93 117
58 91 125
57 91 111
58 91 114
59 93 121
58 92 113
58 91 124
58 91 114
58 92 120
58 92 125
57 90 114
58 91 118
59 93 115
58 91 115
58 91 114
56 90 102
57 90 108
57 90 113
57 90 103
56 88 100
54 86 102
55 87 102
55 87 99
54 86 94
56 88 111
54 86 94
55 87 97
89 108 57
108 121 0
113 128 0
110 125 0
112 125 0
105 119 0
108 122 0
115 128 0
117 132 0
115 131 0
113 129 0
110 124 0
122 137 0
113 128 0
119 136 0
114 128 0
121 137 0
130 145 0
107 122 0
122 138 0
122 138 0
124 141 0
127 143 0
127 142 0
128 145 0
121 136 0
130 147 0
133 151 0
119 135 0
142 159 0
131 146 0
127 146 0
122 138 0
129 145 0
134 151 0
127 145 0
133 148 0
137 155 0
143 159 0
142 158 0
124 141 0
137 151 0
141 158 0
133 149 0
134 148 0
137 153 0
145 160 0
133 151 0
139 156 0
140 156 0
136 153 0
141 156 0
133 150 0
137 153 0
137 153 0
139 157 0
141 156 0
143 158 0
141 157 0
142 156 0
145 161 0
134 150 0
144 160 0
149 166 0
144 160 0
140 157 0
148 165 0
143 160 0
146 162 0
148 165 0
147 163 0
142 158 0
148 165 0
143 161 0
147 162 0
145 159 0
140 156 0
143 159 0
147 163 0
144 160 0
146 162 0
147 164 0
149 165 0
142 157 0
154 170 0
152 167 0
149 167 0
150 168 0
149 165 0
150 167 0
145 163 0
146 161 0
148 165 0
151 166 0
155 169 0
152 166 0
160 178 0
149 166 0
153 168 0
157 176 0
151 166 0
154 173 0
157 174 0
154 170 0
155 172 0
149 166 0
160 176 0
153 170 0
155 170 0
156 173 0
151 168 0
158 176 0
158 174 0
154 170 0
152 168 0
159 177 0
154 172 0
149 166 0
154 173 0
155 172 0
157 173 0
152 171 0
158 174 0
154 171 0
156 174 0
158 174 0
160 179 0
157 175 0
159 177 0
160 180 0
159 176 0
157 176 0
159 176 0
164 185 0
163 183 0
156 174 0
159 178 0
158 178 0
161 180 0
165 182 0
158 177 0
161 178 0
161 180 0
163 181 0
162 180 0
157 173 0
166 184 0
159 180 0
167 188 0
165 184 0
163 184 0
160 177 0
161 179 0
161 178 0
163 181 0
168 189 0
161 179 0
158 176 0
158 176 0
167 185 0
162 180 0
167 188 0
167 186 0
165 183 0
162 182 0
164 183 0
167 187 0
164 184 0
174 197 67
168 192 62
171 194 62
167 191 57
169 194 76
167 192 72
169 193 76
168 193 80
174 198 92
170 194 67
165 189 62
170 194 80
169 192 62
167 192 62
169 193 72
168 192 67
170 194 80
165 190 62
167 191 57
169 193 67
166 189 51
170 194 80
168 192 72
168 192 72
167 191 80
163 187 72
167 192 80
169 193 51
170 194 67
170 194 84
164 188 62
168 192 72
163 187 67
165 189 44
166 190 88
164 188 80
164 188 84
166 190 67
165 190 84
167 191 92
166 190 72
169 193 99
163 187 84
164 187 84
166 189 62
168 191 72
162 185 84
165 188 76
168 192 105
167 190 95
163 185 84
163 186 76
164 188 88
163 186 95
162 186 95
164 187 62
165 187 99
161 185 80
164 187 88
172 195 92
158 181 84
164 187 92
160 182 72
162 185 80
159 183 92
158 180 72
165 188 72
162 185 92
154 177 84
163 186 84
165 187 76
146 169 62
160 182 76
154 176 67
160 184 76
153 176 62
157 180 76
163 186 84
155 178 67
155 178 62
159 181 67
155 177 62
155 177 57
155 177 76
148 170 76
152 173 72
150 171 76
148 170 88
152 174 72
147 169 72
145 166 44
143 164 62
141 162 72
128 149 97
104 128 117
92 118 118
87 114 118
89 114 102
89 116 116
78 105 114
79 106 112
86 113 122
77 105 120
91 116 118
89 115 127
95 120 127
87 113 124
99 123 137
81 108 124
99 124 134
85 112 114
99 124 148
84 112 139
100 126 141
91 117 126
93 120 136
106 130 137
103 127 120
99 126 148
97 123 125
104 127 126
103 125 128
94 119 139
85 111 118
95 120 144
75 107 145
74 104 148
74 105 157
83 112 162
74 105 151
77 106 148
82 111 160
80 109 141
66 96 130
63 96 137
60 92 129
64 97 134
62 94 128
63 96 136
59 93 122
59 94 134
59 94 136
64 96 114
61 92 110
63 96 121
58 91 111
61 94 110
59 90 106
114 136 57
68 99 114
57 91 115
58 92 125
57 90 116
58 91 117
56 89 116
58 92 121
56 90 123
57 90 107
58 91 119
56 90 115
58 92 127
58 93 121
58 92 122
58 93 127
59 93 124
57 90 113
59 93 125
58 92 122
58 92 118
59 93 129
58 92 110
58 92 130
57 90 119
57 91 120
58 92 122
58 92 117
60 95 134
59 94 129
59 93 120
59 94 129
58 92 120
59 93 110
59 93 122
56 90 115
58 93 120
57 90 115
58 91 121
58 92 115
58 92 126
58 91 120
59 93 115
60 94 131
58 92 126
58 92 118
57 90 108
57 89 114
57 90 113
58 91 118
59 93 126
61 95 131
58 92 117
59 93 120
57 90 115
59 93 121
56 89 115
59 93 134
57 90 102
58 91 122
57 91 111
60 93 121
59 92 118
56 89 113
57 91 115
57 90 110
57 91 111
56 88 105
58 91 122
55 88 108
58 92 122
57 91 108
57 90 114
57 89 115
56 89 108
54 87 90
57 90 105
57 91 115
54 85 95
55 88 105
55 87 99
54 86 97
55 86 97
86 103 54
98 113 0
113 128 0
101 118 0
110 125 0
99 115 0
107 120 0
114 130 0
122 139 0
116 130 0
114 129 0
108 126 0
122 139 0
105 119 0
115 130 0
129 147 0
123 138 0
130 145 0
131 148 0
131 148 0
127 146 0
116 132 0
120 136 0
125 142 0
124 141 0
126 143 0
117 134 0
128 144 0
125 141 0
137 155 0
123 138 0
135 152 0
125 142 0
136 152 0
139 156 0
136 153 0
131 146 0
135 151 0
132 151 0
131 145 0
127 142 0
132 148 0
123 139 0
134 149 0
132 149 0
147 164 0
137 154 0
138 155 0
141 157 0
132 147 0
132 149 0
145 162 0
131 148 0
135 153 0
145 163 0
145 161 0
130 146 0
133 148 0
148 166 0
135 151 0
147 164 0
136 154 0
142 157 0
144 160 0
144 161 0
137 152 0
144 161 0
153 168 0
140 157 0
137 152 0
141 157 0
142 159 0
142 157 0
141 159 0
147 164 0
141 156 0
143 159 0
148 163 0
147 165 0
154 171 0
147 165 0
145 160 0
151 168 0
151 168 0
146 160 0
147 162 0
155 172 0
147 164 0
146 161 0
153 169 0
148 164 0
151 164 0
148 165 0
152 167 0
154 171 0
153 170 0
149 165 0
150 166 0
155 170 0
152 167 0
155 169 0
153 170 0
152 168 0
153 171 0
148 166 0
157 174 0
151 169 0
159 175 0
157 173 0
154 172 0
153 170 0
156 172 0
155 171 0
160 178 0
155 174 0
160 179 0
158 176 0
157 173 0
150 169 0
155 173 0
154 171 0
160 177 0
167 184 0
158 176 0
157 176 0
156 173 0
158 175 0
158 174 0
159 179 0
154 170 0
155 173 0
157 175 0
151 170 0
158 178 0
165 184 0
158 176 0
163 182 0
157 174 0
164 183 0
167 185 0
164 183 0
163 182 0
163 183 0
165 184 0
163 182 0
164 184 0
161 183 0
163 183 0
158 177 0
158 179 0
162 182 0
158 177 0
162 182 0
163 182 0
160 180 0
163 182 0
165 185 0
160 179 0
163 181 0
162 181 0
161 178 0
164 183 0
160 179 0
162 182 0
164 184 0
167 189 0
165 185 0
167 188 0
164 181 0
170 194 62
170 194 51
172 197 84
173 197 80
171 195 67
170 193 67
169 193 88
174 198 72
171 195 76
168 192 88
167 191 51
169 194 72
169 193 72
165 189 76
171 194 67
169 194 99
169 192 84
167 192 67
164 189 62
169 193 80
171 196 88
170 194 67
169 193 76
165 190 62
165 190 80
164 188 57
167 191 25
168 192 72
165 189 80
170 194 62
170 193 67
165 189 51
168 192 84
164 188 76
172 196 84
164 189 88
169 193 84
162 185 72
172 195 95
170 193 80
163 187 88
167 190 72
170 194 84
165 188 67
167 190 72
168 192 92
168 192 95
170 194 108
165 189 102
167 191 88
160 184 84
164 188 72
165 187 92
163 187 99
158 181 67
162 185 92
165 188 99
162 185 76
160 182 92
157 180 62
164 187 92
165 188 84
164 187 80
157 180 67
154 176 80
156 179 84
162 185 84
164 188 92
155 178 76
158 180 80
164 186 102
156 178 67
162 184 84
156 179 84
162 184 99
161 184 80
156 179 67
147 170 57
160 184 88
153 175 72
154 177 72
149 171 57
150 172 76
156 178 80
155 178 57
155 177 44
152 174 62
147 169 62
146 167 80
143 165 57
144 165 80
140 160 67
147 168 76
140 161 62
134 154 90
88 114 114
93 119 115
88 114 127
90 116 110
101 126 111
79 106 114
98 123 121
98 123 130
89 116 127
91 117 117
102 126 134
99 124 131
99 124 135
91 116 126
106 130 144
81 109 133
114 137 138
98 123 129
98 123 137
90 117 136
89 116 113
117 140 141
97 124 139
112 136 129
96 122 131
110 135 133
88 115 135
94 119 135
93 117 137
92 117 138
88 115 131
87 115 155
67 99 141
82 111 151
73 104 147
72 104 155
61 97 145
68 100 145
65 99 142
61 95 135
72 100 128
64 94 120
77 103 136
68 99 144
61 95 127
62 96 136
59 93 121
62 95 135
65 97 124
60 93 118
65 97 107
64 95 107
57 89 99
112 134 76
82 110 108
56 90 115
55 88 103
58 92 121
59 94 128
56 88 105
58 92 122
58 92 122
59 93 131
58 92 127
57 90 103
57 91 114
59 93 125
59 93 127
60 94 121
57 90 120
58 91 122
58 92 122
58 92 115
56 88 109
59 93 126
58 93 113
57 91 115
57 90 123
57 91 118
57 91 110
57 91 118
58 91 120
59 93 114
59 93 122
59 93 129
59 93 134
58 91 111
57 90 119
58 91 124
57 91 114
57 90 111
59 93 124
58 92 117
59 93 125
59 92 120
57 91 111
59 93 122
59 93 125
59 94 124
57 90 114
57 90 109
60 94 118
59 93 127
58 92 118
57 91 115
59 94 122
59 93 125
59 94 120
58 92 122
59 92 120
59 94 126
57 91 120
60 94 122
56 89 118
58 91 118
57 91 114
57 91 108
58 92 120
58 92 122
58 91 113
56 89 100
58 92 120
59 93 129
56 89 113
56 89 107
56 89 97
56 89 108
56 89 102
55 87 97
58 91 108
55 87 100
57 90 118
57 91 108
54 86 95
63 90 100
109 123 31
108 123 0
106 123 0
113 127 0
107 120 0
113 129 0
104 118 0
114 129 0
115 131 0
120 135 0
113 128 0
107 121 0
121 138 0
121 137 0
111 126 0
110 125 0
117 133 0
109 124 0
126 143 0
130 148 0
122 137 0
131 147 0
127 142 0
125 142 0
123 140 0
131 147 0
123 141 0
131 149 0
128 145 0
134 152 0
130 146 0
126 142 0
128 144 0
135 151 0
137 154 0
132 150 0
131 146 0
133 148 0
132 149 0
134 152 0
133 147 0
141 158 0
132 151 0
142 159 0
128 145 0
133 149 0
137 153 0
140 156 0
137 154 0
140 155 0
133 149 0
139 154 0
144 161 0
140 156 0
136 153 0
144 158 0
141 157 0
135 153 0
144 159 0
134 148 0
145 162 0
138 154 0
139 156 0
138 153 0
130 145 0
139 154 0
143 159 0
148 166 0
144 160 0
147 165 0
143 159 0
144 160 0
138 153 0
144 163 0
141 157 0
153 170 0
151 168 0
140 155 0
148 167 0
147 164 0
142 158 0
138 154 0
147 164 0
145 164 0
142 156 0
150 167 0
146 163 0
142 160 0
151 170 0
149 166 0
144 162 0
155 171 0
150 166 0
154 171 0
156 172 0
155 173 0
151 167 0
149 166 0
150 167 0
155 172 0
153 171 0
150 167 0
152 169 0
151 168 0
156 172 0
157 174 0
155 171 0
153 170 0
158 177 0
150 167 0
154 170 0
146 164 0
154 170 0
156 172 0
154 173 0
155 172 0
158 178 0
161 178 0
162 179 0
153 169 0
158 177 0
157 174 0
161 178 0
160 179 0
155 172 0
162 180 0
151 168 0
153 170 0
160 178 0
159 178 0
148 165 0
158 177 0
164 183 0
154 171 0
159 179 0
163 183 0
151 168 0
161 180 0
162 182 0
162 182 0
167 186 0
164 184 0
161 179 0
162 180 0
161 180 0
163 181 0
161 179 0
165 184 0
168 187 0
157 174 0
154 174 0
167 186 0
162 181 0
152 173 0
161 181 0
165 186 0
165 185 0
163 183 0
164 182 0
162 181 0
163 183 0
165 185 0
164 184 0
162 181 0
161 179 0
170 191 0
166 185 0
160 178 0
163 182 0
169 190 0
172 195 67
169 193 84
174 198 84
169 193 62
169 194 92
169 193 88
169 193 62
169 192 80
173 196 67
171 196 72
166 191 67
170 194 88
170 195 80
168 193 67
169 194 36
168 193 67
170 194 44
166 191 76
166 190 72
166 189 80
169 194 67
170 195 99
165 189 57
169 193 57
171 196 57
162 187 67
169 194 72
167 191 76
168 192 67
162 186 51
167 192 95
168 192 80
167 191 76
162 185 99
168 191 88
165 189 72
170 193 72
166 190 76
169 192 80
166 190 84
168 192 76
168 191 76
168 190 76
163 187 80
171 195 105
170 193 102
162 186 102
169 193 105
159 183 84
166 190 88
170 194 111
157 180 76
165 189 80
166 190 92
168 192 99
161 185 62
160 184 92
164 187 62
160 183 67
164 188 105
154 176 76
166 188 76
154 177 84
161 185 72
159 182 92
162 186 88
159 181 80
164 187 99
160 183 80
160 183 92
167 190 95
156 179 88
157 180 51
160 183 102
161 184 95
160 184 88
150 172 72
158 179 95
154 175 88
153 175 88
151 174 57
155 178 62
152 174 80
148 171 92
154 176 80
143 164 76
148 170 84
150 173 51
141 162 67
133 154 51
143 164 84
150 172 76
148 169 95
132 152 51
138 159 57
121 143 88
91 118 111
98 124 137
92 118 122
88 114 121
93 118 126
86 113 118
81 108 110
87 114 116
88 116 130
76 104 112
90 115 123
89 115 127
85 112 133
84 111 125
95 121 139
91 117 133
93 119 135
100 124 134
96 121 137
107 132 143
100 126 133
93 120 136
81 109 129
98 123 139
107 131 139
103 126 129
97 121 122
85 111 122
94 118 128
107 129 141
91 117 145
80 110 161
74 105 152
77 107 147
71 103 153
64 98 142
70 101 141
65 99 126
67 99 131
62 96 140
68 96 121
64 96 133
62 94 125
63 96 131
59 93 127
57 91 132
57 90 113
62 95 124
61 93 116
66 97 119
67 98 111
66 96 99
86 110 79
83 107 78
57 90 113
57 91 120
57 91 124
58 92 117
57 90 115
57 91 113
58 92 114
58 92 110
57 91 120
57 90 115
56 89 115
58 91 113
57 90 120
57 91 121
57 90 117
59 93 122
57 91 118
58 92 124
59 93 123
59 93 126
58 92 126
60 94 130
57 91 122
60 95 127
57 91 118
56 90 112
58 93 114
59 92 115
58 92 107
58 91 117
57 90 120
58 92 126
58 92 121
56 90 107
58 91 117
59 93 125
58 92 113
57 91 117
58 92 125
59 93 117
58 92 115
56 89 111
59 93 137
58 92 111
57 91 117
56 89 108
58 91 113
55 88 107
57 91 111
56 89 114
56 90 111
58 91 115
58 91 118
58 92 118
58 91 108
57 90 111
58 91 120
55 88 100
57 91 108
57 91 118
57 90 111
56 89 105
57 90 113
58 92 117
54 86 92
56 88 110
57 91 105
56 89 99
57 91 118
58 91 122
55 87 99
55 88 105
55 87 105
55 87 97
57 90 117
52 83 78
54 86 95
53 84 100
76 99 70
100 112 0
98 110 0
105 120 0
99 113 0
105 121 0
107 123 0
119 135 0
110 125 0
108 124 0
122 137 0
118 135 0
107 124 0
123 138 0
121 136 0
114 127 0
106 119 0
114 130 0
128 144 0
130 148 0
119 134 0
119 135 0
127 143 0
119 137 0
130 146 0
123 142 0
131 147 0
133 150 0
119 134 0
122 137 0
132 149 0
132 147 0
130 147 0
127 145 0
128 145 0
129 144 0
137 155 0
128 145 0
133 150 0
137 154 0
137 154 0
130 147 0
134 151 0
127 143 0
130 147 0
137 152 0
142 159 0
135 152 0
134 150 0
128 144 0
134 152 0
140 157 0
137 154 0
139 155 0
144 161 0
140 159 0
137 154 0
145 162 0
146 161 0
142 159 0
149 165 0
145 161 0
146 165 0
138 154 0
147 163 0
148 165 0
142 157 0
138 154 0
144 161 0
141 159 0
138 153 0
147 164 0
137 154 0
147 162 0
149 166 0
148 167 0
140 155 0
150 165 0
150 167 0
143 162 0
143 161 0
147 165 0
152 170 0
151 167 0
146 163 0
149 166 0
149 165 0
147 164 0
158 176 0
149 164 0
142 157 0
142 159 0
157 175 0
153 169 0
148 165 0
146 162 0
155 173 0
152 170 0
155 171 0
147 164 0
148 163 0
148 165 0
151 166 0
156 172 0
154 173 0
157 175 0
152 168 0
157 176 0
152 170 0
153 169 0
156 173 0
162 182 0
149 167 0
151 168 0
152 170 0
156 173 0
156 174 0
160 179 0
157 173 0
151 170 0
157 176 0
157 175 0
154 171 0
154 172 0
156 176 0
156 173 0
159 179 0
150 167 0
160 177 0
159 177 0
156 173 0
160 178 0
158 176 0
166 184 0
158 176 0
159 177 0
164 182 0
157 174 0
165 185 0
159 179 0
156 173 0
162 182 0
164 182 0
165 185 0
154 174 0
163 182 0
163 181 0
162 179 0
159 178 0
163 183 0
166 188 0
162 181 0
160 179 0
161 179 0
161 179 0
162 181 0
166 187 0
163 183 0
164 185 0
159 178 0
162 183 0
164 183 0
162 182 0
167 187 0
156 175 0
166 186 0
167 186 0
166 184 0
164 182 0
163 182 0
167 186 0
164 184 0
172 197 88
173 197 76
173 196 67
171 195 57
163 187 57
171 195 62
167 190 72
172 196 80
170 194 80
169 193 84
168 193 84
172 195 72
168 193 51
166 191 102
168 192 62
170 195 84
165 189 57
168 193 76
166 190 84
168 193 72
170 193 72
168 193 105
168 192 57
166 189 57
170 194 67
167 191 76
166 190 76
168 192 72
171 195 88
166 190 84
174 198 105
167 190 67
164 188 62
176 198 105
165 190 102
171 195 95
165 190 80
172 195 72
171 194 95
170 194 95
167 191 72
167 190 76
164 189 72
164 188 76
166 189 72
166 190 76
170 193 84
163 188 105
159 183 92
174 196 84
165 188 114
166 189 92
163 186 80
165 188 95
162 185 99
170 193 105
166 190 108
166 188 105
164 187 92
159 182 88
162 184 88
162 184 80
163 185 102
158 182 76
163 187 88
158 181 84
160 183 80
160 183 92
155 178 72
157 180 72
153 175 72
157 179 72
161 185 72
152 175 72
159 182 84
158 181 84
155 177 80
151 173 76
159 181 80
157 179 102
151 172 92
153 176 80
149 170 84
156 178 76
151 174 84
155 178 72
153 174 76
144 166 80
150 172 80
143 165 76
149 169 72
150 172 84
146 166 80
137 157 62
140 162 67
140 161 76
123 145 95
93 118 118
88 114 116
75 103 102
108 132 129
91 117 131
81 109 117
85 112 121
96 121 131
97 122 128
97 123 134
77 105 114
95 120 120
81 108 109
90 116 130
91 117 134
85 112 126
90 115 137
97 121 131
94 119 133
101 125 133
97 122 127
109 133 141
98 124 133
97 123 131
95 121 123
111 133 139
103 126 127
94 120 142
100 124 130
83 111 137
77 106 145
68 100 148
77 106 145
89 116 162
69 100 134
70 102 144
68 101 139
68 99 129
64 96 133
68 97 123
72 100 131
65 94 125
66 96 133
60 94 139
58 92 126
58 92 121
65 96 120
66 98 114
61 93 117
66 97 117
63 93 97
83 111 97
105 127 47
56 89 107
57 90 110
58 92 121
58 92 112
59 94 129
57 90 110
57 90 101
58 92 121
57 90 104
58 92 118
58 91 120
58 91 115
57 90 116
57 91 113
58 92 121
57 91 110
57 90 127
56 90 111
58 91 114
57 91 113
58 91 122
58 92 129
58 91 115
57 91 109
58 92 114
58 92 121
57 91 102
57 91 118
57 90 112
57 91 105
59 93 124
60 94 122
58 92 115
57 90 117
56 89 107
58 91 114
59 93 115
59 93 126
58 92 111
59 93 126
57 90 113
57 91 118
56 89 102
57 90 107
59 93 124
59 92 125
57 90 115
58 92 111
57 91 111
57 91 117
59 93 125
57 91 124
56 89 100
58 91 115
59 92 113
58 91 121
58 91 118
57 90 113
56 89 105
56 89 105
58 91 114
56 90 110
55 88 102
56 89 100
57 90 111
59 92 108
58 91 111
55 87 108
56 89 107
56 87 113
56 89 90
56 89 102
57 90 99
54 85 92
56 88 99
54 86 88
54 84 92
104 123 65
103 116 0
115 130 0
114 129 0
110 125 0
108 122 0
104 118 0
110 124 0
100 114 0
118 133 0
118 132 0
118 133 0
103 116 0
108 122 0
121 138 0
122 138 0
124 140 0
122 137 0
128 145 0
126 141 0
125 138 0
118 136 0
125 142 0
111 125 0
123 140 0
117 131 0
132 149 0
125 143 0
121 138 0
118 131 0
120 136 0
131 147 0
128 144 0
125 142 0
127 145 0
130 146 0
143 161 0
136 155 0
128 145 0
115 131 0
128 145 0
144 160 0
129 146 0
138 154 0
136 153 0
130 147 0
131 150 0
136 153 0
139 156 0
134 151 0
136 152 0
139 155 0
139 156 0
137 155 0
140 156 0
135 151 0
143 160 0
140 157 0
142 161 0
137 155 0
134 149 0
147 165 0
144 160 0
141 159 0
143 160 0
144 159 0
143 161 0
142 159 0
140 158 0
144 163 0
150 168 0
142 159 0
144 159 0
145 162 0
144 161 0
152 169 0
156 175 0
146 163 0
142 160 0
149 166 0
146 164 0
140 158 0
149 168 0
143 159 0
147 166 0
152 167 0
149 165 0
145 162 0
143 160 0
143 158 0
151 168 0
153 172 0
150 168 0
149 163 0
149 165 0
150 169 0
147 163 0
153 169 0
157 175 0
153 170 0
148 163 0
145 163 0
151 170 0
153 170 0
144 161 0
156 174 0
153 170 0
156 174 0
155 172 0
155 174 0
155 173 0
159 178 0
157 175 0
155 174 0
156 174 0
158 177 0
153 171 0
153 170 0
159 177 0
153 170 0
154 170 0
160 176 0
156 174 0
154 172 0
158 176 0
157 175 0
153 171 0
160 177 0
161 182 0
162 180 0
160 177 0
159 179 0
159 177 0
164 182 0
159 177 0
161 179 0
161 179 0
166 185 0
156 173 0
164 185 0
160 177 0
161 180 0
164 184 0
160 178 0
163 181 0
157 176 0
164 186 0
164 183 0
161 183 0
162 180 0
163 183 0
165 184 0
161 181 0
165 186 0
156 173 0
167 185 0
158 177 0
164 181 0
163 183 0
161 181 0
167 189 0
167 187 0
162 182 0
164 184 0
163 183 0
162 181 0
167 187 0
165 184 0
167 187 0
166 188 0
163 183 0
165 185 0
167 186 0
170 195 84
172 195 76
173 197 80
171 195 72
169 193 84
171 195 76
173 197 99
170 194 88
170 194 76
171 194 67
169 194 72
165 189 76
170 193 25
172 196 72
163 187 62
169 194 51
170 195 76
166 191 57
169 193 92
169 193 57
163 186 51
171 195 99
166 190 62
165 188 62
169 193 62
172 195 92
170 193 84
164 187 57
167 192 76
172 196 84
168 193 105
169 193 99
171 195 57
167 190 84
168 191 80
166 190 80
160 183 67
168 191 72
168 191 67
163 187 88
173 197 102
166 190 99
172 195 105
162 185 76
161 184 99
168 191 111
164 187 102
167 190 102
171 195 95
168 190 105
168 191 102
172 195 99
166 189 88
168 191 108
166 189 88
171 193 88
174 195 114
162 184 102
165 189 102
166 189 102
168 189 108
169 192 88
165 188 84
160 183 88
167 190 108
166 190 95
164 185 102
146 169 76
164 186 95
157 180 67
155 177 84
163 185 108
151 172 76
162 184 84
157 179 95
162 184 102
155 177 88
151 174 67
150 173 72
156 178 92
143 165 80
153 176 105
149 171 62
158 180 84
131 153 57
151 172 84
150 172 67
145 168 51
145 166 57
152 173 88
138 159 57
135 156 72
138 159 67
149 169 57
145 166 51
142 162 76
134 155 67
107 130 78
70 99 95
94 119 115
89 115 118
88 114 117
92 118 118
81 108 123
99 122 134
87 114 117
79 107 115
96 121 120
88 113 113
97 122 127
93 119 121
95 119 131
81 107 120
113 136 147
89 115 119
100 124 134
103 128 138
105 130 131
86 112 118
83 110 125
103 128 125
103 128 130
84 111 118
107 131 124
82 109 117
82 109 121
93 117 133
113 124 117
77 107 151
81 110 144
80 108 148
77 106 144
74 104 143
62 96 134
70 103 131
68 100 122
60 93 127
69 99 132
68 98 133
65 95 122
67 96 124
60 94 138
57 91 120
65 95 120
58 92 116
57 91 117
70 100 104
59 92 105
68 97 99
127 148 25
73 102 92
58 91 113
55 88 97
57 90 105
56 89 107
56 90 115
58 91 120
56 89 105
57 90 113
57 91 113
58 91 110
55 88 105
57 90 124
58 93 122
58 91 120
58 92 124
58 91 113
59 92 124
58 91 108
57 90 111
58 92 124
58 92 120
58 92 129
58 91 118
56 89 97
56 89 107
58 91 114
57 90 117
58 91 122
56 89 110
56 90 117
58 91 114
57 91 117
57 91 102
57 90 120
57 90 117
59 93 122
57 91 115
57 90 113
59 93 122
58 91 121
56 89 100
57 90 110
58 92 117
58 92 117
58 92 124
58 92 111
56 89 102
57 91 115
55 88 107
58 91 122
57 90 118
56 89 107
59 93 122
57 90 108
56 89 103
56 89 107
57 90 118
54 86 88
58 91 95
56 89 105
58 91 110
57 90 113
56 88 102
58 91 113
57 90 117
55 87 110
55 87 97
58 92 110
55 88 92
56 88 97
56 88 105
53 84 94
54 85 86
52 83 84
70 94 76
98 115 40
107 120 0
102 116 0
100 113 0
114 129 0
105 120 0
124 139 0
107 122 0
108 125 0
110 127 0
112 127 0
121 136 0
106 123 0
111 126 0
106 121 0
123 139 0
113 129 0
119 135 0
123 140 0
124 140 0
124 140 0
121 138 0
130 147 0
124 140 0
116 133 0
122 138 0
133 150 0
126 143 0
120 136 0
119 135 0
129 147 0
123 139 0
125 143 0
126 143 0
134 151 0
131 148 0
128 144 0
136 154 0
128 145 0
136 153 0
130 148 0
131 147 0
138 152 0
137 154 0
136 153 0
141 158 0
136 153 0
131 148 0
142 160 0
133 150 0
139 158 0
130 147 0
133 149 0
139 157 0
140 158 0
141 161 0
143 159 0
146 162 0
135 153 0
147 167 0
144 160 0
140 158 0
149 168 0
143 161 0
144 159 0
150 168 0
138 152 0
132 151 0
135 153 0
149 168 0
145 162 0
150 170 0
144 162 0
138 154 0
146 166 0
139 153 0
151 169 0
146 161 0
149 169 0
148 165 0
146 164 0
145 162 0
150 167 0
156 173 0
142 160 0
145 164 0
142 158 0
156 173 0
147 163 0
146 164 0
154 171 0
154 172 0
144 160 0
154 171 0
156 173 0
147 164 0
142 161 0
148 166 0
155 172 0
156 175 0
142 158 0
152 170 0
152 169 0
150 168 0
157 171 0
157 177 0
152 171 0
155 174 0
160 179 0
151 169 0
156 176 0
153 171 0
152 170 0
154 170 0
152 171 0
157 174 0
153 172 0
161 178 0
155 172 0
160 178 0
156 176 0
153 171 0
163 182 0
156 174 0
154 172 0
157 175 0
160 180 0
160 177 0
163 184 0
153 173 0
158 177 0
157 176 0
157 175 0
165 185 0
166 186 0
164 184 0
162 182 0
161 179 0
161 181 0
162 181 0
166 185 0
160 178 0
162 180 0
157 178 0
160 180 0
160 180 0
167 187 0
166 185 0
160 179 0
164 184 0
165 185 0
159 179 0
161 180 0
168 190 0
162 183 0
159 180 0
166 188 0
164 184 0
166 187 0
164 184 0
165 184 0
166 186 0
161 178 0
160 181 0
163 183 0
166 186 0
164 183 0
161 180 0
165 185 0
159 181 0
160 180 0
166 188 0
163 183 0
165 185 0
170 194 57
173 197 76
170 194 62
170 193 57
171 195 62
171 195 95
166 190 84
169 193 76
171 194 76
168 193 67
170 194 76
172 196 80
170 194 51
171 195 62
170 194 67
171 196 72
171 195 76
173 196 67
171 195 67
164 188 72
166 190 72
167 191 72
168 191 62
172 196 88
169 195 88
168 192 99
170 193 67
164 188 80
168 191 80
172 196 76
167 192 108
168 191 76
166 189 72
172 195 88
167 192 88
169 193 76
171 194 108
169 193 99
169 194 108
168 192 95
171 194 99
173 196 105
169 193 95
170 193 92
164 188 95
171 194 105
169 192 92
163 186 92
168 191 92
171 194 102
168 190 88
167 191 117
168 191 102
171 193 114
168 191 95
167 190 95
164 187 62
159 180 95
164 187 108
163 185 95
168 192 102
163 185 95
158 181 80
163 186 88
167 189 114
163 184 88
158 180 95
163 186 88
163 186 67
160 182 108
163 185 95
159 181 102
164 185 105
157 179 84
156 179 84
158 180 111
153 175 76
154 177 105
140 163 72
148 171 57
157 180 108
148 170 88
160 182 84
150 172 92
155 177 102
151 173 86
144 165 62
146 167 62
147 168 44
144 165 99
147 168 67
149 169 88
148 168 36
144 165 76
138 159 76
138 158 88
128 147 88
134 155 84
96 119 94
99 124 96
97 123 121
102 126 121
99 123 117
88 114 107
98 123 123
93 118 129
83 109 113
106 129 134
82 109 123
86 112 110
89 115 122
95 119 109
91 116 125
93 118 120
102 126 121
102 126 124
93 119 145
89 116 137
100 125 137
100 125 135
98 123 131
98 123 128
102 126 125
105 129 129
87 112 108
84 111 117
90 115 125
111 128 131
100 114 109
64 98 136
80 109 148
80 109 149
73 104 150
69 101 120
65 98 134
65 97 132
70 101 123
63 95 121
60 93 135
64 95 118
63 95 126
62 95 133
59 93 134
65 96 117
64 96 113
61 93 111
65 97 118
69 98 104
61 91 89
108 129 47
102 126 82
55 87 109
56 89 106
56 89 108
56 88 94
55 87 113
57 90 105
55 88 101
57 91 120
58 92 120
57 90 113
57 91 117
58 92 120
57 90 120
57 91 124
57 90 105
57 91 100
56 89 113
58 91 110
56 88 103
58 92 121
58 92 117
59 93 133
57 90 115
58 92 117
58 91 117
57 90 115
57 90 110
57 90 113
57 91 118
58 91 113
58 92 120
59 93 126
58 92 118
56 89 111
58 91 110
57 91 108
56 88 115
58 92 114
58 91 118
58 92 125
56 89 103
58 92 121
58 92 118
58 91 108
56 90 103
59 93 118
55 88 113
59 93 115
56 90 103
56 89 108
56 89 105
58 91 107
57 90 115
58 91 117
58 91 114
56 89 99
56 89 113
57 90 114
57 90 102
56 89 103
54 86 99
56 89 95
58 91 113
56 89 108
56 89 103
54 85 103
56 89 108
55 87 100
53 84 102
54 85 111
54 85 94
52 83 90
60 91 105
79 98 44
105 119 0
97 110 0
98 113 0
104 118 0
87 102 0
116 129 0
110 124 0
104 116 0
105 121 0
113 130 0
102 118 0
116 133 0
120 136 0
113 129 0
115 131 0
110 127 0
126 143 0
115 132 0
124 140 0
114 131 0
137 152 0
123 141 0
122 139 0
114 130 0
120 135 0
122 139 0
119 132 0
128 145 0
127 144 0
131 149 0
126 144 0
135 153 0
129 144 0
137 155 0
118 134 0
135 152 0
132 147 0
132 149 0
134 150 0
136 153 0
139 157 0
131 150 0
123 140 0
135 154 0
131 149 0
127 145 0
132 150 0
145 163 0
129 144 0
135 153 0
140 156 0
129 146 0
136 152 0
138 155 0
147 166 0
141 159 0
136 155 0
130 146 0
143 160 0
138 154 0
143 162 0
143 161 0
142 159 0
138 154 0
142 161 0
144 161 0
135 152 0
142 158 0
146 164 0
144 161 0
150 167 0
147 165 0
148 166 0
148 163 0
140 159 0
146 165 0
147 164 0
135 151 0
146 162 0
150 168 0
144 160 0
146 163 0
146 165 0
153 169 0
156 173 0
150 169 0
154 174 0
153 168 0
152 171 0
141 157 0
156 172 0
145 162 0
152 172 0
145 162 0
150 166 0
152 168 0
152 171 0
151 168 0
148 164 0
152 168 0
152 168 0
149 168 0
153 170 0
150 168 0
157 176 0
152 171 0
148 167 0
146 163 0
154 173 0
155 174 0
157 174 0
149 168 0
156 173 0
148 164 0
153 167 0
153 170 0
159 176 0
158 177 0
153 170 0
154 171 0
155 175 0
154 171 0
161 178 0
161 180 0
163 183 0
157 175 0
163 180 0
156 173 0
157 177 0
158 176 0
160 178 0
158 175 0
159 177 0
163 181 0
161 180 0
158 179 0
155 173 0
158 174 0
158 178 0
162 182 0
162 182 0
164 185 0
160 179 0
159 178 0
161 179 0
166 185 0
159 178 0
164 181 0
163 183 0
161 180 0
157 176 0
163 182 0
164 184 0
161 180 0
166 185 0
162 182 0
162 180 0
162 181 0
161 179 0
164 184 0
164 185 0
164 184 0
164 182 0
167 189 0
161 182 0
165 185 0
160 181 0
163 183 0
163 182 0
163 184 0
157 177 0
167 187 0
165 186 0
163 182 0
167 188 0
173 197 72
173 197 88
167 191 72
163 188 76
167 192 84
169 194 72
167 191 57
168 193 84
170 194 72
167 190 62
169 193 76
168 192 80
166 190 88
163 187 57
172 196 72
168 192 57
165 189 57
168 193 76
165 189 80
173 196 76
166 192 92
168 192 80
169 192 80
169 192 62
170 195 84
171 195 72
169 193 95
164 187 57
165 189 76
172 197 99
165 189 72
168 192 88
168 191 92
169 193 99
167 190 76
170 193 108
167 190 108
163 187 92
164 187 95
174 198 125
165 187 76
168 191 99
173 195 108
166 189 88
167 190 105
174 197 117
167 190 92
165 188 108
174 196 105
168 189 114
159 182 80
157 181 84
169 192 95
166 189 80
164 186 99
165 189 102
160 183 80
165 187 92
166 188 114
159 181 95
155 178 84
162 184 92
160 183 88
164 186 102
163 187 92
158 180 95
163 185 99
164 186 120
169 192 92
156 179 99
158 181 99
160 182 111
161 183 122
155 177 95
166 188 102
160 182 95
154 175 84
158 180 84
152 174 84
153 175 102
147 169 67
161 181 105
157 179 99
160 182 99
147 169 88
153 175 99
142 163 84
151 172 80
139 160 67
145 166 80
139 160 72
143 165 88
130 151 57
140 161 82
144 164 95
143 163 80
138 158 67
134 154 57
135 155 80
107 130 103
92 117 111
97 121 108
90 114 100
84 109 113
80 107 99
74 101 105
99 123 115
87 114 108
92 118 121
86 112 107
94 119 126
97 122 124
106 130 130
88 115 117
95 120 130
103 127 145
91 117 122
92 117 121
107 130 132
99 123 125
92 117 114
90 115 133
110 133 127
101 127 105
90 117 125
81 108 125
94 119 126
91 116 134
134 133 73
89 111 134
64 98 135
87 113 143
76 105 140
66 100 137
62 95 124
65 99 129
69 101 143
69 101 130
62 95 128
59 92 122
68 96 119
65 96 118
58 92 118
60 92 108
59 91 116
64 96 114
66 97 113
58 89 102
56 88 101
86 109 57
118 140 49
55 87 97
56 88 107
56 89 100
55 88 92
56 89 103
55 87 100
57 90 102
57 90 117
58 92 111
57 91 100
58 92 120
56 89 107
55 87 102
57 91 109
57 90 105
55 88 103
56 89 111
57 90 105
56 88 97
58 91 110
57 91 115
56 89 110
58 91 124
58 92 121
57 91 110
58 91 115
57 90 105
57 90 108
57 91 105
56 89 107
57 90 105
58 92 103
57 91 118
54 86 100
57 91 110
57 90 108
58 91 114
57 90 110
59 93 124
56 89 111
56 88 107
56 88 111
56 89 114
59 92 114
55 88 107
59 93 120
57 90 117
56 89 99
57 90 114
56 89 92
56 88 108
56 88 103
56 89 100
56 89 107
58 91 113
57 91 110
55 87 94
56 89 105
55 87 105
57 90 114
55 87 94
56 89 103
54 85 90
57 91 100
55 87 107
55 88 90
56 89 95
55 87 107
57 90 102
55 86 100
52 83 82
65 91 80
88 105 36
102 115 0
104 119 0
107 122 0
106 120 0
109 124 0
100 115 0
111 126 0
96 112 0
94 107 0
114 131 0
101 118 0
106 122 0
117 134 0
119 135 0
107 124 0
120 136 0
112 129 0
127 144 0
117 133 0
114 130 0
118 135 0
130 145 0
121 137 0
124 140 0
122 139 0
129 145 0
116 132 0
114 130 0
124 142 0
126 142 0
116 132 0
119 134 0
130 146 0
134 152 0
137 154 0
123 140 0
128 147 0
134 152 0
125 142 0
131 148 0
133 150 0
131 147 0
139 155 0
130 147 0
135 152 0
128 146 0
132 149 0
137 156 0
147 163 0
136 152 0
135 151 0
139 159 0
141 159 0
137 151 0
141 161 0
130 147 0
137 154 0
136 153 0
144 163 0
143 159 0
133 152 0
141 158 0
138 155 0
125 144 0
141 159 0
145 159 0
145 165 0
152 169 0
146 164 0
140 158 0
150 169 0
148 166 0
149 163 0
143 160 0
147 165 0
147 165 0
141 161 0
142 159 0
153 171 0
148 166 0
148 167 0
148 167 0
145 163 0
146 163 0
156 175 0
160 180 0
147 166 0
157 175 0
152 169 0
146 162 0
147 165 0
151 168 0
142 159 0
152 169 0
152 169 0
153 172 0
146 163 0
147 163 0
156 173 0
157 174 0
156 176 0
150 169 0
154 172 0
160 179 0
159 178 0
146 165 0
157 173 0
151 170 0
155 172 0
152 169 0
149 167 0
153 171 0
158 178 0
160 178 0
159 178 0
151 167 0
153 172 0
156 174 0
156 175 0
156 176 0
154 171 0
159 177 0
152 169 0
150 169 0
159 179 0
158 175 0
159 178 0
165 185 0
158 177 0
159 179 0
161 180 0
161 180 0
159 178 0
154 172 0
161 180 0
161 179 0
161 179 0
159 175 0
163 180 0
159 178 0
164 183 0
162 182 0
162 179 0
158 176 0
154 172 0
159 178 0
156 175 0
165 185 0
158 177 0
160 179 0
163 184 0
158 177 0
164 182 0
166 186 0
162 181 0
163 184 0
158 175 0
160 180 0
163 182 0
162 182 0
162 182 0
166 186 0
160 178 0
161 179 0
168 187 0
166 187 0
160 181 0
169 190 0
162 183 0
165 185 0
162 181 0
168 188 0
168 188 0
166 186 0
167 188 0
166 185 0
169 193 57
169 194 76
169 194 80
169 193 62
171 194 57
165 189 62
170 194 80
172 195 88
168 193 72
170 193 67
172 195 57
172 196 84
171 195 62
171 195 76
172 196 80
167 192 76
168 192 44
166 190 67
169 193 95
167 192 76
171 195 99
172 197 80
168 191 84
167 191 57
171 195 72
171 195 95
162 186 72
168 192 92
169 192 76
168 193 111
175 199 120
168 191 111
176 199 102
171 193 99
172 196 108
167 191 102
164 188 67
168 191 84
167 191 111
165 189 67
171 194 117
170 193 105
164 187 88
169 192 84
167 191 88
165 189 67
164 188 92
170 193 95
167 189 88
161 184 92
169 192 99
167 191 99
167 189 111
168 191 114
165 188 92
164 186 92
161 184 102
166 189 95
156 179 84
156 179 88
157 178 67
160 182 95
156 178 80
164 186 99
158 181 99
167 189 111
163 185 102
163 186 95
164 185 99
156 177 102
157 179 114
162 186 105
164 186 92
167 189 111
157 180 84
153 175 95
163 184 102
161 183 108
155 176 105
155 176 88
162 185 105
155 177 95
153 174 88
153 175 95
149 171 76
151 172 88
156 178 92
157 178 82
149 169 88
146 166 84
150 171 114
147 167 80
144 165 62
134 155 80
133 153 67
135 156 62
116 135 51
136 156 67
134 152 51
138 157 76
107 130 100
97 121 125
94 119 116
90 116 110
93 118 120
90 115 102
99 122 112
96 120 132
83 109 109
100 124 122
88 112 124
87 112 122
89 115 125
76 104 121
101 125 134
93 118 128
99 123 141
95 119 120
97 122 128
93 119 126
107 132 127
100 125 121
86 113 110
92 119 126
105 129 122
92 116 119
88 114 130
82 109 114
134 138 103
129 126 77
93 117 146
77 106 140
86 113 152
70 102 139
76 107 125
68 100 122
72 104 129
68 99 126
68 100 127
60 93 120
62 94 131
58 91 122
58 91 126
59 92 113
64 96 114
61 94 107
60 93 114
64 96 115
60 91 100
100 121 62
130 151 44
61 92 97
56 88 110
55 88 103
57 90 108
56 89 105
55 88 107
57 91 107
57 90 113
57 90 110
57 90 104
58 91 110
57 89 110
57 90 97
56 89 110
56 89 102
57 91 113
57 90 107
57 91 107
59 93 126
57 90 108
57 91 110
58 92 105
58 91 117
58 92 111
58 91 103
57 90 114
56 89 104
59 93 121
56 88 107
57 91 111
56 89 103
58 92 114
53 85 103
57 90 107
58 92 115
57 90 110
58 91 113
58 92 111
54 86 98
55 87 92
58 92 118
58 92 121
57 90 103
56 89 103
57 90 105
58 91 115
57 91 114
57 90 111
57 91 103
56 90 102
56 89 113
54 87 94
58 92 111
58 91 117
57 90 108
57 90 111
57 91 103
57 90 114
57 91 103
56 89 97
55 88 100
54 86 100
56 89 113
56 89 107
56 88 103
56 88 99
55 88 105
50 81 72
56 89 103
64 89 82
84 103 62
94 107 0
95 109 0
108 123 0
116 132 0
103 119 0
96 109 0
107 124 0
115 129 0
109 125 0
127 144 0
107 121 0
116 134 0
118 134 0
119 137 0
114 126 0
113 129 0
117 132 0
111 128 0
115 132 0
114 130 0
124 141 0
115 131 0
114 132 0
122 139 0
125 141 0
130 146 0
119 137 0
110 127 0
139 158 0
122 140 0
116 133 0
126 145 0
130 147 0
142 158 0
123 139 0
129 147 0
126 144 0
142 159 0
132 149 0
135 153 0
134 152 0
126 143 0
134 150 0
128 146 0
139 157 0
135 154 0
137 154 0
136 153 0
135 152 0
143 162 0
140 157 0
145 162 0
134 152 0
131 149 0
140 157 0
136 152 0
137 157 0
134 151 0
146 164 0
143 161 0
143 159 0
143 160 0
142 160 0
139 158 0
144 162 0
140 160 0
147 166 0
137 155 0
140 157 0
139 156 0
149 166 0
144 162 0
144 163 0
154 173 0
148 166 0
145 162 0
138 155 0
148 167 0
148 167 0
148 165 0
144 162 0
144 164 0
140 159 0
153 171 0
148 166 0
146 166 0
142 158 0
149 166 0
148 165 0
152 169 0
145 163 0
147 164 0
147 166 0
151 170 0
161 182 0
146 161 0
147 165 0
147 164 0
148 164 0
152 171 0
151 169 0
147 166 0
149 168 0
152 172 0
158 176 0
153 171 0
155 171 0
154 172 0
151 168 0
152 170 0
148 165 0
157 176 0
162 178 0
147 165 0
159 179 0
159 177 0
151 169 0
159 176 0
157 175 0
156 175 0
155 174 0
158 177 0
155 174 0
164 182 0
156 175 0
157 176 0
161 181 0
160 179 0
161 180 0
158 175 0
161 181 0
158 178 0
158 177 0
158 177 0
163 183 0
155 173 0
157 179 0
162 179 0
158 178 0
154 171 0
158 177 0
159 178 0
153 174 0
164 184 0
160 180 0
162 182 0
161 180 0
161 181 0
165 184 0
159 179 0
159 177 0
165 186 0
167 186 0
158 178 0
165 184 0
165 185 0
164 184 0
162 183 0
163 184 0
161 179 0
159 178 0
158 177 0
164 184 0
165 184 0
165 184 0
160 179 0
163 183 0
162 182 0
160 179 0
161 181 0
164 184 0
160 181 0
162 182 0
163 183 0
164 184 0
167 188 0
159 179 0
169 188 0
171 195 84
170 194 80
167 192 67
169 193 84
171 194 67
171 195 76
170 194 67
169 193 76
173 197 88
169 193 80
170 194 72
166 191 67
168 193 51
170 193 67
165 188 51
169 193 67
165 189 76
173 197 84
172 195 95
172 196 95
167 190 76
171 195 95
167 191 67
169 193 108
166 190 88
171 194 92
168 193 95
172 195 95
175 198 108
170 194 95
171 194 92
168 192 102
174 197 102
174 196 122
172 195 111
170 193 92
169 191 92
169 193 92
171 194 95
165 189 67
170 193 88
166 190 84
171 195 108
168 191 111
164 188 99
167 191 84
167 190 84
166 189 92
171 194 99
164 186 88
167 190 95
166 190 95
165 187 95
166 188 117
161 184 102
169 191 92
157 180 80
167 191 108
161 184 105
169 191 117
172 196 114
157 180 99
161 183 111
163 187 102
164 187 99
157 180 88
162 185 99
154 177 88
165 187 102
166 190 105
163 185 117
157 179 95
163 186 105
156 177 88
156 178 108
153 175 102
166 187 102
147 168 84
146 167 80
152 173 102
163 186 102
151 171 99
151 172 95
158 180 105
145 166 67
150 172 99
151 172 88
144 165 67
153 175 92
140 160 67
144 164 102
153 174 120
148 169 88
140 160 80
138 158 80
138 159 72
136 155 72
142 162 84
127 147 57
131 151 88
134 153 72
113 135 103
86 111 94
80 107 78
92 117 125
89 113 105
88 114 112
84 110 121
81 108 108
87 112 110
94 119 126
98 123 132
92 117 122
90 115 118
88 113 121
107 130 125
87 114 113
98 123 119
78 106 113
89 115 120
92 118 125
87 113 133
108 131 121
100 124 123
112 136 110
107 129 114
96 120 121
90 116 115
106 123 122
140 137 81
113 120 97
72 103 137
70 101 137
64 97 133
57 91 125
70 102 122
64 98 135
69 100 117
61 95 120
66 98 110
60 93 124
71 99 128
57 90 117
59 93 121
66 96 99
63 95 118
59 91 111
58 90 99
57 88 95
85 109 84
126 145 40
88 113 89
57 90 115
57 90 99
55 88 105
56 89 107
56 89 97
55 87 90
54 86 100
57 90 108
55 88 100
55 87 109
55 88 107
55 88 103
57 90 117
57 89 107
56 89 103
57 90 115
57 90 113
58 91 117
57 91 120
56 88 105
58 92 117
56 90 107
56 89 102
55 88 110
57 91 124
55 88 95
54 87 105
55 87 100
56 88 111
56 89 103
56 89 102
57 90 111
58 91 108
58 92 115
56 89 108
55 88 102
56 88 100
57 91 107
55 87 94
56 88 105
59 92 118
56 88 95
58 91 105
56 89 97
57 90 105
57 91 103
55 87 99
55 88 107
57 90 111
56 89 114
56 88 105
56 88 100
55 87 102
55 88 97
56 88 110
55 87 92
54 87 99
55 88 99
56 88 113
56 89 100
54 85 86
54 86 90
54 86 84
54 86 99
56 88 102
53 85 95
53 84 90
85 105 74
98 113 18
96 112 0
106 119 0
100 115 0
96 112 0
101 115 0
103 120 0
104 117 0
98 112 0
97 112 0
113 129 0
120 133 0
108 125 0
116 130 0
119 134 0
118 134 0
106 121 0
109 125 0
114 129 0
98 113 0
119 137 0
109 126 0
123 139 0
123 141 0
121 137 0
117 133 0
123 139 0
126 141 0
126 144 0
118 136 0
129 147 0
122 138 0
128 144 0
132 148 0
125 142 0
128 144 0
135 152 0
124 143 0
131 150 0
124 141 0
126 145 0
134 151 0
126 145 0
132 148 0
128 147 0
133 151 0
146 166 0
125 143 0
139 157 0
137 156 0
130 149 0
130 148 0
144 163 0
144 162 0
143 161 0
144 165 0
153 171 0
143 161 0
141 160 0
143 161 0
139 157 0
144 164 0
138 155 0
137 156 0
141 159 0
152 171 0
140 157 0
140 158 0
148 166 0
151 172 0
146 164 0
138 155 0
141 157 0
148 167 0
142 160 0
144 159 0
146 164 0
154 171 0
143 162 0
142 161 0
149 168 0
153 173 0
150 168 0
141 158 0
150 166 0
148 165 0
149 166 0
144 162 0
151 168 0
147 165 0
153 172 0
150 169 0
151 167 0
156 177 0
150 168 0
151 167 0
146 164 0
142 159 0
152 170 0
154 171 0
155 174 0
146 164 0
152 168 0
150 167 0
154 172 0
155 172 0
154 175 0
150 167 0
150 169 0
156 175 0
154 171 0
159 179 0
160 179 0
152 170 0
164 182 0
153 172 0
157 177 0
157 176 0
156 175 0
158 177 0
149 167 0
158 175 0
152 170 0
151 171 0
152 172 0
157 173 0
157 176 0
155 173 0
156 174 0
155 172 0
158 178 0
155 174 0
161 181 0
161 181 0
163 182 0
156 174 0
158 177 0
156 174 0
162 180 0
162 181 0
155 173 0
160 180 0
164 182 0
162 181 0
160 178 0
161 181 0
161 181 0
164 185 0
161 179 0
159 175 0
164 183 0
157 176 0
162 182 0
162 182 0
162 183 0
164 184 0
164 183 0
164 184 0
165 185 0
159 177 0
162 183 0
163 181 0
165 185 0
160 179 0
164 183 0
164 184 0
162 181 0
164 185 0
163 184 0
166 188 0
168 187 0
159 177 0
165 184 0
164 184 0
168 191 0
165 185 0
165 186 0
163 181 0
161 179 0
167 184 0
171 196 57
170 194 84
165 189 57
172 195 80
169 193 76
168 191 62
168 192 62
169 193 67
168 192 51
168 192 62
169 193 67
166 190 72
167 191 62
168 192 76
173 196 88
173 196 88
169 193 88
170 194 95
167 190 80
168 191 80
167 191 84
166 189 62
169 193 72
167 191 88
167 191 80
173 196 108
168 191 95
173 196 95
167 191 88
164 189 80
171 194 108
171 195 111
170 194 108
175 198 111
171 193 95
167 190 88
169 192 99
169 192 76
164 187 84
163 186 88
170 194 92
167 190 95
164 188 105
168 192 105
171 195 111
165 188 111
164 188 108
163 187 88
164 187 95
162 186 99
163 186 102
164 186 105
167 190 84
158 182 95
159 181 76
168 190 92
169 192 105
159 182 102
170 193 99
170 193 113
161 184 99
158 181 62
169 191 114
168 190 80
158 180 84
160 183 102
168 190 105
166 188 105
164 187 95
167 190 105
162 186 88
155 177 88
164 186 99
152 174 95
158 180 108
160 182 105
155 178 111
153 175 92
154 177 88
155 178 67
154 175 99
153 175 76
153 174 105
161 182 95
154 175 102
155 176 108
149 170 86
155 176 105
146 168 72
155 177 92
141 161 92
137 158 92
141 161 84
141 161 76
146 166 80
140 160 80
128 148 62
133 153 62
135 155 57
135 154 84
135 154 92
128 147 76
100 122 94
91 116 110
88 113 108
83 109 115
89 114 108
95 120 124
105 129 120
90 114 119
98 122 117
92 117 117
96 121 140
91 116 128
90 115 112
103 126 127
97 122 129
101 124 122
94 119 125
91 118 120
100 124 120
95 119 115
96 121 118
96 122 112
87 114 113
107 131 127
88 115 135
86 110 122
88 112 127
139 136 78
131 126 42
89 105 112
76 106 147
60 95 131
68 101 129
65 98 122
74 105 131
64 97 127
69 101 131
71 102 122
62 95 122
69 99 120
61 93 113
65 95 105
60 92 110
67 97 108
62 93 104
64 94 99
61 92 96
77 103 74
123 142 18
100 124 76
54 87 97
56 89 103
56 88 100
56 88 103
57 90 104
57 90 105
54 86 94
56 89 110
57 91 109
56 89 120
56 89 103
55 87 100
57 90 109
56 89 103
56 89 103
59 92 124
58 92 110
54 86 102
59 92 115
56 89 105
57 91 115
54 86 93
57 90 107
59 92 108
58 92 121
56 89 100
58 92 120
56 89 108
57 90 100
57 90 114
57 90 113
56 89 105
56 89 97
57 91 107
56 89 105
56 88 103
57 90 103
55 88 97
53 85 86
56 89 105
55 88 97
58 91 110
55 88 107
57 90 108
56 89 115
55 88 102
56 90 106
56 89 100
57 90 99
56 88 108
54 86 92
54 86 105
55 88 103
55 86 99
55 87 94
56 89 97
54 86 103
54 86 92
54 86 102
56 88 105
53 85 86
53 85 92
53 84 95
50 81 74
51 81 76
72 96 74
84 100 40
101 117 0
94 108 0
106 119 0
108 123 0
106 123 0
102 117 0
103 118 0
100 117 0
97 111 0
113 129 0
109 123 0
105 120 0
104 118 0
114 130 0
117 132 0
112 130 0
114 130 0
114 129 0
113 132 0
110 126 0
128 145 0
123 139 0
117 134 0
125 143 0
106 123 0
122 140 0
122 140 0
112 128 0
128 144 0
140 156 0
118 135 0
133 149 0
135 152 0
128 143 0
129 145 0
129 146 0
133 151 0
126 143 0
128 145 0
136 155 0
136 152 0
129 146 0
124 140 0
138 156 0
128 145 0
133 152 0
131 148 0
128 144 0
126 143 0
133 151 0
130 144 0
128 145 0
140 158 0
132 151 0
129 145 0
136 154 0
144 163 0
137 155 0
129 147 0
135 151 0
134 150 0
140 158 0
137 154 0
146 163 0
141 158 0
133 152 0
141 159 0
147 165 0
135 151 0
141 157 0
144 163 0
140 157 0
137 156 0
140 160 0
146 165 0
151 169 0
148 167 0
144 161 0
149 168 0
140 158 0
150 169 0
149 168 0
149 168 0
155 172 0
146 163 0
153 170 0
145 163 0
145 162 0
152 171 0
147 167 0
155 173 0
149 166 0
151 168 0
143 161 0
152 170 0
151 169 0
152 172 0
151 169 0
153 169 0
157 176 0
153 171 0
150 168 0
154 174 0
153 172 0
145 162 0
151 169 0
150 167 0
151 170 0
153 171 0
158 177 0
155 173 0
163 184 0
157 176 0
149 167 0
157 175 0
158 175 0
158 177 0
152 170 0
154 172 0
156 176 0
154 173 0
156 174 0
157 176 0
161 180 0
158 179 0
159 177 0
152 171 0
155 173 0
152 169 0
154 173 0
154 172 0
161 180 0
162 183 0
158 177 0
158 177 0
157 176 0
161 178 0
157 176 0
157 176 0
162 181 0
165 183 0
163 181 0
157 176 0
156 174 0
158 177 0
157 174 0
164 186 0
161 181 0
161 178 0
159 179 0
154 173 0
160 180 0
162 182 0
164 183 0
165 183 0
163 182 0
165 184 0
167 187 0
163 184 0
163 182 0
161 178 0
166 187 0
162 182 0
162 182 0
161 180 0
161 181 0
161 183 0
168 189 0
164 183 0
167 188 0
163 185 0
162 184 0
160 180 0
166 188 0
167 188 0
165 186 0
166 186 0
166 186 0
163 184 0
164 183 0
162 182 0
168 192 62
171 195 84
170 195 117
169 193 92
171 195 84
169 193 80
172 197 92
165 190 62
168 191 62
168 191 72
168 192 62
165 188 80
169 192 72
173 197 84
171 194 99
172 195 72
170 195 88
166 190 62
167 191 76
171 194 88
171 195 111
168 190 88
171 195 99
174 197 99
166 189 88
176 198 108
173 196 76
173 195 80
164 187 72
169 193 120
172 195 102
171 194 62
171 194 99
164 187 88
168 191 117
172 194 88
176 200 125
170 192 102
168 192 92
169 192 102
168 191 117
174 197 108
165 188 105
169 193 111
166 189 92
156 179 88
165 188 88
172 195 111
170 193 117
166 189 95
166 189 102
164 186 57
167 191 105
162 185 114
168 191 105
159 183 76
170 192 102
166 190 102
164 187 95
161 184 99
157 179 78
162 185 99
166 189 95
161 183 80
160 183 95
160 182 62
162 184 102
159 182 95
162 185 105
158 181 67
155 178 92
165 187 95
159 181 108
155 177 95
164 186 114
165 187 111
159 181 114
157 178 80
156 177 105
152 174 84
160 182 105
153 174 92
144 165 80
152 173 84
150 172 102
152 173 76
155 176 84
154 176 105
145 167 84
142 163 80
142 162 88
151 172 84
137 157 67
134 153 72
151 172 95
151 171 95
140 159 67
144 165 80
136 156 84
133 153 80
128 148 62
120 138 62
139 157 94
112 133 97
94 119 120
86 111 95
89 113 102
87 111 103
98 123 126
83 109 105
99 122 124
98 122 110
90 115 118
91 116 129
93 119 130
98 122 110
104 126 115
93 118 110
91 117 121
100 124 133
97 122 125
94 118 115
104 128 130
102 128 123
106 131 115
104 128 127
99 123 105
84 112 112
91 117 134
117 120 82
128 126 64
122 121 82
74 97 114
67 99 122
66 99 135
74 103 122
65 97 124
63 95 115
67 99 118
65 96 113
67 99 124
73 103 113
59 92 115
61 91 113
62 92 118
60 92 114
61 94 102
62 93 102
55 88 103
69 95 71
111 131 36
110 133 65
57 90 97
56 88 100
57 90 102
53 85 94
54 86 107
55 88 97
56 88 108
56 89 97
57 90 116
56 89 106
55 87 108
56 88 99
57 90 115
57 90 111
57 91 104
56 89 107
57 90 107
58 91 113
57 89 108
57 89 110
54 86 90
54 86 99
55 88 99
55 88 100
55 87 97
57 91 111
57 90 114
56 89 111
57 90 109
55 87 102
57 89 110
56 89 105
57 90 108
56 89 103
57 90 107
56 89 111
55 87 95
56 89 103
57 90 99
55 87 94
54 86 101
56 89 111
51 82 92
57 90 103
55 88 111
55 88 92
53 85 88
57 91 114
56 89 102
56 89 97
53 85 94
56 88 97
55 88 99
54 86 99
55 88 97
55 88 95
55 87 97
55 88 95
55 87 105
52 83 80
54 86 94
53 85 88
51 81 76
65 91 86
87 103 47
92 107 0
98 112 0
110 126 0
98 113 0
84 100 0
100 115 0
94 109 0
106 120 0
99 116 0
106 123 0
112 129 0
114 131 0
100 117 0
112 129 0
115 130 0
112 127 0
113 129 0
101 116 0
115 130 0
121 139 0
123 139 0
105 120 0
128 147 0
123 141 0
125 141 0
121 136 0
121 139 0
135 154 0
120 137 0
132 149 0
126 143 0
122 139 0
122 140 0
132 150 0
128 147 0
127 144 0
129 147 0
124 140 0
130 148 0
125 141 0
126 144 0
130 146 0
129 146 0
143 160 0
137 157 0
134 151 0
137 155 0
140 158 0
135 152 0
133 152 0
128 146 0
134 153 0
134 151 0
131 149 0
129 148 0
132 150 0
144 161 0
141 159 0
137 154 0
138 157 0
124 141 0
136 154 0
149 167 0
149 168 0
140 155 0
134 151 0
148 167 0
131 148 0
137 154 0
140 160 0
152 172 0
147 166 0
140 159 0
147 164 0
152 169 0
140 157 0
139 157 0
152 170 0
147 165 0
147 163 0
143 163 0
153 174 0
146 164 0
142 160 0
142 157 0
147 166 0
146 164 0
143 161 0
144 162 0
145 163 0
158 175 0
152 173 0
150 167 0
147 164 0
155 174 0
148 167 0
151 169 0
149 167 0
151 169 0
156 177 0
150 169 0
150 168 0
147 166 0
156 173 0
149 166 0
149 168 0
147 167 0
160 178 0
154 171 0
155 173 0
157 176 0
147 165 0
149 168 0
156 176 0
151 169 0
158 177 0
158 178 0
158 178 0
161 178 0
152 169 0
159 178 0
152 172 0
161 179 0
158 177 0
154 173 0
161 180 0
159 175 0
160 180 0
160 180 0
163 182 0
166 186 0
162 180 0
155 175 0
155 175 0
157 175 0
154 174 0
153 173 0
159 178 0
154 171 0
160 180 0
160 178 0
153 172 0
160 180 0
157 177 0
159 177 0
161 182 0
161 181 0
167 187 0
164 184 0
162 183 0
162 180 0
160 179 0
165 186 0
159 177 0
157 176 0
162 182 0
160 177 0
160 179 0
165 184 0
164 183 0
158 180 0
165 185 0
167 187 0
160 179 0
163 184 0
163 183 0
163 185 0
165 185 0
167 187 0
165 185 0
164 184 0
160 179 0
167 187 0
167 186 0
166 188 0
169 191 0
165 186 0
160 181 0
165 186 0
164 185 0
166 187 0
162 183 0
167 186 0
171 195 76
172 197 92
168 193 80
168 192 67
172 196 88
168 192 67
166 190 62
167 192 76
172 196 62
170 195 80
172 197 80
169 192 62
165 188 72
170 194 62
171 195 88
172 195 84
170 194 80
166 189 84
170 195 99
172 195 105
174 197 105
173 196 114
172 195 117
172 196 114
175 198 95
169 192 105
173 196 99
166 190 88
169 193 105
178 200 105
170 193 108
171 195 102
171 193 88
165 189 92
166 190 95
171 194 95
167 191 92
172 194 95
169 192 92
170 194 108
169 192 99
163 187 92
166 189 80
165 190 84
164 187 102
169 192 95
164 188 117
162 186 102
168 190 95
159 182 111
165 188 92
167 190 108
160 182 76
171 195 95
164 187 92
167 189 102
157 180 86
162 185 100
162 186 122
157 179 107
163 186 110
161 184 105
167 190 105
152 176 57
161 184 76
162 185 114
159 182 92
155 177 84
157 179 88
162 186 108
166 188 102
163 186 102
155 177 95
158 179 92
160 182 122
154 176 84
159 180 95
161 183 95
156 177 88
165 185 117
153 174 92
156 177 108
147 167 88
151 172 99
153 175 105
150 170 105
161 183 108
143 163 99
156 177 102
152 172 84
145 166 84
145 165 99
139 159 100
150 171 88
135 155 80
141 161 88
136 155 62
133 152 76
138 158 57
139 158 84
130 148 84
131 150 51
121 138 76
121 140 88
93 115 84
87 112 108
86 110 94
88 112 97
89 112 112
92 116 102
89 113 108
98 123 125
95 120 124
96 119 120
98 121 112
89 115 117
91 117 114
95 120 117
89 115 120
103 126 133
98 123 114
87 112 119
96 121 122
107 131 124
100 125 108
102 126 117
95 120 108
88 114 119
96 121 122
113 132 103
137 141 62
117 115 52
123 130 68
76 105 117
74 104 122
59 93 115
67 99 117
61 95 133
70 101 121
62 96 135
72 103 115
64 96 115
72 100 111
65 95 118
60 90 105
66 97 120
62 93 97
62 94 103
61 91 91
59 89 86
114 134 40
120 143 65
58 90 99
55 88 95
57 90 112
56 88 99
55 88 94
55 88 96
56 89 111
54 86 90
56 89 106
55 88 97
55 88 94
55 87 88
56 88 97
56 88 99
55 88 97
55 87 97
57 89 108
57 90 117
55 88 105
56 89 99
56 88 100
57 90 115
57 90 116
57 90 111
56 88 103
56 89 103
58 91 113
55 87 100
56 90 103
55 88 94
55 88 108
54 86 94
55 87 108
56 88 100
56 88 99
59 93 122
56 89 103
54 85 94
56 89 102
57 89 105
54 86 94
55 87 97
55 88 99
57 89 102
55 87 95
57 90 99
55 88 92
55 87 108
56 89 97
55 87 82
54 85 92
56 89 102
54 86 95
53 85 97
55 87 105
54 85 94
51 81 94
51 82 88
52 82 86
55 88 100
56 88 99
66 90 60
91 107 47
88 103 0
105 119 0
106 122 0
103 119 0
106 119 0
95 110 0
102 116 0
99 114 0
118 132 0
104 120 0
107 123 0
113 130 0
116 132 0
103 119 0
108 125 0
114 130 0
110 126 0
115 131 0
116 132 0
109 127 0
115 132 0
125 142 0
124 141 0
116 132 0
113 128 0
130 146 0
131 147 0
123 139 0
122 141 0
129 145 0
121 136 0
126 142 0
117 135 0
133 151 0
127 145 0
125 143 0
128 146 0
140 158 0
123 142 0
128 145 0
134 151 0
137 154 0
132 149 0
125 142 0
134 152 0
134 152 0
128 145 0
138 154 0
140 157 0
129 146 0
124 143 0
129 148 0
138 156 0
144 163 0
138 156 0
135 153 0
138 158 0
133 150 0
144 163 0
140 158 0
132 150 0
133 152 0
148 167 0
135 153 0
147 168 0
147 165 0
146 164 0
146 164 0
132 152 0
135 153 0
143 163 0
143 162 0
147 165 0
142 161 0
146 164 0
142 161 0
151 170 0
149 168 0
146 164 0
136 153 0
146 165 0
150 168 0
151 170 0
150 168 0
139 156 0
148 167 0
146 164 0
145 164 0
156 174 0
146 164 0
154 175 0
149 166 0
145 165 0
154 174 0
151 171 0
151 170 0
155 173 0
157 177 0
159 178 0
153 170 0
153 173 0
153 171 0
159 178 0
154 172 0
157 176 0
151 169 0
152 171 0
154 172 0
154 173 0
154 174 0
151 169 0
158 175 0
149 167 0
158 178 0
154 173 0
145 163 0
158 177 0
157 175 0
159 179 0
145 162 0
157 178 0
163 184 0
147 165 0
157 177 0
146 164 0
161 180 0
163 182 0
160 179 0
156 174 0
161 179 0
158 178 0
158 178 0
162 181 0
161 181 0
162 181 0
158 178 0
162 182 0
160 180 0
158 177 0
157 177 0
158 175 0
158 177 0
158 176 0
162 183 0
152 170 0
165 185 0
163 182 0
160 178 0
163 183 0
160 178 0
161 182 0
165 186 0
162 183 0
157 175 0
166 185 0
163 182 0
159 178 0
162 183 0
160 179 0
158 179 0
162 183 0
160 179 0
164 185 0
162 183 0
164 184 0
162 182 0
163 183 0
162 182 0
159 177 0
163 182 0
162 182 0
159 179 0
161 179 0
164 185 0
157 177 0
157 177 0
167 187 0
165 185 0
163 182 0
164 185 0
166 187 0
168 188 0
168 190 0
163 184 0
164 184 0
170 194 62
172 195 72
172 196 80
173 197 76
167 191 67
166 190 57
171 195 76
169 192 76
166 191 72
172 196 92
169 192 76
168 192 57
171 194 62
171 196 92
168 191 76
165 188 84
168 192 95
169 193 88
170 193 88
174 196 92
172 195 102
172 196 108
171 195 99
169 193 105
173 196 88
172 195 111
170 193 84
166 189 99
175 199 122
172 195 108
173 195 99
168 192 99
168 191 84
168 192 95
166 189 108
163 186 72
163 185 88
168 190 114
164 188 92
167 191 102
170 194 108
168 191 95
161 185 99
167 191 105
169 192 125
170 194 99
165 189 95
165 188 105
169 192 102
167 190 105
171 194 105
163 186 95
166 189 88
168 190 114
168 191 99
165 188 92
169 191 97
157 179 84
162 185 84
160 182 97
165 188 110
167 189 99
165 188 86
162 186 95
158 180 95
162 185 92
163 185 117
156 179 88
159 182 111
168 191 92
161 183 111
153 175 76
146 167 88
157 179 95
158 180 102
160 183 108
164 187 102
151 174 72
155 176 95
153 174 76
155 176 92
155 177 99
156 178 117
145 165 72
151 171 108
157 180 105
147 166 99
148 168 100
151 171 88
156 176 111
142 163 92
147 167 84
141 161 88
136 156 76
140 160 88
140 159 99
139 159 88
133 152 76
146 166 92
136 154 80
133 152 88
139 159 72
140 159 76
131 150 92
131 148 76
106 125 60
78 104 92
91 115 108
84 108 108
83 109 99
98 121 99
93 118 120
84 110 124
90 116 107
104 127 139
91 116 118
90 115 124
95 119 127
90 114 110
101 125 114
97 121 115
105 128 121
99 125 130
100 124 108
101 125 125
108 131 124
106 127 110
103 127 105
91 118 118
111 133 105
169 189 40
165 178 60
148 160 36
119 126 72
67 100 111
62 94 120
64 96 117
62 96 126
60 92 100
68 100 115
63 95 118
66 98 126
63 93 97
69 99 115
60 89 106
65 96 113
55 88 108
61 93 100
65 93 80
62 90 78
95 113 0
117 138 47
77 105 88
53 85 92
55 88 99
54 86 98
56 89 105
52 83 90
54 86 108
52 83 80
55 87 103
56 89 94
55 87 100
53 85 93
58 91 108
53 84 83
55 87 101
56 89 103
53 85 90
58 92 113
56 89 94
54 87 92
55 88 97
57 90 108
53 85 90
56 88 100
57 91 107
54 87 94
55 87 95
54 86 92
58 92 118
58 91 117
57 90 102
55 88 97
56 89 100
56 88 111
57 90 105
55 87 94
56 89 113
57 90 105
55 88 110
57 90 107
55 87 108
54 86 99
56 88 100
53 85 94
57 90 105
55 87 88
52 83 84
55 87 100
55 87 103
54 86 92
54 86 88
54 86 92
55 87 97
52 84 88
54 86 92
55 87 99
54 85 92
53 84 90
52 82 88
71 93 72
80 98 44
95 110 0
90 104 0
105 121 0
104 119 0
100 114 0
93 107 0
106 122 0
98 112 0
98 113 0
103 119 0
99 113 0
107 122 0
103 119 0
115 129 0
118 134 0
106 124 0
123 139 0
119 137 0
117 132 0
115 131 0
122 138 0
111 127 0
130 147 0
120 137 0
111 128 0
124 141 0
124 140 0
119 136 0
120 137 0
125 143 0
127 145 0
130 146 0
132 151 0
126 143 0
118 136 0
119 137 0
129 145 0
124 143 0
123 139 0
131 150 0
137 156 0
132 148 0
129 148 0
127 143 0
134 153 0
143 162 0
127 146 0
133 151 0
149 170 0
135 151 0
136 154 0
136 154 0
138 155 0
131 149 0
143 161 0
138 156 0
143 160 0
138 154 0
138 156 0
149 168 0
143 163 0
138 157 0
136 155 0
144 163 0
136 155 0
134 152 0
136 154 0
148 167 0
144 163 0
135 154 0
142 162 0
148 166 0
145 161 0
139 158 0
145 166 0
137 154 0
142 160 0
148 167 0
145 164 0
144 162 0
145 163 0
143 159 0
140 159 0
155 176 0
148 168 0
145 162 0
147 166 0
152 170 0
145 163 0
150 170 0
149 168 0
141 160 0
153 172 0
145 166 0
153 172 0
147 166 0
151 168 0
151 171 0
152 169 0
152 172 0
155 173 0
153 170 0
153 173 0
153 171 0
150 170 0
155 174 0
154 173 0
150 169 0
151 171 0
146 162 0
146 163 0
149 169 0
149 170 0
154 173 0
155 174 0
152 173 0
160 179 0
153 173 0
157 176 0
157 176 0
156 175 0
157 175 0
154 173 0
159 177 0
158 177 0
152 170 0
159 180 0
153 172 0
158 178 0
158 176 0
157 177 0
159 179 0
155 173 0
155 173 0
159 179 0
159 178 0
161 180 0
156 175 0
156 174 0
162 182 0
161 179 0
156 173 0
161 183 0
159 178 0
165 186 0
157 178 0
163 183 0
161 180 0
155 173 0
163 182 0
159 177 0
157 175 0
161 181 0
162 181 0
165 184 0
161 181 0
162 182 0
162 180 0
159 177 0
162 182 0
166 186 0
159 180 0
164 182 0
163 185 0
159 178 0
166 187 0
163 182 0
166 186 0
163 185 0
161 182 0
165 183 0
162 183 0
164 183 0
156 177 0
164 185 0
168 187 0
165 185 0
160 180 0
165 187 0
169 189 0
168 189 0
167 186 0
164 184 0
163 183 0
163 185 0
168 188 0
169 190 0
166 190 51
172 196 80
169 194 76
168 193 76
174 198 92
168 192 67
170 193 57
171 195 92
173 197 92
173 197 84
166 189 67
163 186 67
170 194 84
170 194 88
168 190 72
171 194 84
175 199 117
173 197 117
176 199 111
171 194 95
170 193 80
166 190 76
173 196 88
173 195 117
171 195 105
166 188 92
171 195 95
175 198 117
168 191 92
175 198 114
175 198 108
172 195 114
168 192 80
169 194 108
170 194 92
166 189 105
170 193 105
165 190 99
171 194 102
169 191 92
170 194 99
170 194 105
173 196 108
164 188 95
169 193 105
165 188 84
167 190 114
163 186 99
166 189 88
168 190 105
167 190 99
162 185 122
159 181 88
165 188 102
165 189 110
164 187 105
155 178 57
167 191 105
166 189 110
161 184 102
157 180 84
169 193 84
170 193 117
152 175 88
163 186 102
162 184 67
157 178 92
162 185 108
157 179 105
157 179 92
163 185 117
163 185 108
157 180 80
155 177 88
155 178 99
157 179 111
149 170 92
147 170 80
160 182 99
144 165 84
157 179 88
156 178 102
138 158 95
147 169 92
149 170 105
153 174 88
152 172 99
159 179 125
156 177 111
150 171 80
146 166 102
145 166 99
149 170 102
137 157 95
144 164 76
145 165 95
144 163 88
136 155 102
130 149 80
142 161 92
134 154 62
125 144 72
134 152 72
134 152 80
119 138 51
119 137 57
117 137 108
87 110 102
87 112 111
92 115 113
95 119 111
88 113 99
97 120 118
87 112 111
89 114 115
92 116 109
96 119 115
93 118 115
99 124 125
88 114 110
113 136 131
101 125 115
100 124 110
102 125 114
87 114 98
107 131 113
101 126 113
101 126 105
83 110 110
98 123 114
160 181 72
161 176 67
148 160 44
140 148 18
94 112 102
63 96 122
72 102 127
67 100 133
62 94 113
61 93 111
67 99 115
60 93 102
71 100 107
62 93 117
58 88 94
70 99 103
63 94 95
56 87 95
60 90 86
61 92 82
93 113 25
109 130 36
84 109 90
55 87 92
56 88 94
54 85 94
54 86 90
52 83 92
54 86 95
55 87 96
55 87 107
57 90 110
56 88 97
53 85 94
55 88 104
54 86 92
57 91 107
54 86 103
56 89 100
54 86 97
58 91 110
53 85 98
55 87 91
53 84 88
57 90 113
51 82 72
54 87 92
56 89 95
55 87 92
53 84 90
54 86 82
54 87 94
56 88 80
55 88 102
55 88 107
54 86 94
55 87 105
55 88 97
56 88 97
53 85 86
54 87 97
56 89 110
55 87 94
55 87 95
54 86 84
53 84 84
55 87 102
55 87 110
55 87 90
57 89 95
53 85 95
55 87 95
55 87 82
55 87 99
53 84 88
52 82 86
54 85 92
50 81 76
53 81 84
70 90 44
95 111 18
99 113 0
97 111 0
97 111 0
93 106 0
86 101 0
103 119 0
86 102 0
96 112 0
116 131 0
108 123 0
113 128 0
99 115 0
103 120 0
112 129 0
112 127 0
111 126 0
110 125 0
118 135 0
116 133 0
114 132 0
116 133 0
115 131 0
114 131 0
114 131 0
126 141 0
106 125 0
130 146 0
118 134 0
122 138 0
126 143 0
120 137 0
121 137 0
126 141 0
125 143 0
129 145 0
123 141 0
126 143 0
127 144 0
128 145 0
130 148 0
136 154 0
129 149 0
138 157 0
126 144 0
119 137 0
130 149 0
136 153 0
125 144 0
140 157 0
132 151 0
134 152 0
126 146 0
137 155 0
138 155 0
143 162 0
140 160 0
138 156 0
143 161 0
141 159 0
143 160 0
140 159 0
146 165 0
140 159 0
139 158 0
136 155 0
141 159 0
146 165 0
138 156 0
138 157 0
135 153 0
148 166 0
135 155 0
143 161 0
146 164 0
145 164 0
141 162 0
140 158 0
132 151 0
146 164 0
150 168 0
149 169 0
145 163 0
146 163 0
149 170 0
149 167 0
149 167 0
146 165 0
143 161 0
144 162 0
149 167 0
151 171 0
152 169 0
156 175 0
150 168 0
151 170 0
136 152 0
160 179 0
149 168 0
153 172 0
152 170 0
153 171 0
157 174 0
149 165 0
154 172 0
157 177 0
158 178 0
148 164 0
152 171 0
150 169 0
154 171 0
160 179 0
152 172 0
154 171 0
153 174 0
151 172 0
154 172 0
158 177 0
158 177 0
153 171 0
151 171 0
160 177 0
154 172 0
155 174 0
153 170 0
156 174 0
163 182 0
160 180 0
162 181 0
157 177 0
157 176 0
162 182 0
164 184 0
159 177 0
152 171 0
159 179 0
158 177 0
156 176 0
163 185 0
157 177 0
162 182 0
159 178 0
161 181 0
155 174 0
162 184 0
162 182 0
160 181 0
158 177 0
162 181 0
165 184 0
160 179 0
163 183 0
167 188 0
160 179 0
159 179 0
159 178 0
160 180 0
159 178 0
163 183 0
160 180 0
163 182 0
160 179 0
161 181 0
167 187 0
160 179 0
161 181 0
165 184 0
163 183 0
165 184 0
164 185 0
162 182 0
165 187 0
162 184 0
163 184 0
158 178 0
169 190 0
164 182 0
168 188 0
167 189 0
164 185 0
166 188 0
166 187 0
159 179 0
163 183 0
162 183 0
164 185 0
164 183 0
164 184 0
166 187 0
165 186 0
171 194 72
168 192 72
171 195 67
170 194 76
170 193 67
170 195 84
177 200 108
172 196 80
167 190 76
171 196 95
169 192 88
172 195 67
172 195 99
174 196 99
170 193 72
174 197 99
172 195 92
170 193 102
169 192 99
175 198 95
169 192 80
170 193 92
166 189 84
167 190 72
175 198 117
166 190 80
166 190 111
171 194 114
172 195 122
170 193 117
170 192 117
171 195 108
163 186 84
167 190 80
165 188 95
167 190 92
165 188 88
161 185 84
168 191 99
172 195 84
170 193 105
169 193 105
160 185 84
169 192 99
164 187 84
166 189 84
166 190 92
162 186 95
168 190 92
159 182 84
164 187 105
163 186 124
156 179 92
171 195 105
159 182 95
163 186 111
163 186 92
166 189 84
162 184 114
165 188 92
158 180 84
162 184 115
157 180 95
157 180 111
160 183 99
159 181 114
166 189 99
156 179 90
159 182 72
152 174 108
155 177 105
160 183 84
161 183 92
163 185 111
153 176 95
158 180 92
151 174 76
155 178 92
151 173 92
148 170 102
159 181 102
154 175 108
153 175 80
157 179 108
152 172 99
145 166 80
160 182 120
141 162 84
142 162 88
151 171 111
147 165 92
154 174 102
149 169 88
147 167 105
158 177 114
135 154 80
140 160 76
145 164 99
131 150 84
132 150 92
143 162 88
134 154 72
128 147 57
131 148 76
127 145 72
135 154 84
123 141 76
106 126 74
99 122 103
93 117 103
93 116 107
94 118 113
102 125 118
104 125 114
82 108 104
97 122 122
101 124 115
96 119 114
98 122 111
89 114 102
93 118 117
99 123 129
104 128 115
98 123 112
100 125 112
100 125 117
90 115 113
103 126 100
105 129 110
104 127 111
154 174 67
162 178 47
152 160 18
141 150 25
136 143 18
85 110 111
69 101 121
66 97 113
68 99 118
68 99 105
65 97 115
67 97 114
66 97 122
66 97 107
66 95 95
60 92 92
66 95 84
59 89 94
58 88 92
60 91 86
112 130 25
120 140 40
93 117 70
55 87 99
52 84 86
51 81 82
54 86 92
54 85 95
54 86 97
55 88 90
54 86 80
54 86 90
54 86 97
54 86 88
54 86 97
54 86 95
55 88 92
55 88 107
53 85 78
55 87 102
55 88 108
54 86 92
55 87 88
55 86 94
55 88 76
53 84 82
55 88 99
52 83 86
55 87 97
54 85 99
54 86 80
56 89 95
55 89 94
52 83 74
53 85 88
56 88 93
55 87 86
54 86 86
58 91 105
53 85 78
55 87 97
55 87 103
51 81 82
54 86 95
54 86 94
55 87 99
52 83 84
54 85 103
55 87 102
52 83 94
55 87 95
52 83 92
55 86 100
53 83 80
51 82 82
49 78 82
60 86 76
79 98 31
93 107 18
80 93 0
89 103 0
94 110 0
100 116 0
87 103 0
99 114 0
102 117 0
104 120 0
106 122 0
97 112 0
104 120 0
103 120 0
106 123 0
113 128 0
100 115 0
108 123 0
110 126 0
114 129 0
104 121 0
113 130 0
114 130 0
106 121 0
115 133 0
117 134 0
115 132 0
119 135 0
125 142 0
124 141 0
121 138 0
118 136 0
127 145 0
127 143 0
113 132 0
121 140 0
116 134 0
123 139 0
125 142 0
121 141 0
136 153 0
129 147 0
126 143 0
127 144 0
133 152 0
136 153 0
131 150 0
127 144 0
122 137 0
136 155 0
127 145 0
131 150 0
132 149 0
132 151 0
129 148 0
134 152 0
125 142 0
130 147 0
143 162 0
145 165 0
133 151 0
139 158 0
143 164 0
140 158 0
141 159 0
145 164 0
146 165 0
143 162 0
130 147 0
136 155 0
137 156 0
137 156 0
147 166 0
132 149 0
136 154 0
140 159 0
134 151 0
140 158 0
144 164 0
144 161 0
139 158 0
137 156 0
155 174 0
148 167 0
147 166 0
142 161 0
148 167 0
138 157 0
146 164 0
149 166 0
155 174 0
147 164 0
148 166 0
146 164 0
151 171 0
152 172 0
150 169 0
154 173 0
152 169 0
148 167 0
146 165 0
144 162 0
149 169 0
158 176 0
148 165 0
152 171 0
143 163 0
152 171 0
147 166 0
160 179 0
152 170 0
158 178 0
152 170 0
150 168 0
153 173 0
152 172 0
151 170 0
147 166 0
152 172 0
155 174 0
150 167 0
159 177 0
152 170 0
158 178 0
163 184 0
157 175 0
156 175 0
150 169 0
157 178 0
157 173 0
153 171 0
157 176 0
156 177 0
158 177 0
164 186 0
156 175 0
155 176 0
163 181 0
162 183 0
158 180 0
159 179 0
153 172 0
151 170 0
151 169 0
154 173 0
160 180 0
166 185 0
157 175 0
163 185 0
162 181 0
162 183 0
162 181 0
153 171 0
159 180 0
162 183 0
162 181 0
162 182 0
158 177 0
157 175 0
165 184 0
166 187 0
162 182 0
167 187 0
155 174 0
164 183 0
161 183 0
157 177 0
163 182 0
163 181 0
163 183 0
158 178 0
159 180 0
164 183 0
163 183 0
160 181 0
156 177 0
165 184 0
165 186 0
161 178 0
163 184 0
165 185 0
167 187 0
163 184 0
163 184 0
168 190 0
162 182 0
167 188 0
163 184 0
165 186 0
167 187 0
168 189 0
162 182 0
168 187 0
171 195 80
168 192 80
171 196 67
170 195 80
170 194 92
172 195 76
170 194 95
173 197 105
173 198 92
173 197 92
167 191 84
173 196 95
172 195 102
176 198 114
169 193 99
172 196 88
171 194 80
169 193 95
168 191 84
172 195 84
172 196 95
171 195 99
174 195 111
177 200 111
169 193 102
168 191 102
174 197 120
169 192 99
168 191 92
174 197 111
173 195 105
164 187 84
169 192 95
171 194 84
170 193 80
165 189 88
174 196 122
170 193 105
169 193 108
168 191 105
164 188 108
168 191 99
169 192 99
168 190 92
168 191 111
166 189 114
171 194 108
161 183 95
169 192 95
168 191 111
163 186 99
162 184 92
173 197 121
163 186 108
161 184 95
164 188 115
169 193 107
156 178 105
162 186 70
171 195 122
166 188 102
158 180 88
165 187 102
164 187 113
163 186 120
162 183 92
160 183 100
164 186 111
168 190 107
163 186 105
158 180 84
156 178 99
160 182 95
165 186 122
156 180 76
156 177 95
159 180 88
151 173 95
154 175 105
148 168 99
157 179 117
153 173 84
156 176 111
148 169 88
157 177 125
153 174 99
152 173 108
149 169 95
155 175 99
152 173 111
146 166 84
146 166 92
133 153 76
142 162 92
136 155 76
138 159 102
137 157 80
139 159 95
135 154 95
136 155 102
139 159 92
148 167 88
136 154 95
136 154 99
128 146 67
130 149 80
121 139 67
125 141 67
101 119 40
81 104 94
101 123 123
87 110 110
93 116 92
98 121 110
93 116 113
89 113 86
88 112 113
92 116 115
85 111 121
90 115 116
101 125 120
95 120 110
92 118 118
94 119 92
96 122 111
94 121 117
94 119 113
110 132 108
98 123 100
84 110 97
132 151 94
161 178 57
152 164 25
147 156 18
130 133 18
135 146 31
72 101 105
62 94 115
65 98 122
60 93 126
70 101 110
65 96 113
60 92 105
64 94 113
71 99 100
69 97 99
62 93 84
69 99 105
62 92 93
55 86 80
115 133 36
108 127 18
110 132 54
54 86 82
52 84 78
54 85 76
53 85 81
52 82 80
51 82 77
53 83 94
52 84 92
55 86 97
55 87 99
54 86 92
56 88 97
56 88 97
54 87 88
52 83 71
54 86 74
54 86 90
55 87 102
53 85 86
53 84 92
52 83 86
54 86 90
56 89 105
56 88 100
53 85 100
55 87 99
55 87 100
54 86 94
54 85 92
54 86 100
56 89 103
54 87 95
55 88 94
53 84 82
54 85 84
56 88 107
53 85 82
53 85 86
55 87 90
51 82 83
54 85 97
53 84 88
57 89 113
52 83 94
52 83 88
52 84 88
48 78 62
55 87 92
54 86 95
50 79 74
56 81 62
72 93 57
66 83 31
69 82 0
104 118 0
85 100 0
91 107 0
87 102 0
96 111 0
95 108 0
89 105 0
94 108 0
107 122 0
96 112 0
101 116 0
105 121 0
113 129 0
111 127 0
114 130 0
110 126 0
101 117 0
112 128 0
112 129 0
111 128 0
112 128 0
118 136 0
116 134 0
116 133 0
110 126 0
117 135 0
113 130 0
129 145 0
122 140 0
125 143 0
120 136 0
125 142 0
118 137 0
116 133 0
109 125 0
130 148 0
122 139 0
136 154 0
134 153 0
134 150 0
122 138 0
128 146 0
122 140 0
128 146 0
129 148 0
127 143 0
131 150 0
137 155 0
138 156 0
130 149 0
137 156 0
134 151 0
134 155 0
148 169 0
136 155 0
131 149 0
135 154 0
134 152 0
136 153 0
134 152 0
142 162 0
135 155 0
128 146 0
134 152 0
136 157 0
145 161 0
141 158 0
139 159 0
137 155 0
144 163 0
128 145 0
145 164 0
143 162 0
150 170 0
143 161 0
145 166 0
145 163 0
150 168 0
145 164 0
144 163 0
147 166 0
151 171 0
157 176 0
139 158 0
147 166 0
145 164 0
149 167 0
145 165 0
155 173 0
152 172 0
152 171 0
152 173 0
147 163 0
148 167 0
154 173 0
152 170 0
149 168 0
154 173 0
154 171 0
154 174 0
157 176 0
145 162 0
147 166 0
154 171 0
148 167 0
156 175 0
152 171 0
155 174 0
150 169 0
151 170 0
151 168 0
159 178 0
151 169 0
157 178 0
152 172 0
154 172 0
159 177 0
154 174 0
153 172 0
151 171 0
154 175 0
157 176 0
150 169 0
155 174 0
158 178 0
154 172 0
162 182 0
152 172 0
154 174 0
156 174 0
160 182 0
155 174 0
159 180 0
160 180 0
161 181 0
165 186 0
163 183 0
158 177 0
156 176 0
157 178 0
167 187 0
162 181 0
161 180 0
160 181 0
161 181 0
159 177 0
157 176 0
161 180 0
161 181 0
163 182 0
165 185 0
165 183 0
159 177 0
162 182 0
162 182 0
160 180 0
160 181 0
162 182 0
153 171 0
160 180 0
160 180 0
160 179 0
156 176 0
164 184 0
163 183 0
159 179 0
160 179 0
159 179 0
165 185 0
162 184 0
167 189 0
159 179 0
159 179 0
164 183 0
164 184 0
163 184 0
155 176 0
167 187 0
163 185 0
167 187 0
162 184 0
165 186 0
161 182 0
159 180 0
169 191 0
168 188 0
166 187 0
166 187 0
167 187 0
168 189 0
165 185 0
163 183 0
162 184 0
171 196 67
169 193 51
170 193 88
171 195 76
174 197 67
171 194 76
170 193 80
174 198 84
171 195 92
174 197 95
172 196 120
172 195 88
175 198 108
175 197 99
173 196 92
173 196 99
172 195 99
170 193 99
173 197 117
169 193 95
167 191 95
175 198 111
171 194 108
175 199 108
169 192 88
172 195 108
173 195 108
173 196 99
167 191 88
171 195 95
167 191 92
170 193 95
171 194 102
171 194 99
168 191 88
167 190 108
168 192 105
170 194 92
166 190 95
164 188 105
171 194 117
171 194 108
166 190 108
170 194 84
168 191 92
163 187 95
166 188 95
160 183 80
173 195 111
171 194 114
173 195 108
165 187 108
162 185 92
168 192 105
166 189 95
165 188 92
166 189 102
165 188 82
164 186 115
154 177 82
158 181 99
166 189 110
152 175 84
161 184 95
160 183 88
163 185 105
157 180 95
156 178 110
157 180 95
167 189 105
155 176 99
163 186 108
159 182 105
159 181 111
160 183 95
159 181 80
166 188 105
165 186 108
153 174 76
155 178 102
155 176 105
155 177 88
166 187 99
148 169 88
154 175 99
160 181 95
151 172 99
153 173 99
150 172 84
159 179 105
148 168 92
147 168 95
142 162 84
146 165 88
145 165 102
146 166 88
147 166 102
138 158 84
147 167 99
139 157 105
133 152 84
131 149 76
136 154 80
125 143 72
119 138 62
122 141 67
131 148 92
127 144 88
122 140 88
110 127 70
98 119 100
95 118 110
99 121 122
91 115 105
72 100 113
87 111 97
90 115 110
90 114 114
86 111 100
94 118 107
103 126 118
91 114 107
90 115 114
95 120 97
101 126 107
100 125 94
91 116 91
98 123 107
102 125 120
97 122 100
116 135 94
159 174 40
152 165 25
139 151 31
139 149 25
128 139 25
121 135 51
65 96 118
64 95 97
59 91 108
73 101 107
60 91 103
58 89 100
69 98 110
69 99 114
68 98 95
64 94 95
74 101 81
59 89 84
62 91 70
102 119 25
108 126 31
133 155 47
54 83 85
52 84 78
50 80 70
49 79 81
50 81 60
52 84 80
53 85 88
50 80 66
52 83 80
54 86 90
53 84 92
53 85 88
56 88 97
54 86 84
55 87 100
56 89 88
55 88 94
54 86 100
55 87 97
54 86 102
53 85 84
55 86 88
53 85 82
55 87 90
52 83 97
55 86 99
55 87 94
55 88 95
52 84 86
53 84 94
54 85 88
53 85 99
54 86 95
54 86 86
55 87 84
51 81 70
55 87 94
54 85 88
54 86 88
53 85 92
52 83 88
53 85 88
53 84 84
54 85 103
51 82 88
53 84 82
48 78 72
64 89 67
78 99 62
82 99 31
77 92 0
94 108 0
96 109 0
98 113 0
100 114 0
90 105 0
106 123 0
99 115 0
102 117 0
98 115 0
118 134 0
92 106 0
104 119 0
97 112 0
89 105 0
91 106 0
106 124 0
93 109 0
114 131 0
111 128 0
118 136 0
102 120 0
113 128 0
108 123 0
111 127 0
114 131 0
116 131 0
116 134 0
113 130 0
130 148 0
121 138 0
114 130 0
127 145 0
115 132 0
108 126 0
116 135 0
136 154 0
128 143 0
123 140 0
117 134 0
118 136 0
122 141 0
130 147 0
129 145 0
122 138 0
137 157 0
130 147 0
126 144 0
139 159 0
139 158 0
132 150 0
131 149 0
139 157 0
140 158 0
138 156 0
132 151 0
135 154 0
132 151 0
128 148 0
136 155 0
139 158 0
137 156 0
140 159 0
139 156 0
136 157 0
139 157 0
137 154 0
145 165 0
142 162 0
141 161 0
135 156 0
146 167 0
141 160 0
141 160 0
151 171 0
144 163 0
140 159 0
139 159 0
137 156 0
147 166 0
136 155 0
138 158 0
147 163 0
148 168 0
140 157 0
142 162 0
149 167 0
150 170 0
138 154 0
140 157 0
151 169 0
153 174 0
151 170 0
158 177 0
145 165 0
153 173 0
147 165 0
146 164 0
150 168 0
144 162 0
153 173 0
145 164 0
151 168 0
157 179 0
153 173 0
154 173 0
151 170 0
149 168 0
152 172 0
151 170 0
149 169 0
154 171 0
152 172 0
154 173 0
150 170 0
152 173 0
151 169 0
158 178 0
157 178 0
159 178 0
159 179 0
163 183 0
157 177 0
157 176 0
157 175 0
158 178 0
158 178 0
153 172 0
155 174 0
145 164 0
152 170 0
159 177 0
161 180 0
157 175 0
155 174 0
161 179 0
159 178 0
158 178 0
157 176 0
158 180 0
157 177 0
158 175 0
159 178 0
164 184 0
161 181 0
156 176 0
155 175 0
159 179 0
164 184 0
156 175 0
158 178 0
161 181 0
161 183 0
160 179 0
158 178 0
165 185 0
164 185 0
160 180 0
162 183 0
161 182 0
165 186 0
159 179 0
163 182 0
156 178 0
164 186 0
157 178 0
163 182 0
163 184 0
160 180 0
165 185 0
159 180 0
164 186 0
157 176 0
167 188 0
163 183 0
165 186 0
168 188 0
162 182 0
164 184 0
168 189 0
163 183 0
161 182 0
168 189 0
160 181 0
160 179 0
166 187 0
164 184 0
169 188 0
168 188 0
167 189 0
163 185 0
163 184 0
167 188 0
167 187 0
169 190 0
161 184 0
165 185 0
170 195 72
171 194 62
171 195 92
170 194 76
173 196 76
172 196 80
169 193 92
172 195 76
168 193 95
170 193 102
171 193 99
172 194 95
176 199 102
170 194 92
170 193 105
171 195 92
173 197 108
169 192 99
171 194 102
173 197 102
173 196 99
170 193 105
165 188 76
172 195 76
171 194 102
171 194 84
174 198 95
166 190 88
167 190 92
172 196 114
172 195 92
165 189 95
167 190 84
166 190 84
172 196 92
163 186 102
168 192 102
169 193 95
170 193 95
167 190 76
167 190 99
165 188 80
169 192 117
166 190 88
167 190 95
168 191 111
169 193 72
167 190 105
164 187 102
164 188 88
158 181 90
165 188 100
156 179 94
166 190 84
165 189 99
167 190 99
171 193 120
164 187 97
169 193 102
158 182 92
159 183 84
162 185 88
160 184 76
162 184 99
167 190 111
158 181 95
164 186 100
157 179 95
163 186 99
160 183 88
159 181 102
156 178 92
164 186 88
159 181 88
160 182 122
159 181 92
158 179 84
160 182 105
148 170 72
158 179 102
153 174 84
157 178 117
159 181 92
152 173 92
161 181 88
138 159 67
162 184 122
149 170 84
145 165 95
153 173 95
145 166 99
146 166 84
143 163 88
149 168 114
140 159 67
146 165 95
148 167 114
141 160 80
138 158 88
140 158 88
141 160 84
137 155 88
144 162 102
140 158 88
133 151 95
135 153 88
137 155 80
127 144 72
135 152 80
114 130 67
99 114 70
99 119 97
95 118 86
85 108 82
90 114 105
83 107 94
91 114 115
107 128 118
98 119 118
84 110 105
93 116 115
89 114 114
97 122 94
89 115 103
86 113 102
90 114 90
95 120 99
104 126 120
77 102 80
108 130 115
108 130 110
161 176 0
152 166 31
152 161 0
144 152 25
139 150 31
138 152 0
101 120 54
62 93 108
66 96 115
69 99 111
60 91 108
60 92 105
64 94 100
66 96 100
66 96 100
72 101 88
63 90 82
69 97 82
63 89 67
102 120 0
113 131 25
121 142 31
62 90 88
52 83 81
53 85 80
55 87 86
53 84 84
51 81 74
52 83 76
51 81 74
51 82 88
51 82 89
53 84 92
52 83 78
53 85 80
53 85 86
52 83 84
54 86 95
50 81 84
52 84 82
55 88 90
54 85 90
50 80 70
53 85 84
52 84 86
51 82 84
54 85 94
53 85 88
53 85 88
53 85 88
52 83 79
54 85 90
52 83 80
55 87 92
55 87 97
53 84 97
52 84 78
54 86 94
50 80 72
52 83 80
52 83 86
54 85 88
50 80 76
52 84 76
50 81 78
56 84 76
68 90 51
77 94 40
87 103 25
90 105 0
93 108 0
89 103 0
89 104 0
95 109 0
89 105 0
96 110 0
94 108 0
81 95 0
95 110 0
87 102 0
102 117 0
98 113 0
98 114 0
88 104 0
101 117 0
106 122 0
99 114 0
116 132 0
114 130 0
114 132 0
105 121 0
105 120 0
110 128 0
121 139 0
112 127 0
116 133 0
121 138 0
119 137 0
120 136 0
130 148 0
114 129 0
114 132 0
109 125 0
108 126 0
127 144 0
121 139 0
124 143 0
125 142 0
120 137 0
113 130 0
120 136 0
129 147 0
129 146 0
133 151 0
119 138 0
125 142 0
121 139 0
124 141 0
128 147 0
129 146 0
132 151 0
126 145 0
139 156 0
130 149 0
136 156 0
132 150 0
139 157 0
141 160 0
119 137 0
133 150 0
132 151 0
136 156 0
149 169 0
135 152 0
129 147 0
137 156 0
148 167 0
145 163 0
139 157 0
145 165 0
132 152 0
144 164 0
142 161 0
140 158 0
144 163 0
147 166 0
142 159 0
149 171 0
142 163 0
149 168 0
143 161 0
142 160 0
140 157 0
145 165 0
138 155 0
142 163 0
135 155 0
152 171 0
142 162 0
151 171 0
142 161 0
151 169 0
149 169 0
147 166 0
148 166 0
149 168 0
149 170 0
151 170 0
151 171 0
145 162 0
148 167 0
147 167 0
151 170 0
143 163 0
150 169 0
149 167 0
147 165 0
154 171 0
155 176 0
153 172 0
160 180 0
156 173 0
154 173 0
151 169 0
150 169 0
155 174 0
154 173 0
160 180 0
156 176 0
154 173 0
154 172 0
159 179 0
155 176 0
151 169 0
158 178 0
150 168 0
155 174 0
154 174 0
155 172 0
150 169 0
157 176 0
163 182 0
156 176 0
156 175 0
154 173 0
154 171 0
160 178 0
156 177 0
159 180 0
154 174 0
164 183 0
155 173 0
155 175 0
159 179 0
160 178 0
156 175 0
159 180 0
158 178 0
154 172 0
153 171 0
161 181 0
164 185 0
157 178 0
162 182 0
161 181 0
165 185 0
158 179 0
162 182 0
165 184 0
159 180 0
160 181 0
161 181 0
164 186 0
161 182 0
161 180 0
162 183 0
153 171 0
162 181 0
163 183 0
164 184 0
162 182 0
163 182 0
167 188 0
167 188 0
163 183 0
159 181 0
161 179 0
165 184 0
161 182 0
159 179 0
165 187 0
162 181 0
167 187 0
167 188 0
159 180 0
161 182 0
167 190 0
160 179 0
167 189 0
163 184 0
166 188 0
158 180 0
164 185 0
161 181 0
165 186 0
167 187 0
162 184 0
164 184 0
164 185 0
170 194 84
169 194 88
169 193 76
174 197 76
168 191 67
169 193 51
170 193 99
178 201 120
172 195 92
170 194 88
173 196 95
171 194 95
173 195 105
170 192 117
173 196 80
172 196 92
170 193 99
169 193 88
167 191 99
172 194 99
174 197 108
166 190 84
168 192 102
174 199 114
171 194 95
170 193 92
169 192 105
168 192 99
168 191 72
170 194 111
172 195 95
173 196 117
166 190 99
172 196 92
164 188 105
170 193 84
165 189 102
169 192 84
167 190 92
168 191 92
162 185 102
162 185 80
165 188 105
167 189 108
168 190 80
169 192 92
165 188 99
164 187 99
169 193 88
166 189 102
161 184 100
158 180 99
165 188 111
163 187 100
167 191 111
162 185 86
163 186 105
161 185 111
165 188 105
164 187 102
169 192 114
162 185 92
159 182 99
157 181 103
160 183 92
162 184 88
157 180 114
162 184 105
155 178 80
160 183 76
159 181 94
159 183 88
153 176 108
155 178 88
160 182 120
159 182 99
157 178 80
160 183 92
160 181 130
155 176 92
153 176 80
159 181 80
160 181 95
159 181 88
156 177 111
163 184 111
152 173 95
148 169 88
157 178 117
144 165 95
150 170 84
144 163 99
151 171 76
145 165 92
150 170 99
149 168 111
147 166 99
138 157 67
134 154 72
142 162 80
124 143 76
127 146 67
129 147 88
131 149 84
144 162 99
127 145 72
126 144 62
132 150 99
125 142 80
128 145 95
122 139 67
117 132 72
110 128 88
97 119 97
81 105 94
84 108 94
87 112 106
93 116 115
82 105 101
84 110 107
98 121 115
96 120 103
102 126 105
97 121 97
95 119 103
98 122 98
90 115 110
103 128 105
115 135 110
93 116 103
111 132 103
152 170 51
154 168 0
147 159 18
144 156 0
139 152 0
135 148 18
136 152 18
101 122 86
67 98 107
72 101 100
61 92 95
62 91 91
67 95 108
72 101 92
71 98 99
64 94 97
68 97 90
65 93 73
61 85 62
107 122 18
103 121 18
118 139 36
92 110 51
75 94 25
72 94 70
57 83 76
51 81 80
52 83 67
51 82 76
53 84 88
52 83 86
52 83 86
51 82 78
51 82 92
53 84 80
53 84 87
52 83 84
52 83 82
54 86 78
52 84 86
53 84 90
49 79 72
52 82 76
51 82 67
53 85 95
52 83 82
54 86 84
53 84 86
53 84 82
53 85 78
52 83 80
52 82 86
52 83 84
54 85 90
53 84 94
50 80 72
53 84 90
51 81 90
52 83 78
48 77 74
50 80 74
53 79 74
66 88 54
72 91 47
81 99 25
81 95 0
90 104 0
90 103 0
84 97 0
85 100 0
100 116 0
94 111 0
88 103 0
80 95 0
86 101 0
103 116 0
91 105 0
96 111 0
97 110 0
86 100 0
94 109 0
100 116 0
112 128 0
108 124 0
107 123 0
98 112 0
103 119 0
102 118 0
103 120 0
108 123 0
116 132 0
105 120 0
106 123 0
117 135 0
119 136 0
120 138 0
108 126 0
125 141 0
121 137 0
124 141 0
117 135 0
121 139 0
116 133 0
121 139 0
116 135 0
135 150 0
116 134 0
123 141 0
119 138 0
125 144 0
125 144 0
127 143 0
127 144 0
134 151 0
131 151 0
122 140 0
123 140 0
136 155 0
133 153 0
129 149 0
126 144 0
131 149 0
134 153 0
138 157 0
132 150 0
130 149 0
131 149 0
143 161 0
132 151 0
135 152 0
138 156 0
134 151 0
137 156 0
138 156 0
138 158 0
146 164 0
136 154 0
138 157 0
142 162 0
146 164 0
142 160 0
147 166 0
143 160 0
137 157 0
139 158 0
143 164 0
138 155 0
153 171 0
139 157 0
150 171 0
144 162 0
147 168 0
138 156 0
150 169 0
143 164 0
146 164 0
149 168 0
145 167 0
154 174 0
145 164 0
153 173 0
147 167 0
151 173 0
151 170 0
141 160 0
153 171 0
156 175 0
138 156 0
154 174 0
157 177 0
156 175 0
148 169 0
144 163 0
151 169 0
156 176 0
151 169 0
151 169 0
151 171 0
154 173 0
153 171 0
148 166 0
148 169 0
151 171 0
151 169 0
147 168 0
150 170 0
160 181 0
155 175 0
154 173 0
144 165 0
156 175 0
145 164 0
161 179 0
157 176 0
148 167 0
152 171 0
154 174 0
154 174 0
159 180 0
159 179 0
155 176 0
158 180 0
149 169 0
156 175 0
154 174 0
157 177 0
164 185 0
154 174 0
160 178 0
164 185 0
167 187 0
157 178 0
164 183 0
162 180 0
164 184 0
158 178 0
161 181 0
158 176 0
152 172 0
152 172 0
161 180 0
159 180 0
160 180 0
161 181 0
152 172 0
156 176 0
161 181 0
162 181 0
157 176 0
158 177 0
160 180 0
158 178 0
163 182 0
159 178 0
165 184 0
162 182 0
161 180 0
166 187 0
165 185 0
156 176 0
164 184 0
163 184 0
165 186 0
165 185 0
164 184 0
156 176 0
158 176 0
161 182 0
164 184 0
162 183 0
166 187 0
164 185 0
153 171 0
165 186 0
157 178 0
164 185 0
164 184 0
169 189 0
166 186 0
167 188 0
166 186 0
163 185 0
169 192 0
170 190 0
168 188 0
159 179 0
165 188 0
168 190 0
163 185 0
173 196 102
171 194 95
175 198 99
168 192 80
173 197 92
171 194 72
172 196 111
172 195 102
171 195 80
172 196 92
174 197 108
173 196 95
168 191 92
172 195 84
174 198 80
174 197 111
173 196 122
174 198 111
168 191 102
174 197 108
172 196 105
169 192 111
172 195 92
175 197 88
172 195 92
174 198 114
167 191 99
167 190 92
172 195 111
171 196 102
167 190 114
172 195 99
171 194 95
169 193 102
166 189 76
159 183 99
167 190 84
168 191 84
171 195 95
168 191 92
166 189 95
164 188 108
161 184 80
168 191 99
158 182 99
164 188 88
160 183 84
162 185 102
168 191 108
167 190 100
168 191 94
163 187 92
164 188 84
163 186 94
157 181 95
161 185 118
163 186 88
159 182 72
163 185 95
159 182 105
163 187 105
161 184 92
162 184 97
159 182 102
167 189 108
159 182 102
154 178 84
161 183 95
156 179 92
159 183 88
156 178 99
158 181 80
166 188 108
164 185 99
159 181 99
157 179 117
144 166 80
157 179 102
157 179 105
153 174 92
154 176 95
158 179 111
155 176 105
150 171 102
162 183 111
153 174 95
152 173 92
153 174 102
155 176 108
144 164 111
146 166 102
148 168 99
152 172 108
154 174 99
147 167 92
144 162 111
140 160 80
146 164 92
150 169 111
137 155 88
143 162 76
137 155 108
125 143 67
120 139 57
138 156 95
129 147 84
136 155 88
120 138 72
114 132 57
109 126 62
125 142 80
117 133 76
117 132 72
110 128 88
86 108 76
95 118 105
100 121 108
99 122 108
82 107 103
93 118 107
85 110 103
93 117 105
88 114 114
94 118 84
94 118 103
94 118 113
89 114 97
86 111 94
86 111 100
108 130 115
106 127 101
143 161 54
153 166 18
150 164 0
143 156 0
133 146 25
141 156 18
132 147 31
133 151 18
92 114 67
68 99 105
70 100 107
64 93 86
61 93 121
60 90 94
73 99 90
60 90 79
66 96 97
71 97 76
64 88 62
98 115 0
109 127 18
119 139 31
103 120 18
99 114 0
86 100 0
92 107 0
89 104 18
91 108 25
76 94 31
72 95 67
52 78 54
57 83 65
52 80 65
50 80 84
51 82 82
52 83 86
52 82 88
49 79 67
53 85 86
51 82 76
50 80 84
50 80 67
49 79 72
51 81 78
50 81 74
50 80 54
50 81 74
51 81 80
51 81 80
52 83 90
51 82 70
53 85 78
54 86 80
48 77 78
53 82 76
51 79 76
57 82 54
60 84 70
69 89 51
89 106 31
84 99 25
66 81 0
96 110 0
86 100 0
97 112 0
104 118 0
101 116 0
92 108 0
101 116 0
91 106 0
89 104 0
95 109 0
98 112 0
97 114 0
106 121 0
93 109 0
98 113 0
98 113 0
105 121 0
87 104 0
106 121 0
99 116 0
111 126 0
98 113 0
115 130 0
119 134 0
96 112 0
116 133 0
119 136 0
114 131 0
107 123 0
113 128 0
125 143 0
103 120 0
114 132 0
105 120 0
121 139 0
116 132 0
114 133 0
115 133 0
114 131 0
124 142 0
116 133 0
113 131 0
132 149 0
124 143 0
118 135 0
123 142 0
122 139 0
119 135 0
129 148 0
126 141 0
127 145 0
125 143 0
125 143 0
127 144 0
132 149 0
130 148 0
125 143 0
129 148 0
125 141 0
128 146 0
140 159 0
120 137 0
129 147 0
142 161 0
137 153 0
143 162 0
137 155 0
130 151 0
127 148 0
139 158 0
147 166 0
144 163 0
131 149 0
133 150 0
141 158 0
141 160 0
141 160 0
146 165 0
139 158 0
145 164 0
147 167 0
149 168 0
140 159 0
141 159 0
140 159 0
144 162 0
137 158 0
139 158 0
151 170 0
144 162 0
144 164 0
148 168 0
146 166 0
145 164 0
145 165 0
147 167 0
151 171 0
144 165 0
153 174 0
152 173 0
152 172 0
138 157 0
154 174 0
151 172 0
148 168 0
142 163 0
149 169 0
152 171 0
145 165 0
158 179 0
149 170 0
155 175 0
149 169 0
160 179 0
139 158 0
154 173 0
156 174 0
149 168 0
158 180 0
153 171 0
156 176 0
151 171 0
154 173 0
158 178 0
155 176 0
151 170 0
155 173 0
158 179 0
158 179 0
157 177 0
154 172 0
156 175 0
155 175 0
157 177 0
156 177 0
156 176 0
159 179 0
153 174 0
162 180 0
157 177 0
160 180 0
156 177 0
157 178 0
152 168 0
158 178 0
161 180 0
155 175 0
162 183 0
157 176 0
159 180 0
164 184 0
161 180 0
156 177 0
158 179 0
159 179 0
160 181 0
159 180 0
159 180 0
155 174 0
157 175 0
162 183 0
164 184 0
153 173 0
160 177 0
161 181 0
161 183 0
157 177 0
165 186 0
158 177 0
162 181 0
162 182 0
166 186 0
161 182 0
163 181 0
164 183 0
164 186 0
164 187 0
160 179 0
163 184 0
163 185 0
161 182 0
163 185 0
161 180 0
159 179 0
166 185 0
167 188 0
162 181 0
166 186 0
166 188 0
161 184 0
164 186 0
167 188 0
164 184 0
163 183 0
165 184 0
170 189 0
166 187 0
165 186 0
167 188 0
160 180 0
162 183 0
163 185 0
166 186 0
163 183 0
164 185 0
166 186 0
165 186 0
170 193 76
167 191 72
173 197 88
173 197 105
177 200 102
175 197 108
175 196 95
176 198 105
170 193 84
177 201 95
171 194 99
176 199 108
171 194 84
173 197 99
173 196 95
166 189 76
173 196 108
171 195 92
165 189 67
168 192 102
173 196 105
175 199 99
170 194 92
170 193 102
171 194 105
170 193 95
170 192 80
170 193 105
173 196 114
168 192 88
169 192 114
166 189 95
168 191 84
171 194 105
166 190 84
165 188 67
169 192 114
171 193 111
165 188 88
171 195 99
162 186 95
168 191 95
168 193 120
171 194 102
168 192 111
158 182 99
168 191 111
166 189 99
159 182 99
169 193 92
165 189 114
168 191 99
159 182 72
165 188 121
165 188 105
159 182 76
163 186 94
164 188 100
164 186 86
161 184 65
160 182 92
161 185 92
159 182 88
162 185 107
155 178 86
162 185 102
156 179 111
156 179 103
157 179 99
158 181 99
154 176 99
155 177 84
154 177 95
160 181 117
163 185 108
165 187 120
161 182 92
165 187 114
155 176 99
161 183 108
162 184 111
150 172 88
160 181 95
154 176 92
154 175 92
159 181 95
150 171 99
159 179 117
151 173 125
146 167 99
147 168 102
151 171 102
149 170 95
156 176 102
146 166 99
140 159 95
146 167 92
149 168 125
145 165 94
146 165 111
149 168 99
134 153 88
146 165 92
151 169 102
141 159 92
137 156 80
135 152 102
134 152 88
126 143 67
126 142 95
116 134 62
122 138 80
109 125 62
123 139 92
119 135 84
93 113 90
94 116 107
101 122 113
100 121 100
103 126 118
83 107 90
96 120 105
85 111 74
87 113 92
108 130 111
93 120 114
101 125 100
92 116 95
92 115 92
105 126 97
98 121 90
140 158 44
157 171 25
153 167 18
143 156 0
143 156 18
145 161 31
132 148 0
140 157 18
133 151 25
90 112 86
63 91 92
60 88 78
63 92 99
70 98 82
60 90 72
60 89 78
56 87 89
53 83 76
74 95 51
110 128 18
100 119 25
127 148 36
119 139 36
90 105 0
87 102 0
97 113 0
81 95 0
95 110 0
92 106 0
86 101 0
80 95 0
79 94 0
86 102 0
77 93 25
80 97 36
86 102 36
74 92 44
71 90 31
77 96 31
79 100 60
59 81 67
60 82 47
65 86 51
62 85 67
59 83 76
65 87 67
62 85 67
55 79 57
56 79 47
78 96 40
76 95 36
73 89 40
72 89 31
91 105 0
92 105 0
87 101 0
81 93 0
72 85 0
81 95 0
85 100 0
76 89 0
88 102 0
72 87 0
101 115 0
105 119 0
91 107 0
94 109 0
85 98 0
88 104 0
110 125 0
92 106 0
91 106 0
103 118 0
91 106 0
105 121 0
93 109 0
92 108 0
107 124 0
106 122 0
108 125 0
107 122 0
105 121 0
96 112 0
98 112 0
105 121 0
110 126 0
120 136 0
116 132 0
114 130 0
121 137 0
99 116 0
114 133 0
114 131 0
114 133 0
107 123 0
121 138 0
119 136 0
131 149 0
118 135 0
120 137 0
118 135 0
123 141 0
127 145 0
127 146 0
122 139 0
127 146 0
127 146 0
121 138 0
126 145 0
130 149 0
115 131 0
127 144 0
121 139 0
137 156 0
128 147 0
128 148 0
116 134 0
139 158 0
137 156 0
117 137 0
133 152 0
137 154 0
124 141 0
141 161 0
133 153 0
134 154 0
130 150 0
132 151 0
138 157 0
136 154 0
140 162 0
141 162 0
144 163 0
131 149 0
135 155 0
140 159 0
133 152 0
147 167 0
152 172 0
143 162 0
143 162 0
148 169 0
149 169 0
137 156 0
142 160 0
136 155 0
143 160 0
145 165 0
148 168 0
151 170 0
148 169 0
147 165 0
150 168 0
139 156 0
151 172 0
139 157 0
145 165 0
143 163 0
149 169 0
145 164 0
150 169 0
159 181 0
151 172 0
151 171 0
145 164 0
150 171 0
148 168 0
146 165 0
148 167 0
149 168 0
154 175 0
151 173 0
155 176 0
153 172 0
154 171 0
151 171 0
152 172 0
156 175 0
149 168 0
160 181 0
151 171 0
160 179 0
150 168 0
157 175 0
152 170 0
158 177 0
149 167 0
158 177 0
159 179 0
154 176 0
157 178 0
149 168 0
154 174 0
154 174 0
151 171 0
160 180 0
153 173 0
161 183 0
157 177 0
152 170 0
157 176 0
153 174 0
159 179 0
160 180 0
158 180 0
159 179 0
158 178 0
158 176 0
159 179 0
161 178 0
158 178 0
162 182 0
159 179 0
161 183 0
160 179 0
159 179 0
156 175 0
160 179 0
159 180 0
164 186 0
163 181 0
158 180 0
166 187 0
165 185 0
160 180 0
155 175 0
159 179 0
159 180 0
163 184 0
166 186 0
162 181 0
164 185 0
164 184 0
160 180 0
164 184 0
153 171 0
158 179 0
155 173 0
165 184 0
163 182 0
160 182 0
165 187 0
164 184 0
165 183 0
157 177 0
158 179 0
162 182 0
164 184 0
163 182 0
165 184 0
165 186 0
162 184 0
165 185 0
167 187 0
164 186 0
163 185 0
158 178 0
168 191 0
165 187 0
165 185 0
167 188 0
164 183 0
168 189 0
162 183 0
164 185 0
165 184 0
167 189 0
162 182 0
164 185 0
171 195 84
175 199 92
172 194 80
171 195 105
171 195 102
175 199 105
173 197 95
171 195 72
173 197 92
165 189 80
175 198 99
170 193 102
167 189 92
175 199 105
172 195 99
174 196 105
170 194 76
169 193 95
170 194 95
174 198 111
170 193 76
168 191 105
167 191 88
168 192 111
171 195 108
172 194 99
174 197 105
174 198 92
172 194 88
171 195 102
166 189 80
166 190 92
168 192 95
169 193 114
173 197 102
168 192 88
165 188 108
168 191 84
169 193 102
169 193 102
166 189 92
162 185 108
165 188 95
164 188 76
166 189 99
168 191 99
172 195 114
162 184 95
170 193 95
163 185 67
162 184 88
160 183 99
166 189 114
162 185 84
155 178 67
168 191 102
161 184 82
163 185 97
164 188 84
158 181 88
161 183 105
167 190 110
161 185 99
164 186 99
159 181 103
156 179 94
165 187 92
154 177 76
153 176 88
162 185 117
153 175 92
167 190 108
167 189 107
157 179 88
160 183 102
149 170 80
159 180 117
164 186 114
166 187 120
161 183 114
159 181 105
166 187 133
156 178 84
151 172 108
154 176 102
151 172 99
154 175 108
145 164 84
149 170 95
157 177 99
154 175 76
151 171 108
148 168 88
143 164 80
152 171 108
147 168 95
136 156 92
141 160 95
147 166 95
152 171 111
142 160 95
130 149 76
139 157 99
133 152 80
150 168 95
139 158 88
137 155 72
127 145 80
120 137 67
132 149 88
119 135 57
114 131 51
130 148 62
119 134 92
112 126 92
126 140 99
105 122 92
79 102 92
86 109 99
89 113 99
89 112 62
80 106 95
99 123 99
80 106 90
93 117 92
97 121 88
89 115 94
106 130 103
94 119 102
92 115 102
109 131 78
136 155 44
155 172 0
151 167 25
152 167 18
146 164 31
145 162 18
141 157 18
133 151 25
131 148 0
120 136 0
87 110 78
71 99 82
70 99 95
67 96 102
55 84 84
57 87 83
56 86 90
61 89 76
92 109 31
102 118 0
118 136 18
130 150 18
116 135 18
94 109 0
91 106 0
87 103 0
96 111 0
86 100 0
94 109 0
92 107 0
78 92 0
87 102 0
86 102 0
74 88 0
81 95 0
76 90 0
98 111 0
102 117 0
81 95 0
80 93 0
84 98 0
86 99 0
85 99 0
97 111 0
80 94 0
80 95 0
85 99 0
92 106 0
94 106 0
66 79 0
82 97 0
94 108 0
81 97 0
91 107 0
79 92 0
91 106 0
76 87 0
92 106 0
77 90 0
82 96 0
81 94 0
92 107 0
83 97 0
95 110 0
88 103 0
84 98 0
98 113 0
94 110 0
99 114 0
97 111 0
97 111 0
112 127 0
100 116 0
98 115 0
97 113 0
98 113 0
102 117 0
98 115 0
108 126 0
106 124 0
96 111 0
107 124 0
102 120 0
106 122 0
97 113 0
99 115 0
129 147 0
118 136 0
99 115 0
111 128 0
101 118 0
121 139 0
120 138 0
118 135 0
121 138 0
116 133 0
127 146 0
119 136 0
118 138 0
128 147 0
122 142 0
118 135 0
115 133 0
118 134 0
116 134 0
136 153 0
124 141 0
131 150 0
123 141 0
130 148 0
118 137 0
122 141 0
128 148 0
123 141 0
121 140 0
119 136 0
128 147 0
136 156 0
133 151 0
128 147 0
129 148 0
134 152 0
135 153 0
142 160 0
138 158 0
140 159 0
130 148 0
141 159 0
142 161 0
138 158 0
140 159 0
132 151 0
135 154 0
127 147 0
129 147 0
131 148 0
130 149 0
136 154 0
145 164 0
145 163 0
138 156 0
144 162 0
139 156 0
144 162 0
150 171 0
148 169 0
146 166 0
142 160 0
141 161 0
144 164 0
146 164 0
151 171 0
145 164 0
147 166 0
144 163 0
147 166 0
151 172 0
141 161 0
147 166 0
145 164 0
147 167 0
140 160 0
150 169 0
156 175 0
153 173 0
150 170 0
150 168 0
153 176 0
152 172 0
151 170 0
154 173 0
151 170 0
157 177 0
153 174 0
148 168 0
151 170 0
151 169 0
152 174 0
158 175 0
159 178 0
155 176 0
154 176 0
148 168 0
156 174 0
160 181 0
148 167 0
154 176 0
150 170 0
155 176 0
152 172 0
156 177 0
151 170 0
154 175 0
155 176 0
156 174 0
153 174 0
153 174 0
154 173 0
159 180 0
157 178 0
158 177 0
157 177 0
157 176 0
159 180 0
160 182 0
158 178 0
151 169 0
164 185 0
152 169 0
157 178 0
159 178 0
157 176 0
156 177 0
158 177 0
160 180 0
160 179 0
157 179 0
161 182 0
156 175 0
165 185 0
160 178 0
157 178 0
161 183 0
161 182 0
159 177 0
164 183 0
164 185 0
160 181 0
165 186 0
157 178 0
158 178 0
162 181 0
156 176 0
160 180 0
158 178 0
168 190 0
165 186 0
159 179 0
164 186 0
164 183 0
157 179 0
164 185 0
164 184 0
166 186 0
160 180 0
167 187 0
164 184 0
164 185 0
167 189 0
160 181 0
166 188 0
166 189 0
164 185 0
165 186 0
168 189 0
165 186 0
164 187 0
164 186 0
160 180 0
166 186 0
164 187 0
162 182 0
168 189 0
160 179 0
165 186 0
165 186 0
169 191 0
165 186 0
169 189 0
171 195 88
172 195 120
175 198 114
170 193 76
175 197 92
170 193 84
168 191 88
169 192 102
174 197 102
174 197 84
169 192 72
171 194 95
176 200 102
171 195 105
174 198 99
171 194 111
167 191 72
167 191 99
167 190 88
172 196 92
173 196 105
176 198 105
169 193 84
170 193 95
170 194 92
169 192 114
173 196 99
171 194 88
163 186 76
169 192 95
171 195 120
165 188 76
166 189 102
164 188 84
168 191 95
167 190 92
170 195 105
171 195 99
170 193 120
169 192 76
163 186 72
166 190 99
168 191 99
172 195 99
167 190 99
167 190 62
166 190 102
158 181 88
169 193 120
164 188 95
165 188 105
159 183 102
162 185 84
167 190 108
167 190 102
150 172 67
161 184 102
160 182 95
166 188 95
159 182 97
159 182 107
163 186 117
164 187 99
164 187 99
163 186 111
165 189 111
153 175 76
157 178 88
162 185 99
163 186 111
168 190 114
155 178 97
158 180 99
151 173 95
162 184 99
156 178 102
157 180 105
156 178 84
154 176 95
159 181 99
155 178 92
159 180 99
150 171 80
149 170 76
147 168 95
154 176 95
156 176 92
153 174 95
146 166 88
152 173 120
153 173 108
159 179 88
147 167 62
145 165 105
154 174 105
156 176 102
133 153 94
134 154 84
141 161 80
152 172 99
142 161 88
141 159 84
148 166 95
142 161 105
137 155 84
140 157 99
140 157 105
140 158 99
145 163 95
125 143 76
120 138 62
119 136 51
134 152 76
99 115 51
128 144 84
132 147 92
106 121 67
108 123 76
99 119 84
90 113 100
106 127 99
93 117 80
91 115 95
99 123 95
103 126 103
83 108 80
91 117 102
100 123 100
104 126 95
94 117 74
105 127 67
130 144 25
146 162 25
152 169 18
150 167 0
140 156 18
145 163 0
140 157 25
134 153 0
128 146 0
117 134 18
128 146 0
96 113 47
59 88 103
57 86 82
66 93 78
61 90 93
59 87 80
78 99 54
88 104 0
111 127 0
110 128 25
116 135 18
122 142 25
99 114 0
97 113 0
94 110 0
92 108 0
98 113 0
94 111 0
104 120 0
94 109 0
71 86 0
79 93 0
93 107 0
87 101 0
100 114 0
88 103 0
108 123 0
91 105 0
96 109 0
84 98 0
92 106 0
82 96 0
85 101 0
81 95 0
91 106 0
90 103 0
80 94 0
76 89 0
90 103 0
77 90 0
92 107 0
86 101 0
93 107 0
83 98 0
97 112 0
96 110 0
87 102 0
90 105 0
94 108 0
90 104 0
83 96 0
100 114 0
99 114 0
95 110 0
106 123 0
98 114 0
104 119 0
86 102 0
90 105 0
102 118 0
103 117 0
110 127 0
92 108 0
111 128 0
108 125 0
104 121 0
94 110 0
95 109 0
114 130 0
103 119 0
113 130 0
108 125 0
113 129 0
113 130 0
105 122 0
110 128 0
103 119 0
118 135 0
108 125 0
122 139 0
113 129 0
116 134 0
117 134 0
121 137 0
119 136 0
122 140 0
123 141 0
115 134 0
121 140 0
120 137 0
128 145 0
115 132 0
135 153 0
137 156 0
114 131 0
121 140 0
130 147 0
114 132 0
131 148 0
131 149 0
116 135 0
128 147 0
123 141 0
135 153 0
121 140 0
138 157 0
128 147 0
131 149 0
137 156 0
147 167 0
142 162 0
134 152 0
144 163 0
147 166 0
130 149 0
133 153 0
133 152 0
142 162 0
129 147 0
133 151 0
128 147 0
136 155 0
134 152 0
141 161 0
139 158 0
144 164 0
142 160 0
136 154 0
141 161 0
146 165 0
140 159 0
143 161 0
137 155 0
144 163 0
147 164 0
139 158 0
142 161 0
146 166 0
148 167 0
144 162 0
142 160 0
148 167 0
140 160 0
159 179 0
149 170 0
148 167 0
147 166 0
153 174 0
145 164 0
148 165 0
147 167 0
154 173 0
154 174 0
140 157 0
153 175 0
154 173 0
142 160 0
149 169 0
147 168 0
149 168 0
150 170 0
148 168 0
155 175 0
151 170 0
150 171 0
159 179 0
154 174 0
153 173 0
157 177 0
154 174 0
159 178 0
157 178 0
149 170 0
153 175 0
155 175 0
158 177 0
149 170 0
154 173 0
152 172 0
155 176 0
156 176 0
155 175 0
159 181 0
155 175 0
157 177 0
161 181 0
157 177 0
157 178 0
159 180 0
153 173 0
154 174 0
154 173 0
159 178 0
153 173 0
155 175 0
160 179 0
161 179 0
159 180 0
160 181 0
165 185 0
158 177 0
160 183 0
160 179 0
159 179 0
164 184 0
161 183 0
154 175 0
158 177 0
151 171 0
156 175 0
165 186 0
153 173 0
158 177 0
167 188 0
162 183 0
164 185 0
164 183 0
162 183 0
157 176 0
158 179 0
160 180 0
161 182 0
164 185 0
165 187 0
163 184 0
165 185 0
160 180 0
163 185 0
165 187 0
162 185 0
163 183 0
165 186 0
162 182 0
161 181 0
166 188 0
160 180 0
164 183 0
167 188 0
168 189 0
166 186 0
167 187 0
161 182 0
160 179 0
164 186 0
166 187 0
163 183 0
163 185 0
164 185 0
164 185 0
166 188 0
164 184 0
166 189 0
166 187 0
165 186 0
162 183 0
164 185 0
169 191 0
165 188 0
172 195 80
174 196 111
177 200 108
177 199 95
176 199 114
170 194 84
175 198 92
168 191 102
167 191 80
176 199 127
174 197 84
170 193 95
177 200 111
170 193 80
169 192 105
167 190 105
171 194 84
168 191 84
171 195 84
167 191 76
173 198 92
170 193 108
167 190 102
168 192 105
165 188 76
164 187 88
168 191 102
160 184 99
163 187 95
174 198 108
173 196 111
171 195 114
170 195 84
163 186 102
167 190 84
168 192 92
172 196 105
164 188 99
168 191 92
168 191 92
163 187 102
163 186 99
167 191 84
169 193 114
163 187 95
166 189 88
167 191 92
163 186 80
163 186 84
165 188 84
165 187 84
167 190 113
163 187 80
166 190 108
167 190 99
166 190 102
161 184 80
160 183 92
160 182 80
165 188 102
162 185 92
155 178 76
166 189 84
155 178 113
163 185 99
160 183 114
155 177 88
162 185 102
160 183 108
166 189 120
155 178 95
163 185 102
152 174 84
156 178 72
158 180 95
158 180 117
163 185 95
159 180 111
158 179 88
162 184 120
154 176 114
152 174 99
158 180 92
156 177 102
156 176 95
149 169 99
160 180 102
157 178 108
148 169 80
152 174 88
150 171 84
161 181 120
141 162 102
154 173 111
144 163 99
149 169 84
144 164 76
149 169 108
149 169 88
138 157 105
154 173 120
143 162 95
142 160 108
138 157 84
134 154 76
142 160 95
133 152 72
141 159 84
140 158 95
131 149 72
135 152 72
129 146 67
131 148 62
115 132 67
114 128 84
118 134 57
112 128 57
117 133 57
117 131 95
109 125 84
109 130 105
94 117 94
97 121 97
92 116 82
98 121 105
97 121 105
92 116 72
107 130 72
106 129 94
102 124 78
116 136 57
124 141 44
160 180 25
157 176 18
151 166 25
146 161 0
139 157 18
136 153 31
136 153 0
123 140 18
128 145 0
130 147 0
120 136 0
104 123 31
70 94 65
56 83 78
70 95 65
63 88 74
90 106 25
102 117 0
101 117 0
112 130 0
122 141 0
124 144 25
89 107 0
91 106 0
98 115 0
102 118 0
105 120 0
100 115 0
95 111 0
85 100 0
90 105 0
104 119 0
88 101 0
101 116 0
92 107 0
89 103 0
104 118 0
79 93 0
102 116 0
88 101 0
93 107 0
98 112 0
97 112 0
97 112 0
82 97 0
84 98 0
87 102 0
100 115 0
95 110 0
95 109 0
88 102 0
95 110 0
94 108 0
92 107 0
80 97 0
93 108 0
88 104 0
84 99 0
100 115 0
103 118 0
104 117 0
99 114 0
95 111 0
94 109 0
103 119 0
101 117 0
96 112 0
101 116 0
102 116 0
105 121 0
115 131 0
94 110 0
117 134 0
105 121 0
110 126 0
111 127 0
100 116 0
112 130 0
110 128 0
101 116 0
103 120 0
108 126 0
109 127 0
110 128 0
111 129 0
123 140 0
115 132 0
113 130 0
110 127 0
107 123 0
109 127 0
112 130 0
114 130 0
125 144 0
124 142 0
128 146 0
116 135 0
127 146 0
122 138 0
123 141 0
128 147 0
124 141 0
113 132 0
132 149 0
123 143 0
116 135 0
110 129 0
135 154 0
128 145 0
124 141 0
127 145 0
126 144 0
131 150 0
132 151 0
129 147 0
135 154 0
133 151 0
135 156 0
120 136 0
134 152 0
138 158 0
136 156 0
131 151 0
137 157 0
131 151 0
141 162 0
133 151 0
135 154 0
143 162 0
136 156 0
152 173 0
137 157 0
146 166 0
135 155 0
145 164 0
139 156 0
148 167 0
143 161 0
136 154 0
142 161 0
144 165 0
141 161 0
140 159 0
143 163 0
152 173 0
140 160 0
134 154 0
142 161 0
151 171 0
138 157 0
152 171 0
146 166 0
145 166 0
142 162 0
152 172 0
145 165 0
150 170 0
147 167 0
150 170 0
147 168 0
142 163 0
143 161 0
150 170 0
145 167 0
154 174 0
152 171 0
155 175 0
149 167 0
155 177 0
148 168 0
150 171 0
152 172 0
152 172 0
142 160 0
146 164 0
152 174 0
159 180 0
158 178 0
161 181 0
153 173 0
153 172 0
158 180 0
153 171 0
157 177 0
151 172 0
161 182 0
148 169 0
154 173 0
157 178 0
153 172 0
155 175 0
153 174 0
158 178 0
165 186 0
162 182 0
156 177 0
157 176 0
154 174 0
159 178 0
152 171 0
163 184 0
161 180 0
157 177 0
158 178 0
161 180 0
160 181 0
162 183 0
163 183 0
161 182 0
155 175 0
164 185 0
158 178 0
163 182 0
164 184 0
166 186 0
160 181 0
158 178 0
156 176 0
161 182 0
159 179 0
163 182 0
162 182 0
166 187 0
164 185 0
161 181 0
162 182 0
158 180 0
163 182 0
163 185 0
163 184 0
166 185 0
168 187 0
168 188 0
167 188 0
165 185 0
154 173 0
162 182 0
155 176 0
168 190 0
165 186 0
159 180 0
163 184 0
160 180 0
169 190 0
167 188 0
166 186 0
162 183 0
164 186 0
164 186 0
168 189 0
162 183 0
165 187 0
163 184 0
166 187 0
167 187 0
166 187 0
165 186 0
165 185 0
167 189 0
166 187 0
167 189 0
163 185 0
166 187 0
163 185 0
172 193 0
164 184 0
162 185 0
166 188 0
173 195 80
173 196 99
177 200 102
174 197 95
169 192 88
173 197 88
176 199 99
173 196 105
173 196 92
175 198 105
170 194 76
176 199 114
173 197 95
176 199 102
173 196 84
170 194 105
171 195 76
173 197 111
170 194 80
173 197 108
170 193 92
168 192 88
169 193 120
169 193 99
172 195 92
166 190 88
168 192 76
162 186 80
169 192 99
172 195 92
166 190 80
165 189 102
173 197 117
171 194 92
168 191 117
167 190 92
170 193 120
167 190 102
167 190 102
168 190 95
168 192 92
165 188 99
166 190 84
171 194 99
168 192 99
169 192 92
163 187 102
164 187 105
167 190 105
163 187 88
161 184 62
165 190 102
164 187 99
158 181 92
162 185 99
159 182 108
166 191 76
161 185 80
157 180 95
168 190 88
162 184 92
161 184 105
158 181 92
163 186 88
166 189 120
167 190 90
160 183 102
160 183 84
155 177 92
165 188 114
155 177 80
162 184 95
160 183 117
169 192 117
155 177 92
164 187 117
154 175 102
154 176 92
157 179 95
151 173 76
158 180 108
151 172 88
151 172 105
156 177 105
153 174 88
161 181 105
150 170 102
146 167 88
154 174 120
155 176 84
150 170 105
148 168 105
159 178 108
150 170 111
143 163 99
145 166 99
144 162 102
144 163 95
155 174 99
152 170 95
141 161 92
129 148 72
145 163 72
150 169 111
120 139 62
149 168 108
129 147 84
138 156 80
134 151 80
129 147 80
133 150 80
121 138 80
110 127 57
133 150 76
115 131 72
113 128 76
122 137 84
118 133 84
115 130 76
96 110 67
98 114 72
93 113 72
78 100 74
92 115 82
97 120 97
110 133 95
92 116 92
92 115 94
100 123 94
96 117 70
128 144 40
113 132 36
150 167 0
155 169 0
153 169 0
151 166 0
142 159 18
144 163 18
129 148 25
140 160 0
129 147 0
113 128 0
123 140 0
119 135 0
104 118 18
82 98 44
79 96 31
78 92 0
96 110 0
110 125 0
102 118 0
104 122 0
131 150 0
118 138 0
108 123 0
102 117 0
106 123 0
92 107 0
95 111 0
96 112 0
99 115 0
96 112 0
94 110 0
111 128 0
89 104 0
94 111 0
96 111 0
93 108 0
97 113 0
98 114 0
100 115 0
102 118 0
90 105 0
94 110 0
81 95 0
108 125 0
74 89 0
83 98 0
97 110 0
91 106 0
95 111 0
104 121 0
97 111 0
86 101 0
99 114 0
97 111 0
96 111 0
93 108 0
88 103 0
78 94 0
95 112 0
99 116 0
105 121 0
100 115 0
98 114 0
104 121 0
104 120 0
109 125 0
102 118 0
98 113 0
99 114 0
105 121 0
98 113 0
107 123 0
105 122 0
101 117 0
103 120 0
106 124 0
110 128 0
109 125 0
97 115 0
117 133 0
107 124 0
116 134 0
112 130 0
118 137 0
118 136 0
121 138 0
112 131 0
120 139 0
117 136 0
102 119 0
121 139 0
118 137 0
120 138 0
111 128 0
121 139 0
127 144 0
131 149 0
122 142 0
122 142 0
129 148 0
118 138 0
125 142 0
124 143 0
126 145 0
128 145 0
127 145 0
132 150 0
131 149 0
137 157 0
139 157 0
134 154 0
126 146 0
128 147 0
128 147 0
140 161 0
130 148 0
135 153 0
131 148 0
137 155 0
139 158 0
141 160 0
129 147 0
146 164 0
132 153 0
135 155 0
127 146 0
147 165 0
148 169 0
138 157 0
142 160 0
140 160 0
137 157 0
145 163 0
143 163 0
150 171 0
146 167 0
144 165 0
131 151 0
142 162 0
145 166 0
146 165 0
140 160 0
147 167 0
142 162 0
143 163 0
143 162 0
144 164 0
147 166 0
150 170 0
149 170 0
142 161 0
146 167 0
149 169 0
151 171 0
152 170 0
150 170 0
144 164 0
150 170 0
154 175 0
150 170 0
148 167 0
149 169 0
148 169 0
147 165 0
149 168 0
157 178 0
148 168 0
150 169 0
152 173 0
150 170 0
159 180 0
155 174 0
149 169 0
153 174 0
157 177 0
153 174 0
159 178 0
150 170 0
158 178 0
152 171 0
151 172 0
159 178 0
159 180 0
149 168 0
153 172 0
160 179 0
151 170 0
161 182 0
159 179 0
148 166 0
151 173 0
150 171 0
158 177 0
163 184 0
162 182 0
154 174 0
154 175 0
157 177 0
157 177 0
155 174 0
163 184 0
161 183 0
154 174 0
154 174 0
165 186 0
153 174 0
160 182 0
159 178 0
157 176 0
159 180 0
161 181 0
162 183 0
157 177 0
162 182 0
159 180 0
162 181 0
162 181 0
157 178 0
160 182 0
160 180 0
160 180 0
154 174 0
157 176 0
167 188 0
159 178 0
159 181 0
152 173 0
166 186 0
163 184 0
161 182 0
161 182 0
162 182 0
163 184 0
163 184 0
164 185 0
161 182 0
159 181 0
163 184 0
162 183 0
165 185 0
162 184 0
160 180 0
165 187 0
161 182 0
164 185 0
166 187 0
164 184 0
165 186 0
162 183 0
165 186 0
166 187 0
166 187 0
165 185 0
163 183 0
164 185 0
165 185 0
162 183 0
167 189 0
165 185 0
162 183 0
165 186 0
162 185 0
166 187 0
162 183 0
169 192 0
167 187 0
161 183 0
168 189 0
178 201 108
172 196 99
172 196 92
173 196 84
174 197 84
174 197 99
170 194 84
169 193 88
167 191 80
172 195 111
171 194 76
168 192 84
170 193 95
171 194 92
171 195 92
172 196 102
169 192 92
169 192 84
168 191 92
169 192 67
173 197 135
171 195 99
166 189 72
168 190 108
167 191 92
171 194 92
163 186 84
169 193 117
166 190 95
164 187 88
170 193 111
171 194 92
171 194 108
169 192 80
168 192 95
167 189 88
161 184 76
167 190 84
167 190 102
174 197 102
169 192 92
172 195 117
158 181 67
166 189 102
171 194 84
165 189 57
161 185 88
168 191 108
163 187 80
165 189 92
166 188 105
165 188 100
161 185 80
164 188 111
162 185 99
162 185 107
164 187 92
167 189 88
164 188 105
162 185 105
164 188 111
163 186 76
159 181 92
164 187 118
162 185 92
161 183 84
160 182 125
155 178 102
157 180 92
162 184 99
165 188 84
164 186 97
153 175 76
166 189 88
160 183 92
164 186 120
155 178 76
158 180 84
156 178 88
158 180 102
161 183 108
144 165 92
136 158 67
144 166 88
154 175 95
145 166 92
148 169 80
153 174 99
141 161 84
167 188 117
153 173 105
153 173 114
146 166 84
151 171 108
154 174 111
145 165 102
141 161 72
155 175 108
148 167 111
144 163 80
146 165 102
148 168 84
142 162 76
127 146 67
144 163 95
134 152 76
142 159 99
133 150 84
139 156 99
136 154 88
122 139 62
141 158 84
126 143 80
123 140 62
129 147 72
117 133 57
123 140 84
137 152 102
121 137 67
114 131 44
117 132 67
108 123 67
87 103 51
103 122 70
95 117 80
98 121 90
99 121 90
86 108 80
99 120 90
123 142 36
122 140 31
122 141 31
148 164 18
151 169 0
150 169 0
146 163 0
135 154 18
141 157 0
135 152 0
144 162 0
123 142 0
124 141 0
123 139 0
110 126 0
112 128 0
107 123 0
96 111 0
94 110 0
101 117 0
102 117 0
93 110 0
106 123 0
113 132 0
124 142 0
106 124 0
95 110 0
89 105 0
97 113 0
109 125 0
98 115 0
119 136 0
93 108 0
90 106 0
86 102 0
102 118 0
74 91 0
99 114 0
101 117 0
98 114 0
102 118 0
94 108 0
95 110 0
83 99 0
95 110 0
91 106 0
83 99 0
100 117 0
87 102 0
82 97 0
98 114 0
95 111 0
92 107 0
96 113 0
97 113 0
97 111 0
92 108 0
97 113 0
100 116 0
97 113 0
104 121 0
95 111 0
102 118 0
99 115 0
90 105 0
102 118 0
110 128 0
106 121 0
104 120 0
105 122 0
107 123 0
101 117 0
104 121 0
101 118 0
107 124 0
107 125 0
95 112 0
111 128 0
120 137 0
115 132 0
101 118 0
107 123 0
118 136 0
119 134 0
106 123 0
109 127 0
119 136 0
110 128 0
108 124 0
117 135 0
120 136 0
117 135 0
116 135 0
122 140 0
125 142 0
101 118 0
114 132 0
123 142 0
111 129 0
126 142 0
115 133 0
122 140 0
130 148 0
128 148 0
113 131 0
135 156 0
123 143 0
128 148 0
113 131 0
124 142 0
130 148 0
128 147 0
137 158 0
130 150 0
138 157 0
133 151 0
138 157 0
129 147 0
137 158 0
134 154 0
133 152 0
135 154 0
135 155 0
138 158 0
136 155 0
132 152 0
142 162 0
129 149 0
140 160 0
132 151 0
140 160 0
144 163 0
134 154 0
152 173 0
147 168 0
141 161 0
135 155 0
139 158 0
144 163 0
145 163 0
145 164 0
141 158 0
141 160 0
135 154 0
148 167 0
144 165 0
139 160 0
145 166 0
148 168 0
154 172 0
153 173 0
153 173 0
138 158 0
150 169 0
147 168 0
143 162 0
154 175 0
148 166 0
150 169 0
143 164 0
144 164 0
152 172 0
147 167 0
149 170 0
146 166 0
156 175 0
147 166 0
148 169 0
149 170 0
154 172 0
149 170 0
153 172 0
149 169 0
157 176 0
150 170 0
149 168 0
156 177 0
151 170 0
152 171 0
156 177 0
152 172 0
151 171 0
150 168 0
151 170 0
157 176 0
150 172 0
156 175 0
147 166 0
150 170 0
158 178 0
148 168 0
156 178 0
157 177 0
158 178 0
161 182 0
159 179 0
164 185 0
154 177 0
160 180 0
162 182 0
158 177 0
155 175 0
160 177 0
157 178 0
159 179 0
161 182 0
164 185 0
158 179 0
154 175 0
157 176 0
155 175 0
156 177 0
158 177 0
159 179 0
150 170 0
159 180 0
161 181 0
162 181 0
165 185 0
156 175 0
161 180 0
164 185 0
159 180 0
159 181 0
160 182 0
164 184 0
160 180 0
153 173 0
156 176 0
161 182 0
164 184 0
167 187 0
161 180 0
161 182 0
166 188 0
162 181 0
166 187 0
160 182 0
163 184 0
161 181 0
163 184 0
166 188 0
162 182 0
160 180 0
162 183 0
166 188 0
164 183 0
165 187 0
164 184 0
162 182 0
166 187 0
163 184 0
166 187 0
166 185 0
168 190 0
167 188 0
169 190 0
165 187 0
169 191 0
164 184 0
170 193 0
169 189 0
166 189 0
165 186 0
163 185 0
165 186 0
167 190 0
164 185 0
165 186 0
162 184 0
162 181 0
174 196 84
171 194 92
174 197 88
177 199 105
172 195 92
172 195 92
177 199 102
175 198 99
176 200 114
171 195 95
170 192 92
175 198 117
172 195 88
170 194 80
174 196 102
173 196 99
174 198 102
170 193 108
168 191 95
170 193 102
172 194 80
167 189 92
170 194 105
169 192 80
171 194 114
168 191 88
166 190 99
170 194 92
167 190 76
168 192 102
167 191 88
163 186 95
168 191 88
165 188 105
165 189 84
165 189 95
166 189 102
168 191 76
163 187 95
170 193 111
164 187 105
166 190 99
171 195 117
165 189 76
166 190 80
161 185 84
162 186 105
162 183 76
168 191 105
166 190 80
164 188 72
157 180 88
162 185 80
164 187 76
164 187 95
162 185 105
167 189 111
157 179 92
162 186 95
159 183 86
160 183 88
168 190 111
162 185 99
164 187 105
166 189 108
155 178 109
153 175 88
162 185 118
158 180 92
163 186 105
160 183 99
159 181 72
154 177 67
158 181 117
156 178 102
162 184 120
158 180 92
146 168 67
159 182 114
159 180 99
156 179 88
158 180 102
153 175 108
153 174 95
159 181 102
158 180 108
149 171 84
148 170 111
155 176 95
153 173 84
142 163 95
154 175 92
148 169 99
151 171 92
151 171 105
142 162 84
138 159 62
146 165 92
142 162 84
148 167 102
153 170 125
145 164 99
146 165 95
144 162 92
140 158 92
141 160 105
137 156 84
143 162 92
133 151 80
137 155 108
143 161 102
133 151 67
113 131 57
130 147 84
124 142 67
123 140 76
115 131 44
114 131 51
128 144 76
130 147 80
114 131 51
112 126 76
104 119 67
118 134 57
116 133 76
105 121 62
114 132 57
114 133 47
111 129 44
125 142 36
124 143 25
122 139 25
149 166 0
152 169 0
150 166 0
148 166 0
149 169 0
139 157 0
133 152 0
137 155 0
121 140 0
124 141 0
108 125 0
106 122 0
113 130 0
110 126 0
100 116 0
94 110 0
87 102 0
103 117 0
105 121 0
123 141 0
120 139 0
138 158 25
111 129 0
105 123 0
104 121 0
116 133 0
105 122 0
103 120 0
100 116 0
102 119 0
82 98 0
106 124 0
104 120 0
91 106 0
96 112 0
89 103 0
102 119 0
100 116 0
80 95 0
108 125 0
102 118 0
108 124 0
99 115 0
107 124 0
104 120 0
104 120 0
112 129 0
91 106 0
95 110 0
107 123 0
103 119 0
101 117 0
91 106 0
104 120 0
105 120 0
100 116 0
113 129 0
101 117 0
102 118 0
84 99 0
105 122 0
103 120 0
109 126 0
116 132 0
89 105 0
99 116 0
113 131 0
112 129 0
99 116 0
101 116 0
112 129 0
109 125 0
117 133 0
108 126 0
118 135 0
119 136 0
117 134 0
113 132 0
113 130 0
104 120 0
116 134 0
120 138 0
117 135 0
110 128 0
126 144 0
124 143 0
120 139 0
115 132 0
114 132 0
124 143 0
130 146 0
113 133 0
119 137 0
111 128 0
116 136 0
124 142 0
138 156 0
120 138 0
126 143 0
124 141 0
122 141 0
113 132 0
122 140 0
121 140 0
133 151 0
131 150 0
127 146 0
129 149 0
134 154 0
129 149 0
141 159 0
131 150 0
137 157 0
122 141 0
133 153 0
133 151 0
132 151 0
126 144 0
138 156 0
131 150 0
134 154 0
132 152 0
140 160 0
138 158 0
139 159 0
134 153 0
140 161 0
133 152 0
139 159 0
142 161 0
140 160 0
134 153 0
142 162 0
146 165 0
144 165 0
139 158 0
143 163 0
146 168 0
144 162 0
145 164 0
147 168 0
140 158 0
141 160 0
150 170 0
148 168 0
146 165 0
157 177 0
144 163 0
144 165 0
153 173 0
147 168 0
137 158 0
153 174 0
151 171 0
154 175 0
154 175 0
144 163 0
154 174 0
149 171 0
153 174 0
145 162 0
155 176 0
148 167 0
147 168 0
160 179 0
152 172 0
152 173 0
142 161 0
147 167 0
149 169 0
158 179 0
156 177 0
155 176 0
153 174 0
155 176 0
148 167 0
152 174 0
151 173 0
163 182 0
148 167 0
155 174 0
152 171 0
156 177 0
163 184 0
155 174 0
162 184 0
162 183 0
158 178 0
156 174 0
151 171 0
162 182 0
156 177 0
163 183 0
158 180 0
156 176 0
155 176 0
156 176 0
161 182 0
156 177 0
160 179 0
158 177 0
158 176 0
156 178 0
153 172 0
157 177 0
157 177 0
161 180 0
156 176 0
163 184 0
161 181 0
159 178 0
159 180 0
159 179 0
156 176 0
159 179 0
160 181 0
163 184 0
158 178 0
162 184 0
162 184 0
163 183 0
166 186 0
163 185 0
155 176 0
159 178 0
159 180 0
161 182 0
162 183 0
160 179 0
168 188 0
163 184 0
161 183 0
161 181 0
162 181 0
164 185 0
162 183 0
157 178 0
166 185 0
169 190 0
158 177 0
162 181 0
162 182 0
167 188 0
161 182 0
162 182 0
164 184 0
166 188 0
162 181 0
165 186 0
167 188 0
163 184 0
165 186 0
161 183 0
170 190 0
167 187 0
167 187 0
159 179 0
164 183 0
165 184 0
166 188 0
168 187 0
166 189 0
168 191 0
163 186 0
165 187 0
166 187 0
169 192 0
165 186 0
172 195 88
176 199 95
176 199 95
174 198 88
175 198 92
173 197 95
170 193 80
175 199 92
173 197 99
172 194 92
172 196 102
171 194 84
173 197 102
169 192 80
173 196 111
171 194 76
174 197 105
171 194 108
171 194 99
171 194 92
170 193 105
171 195 88
168 191 111
174 197 92
165 188 84
169 192 99
173 196 92
172 195 111
170 194 105
166 190 95
163 187 92
169 192 95
160 185 99
168 192 92
166 190 99
168 192 114
165 187 76
169 193 102
169 192 67
162 186 95
167 191 99
170 193 84
166 189 88
169 192 95
169 193 99
166 190 95
165 188 105
167 191 114
166 189 99
160 184 102
157 179 84
162 185 80
165 189 105
168 191 113
167 189 88
166 189 114
160 182 80
161 184 95
172 194 105
163 186 95
163 187 88
164 188 95
165 189 92
160 184 113
160 183 95
162 185 99
165 189 111
163 186 111
167 190 105
168 192 115
165 187 114
154 176 95
158 181 108
156 178 99
161 184 117
154 177 57
163 184 114
153 175 102
158 180 114
158 181 108
167 188 125
153 175 111
155 175 95
155 177 92
141 163 80
152 175 88
151 173 105
154 174 99
156 177 108
161 182 111
155 177 111
149 170 95
148 169 102
146 167 88
149 169 99
143 163 105
149 169 102
143 163 99
154 174 102
151 170 102
151 171 108
152 173 88
138 157 102
143 161 88
142 161 92
138 157 76
135 154 88
139 157 84
132 151 76
145 163 108
132 149 88
141 158 102
140 158 80
118 136 62
121 137 88
137 154 84
122 138 80
128 145 80
111 128 57
114 131 25
114 129 72
107 122 44
100 117 51
116 132 57
120 135 51
105 119 44
108 122 44
125 141 51
120 138 36
116 134 25
127 146 0
137 157 0
152 170 0
154 175 0
154 173 0
152 172 0
153 172 0
148 166 0
138 157 0
136 154 0
136 156 0
118 136 0
128 146 0
109 127 0
106 123 0
114 131 0
93 109 0
98 114 0
107 123 0
104 120 0
98 115 0
117 136 0
130 149 0
132 151 0
112 130 0
103 121 0
114 131 0
103 121 0
102 122 0
105 122 0
104 122 0
96 113 0
103 120 0
104 122 0
101 117 0
90 107 0
99 115 0
98 112 0
107 123 0
97 113 0
104 120 0
104 120 0
98 114 0
104 121 0
109 126 0
95 111 0
82 98 0
102 119 0
93 109 0
85 101 0
108 125 0
86 102 0
97 111 0
94 111 0
95 112 0
115 131 0
108 124 0
99 115 0
100 116 0
91 107 0
115 131 0
101 117 0
92 108 0
110 126 0
101 118 0
103 121 0
96 113 0
104 122 0
108 125 0
123 141 0
114 131 0
112 128 0
112 129 0
116 133 0
111 129 0
103 120 0
107 125 0
115 133 0
120 139 0
116 132 0
121 138 0
131 148 0
111 128 0
109 126 0
123 141 0
122 139 0
114 132 0
111 127 0
116 135 0
113 130 0
118 136 0
130 148 0
123 142 0
115 131 0
132 152 0
109 128 0
125 143 0
124 144 0
113 133 0
133 151 0
126 145 0
135 154 0
122 141 0
131 149 0
137 156 0
127 145 0
131 150 0
129 148 0
126 144 0
130 150 0
137 156 0
131 149 0
133 152 0
141 160 0
124 143 0
130 152 0
126 142 0
131 150 0
136 156 0
139 159 0
139 158 0
136 155 0
128 147 0
139 159 0
140 159 0
144 164 0
144 165 0
142 162 0
136 155 0
151 171 0
141 159 0
131 151 0
145 165 0
146 166 0
151 172 0
136 156 0
142 163 0
136 155 0
142 163 0
147 166 0
149 170 0
144 165 0
144 163 0
148 170 0
139 159 0
149 167 0
144 163 0
147 167 0
146 165 0
145 166 0
148 167 0
144 164 0
148 168 0
152 170 0
144 164 0
145 166 0
152 174 0
154 175 0
150 171 0
143 163 0
152 173 0
154 174 0
152 171 0
152 171 0
148 168 0
156 177 0
154 173 0
150 171 0
144 163 0
155 176 0
151 172 0
149 168 0
152 171 0
153 175 0
148 168 0
154 174 0
148 168 0
150 172 0
158 177 0
152 172 0
144 166 0
158 179 0
156 177 0
152 172 0
151 171 0
155 176 0
155 174 0
150 170 0
150 170 0
159 179 0
149 168 0
149 170 0
157 178 0
159 180 0
159 179 0
161 182 0
152 172 0
154 174 0
159 180 0
155 175 0
162 185 0
156 177 0
153 173 0
162 184 0
164 184 0
165 187 0
159 179 0
161 181 0
157 176 0
163 183 0
156 179 0
157 178 0
167 186 0
158 178 0
155 176 0
160 179 0
158 178 0
161 182 0
159 179 0
159 179 0
169 189 0
160 180 0
158 178 0
151 171 0
160 179 0
160 182 0
160 181 0
163 184 0
160 181 0
163 183 0
161 181 0
156 177 0
162 184 0
161 181 0
159 180 0
163 185 0
162 183 0
163 183 0
162 183 0
166 188 0
160 183 0
167 189 0
168 189 0
160 182 0
165 187 0
166 187 0
163 185 0
162 184 0
165 187 0
164 184 0
160 182 0
162 183 0
160 181 0
166 187 0
156 177 0
163 186 0
162 181 0
168 189 0
166 188 0
166 187 0
164 186 0
167 187 0
163 183 0
168 189 0
168 188 0
166 189 0
166 187 0
166 187 0
165 185 0
164 186 0
172 196 76
177 200 99
174 197 92
175 196 99
170 194 99
171 195 84
171 193 88
176 199 105
169 192 102
170 193 108
169 192 88
169 192 88
167 191 95
172 196 117
172 196 120
169 193 88
168 191 84
175 197 122
172 195 88
165 189 88
168 192 88
166 189 80
168 192 80
168 192 105
171 194 99
167 191 105
169 193 117
167 190 84
172 195 99
171 193 84
173 197 102
165 189 95
168 191 84
166 189 92
172 195 92
172 196 95
167 190 76
165 188 76
165 188 88
168 191 92
164 187 92
161 184 84
171 195 117
168 191 88
170 193 88
166 190 102
168 192 111
162 185 62
167 190 102
167 191 88
159 182 108
171 194 111
165 188 95
159 181 88
166 189 113
161 182 84
165 189 111
150 172 67
163 186 76
161 183 97
166 188 108
157 179 95
151 173 76
170 192 88
162 184 80
155 179 80
157 179 70
163 186 111
153 176 110
156 179 110
156 179 88
160 183 105
167 189 105
163 185 95
157 180 102
154 176 108
162 184 108
153 175 88
160 181 102
155 177 84
154 177 105
154 175 92
151 171 84
152 173 84
154 176 108
156 178 105
153 174 92
149 170 95
156 177 92
150 170 88
154 174 105
149 169 99
151 171 95
156 177 108
148 168 76
150 170 88
139 158 84
149 169 102
147 166 105
141 160 99
155 175 92
142 160 72
152 172 108
148 167 105
145 164 95
133 151 92
145 162 105
142 160 95
138 157 72
122 140 72
119 138 51
133 150 84
125 143 72
137 155 76
129 147 62
140 158 67
121 138 62
121 137 67
116 133 67
104 119 51
127 143 72
111 126 51
124 140 67
113 129 44
104 120 44
122 138 80
115 132 67
114 129 51
116 134 25
136 154 25
127 146 25
122 140 25
144 164 25
159 178 0
148 166 0
154 173 0
154 174 0
146 165 0
131 149 0
145 164 0
128 145 0
126 143 0
127 144 0
112 130 0
110 127 0
111 129 0
95 110 0
104 121 0
100 116 0
100 116 0
111 128 0
111 130 0
122 141 0
130 150 0
124 143 0
97 115 0
93 111 0
113 131 0
105 122 0
106 124 0
102 118 0
95 113 0
108 126 0
108 124 0
105 120 0
101 117 0
86 103 0
103 119 0
99 116 0
112 130 0
94 112 0
102 118 0
97 113 0
103 120 0
99 116 0
105 121 0
107 123 0
106 123 0
95 113 0
95 112 0
96 113 0
104 120 0
105 120 0
107 124 0
111 128 0
100 116 0
98 114 0
95 111 0
103 121 0
115 132 0
102 119 0
104 120 0
108 125 0
114 131 0
99 116 0
110 128 0
112 129 0
93 110 0
104 121 0
104 121 0
116 133 0
105 123 0
112 129 0
110 127 0
116 134 0
111 130 0
107 124 0
121 137 0
115 132 0
114 132 0
116 134 0
116 135 0
127 144 0
115 132 0
115 133 0
112 131 0
114 133 0
122 139 0
125 143 0
120 138 0
129 149 0
124 141 0
110 127 0
113 131 0
139 158 0
127 145 0
112 130 0
119 138 0
123 143 0
121 140 0
130 148 0
130 148 0
135 152 0
131 151 0
130 151 0
119 140 0
131 152 0
124 142 0
135 155 0
126 145 0
133 152 0
133 151 0
131 149 0
127 147 0
125 145 0
133 152 0
133 152 0
142 162 0
136 156 0
136 156 0
139 159 0
142 163 0
126 146 0
141 160 0
134 154 0
141 161 0
138 157 0
132 151 0
137 156 0
143 162 0
142 162 0
143 163 0
139 160 0
144 165 0
137 157 0
148 168 0
138 159 0
153 173 0
137 155 0
144 163 0
147 168 0
141 160 0
141 162 0
146 165 0
147 166 0
142 162 0
146 167 0
146 166 0
150 170 0
147 169 0
150 172 0
146 165 0
151 171 0
142 161 0
157 178 0
145 164 0
147 167 0
155 174 0
148 169 0
153 174 0
150 171 0
150 170 0
144 164 0
149 169 0
160 182 0
149 169 0
161 183 0
148 168 0
155 175 0
147 167 0
145 164 0
158 179 0
160 182 0
148 167 0
155 176 0
155 176 0
147 165 0
148 170 0
157 177 0
159 177 0
157 176 0
151 172 0
155 176 0
156 176 0
150 170 0
162 182 0
155 175 0
156 176 0
157 177 0
159 180 0
155 173 0
157 178 0
151 170 0
160 182 0
156 177 0
162 182 0
161 182 0
162 183 0
162 183 0
161 182 0
162 182 0
157 178 0
162 180 0
157 179 0
154 175 0
160 181 0
156 178 0
159 180 0
163 183 0
164 184 0
158 180 0
157 177 0
157 178 0
156 176 0
165 185 0
157 178 0
163 184 0
160 182 0
160 180 0
159 178 0
158 177 0
162 183 0
165 187 0
155 175 0
163 184 0
160 179 0
163 183 0
156 176 0
159 178 0
163 184 0
161 182 0
161 182 0
161 182 0
161 180 0
163 184 0
162 185 0
159 179 0
164 185 0
164 185 0
162 184 0
162 182 0
162 184 0
163 184 0
159 180 0
165 187 0
163 183 0
166 186 0
164 185 0
167 188 0
166 186 0
165 187 0
164 184 0
161 182 0
169 191 0
163 184 0
161 183 0
163 184 0
162 182 0
163 186 0
165 187 0
162 182 0
166 187 0
164 185 0
166 186 0
166 187 0
170 191 0
168 189 0
166 187 0
167 188 0
171 194 0
176 199 88
175 198 95
174 198 102
170 194 92
171 195 105
167 191 76
169 192 67
172 196 105
178 201 117
172 195 99
174 197 99
169 193 95
169 192 88
175 199 111
171 196 88
170 194 108
172 195 72
174 197 102
172 195 99
174 198 102
168 191 95
170 194 108
172 195 99
171 194 99
166 190 95
169 191 99
166 189 92
168 191 99
172 196 84
171 194 105
166 189 76
168 192 80
169 193 92
169 192 99
171 195 102
170 193 120
169 192 92
168 191 92
161 185 72
166 189 95
165 188 84
169 193 111
162 186 88
162 185 80
165 190 108
164 188 88
165 189 122
165 188 95
161 185 99
162 185 92
168 191 125
159 182 84
162 185 88
167 190 102
159 182 62
166 188 99
166 189 102
161 185 84
166 190 111
161 183 102
163 186 88
161 183 92
157 181 80
171 194 105
158 180 86
161 183 97
168 190 108
162 186 95
163 186 92
156 178 88
162 184 108
157 179 84
162 184 108
165 187 99
156 179 108
157 180 102
146 169 92
160 182 80
155 176 102
158 179 105
160 181 88
158 179 114
160 182 111
152 173 92
162 182 120
154 176 92
152 172 92
152 173 92
155 176 108
156 177 92
146 166 80
151 172 88
150 169 95
159 180 99
158 178 92
150 170 99
155 175 88
147 168 92
142 162 76
148 168 92
149 169 102
143 162 95
148 168 76
134 152 95
137 156 67
146 166 92
138 156 84
152 171 111
140 158 84
140 157 88
136 153 88
137 155 88
141 158 99
124 141 80
111 128 57
135 153 76
129 147 62
126 143 72
127 144 72
126 143 44
130 147 51
120 137 67
123 141 51
123 140 80
104 119 44
113 129 36
113 131 51
129 146 36
131 149 25
122 141 25
133 151 0
125 145 0
151 171 0
157 177 0
154 174 0
154 173 0
148 166 0
149 167 0
147 166 0
144 163 0
128 149 0
128 147 0
130 148 0
123 142 0
113 130 0
106 124 0
110 127 0
117 134 0
92 110 0
104 120 0
117 135 0
124 143 0
119 137 25
137 157 0
116 133 0
103 120 0
114 132 0
106 123 0
93 109 0
121 140 0
112 129 0
119 137 0
111 128 0
111 126 0
107 124 0
91 108 0
111 128 0
102 118 0
118 136 0
99 116 0
106 124 0
110 127 0
116 133 0
102 117 0
105 123 0
94 111 0
93 109 0
116 133 0
106 123 0
99 116 0
107 123 0
96 114 0
110 126 0
109 125 0
110 126 0
102 119 0
99 116 0
107 124 0
100 116 0
115 132 0
101 119 0
110 127 0
104 119 0
105 122 0
105 123 0
112 130 0
102 118 0
102 118 0
113 131 0
116 132 0
105 123 0
120 136 0
105 122 0
108 124 0
106 123 0
108 127 0
108 127 0
115 132 0
109 126 0
122 141 0
117 135 0
127 145 0
117 136 0
123 142 0
121 139 0
110 127 0
131 150 0
120 138 0
119 138 0
125 144 0
116 134 0
119 137 0
121 139 0
123 143 0
119 138 0
124 143 0
130 147 0
120 138 0
128 146 0
130 150 0
124 144 0
125 143 0
143 162 0
132 152 0
131 152 0
124 143 0
129 149 0
132 151 0
124 143 0
132 152 0
136 158 0
141 161 0
130 151 0
125 145 0
130 150 0
135 154 0
139 159 0
141 161 0
145 164 0
132 153 0
136 155 0
145 165 0
140 161 0
137 157 0
139 158 0
141 161 0
145 167 0
141 161 0
136 153 0
142 163 0
143 163 0
141 162 0
139 159 0
143 164 0
152 172 0
144 165 0
143 163 0
144 164 0
143 162 0
139 160 0
140 161 0
144 164 0
143 164 0
152 174 0
144 163 0
147 166 0
145 166 0
150 172 0
153 174 0
155 175 0
153 174 0
146 166 0
149 171 0
148 169 0
151 173 0
150 171 0
143 163 0
147 166 0
154 174 0
153 175 0
147 168 0
147 169 0
148 167 0
154 175 0
155 175 0
155 176 0
152 172 0
148 169 0
152 174 0
152 172 0
146 166 0
155 176 0
145 165 0
159 180 0
151 171 0
148 170 0
159 181 0
154 177 0
154 173 0
151 170 0
158 179 0
162 182 0
155 175 0
154 175 0
154 174 0
160 182 0
152 173 0
154 174 0
157 177 0
159 181 0
161 182 0
153 175 0
153 173 0
157 177 0
155 175 0
154 174 0
158 178 0
158 177 0
163 185 0
162 182 0
156 177 0
151 169 0
159 177 0
161 181 0
163 184 0
161 182 0
160 180 0
160 181 0
157 178 0
157 178 0
158 178 0
161 183 0
162 181 0
163 184 0
150 172 0
163 183 0
157 177 0
161 181 0
158 178 0
153 173 0
155 175 0
163 182 0
164 186 0
166 186 0
158 180 0
162 181 0
166 187 0
159 178 0
165 186 0
157 177 0
163 185 0
164 185 0
165 187 0
164 186 0
165 186 0
164 186 0
162 183 0
168 190 0
160 180 0
168 190 0
160 181 0
160 181 0
167 188 0
161 181 0
160 182 0
167 189 0
166 188 0
168 190 0
165 186 0
162 184 0
159 181 0
162 183 0
167 190 0
161 183 0
163 184 0
167 190 0
167 188 0
164 183 0
165 185 0
165 186 0
163 185 0
164 185 0
162 184 0
166 188 0
167 189 0
165 187 0
163 184 0
168 189 0
164 185 0
165 186 0
171 194 76
169 192 95
169 192 88
177 201 114
174 197 99
172 195 102
169 192 72
177 200 108
167 191 88
175 198 88
172 195 84
170 194 80
171 195 72
164 188 80
176 200 108
171 195 102
176 198 117
170 193 114
172 195 80
167 190 84
171 193 111
167 189 95
167 190 84
169 192 88
167 190 105
168 191 102
169 193 102
170 193 92
157 181 51
166 190 95
162 186 72
169 193 84
163 187 108
167 190 95
168 192 92
164 187 99
165 188 102
173 197 114
172 196 102
162 185 67
163 186 84
164 187 84
161 185 92
163 186 72
161 183 80
163 186 99
164 186 80
159 182 102
162 184 88
163 185 92
161 184 114
172 194 80
162 185 95
161 184 99
159 181 80
168 192 102
159 182 88
169 193 105
161 184 102
157 180 108
163 186 92
161 184 84
160 182 99
153 175 95
157 180 92
162 185 118
165 188 95
161 184 99
162 184 76
161 184 92
162 184 117
157 179 92
162 184 92
164 186 105
159 181 95
159 181 108
158 180 95
152 174 95
158 181 105
163 184 108
156 178 99
151 173 88
155 177 111
160 181 99
151 173 88
155 177 99
160 181 105
146 168 95
156 178 114
157 177 88
150 171 92
162 182 120
144 164 80
161 182 99
143 163 92
150 170 92
158 178 108
149 169 108
150 169 92
152 173 88
154 173 114
136 156 76
151 171 99
141 160 92
140 158 105
154 173 105
152 171 99
151 169 102
132 149 88
143 162 95
135 153 76
129 146 88
134 152 92
143 161 99
130 149 62
132 149 80
126 143 51
108 126 44
114 132 44
119 137 57
115 130 57
117 134 67
120 137 57
121 138 36
118 134 57
110 127 51
105 122 36
126 144 0
122 140 0
131 149 0
122 139 0
141 160 25
148 168 0
161 181 0
152 171 0
140 159 0
146 165 0
147 166 0
144 165 0
139 158 0
136 155 0
112 129 0
109 127 0
119 137 0
117 135 0
106 125 0
108 126 0
98 115 0
116 132 0
111 129 0
110 128 0
111 130 0
120 138 0
139 160 0
115 134 0
104 120 0
115 133 0
103 121 0
114 131 0
114 130 0
116 134 0
99 117 0
99 117 0
109 127 0
104 121 0
102 118 0
107 125 0
101 118 0
109 125 0
117 133 0
94 111 0
119 136 0
111 126 0
104 122 0
106 122 0
99 115 0
107 125 0
103 120 0
105 122 0
94 111 0
105 122 0
97 114 0
105 123 0
104 120 0
103 121 0
116 133 0
102 119 0
125 144 0
99 116 0
110 128 0
109 125 0
117 134 0
110 128 0
115 134 0
102 120 0
122 140 0
114 132 0
105 121 0
119 136 0
110 127 0
106 123 0
111 128 0
112 130 0
120 139 0
126 144 0
108 126 0
110 127 0
120 138 0
113 132 0
116 133 0
120 138 0
111 128 0
104 123 0
118 137 0
120 139 0
118 135 0
115 133 0
116 135 0
121 139 0
131 150 0
119 138 0
134 153 0
133 153 0
138 158 0
132 151 0
133 153 0
115 134 0
123 142 0
125 144 0
129 149 0
118 136 0
129 147 0
128 148 0
134 153 0
129 146 0
130 150 0
135 154 0
130 149 0
129 148 0
135 153 0
131 151 0
135 155 0
143 162 0
134 152 0
139 160 0
139 159 0
121 139 0
144 164 0
141 161 0
129 148 0
133 152 0
142 162 0
138 159 0
142 162 0
144 165 0
138 159 0
138 158 0
137 156 0
137 156 0
148 169 0
151 171 0
140 160 0
141 160 0
134 153 0
141 162 0
142 161 0
148 169 0
141 160 0
147 168 0
142 163 0
146 165 0
144 164 0
146 167 0
146 166 0
139 160 0
146 165 0
151 172 0
128 149 0
150 172 0
148 168 0
144 164 0
145 167 0
147 168 0
153 174 0
151 172 0
138 158 0
144 166 0
148 169 0
154 175 0
153 173 0
145 166 0
153 173 0
154 174 0
160 182 0
148 169 0
159 180 0
155 174 0
156 178 0
151 172 0
152 171 0
158 178 0
151 173 0
157 176 0
159 179 0
147 168 0
152 173 0
154 175 0
154 174 0
152 172 0
146 168 0
149 172 0
147 166 0
150 170 0
158 180 0
151 170 0
152 174 0
150 171 0
153 175 0
158 181 0
157 178 0
157 178 0
161 181 0
156 175 0
154 172 0
157 177 0
159 179 0
158 179 0
159 179 0
154 174 0
160 182 0
159 179 0
155 176 0
161 182 0
158 178 0
153 174 0
159 181 0
159 179 0
157 179 0
163 183 0
158 180 0
158 179 0
157 177 0
159 179 0
161 181 0
163 185 0
154 173 0
159 179 0
165 185 0
163 184 0
162 184 0
163 183 0
166 187 0
162 184 0
165 188 0
163 183 0
164 185 0
160 179 0
165 186 0
163 184 0
163 186 0
162 184 0
165 186 0
158 180 0
162 183 0
159 180 0
163 185 0
163 182 0
161 181 0
165 186 0
162 182 0
166 186 0
166 185 0
163 184 0
161 183 0
167 188 0
160 180 0
162 182 0
167 190 0
166 184 0
163 184 0
168 190 0
162 185 0
168 190 0
165 187 0
165 187 0
162 183 0
169 190 0
160 181 0
169 191 0
158 180 0
167 189 0
164 183 0
168 190 0
165 187 0
161 181 0
165 187 0
166 189 0
163 185 0
163 184 0
166 187 0
174 197 92
176 199 95
174 197 88
172 196 102
170 193 67
171 194 99
170 193 84
175 198 105
179 203 122
172 194 108
169 193 80
171 195 92
171 194 102
172 195 99
171 194 92
173 195 108
169 192 84
172 195 108
171 194 80
171 194 95
171 194 88
165 188 76
173 196 95
168 191 95
172 195 102
170 194 92
170 193 99
167 191 92
168 190 76
167 190 76
166 189 88
169 193 108
169 192 102
167 191 80
169 192 108
163 186 84
170 194 102
167 191 95
167 191 95
166 190 105
166 189 95
167 190 95
171 195 102
161 184 92
168 191 92
162 186 88
161 185 88
170 193 95
158 181 62
163 186 105
163 186 92
156 180 80
165 188 102
165 188 92
160 183 95
164 187 95
160 183 108
156 179 92
160 183 99
158 181 95
164 187 80
153 176 99
162 184 103
160 183 84
159 182 84
157 180 80
157 179 100
160 182 95
165 188 99
160 183 95
165 187 95
165 187 84
156 179 95
159 181 95
152 175 72
160 181 84
155 177 80
159 181 76
160 182 102
163 183 102
149 171 88
161 183 117
153 174 67
161 183 108
158 179 92
154 176 92
154 175 84
162 183 99
156 177 99
153 173 105
158 179 92
155 176 95
151 172 117
158 178 111
150 170 88
142 163 57
157 176 102
154 174 105
155 174 99
157 177 108
161 181 108
151 171 95
154 174 108
152 171 102
143 162 95
145 164 92
141 160 95
140 160 76
136 156 84
140 157 92
152 171 99
130 149 76
131 149 80
138 157 80
139 157 80
133 151 76
133 151 76
136 154 62
135 153 72
136 155 51
117 133 51
117 134 57
116 133 57
125 142 67
127 144 44
110 126 57
125 142 25
134 152 25
123 143 0
119 138 0
131 151 25
134 151 0
142 162 25
150 171 0
153 173 0
151 171 0
148 170 0
145 166 0
143 163 0
147 165 0
136 155 0
133 152 0
121 140 0
116 133 0
125 141 0
114 131 0
101 118 0
124 142 0
113 130 0
110 127 0
115 133 0
109 127 0
130 149 0
119 139 0
114 132 0
101 119 0
128 146 0
112 130 0
99 115 0
108 126 0
110 129 0
109 127 0
107 123 0
91 108 0
117 135 0
102 119 0
111 129 0
102 119 0
97 115 0
111 129 0
112 130 0
91 108 0
107 125 0
97 114 0
112 130 0
111 128 0
96 114 0
104 122 0
109 126 0
108 126 0
103 121 0
118 135 0
103 121 0
96 113 0
101 118 0
112 129 0
108 125 0
113 130 0
98 117 0
99 116 0
115 132 0
109 127 0
107 124 0
111 128 0
109 126 0
118 137 0
120 139 0
120 137 0
117 134 0
133 152 0
105 124 0
101 119 0
118 134 0
112 131 0
117 136 0
102 120 0
116 134 0
125 143 0
118 137 0
122 141 0
109 128 0
114 132 0
113 131 0
112 131 0
122 140 0
115 133 0
123 142 0
126 145 0
115 135 0
124 142 0
130 149 0
126 145 0
132 150 0
126 145 0
130 150 0
131 150 0
130 148 0
126 145 0
133 151 0
128 146 0
132 151 0
123 140 0
139 159 0
133 151 0
130 151 0
124 143 0
136 156 0
132 152 0
131 151 0
130 150 0
129 148 0
130 150 0
134 153 0
123 141 0
133 153 0
134 154 0
140 160 0
143 162 0
140 159 0
145 165 0
144 163 0
137 156 0
138 158 0
137 154 0
139 159 0
136 156 0
140 161 0
145 164 0
144 166 0
134 153 0
143 164 0
134 152 0
135 157 0
140 160 0
140 161 0
144 163 0
141 162 0
148 168 0
143 162 0
138 158 0
142 162 0
140 160 0
147 169 0
139 158 0
139 160 0
149 170 0
141 162 0
145 165 0
146 165 0
144 166 0
145 165 0
149 170 0
149 170 0
148 169 0
145 167 0
154 174 0
150 172 0
149 170 0
157 178 0
144 164 0
159 178 0
148 168 0
150 171 0
153 173 0
155 176 0
149 169 0
146 167 0
154 176 0
160 180 0
153 174 0
159 179 0
152 172 0
154 173 0
150 170 0
160 180 0
155 175 0
156 176 0
155 175 0
154 174 0
149 169 0
149 169 0
158 180 0
160 181 0
156 177 0
153 173 0
156 175 0
162 183 0
158 178 0
156 176 0
158 178 0
153 173 0
156 178 0
152 173 0
159 179 0
157 179 0
157 178 0
157 177 0
160 182 0
157 177 0
157 177 0
160 182 0
157 179 0
154 176 0
157 179 0
159 180 0
162 183 0
159 180 0
162 184 0
165 186 0
163 183 0
161 182 0
158 179 0
161 182 0
163 183 0
157 177 0
157 178 0
162 182 0
164 185 0
163 184 0
162 184 0
167 188 0
157 178 0
167 188 0
162 183 0
165 188 0
162 183 0
167 188 0
158 178 0
157 177 0
163 183 0
158 179 0
161 180 0
157 178 0
166 188 0
160 181 0
164 186 0
164 186 0
165 185 0
160 179 0
163 183 0
161 182 0
163 184 0
164 187 0
168 189 0
164 185 0
164 186 0
163 184 0
165 186 0
165 188 0
164 185 0
160 181 0
165 187 0
167 190 0
161 182 0
167 188 0
168 189 0
159 179 0
166 189 0
159 179 0
166 189 0
163 185 0
165 187 0
167 190 0
168 189 0
163 184 0
166 188 0
163 183 0
165 185 0
165 187 0
168 190 0
173 196 72
169 193 80
172 195 80
172 196 95
172 196 99
174 197 105
172 195 102
168 192 92
169 193 84
168 192 84
175 198 92
167 191 80
171 194 92
172 195 76
174 197 105
175 198 102
172 196 88
173 195 108
165 188 84
173 195 99
169 193 80
171 195 105
168 191 88
171 196 95
168 192 114
172 196 108
173 197 108
163 187 67
169 192 92
170 193 99
166 190 84
168 192 111
163 186 92
168 191 102
164 187 57
164 187 92
169 193 111
163 187 67
164 188 62
166 189 88
168 191 92
164 187 99
165 189 80
167 190 88
169 192 80
161 185 108
169 192 88
157 181 80
160 184 111
167 191 84
164 187 95
166 188 108
166 188 84
160 182 84
164 187 95
160 184 102
163 186 111
160 182 105
164 186 105
155 178 80
162 184 80
162 185 111
164 187 102
164 186 117
158 181 102
154 176 92
151 174 80
153 175 88
160 183 99
162 185 88
160 183 102
161 183 95
162 184 108
162 184 80
157 179 108
164 187 105
154 177 84
156 178 80
157 179 76
152 176 88
154 176 105
153 175 92
152 173 88
147 168 92
153 175 105
151 172 105
153 175 117
154 175 99
164 185 88
161 183 95
156 178 92
155 175 99
155 176 111
144 165 88
147 167 95
153 173 95
147 168 88
149 168 99
152 171 95
149 169 105
139 158 92
150 169 92
151 171 105
152 171 102
146 163 114
133 152 84
148 168 88
146 164 111
138 159 76
141 160 95
147 165 80
134 151 76
143 162 92
143 161 80
134 153 51
141 160 88
128 146 44
142 161 44
126 144 25
128 147 57
115 132 36
127 145 51
135 152 51
119 136 44
127 144 62
127 145 51
122 140 25
122 141 0
135 153 36
115 132 36
124 143 0
132 151 0
143 163 0
154 174 0
151 169 0
150 171 0
148 169 0
146 165 0
143 164 0
146 164 0
125 144 0
131 149 0
131 149 0
123 142 0
123 141 0
118 137 0
107 125 0
102 119 0
113 130 0
105 123 0
106 124 0
119 136 0
124 143 0
127 147 0
120 139 0
112 130 0
122 140 0
100 119 0
112 130 0
105 123 0
129 147 0
105 123 0
112 130 0
116 133 0
110 127 0
119 136 0
112 129 0
107 124 0
110 127 0
120 137 0
118 135 0
108 126 0
120 138 0
114 130 0
115 132 0
115 133 0
93 110 0
114 132 0
103 121 0
111 129 0
113 130 0
105 123 0
98 114 0
111 127 0
119 137 0
99 117 0
112 128 0
106 123 0
122 140 0
105 123 0
109 127 0
110 127 0
116 134 0
107 124 0
111 130 0
106 124 0
106 124 0
104 121 0
123 141 0
105 122 0
125 144 0
125 143 0
114 133 0
112 131 0
118 137 0
123 141 0
115 132 0
123 142 0
114 132 0
126 144 0
114 132 0
126 146 0
124 144 0
119 137 0
130 150 0
138 157 0
127 146 0
135 154 0
119 136 0
122 140 0
128 148 0
125 144 0
122 141 0
127 147 0
125 144 0
129 149 0
127 146 0
141 161 0
130 149 0
131 151 0
129 149 0
128 147 0
136 155 0
134 154 0
142 162 0
125 143 0
134 154 0
139 159 0
125 145 0
122 142 0
140 159 0
128 147 0
137 158 0
134 155 0
134 155 0
131 150 0
134 153 0
142 162 0
130 149 0
137 156 0
129 149 0
137 155 0
134 154 0
141 161 0
144 166 0
141 160 0
140 161 0
137 156 0
146 167 0
139 160 0
140 160 0
143 165 0
146 165 0
143 165 0
146 167 0
141 162 0
144 165 0
144 164 0
143 163 0
147 167 0
149 168 0
150 170 0
147 168 0
151 172 0
151 172 0
149 169 0
147 167 0
153 173 0
148 169 0
147 167 0
153 173 0
151 171 0
150 171 0
151 173 0
148 170 0
149 170 0
156 178 0
146 167 0
141 161 0
155 177 0
153 173 0
150 171 0
151 172 0
151 171 0
157 177 0
153 174 0
151 171 0
149 170 0
145 166 0
153 174 0
152 173 0
152 172 0
149 168 0
155 174 0
152 173 0
151 172 0
161 181 0
152 174 0
155 176 0
154 174 0
160 182 0
155 175 0
159 180 0
154 175 0
162 184 0
154 175 0
152 174 0
152 173 0
156 176 0
160 182 0
159 180 0
158 179 0
159 180 0
153 173 0
155 175 0
155 174 0
157 177 0
159 181 0
160 182 0
157 178 0
162 183 0
157 177 0
154 175 0
159 181 0
158 179 0
159 180 0
167 188 0
163 182 0
160 180 0
163 184 0
157 178 0
164 185 0
157 178 0
165 187 0
158 178 0
158 179 0
164 185 0
167 189 0
159 181 0
155 176 0
158 179 0
164 185 0
161 181 0
156 176 0
162 183 0
167 189 0
164 185 0
165 187 0
159 181 0
163 183 0
160 184 0
159 180 0
160 179 0
156 174 0
162 183 0
158 178 0
160 181 0
165 187 0
165 187 0
166 188 0
165 185 0
157 178 0
163 186 0
163 185 0
165 186 0
163 184 0
166 188 0
164 186 0
164 184 0
166 188 0
166 188 0
164 185 0
165 187 0
164 186 0
167 188 0
167 188 0
166 188 0
168 190 0
164 187 0
168 190 0
168 189 0
161 182 0
166 188 0
165 184 0
169 191 0
163 185 0
166 189 0
164 186 0
169 191 0
168 188 0
175 198 99
176 199 127
172 196 72
172 195 99
173 196 88
175 198 114
175 198 111
168 191 72
171 194 92
169 192 111
174 197 122
173 197 108
169 192 92
172 196 99
167 190 95
173 196 99
170 193 80
173 197 114
178 201 105
170 193 105
168 192 108
168 192 111
163 186 88
173 196 108
173 196 114
169 192 84
165 189 92
167 190 99
167 190 95
169 192 84
167 191 99
170 193 105
166 189 88
165 188 95
168 191 92
166 190 88
172 195 105
168 190 80
167 191 108
165 189 92
160 183 76
163 186 105
167 189 102
163 186 84
170 195 120
166 189 102
160 184 102
160 183 80
164 188 76
155 178 76
163 187 92
159 182 76
170 193 99
165 188 92
165 188 108
157 180 95
165 188 105
168 191 88
158 180 84
159 182 95
164 187 95
157 180 99
157 179 80
163 186 84
160 183 99
161 184 100
166 188 80
168 190 92
158 181 95
165 188 114
162 185 102
162 183 88
160 182 80
149 170 76
156 177 76
153 175 84
155 178 99
160 182 84
163 184 95
164 186 99
158 180 99
160 183 95
160 181 102
156 176 88
158 179 99
156 178 72
153 175 99
155 177 88
162 183 117
162 183 120
156 176 105
157 178 105
151 172 99
152 173 80
149 170 76
144 165 88
145 165 88
145 165 102
147 167 95
148 168 108
149 168 102
148 168 84
152 172 99
144 163 92
150 169 105
149 168 105
148 167 102
148 167 95
139 156 120
135 154 76
143 162 80
150 168 108
139 157 76
133 151 80
142 160 80
137 156 67
134 153 57
122 140 57
128 146 44
128 145 72
131 148 72
124 142 51
127 145 72
135 153 72
121 139 44
129 147 57
136 156 36
125 143 0
130 149 25
134 153 25
138 158 0
132 151 25
136 155 0
152 171 0
156 176 0
149 171 0
146 165 0
141 161 0
145 164 0
140 162 0
134 153 0
128 147 0
134 153 0
107 125 0
124 142 0
121 140 0
122 138 0
117 134 0
111 130 0
111 129 0
114 132 0
122 140 0
117 135 0
126 146 0
114 134 0
107 126 0
107 125 0
113 131 0
118 136 0
123 142 0
106 123 0
97 116 0
118 136 0
111 129 0
117 134 0
123 141 0
117 134 0
112 129 0
118 136 0
117 135 0
112 130 0
103 121 0
114 132 0
124 142 0
111 129 0
97 115 0
122 139 0
110 127 0
113 130 0
119 137 0
104 123 0
108 126 0
116 133 0
108 126 0
111 128 0
107 125 0
103 122 0
109 127 0
108 126 0
122 140 0
109 128 0
104 122 0
114 132 0
104 121 0
105 123 0
120 140 0
105 123 0
112 130 0
115 133 0
125 144 0
122 140 0
109 128 0
109 127 0
116 134 0
116 134 0
122 141 0
129 147 0
115 133 0
125 145 0
139 157 0
119 138 0
121 141 0
125 144 0
120 138 0
125 145 0
122 140 0
125 144 0
116 136 0
130 148 0
123 142 0
129 148 0
119 138 0
129 149 0
129 149 0
125 144 0
132 151 0
129 149 0
142 160 0
129 146 0
128 147 0
133 152 0
127 146 0
143 163 0
122 141 0
128 146 0
143 160 0
141 162 0
137 158 0
138 159 0
142 163 0
128 148 0
143 163 0
135 155 0
137 156 0
134 155 0
142 162 0
137 156 0
136 157 0
134 154 0
136 156 0
138 158 0
144 167 0
139 158 0
142 162 0
144 164 0
142 161 0
135 155 0
142 163 0
137 157 0
137 160 0
149 169 0
142 162 0
144 166 0
141 162 0
147 166 0
143 162 0
145 167 0
151 171 0
144 165 0
135 155 0
149 168 0
139 158 0
145 167 0
148 169 0
150 169 0
146 166 0
149 170 0
145 165 0
147 167 0
142 163 0
156 178 0
148 169 0
148 167 0
148 167 0
147 168 0
151 173 0
151 171 0
156 176 0
158 180 0
146 166 0
149 168 0
152 172 0
153 175 0
144 164 0
150 170 0
154 176 0
150 173 0
157 177 0
158 180 0
157 177 0
154 175 0
150 167 0
155 176 0
155 175 0
148 167 0
155 175 0
154 175 0
151 172 0
156 176 0
155 176 0
151 173 0
159 180 0
151 171 0
160 180 0
152 172 0
156 176 0
156 177 0
157 178 0
153 173 0
161 182 0
152 172 0
154 173 0
155 175 0
161 181 0
156 177 0
157 178 0
161 181 0
160 181 0
158 178 0
164 185 0
158 179 0
159 181 0
157 180 0
161 182 0
160 180 0
160 182 0
154 175 0
161 182 0
163 184 0
155 175 0
166 188 0
157 179 0
158 177 0
160 182 0
161 183 0
162 183 0
158 180 0
162 183 0
161 183 0
159 178 0
164 185 0
168 189 0
159 179 0
161 181 0
163 183 0
167 188 0
163 184 0
163 184 0
162 184 0
162 183 0
163 183 0
158 177 0
164 186 0
167 188 0
168 188 0
167 189 0
164 185 0
163 186 0
162 184 0
164 187 0
165 184 0
168 187 0
163 183 0
166 188 0
161 181 0
165 185 0
167 189 0
166 187 0
163 184 0
165 187 0
162 185 0
165 185 0
164 185 0
168 190 0
164 185 0
167 189 0
164 186 0
166 188 0
168 191 0
165 186 0
169 191 0
165 186 0
159 179 0
167 190 0
165 186 0
166 188 0
166 188 0
172 194 0
166 188 0
168 190 0
176 199 117
170 193 108
175 198 99
174 198 99
172 195 92
175 199 105
174 197 102
176 199 105
173 196 95
173 196 84
171 195 99
170 194 84
167 190 105
174 198 120
169 193 84
173 197 111
171 195 84
173 197 92
169 193 111
174 198 95
167 191 95
171 195 114
168 191 92
170 194 84
168 192 84
170 193 102
166 189 88
165 188 76
173 196 88
169 193 95
169 192 111
172 195 102
165 189 72
167 191 114
164 188 108
165 187 72
165 189 102
168 191 92
166 190 92
170 193 105
166 189 95
165 189 84
163 187 92
169 192 95
162 185 92
161 184 114
159 181 80
161 185 95
171 195 111
165 188 105
161 184 102
163 187 95
165 189 84
165 189 92
167 190 95
163 186 72
165 188 88
161 184 72
161 183 88
158 180 84
161 183 67
161 184 105
156 179 72
168 191 80
164 186 88
163 186 105
163 185 88
160 183 92
166 189 130
167 190 111
157 180 88
156 178 80
158 180 67
154 176 88
166 188 117
156 177 88
155 177 76
147 169 80
157 179 67
160 181 88
163 185 114
160 182 105
154 175 88
160 182 84
152 174 88
162 183 105
152 174 99
162 183 108
158 179 102
147 168 99
154 176 105
147 168 76
155 176 114
156 177 76
151 172 105
158 179 108
156 176 105
145 165 84
154 174 99
153 174 102
156 175 114
140 159 95
148 167 105
142 161 88
148 168 95
149 169 99
144 163 95
152 171 80
143 162 102
146 164 84
136 155 67
125 144 57
149 166 102
142 160 88
123 142 51
132 150 57
140 159 44
131 150 67
133 152 44
136 156 51
130 149 51
129 149 57
131 150 67
142 160 80
126 145 36
132 151 44
118 136 0
129 149 44
132 151 0
121 140 0
139 159 25
132 151 25
149 168 25
159 180 0
150 171 0
156 178 0
150 170 0
145 165 0
148 169 0
141 162 0
134 152 0
130 148 0
128 148 0
126 145 0
123 142 0
129 149 0
119 138 0
119 137 0
120 139 0
120 139 0
117 136 0
124 143 0
129 150 0
140 160 0
127 146 0
111 131 0
103 121 0
114 132 0
112 130 0
117 135 0
118 136 0
101 120 0
121 140 0
109 127 0
112 131 0
120 138 0
120 139 0
117 135 0
111 129 0
119 138 0
105 122 0
116 134 0
111 128 0
119 138 0
117 134 0
113 130 0
111 129 0
117 135 0
106 124 0
119 136 0
114 132 0
111 128 0
101 118 0
117 135 0
114 132 0
116 134 0
108 127 0
118 136 0
120 139 0
120 138 0
115 132 0
117 136 0
109 127 0
121 139 0
126 144 0
122 141 0
126 144 0
115 133 0
119 138 0
120 139 0
127 145 0
104 123 0
131 150 0
115 133 0
124 143 0
119 139 0
120 139 0
122 141 0
128 147 0
115 135 0
132 151 0
124 143 0
119 138 0
119 138 0
120 140 0
128 149 0
129 148 0
128 149 0
119 139 0
115 134 0
124 142 0
126 144 0
123 143 0
125 143 0
129 146 0
133 153 0
134 154 0
127 146 0
129 147 0
132 152 0
124 144 0
129 150 0
137 156 0
129 150 0
142 163 0
137 157 0
134 154 0
137 157 0
138 158 0
137 156 0
140 159 0
124 144 0
140 159 0
138 159 0
142 161 0
137 157 0
139 158 0
146 164 0
147 166 0
136 155 0
137 157 0
139 159 0
148 168 0
141 162 0
144 165 0
152 172 0
136 157 0
139 158 0
153 174 0
143 162 0
139 158 0
143 163 0
144 166 0
142 161 0
144 164 0
147 167 0
143 161 0
156 177 0
146 167 0
134 154 0
154 173 0
152 173 0
145 166 0
150 170 0
142 163 0
147 166 0
151 172 0
149 170 0
152 174 0
150 170 0
153 173 0
145 165 0
145 166 0
150 171 0
151 171 0
154 174 0
150 172 0
146 167 0
144 166 0
152 173 0
148 168 0
153 175 0
160 182 0
158 180 0
150 172 0
147 168 0
152 171 0
155 176 0
157 179 0
150 170 0
159 180 0
162 184 0
158 178 0
156 178 0
156 177 0
154 174 0
155 175 0
152 173 0
151 171 0
152 173 0
156 177 0
156 176 0
155 176 0
164 186 0
159 181 0
156 178 0
155 178 0
157 179 0
153 174 0
155 174 0
160 182 0
155 175 0
158 178 0
153 173 0
161 182 0
159 178 0
144 165 0
158 178 0
160 181 0
162 184 0
161 182 0
158 179 0
160 179 0
158 180 0
159 180 0
160 181 0
159 181 0
162 182 0
165 185 0
158 177 0
156 177 0
154 176 0
165 186 0
160 182 0
163 183 0
164 185 0
159 179 0
161 181 0
158 178 0
163 184 0
160 182 0
162 182 0
165 187 0
159 180 0
165 186 0
167 187 0
165 186 0
159 181 0
160 181 0
163 185 0
163 183 0
164 187 0
164 184 0
160 180 0
165 187 0
163 182 0
161 182 0
163 186 0
165 188 0
166 187 0
164 187 0
163 183 0
159 179 0
165 187 0
167 187 0
161 184 0
167 188 0
167 189 0
165 186 0
166 187 0
163 184 0
166 188 0
166 187 0
165 186 0
163 185 0
165 188 0
164 188 0
168 190 0
162 181 0
168 190 0
164 185 0
166 188 0
164 186 0
164 185 0
164 186 0
163 184 0
166 187 0
168 190 0
168 189 0
167 188 0
175 198 95
175 198 114
174 197 92
175 198 105
169 191 80
170 193 92
173 197 99
174 197 105
173 196 88
172 195 99
172 195 111
171 194 102
169 192 102
173 196 95
167 191 92
168 192 72
172 194 84
167 190 102
173 196 102
169 193 88
170 194 95
165 188 67
165 189 92
169 193 99
171 196 76
167 191 80
169 193 84
171 195 92
167 190 99
166 189 84
173 197 120
174 197 114
168 192 105
166 189 80
169 193 92
169 193 105
165 188 80
174 197 88
165 188 92
171 194 80
167 190 102
166 190 92
164 187 88
169 192 84
161 183 92
165 189 88
164 187 84
167 190 95
164 187 102
160 183 102
157 181 80
170 193 92
161 184 92
165 187 108
162 184 84
161 185 88
163 186 88
168 191 80
160 183 88
161 183 105
161 185 111
161 184 111
158 181 105
158 180 88
166 189 84
159 183 108
167 190 80
167 189 105
159 182 95
151 174 84
165 188 117
157 180 76
163 185 111
156 178 76
168 190 102
155 177 88
163 184 84
158 180 95
155 176 92
155 177 95
162 183 108
163 185 99
155 177 95
158 180 92
160 182 102
161 183 99
160 182 95
152 174 99
147 169 67
150 170 92
153 174 120
150 171 92
150 170 84
154 175 95
140 161 92
154 175 95
154 174 111
152 173 92
160 180 102
157 177 92
156 176 92
150 170 99
150 169 88
154 174 108
159 179 99
153 173 108
151 170 102
152 169 114
136 155 102
141 160 88
143 163 80
147 166 95
142 160 95
134 152 80
148 168 62
129 148 57
126 145 44
136 155 36
138 157 67
122 141 44
130 148 67
130 149 62
129 147 62
126 145 36
125 143 44
135 155 25
124 144 0
129 148 25
114 133 36
131 152 0
140 160 36
136 155 36
145 167 0
159 181 0
150 171 0
150 172 0
152 171 0
145 167 0
139 157 0
138 159 0
137 157 0
140 159 0
137 156 0
133 153 0
124 144 0
133 152 0
116 135 0
125 143 0
117 136 0
112 130 0
113 131 0
118 137 25
121 141 0
138 159 0
141 161 0
124 142 0
112 131 0
112 131 0
112 131 0
120 139 0
128 147 0
110 128 0
110 128 0
109 127 0
117 136 0
115 132 0
124 143 0
118 135 0
112 130 0
101 118 0
125 144 0
108 127 0
105 123 0
116 136 0
116 134 0
116 135 0
118 137 0
116 134 0
113 131 0
115 134 0
118 136 0
108 126 0
108 124 0
109 126 0
120 139 0
117 135 0
105 124 0
116 133 0
113 131 0
127 146 0
115 133 0
118 138 0
124 141 0
110 129 0
126 145 0
117 135 0
117 136 0
123 141 0
128 146 0
121 140 0
124 141 0
122 140 0
124 143 0
120 140 0
113 132 0
129 148 0
115 134 0
129 147 0
130 149 0
122 140 0
130 149 0
124 143 0
121 140 0
130 150 0
125 143 0
125 145 0
118 136 0
123 142 0
129 147 0
135 155 0
124 145 0
136 154 0
136 156 0
120 139 0
120 140 0
123 142 0
134 154 0
128 147 0
127 147 0
137 157 0
133 153 0
137 157 0
128 147 0
132 151 0
130 150 0
133 153 0
139 159 0
131 151 0
140 160 0
130 150 0
144 165 0
136 155 0
140 161 0
136 155 0
138 158 0
135 156 0
136 155 0
141 162 0
140 160 0
145 163 0
148 169 0
137 157 0
134 155 0
144 163 0
146 166 0
138 158 0
144 164 0
143 162 0
145 165 0
141 161 0
136 156 0
143 163 0
144 166 0
145 167 0
147 168 0
145 164 0
151 172 0
146 167 0
153 174 0
149 169 0
149 169 0
145 165 0
155 177 0
149 170 0
150 168 0
157 179 0
149 170 0
146 168 0
148 170 0
147 168 0
154 175 0
158 181 0
145 165 0
155 176 0
150 172 0
158 179 0
150 172 0
155 175 0
155 176 0
150 171 0
156 176 0
150 172 0
152 174 0
151 171 0
153 174 0
153 175 0
159 179 0
150 171 0
150 170 0
153 175 0
155 177 0
148 168 0
151 171 0
150 169 0
156 176 0
152 173 0
149 170 0
151 171 0
161 181 0
160 181 0
153 174 0
158 179 0
157 177 0
157 177 0
151 170 0
162 184 0
153 174 0
158 180 0
158 180 0
161 181 0
153 174 0
156 175 0
161 181 0
157 179 0
157 177 0
156 177 0
158 178 0
163 184 0
160 181 0
154 175 0
152 172 0
164 184 0
158 179 0
159 179 0
163 184 0
164 186 0
156 176 0
161 184 0
162 182 0
159 181 0
155 177 0
163 185 0
159 179 0
159 180 0
164 184 0
160 179 0
157 177 0
163 185 0
157 178 0
164 187 0
161 181 0
163 185 0
162 183 0
162 182 0
161 182 0
164 185 0
161 182 0
159 179 0
159 180 0
167 189 0
163 184 0
165 187 0
158 180 0
165 188 0
162 183 0
162 183 0
167 189 0
164 185 0
165 187 0
162 182 0
158 179 0
162 184 0
164 187 0
164 185 0
164 185 0
163 184 0
166 188 0
170 193 0
168 190 0
171 193 0
165 186 0
163 185 0
164 185 0
166 188 0
167 190 0
166 186 0
162 183 0
164 186 0
165 186 0
161 181 0
164 186 0
160 182 0
163 186 0
161 182 0
162 182 0
169 190 0
165 187 0
168 191 0
167 188 0
169 190 0
178 200 125
175 198 111
173 196 105
174 197 114
173 196 111
175 199 108
175 198 111
164 187 76
169 192 95
178 201 111
172 195 102
173 197 95
170 194 95
169 193 108
175 198 120
172 196 105
171 193 76
171 194 92
174 197 117
167 190 84
163 186 80
167 191 102
175 199 120
166 190 99
170 194 105
169 192 122
168 192 117
167 190 72
167 190 102
166 189 108
164 189 76
172 195 88
164 187 95
173 197 92
168 191 84
164 187 88
171 194 95
165 189 92
163 187 111
170 193 108
165 189 95
167 190 102
169 194 111
169 192 95
168 191 102
172 195 105
166 190 88
163 187 95
160 183 95
162 185 99
161 184 99
165 188 105
161 184 84
166 189 99
170 193 92
157 181 102
172 194 95
164 187 114
161 184 95
167 191 127
167 189 105
155 177 84
168 191 102
164 187 105
167 189 92
166 189 92
164 188 105
158 181 95
164 186 102
160 183 99
154 176 88
161 183 95
159 181 133
160 183 84
158 180 108
164 186 102
161 183 108
159 180 105
160 182 114
160 182 105
157 179 99
156 177 102
159 181 99
160 181 108
158 179 102
162 184 102
160 181 114
157 179 88
154 176 95
162 182 117
153 174 102
159 180 99
156 177 88
163 183 117
158 178 92
154 174 92
145 165 88
151 171 80
154 173 111
151 171 99
139 158 88
142 162 99
149 168 95
151 171 108
148 167 105
150 169 95
143 162 88
150 170 95
146 165 84
152 171 111
140 160 62
152 170 95
138 156 95
137 155 67
132 152 36
142 162 62
133 152 67
143 163 44
137 155 57
124 141 51
136 155 62
133 152 62
124 144 25
127 144 72
136 156 0
122 141 0
121 140 25
133 153 25
133 153 0
128 147 0
137 158 0
133 153 36
151 172 0
158 179 0
154 176 0
160 183 0
153 175 0
145 166 0
140 159 0
135 155 0
135 154 0
143 164 0
139 160 0
127 146 0
120 138 0
136 156 0
122 139 0
127 146 0
131 150 0
118 136 0
116 135 0
127 146 0
121 140 0
131 150 0
132 152 0
113 132 0
123 141 0
116 134 0
115 136 0
121 138 0
112 131 0
126 144 0
116 135 0
120 140 0
107 126 0
107 124 0
111 130 0
117 136 0
127 145 0
111 130 0
126 144 0
109 127 0
106 124 0
108 127 0
124 143 0
118 136 0
114 132 0
122 140 0
118 137 0
119 137 0
106 125 0
116 135 0
109 128 0
112 130 0
126 145 0
115 132 0
118 136 0
128 147 0
114 132 0
115 133 0
109 128 0
125 144 0
123 142 0
129 147 0
114 132 0
111 130 0
110 128 0
121 140 0
124 144 0
126 144 0
125 144 0
118 135 0
119 136 0
125 143 0
124 143 0
124 145 0
124 143 0
125 144 0
131 152 0
123 142 0
135 154 0
121 138 0
117 134 0
130 150 0
122 141 0
134 152 0
129 150 0
127 147 0
130 149 0
126 146 0
125 145 0
118 138 0
127 146 0
131 150 0
137 156 0
124 144 0
131 151 0
142 163 0
132 153 0
127 146 0
135 154 0
133 153 0
134 153 0
130 150 0
129 150 0
125 144 0
138 158 0
141 162 0
130 151 0
135 154 0
142 161 0
136 155 0
135 156 0
132 152 0
138 159 0
138 158 0
140 160 0
143 164 0
148 170 0
135 157 0
129 148 0
143 164 0
153 173 0
147 166 0
152 174 0
133 153 0
143 164 0
143 163 0
142 164 0
150 171 0
137 158 0
138 157 0
144 165 0
145 166 0
154 174 0
149 171 0
146 167 0
151 173 0
145 167 0
147 167 0
150 169 0
138 158 0
147 167 0
148 170 0
142 163 0
147 167 0
152 172 0
147 166 0
152 172 0
156 178 0
151 172 0
151 171 0
148 170 0
149 170 0
150 171 0
151 170 0
152 174 0
147 167 0
153 173 0
149 172 0
164 185 0
146 166 0
156 178 0
155 176 0
162 183 0
154 176 0
155 174 0
156 178 0
149 169 0
158 179 0
148 168 0
152 175 0
147 168 0
159 182 0
155 177 0
151 172 0
148 168 0
156 177 0
155 176 0
153 174 0
153 174 0
151 172 0
152 173 0
155 176 0
153 173 0
160 182 0
159 180 0
156 177 0
148 167 0
156 178 0
150 172 0
161 182 0
162 183 0
153 174 0
154 174 0
159 181 0
155 174 0
160 181 0
157 178 0
156 177 0
156 177 0
158 177 0
157 178 0
159 178 0
161 183 0
164 185 0
162 184 0
162 183 0
155 177 0
165 187 0
163 185 0
162 181 0
157 178 0
167 188 0
160 180 0
160 182 0
158 179 0
165 185 0
151 172 0
162 183 0
158 179 0
166 186 0
160 181 0
160 181 0
162 183 0
166 188 0
163 183 0
163 184 0
160 182 0
161 181 0
168 189 0
167 188 0
163 184 0
168 189 0
163 185 0
162 184 0
162 181 0
162 182 0
160 181 0
163 186 0
163 185 0
161 181 0
160 183 0
164 185 0
166 188 0
168 190 0
168 190 0
168 188 0
162 185 0
163 185 0
162 184 0
160 182 0
164 186 0
166 187 0
171 192 0
169 190 0
167 189 0
167 188 0
168 189 0
165 186 0
167 188 0
166 188 0
165 186 0
167 189 0
165 188 0
165 188 0
166 188 0
164 185 0
170 193 0
166 188 0
171 195 92
177 200 117
170 193 92
171 195 95
170 194 88
171 195 84
170 193 95
169 192 76
173 196 105
175 198 114
172 196 95
174 197 99
167 190 76
175 197 102
166 189 88
173 196 114
173 196 99
162 186 88
171 194 92
169 192 95
170 194 95
167 191 84
171 194 88
172 195 108
171 194 102
166 189 95
168 192 102
169 191 80
166 190 88
167 190 99
168 191 88
165 188 84
164 188 95
170 194 105
167 191 80
168 191 88
161 185 92
168 191 114
167 190 84
166 189 92
166 190 92
167 191 84
164 187 76
165 189 111
166 190 95
163 186 95
168 191 111
172 195 108
168 191 99
164 186 76
160 182 99
170 193 111
166 190 105
166 190 88
157 180 80
168 192 99
163 186 92
161 184 76
161 184 102
159 182 95
157 180 80
154 176 95
162 185 102
163 186 99
159 182 84
167 190 99
162 184 102
161 183 67
161 184 108
161 183 102
158 180 92
149 172 76
162 184 95
157 180 111
157 180 92
167 189 102
164 186 108
155 177 80
160 183 72
150 172 80
160 182 76
164 185 111
153 176 92
160 182 95
158 179 105
157 178 99
157 178 117
152 173 108
157 178 92
150 171 95
157 179 80
153 174 105
163 183 99
158 179 102
149 170 92
151 171 105
139 160 92
158 180 88
156 175 88
150 170 88
152 172 76
149 169 76
161 181 102
157 177 80
157 175 122
145 164 92
152 171 99
153 172 99
151 171 88
151 169 105
149 168 72
147 167 72
152 170 95
137 157 67
146 165 76
143 163 67
144 163 72
143 162 62
134 153 57
134 154 44
142 161 80
138 158 57
131 149 62
128 147 51
134 154 0
135 154 0
141 161 44
130 149 36
126 147 0
140 159 25
128 148 0
146 167 25
148 169 0
161 183 0
160 183 0
156 178 0
148 169 0
150 170 0
144 164 0
142 163 0
146 164 0
141 163 0
128 147 0
136 156 0
129 149 0
127 146 0
126 144 0
122 141 0
126 145 0
128 148 0
127 146 0
134 153 0
116 135 0
132 152 0
131 150 0
120 139 0
111 130 0
128 147 0
118 138 0
121 141 0
130 150 0
128 146 0
119 137 0
101 121 0
124 143 0
119 138 0
116 135 0
117 135 0
119 138 0
111 129 0
121 139 0
130 149 0
110 128 0
113 133 0
120 138 0
118 136 0
126 146 0
118 137 0
118 137 0
109 127 0
120 139 0
123 141 0
121 140 0
125 145 0
114 133 0
118 136 0
106 124 0
105 123 0
117 135 0
104 123 0
117 136 0
117 136 0
126 146 0
122 141 0
119 138 0
119 137 0
127 146 0
107 126 0
131 152 0
117 136 0
121 140 0
123 143 0
123 142 0
125 145 0
117 136 0
128 148 0
128 148 0
124 143 0
128 149 0
119 137 0
136 155 0
120 138 0
125 145 0
124 144 0
126 145 0
122 141 0
117 136 0
128 147 0
133 153 0
140 160 0
137 158 0
128 147 0
132 151 0
130 149 0
134 153 0
132 151 0
129 149 0
132 151 0
146 166 0
138 159 0
130 150 0
126 146 0
136 155 0
138 157 0
131 151 0
138 158 0
139 160 0
142 162 0
142 162 0
141 160 0
131 151 0
139 159 0
142 162 0
140 161 0
139 159 0
135 156 0
127 145 0
136 156 0
136 157 0
144 164 0
132 151 0
142 163 0
141 162 0
135 154 0
142 162 0
149 170 0
144 165 0
149 169 0
146 167 0
139 159 0
141 160 0
143 165 0
143 164 0
136 157 0
145 167 0
143 162 0
145 166 0
136 158 0
140 160 0
155 175 0
153 174 0
147 168 0
154 175 0
149 170 0
154 175 0
151 172 0
152 173 0
154 174 0
147 169 0
157 178 0
151 172 0
151 173 0
145 165 0
151 173 0
153 173 0
150 172 0
150 172 0
151 171 0
145 164 0
150 171 0
154 176 0
154 176 0
157 179 0
155 178 0
155 176 0
156 177 0
162 184 0
153 175 0
150 170 0
161 183 0
155 176 0
154 175 0
159 181 0
156 178 0
148 170 0
155 176 0
154 173 0
155 177 0
160 181 0
155 177 0
160 181 0
156 177 0
157 179 0
156 178 0
152 172 0
158 178 0
160 181 0
159 180 0
164 185 0
154 175 0
156 178 0
157 178 0
154 176 0
161 181 0
156 175 0
154 174 0
157 178 0
159 179 0
155 177 0
161 183 0
161 182 0
157 177 0
158 179 0
165 187 0
161 185 0
160 183 0
158 180 0
160 182 0
162 183 0
161 183 0
160 182 0
167 189 0
159 180 0
161 183 0
163 184 0
159 179 0
159 179 0
162 183 0
159 180 0
161 183 0
164 183 0
159 181 0
160 181 0
162 182 0
163 184 0
162 184 0
164 185 0
157 177 0
164 186 0
158 177 0
158 180 0
162 184 0
161 182 0
165 187 0
166 187 0
164 186 0
159 179 0
161 183 0
161 181 0
163 185 0
165 187 0
164 186 0
166 189 0
167 189 0
164 185 0
167 187 0
163 185 0
166 188 0
165 185 0
161 182 0
166 187 0
164 185 0
165 187 0
168 190 0
165 187 0
168 190 0
169 191 0
165 188 0
162 183 0
163 185 0
166 187 0
163 185 0
164 185 0
169 191 0
165 187 0
168 188 0
168 190 0
168 189 0
168 188 0
169 190 0
175 198 88
170 193 99
173 195 88
172 195 99
166 190 99
175 198 92
173 195 105
170 194 76
171 195 92
166 190 95
171 194 105
175 198 95
174 197 92
173 197 117
172 195 99
172 194 95
170 194 105
172 196 108
168 191 92
171 194 92
174 198 125
171 195 99
174 197 102
164 188 102
175 197 111
173 197 99
168 191 76
172 196 111
169 192 108
170 194 92
169 193 108
170 193 84
164 187 95
164 188 84
166 189 92
165 189 99
167 191 84
168 192 95
164 187 80
163 186 88
166 189 88
168 191 95
168 192 95
160 183 76
166 189 92
165 189 111
164 187 92
155 178 99
166 189 72
171 194 114
162 185 108
165 188 84
159 181 92
158 181 99
166 189 92
163 186 95
166 189 95
161 184 102
165 188 76
170 193 102
162 184 84
167 191 105
161 183 88
154 177 67
160 183 99
157 180 84
160 183 92
164 187 105
153 175 76
167 190 92
162 183 95
162 185 76
160 182 99
151 173 80
163 186 95
162 184 88
167 189 108
163 185 92
161 183 105
161 183 99
156 177 108
153 175 105
149 170 95
156 177 95
158 180 102
151 172 67
156 177 99
160 181 99
162 182 111
155 176 99
153 174 80
157 178 105
153 174 95
160 181 102
153 175 92
155 175 111
141 162 76
155 175 105
151 172 88
153 174 84
150 170 76
159 178 114
156 175 102
153 173 102
148 167 95
155 175 108
154 174 102
146 166 95
152 170 99
134 153 88
143 162 76
145 163 92
146 165 62
135 155 57
147 165 80
141 161 62
130 150 44
140 160 67
138 158 0
144 164 57
132 151 67
133 152 44
141 161 57
134 154 25
139 160 44
142 163 25
139 160 25
130 151 25
139 159 0
138 160 0
129 149 36
138 158 0
150 170 0
151 172 0
158 180 0
147 170 0
152 175 0
147 168 0
140 160 0
149 169 0
136 156 0
141 162 0
129 149 0
137 157 0
125 144 0
138 157 0
130 149 0
114 133 0
125 144 0
127 147 0
126 144 0
138 159 0
127 146 0
136 155 0
133 153 0
139 159 0
131 151 0
120 138 0
114 133 0
127 147 0
119 138 0
111 129 0
127 146 0
119 139 0
114 133 0
129 148 0
112 131 0
118 136 0
114 133 0
131 150 0
122 140 0
116 136 0
117 136 0
120 140 0
106 124 0
123 143 0
126 145 0
109 127 0
125 144 0
120 140 0
131 151 0
128 148 0
115 134 0
124 144 0
126 145 0
127 145 0
117 136 0
121 140 0
113 132 0
128 146 0
123 143 0
123 143 0
113 132 0
116 136 0
123 142 0
118 137 0
134 153 0
135 154 0
121 141 0
126 145 0
123 142 0
125 144 0
129 149 0
128 147 0
130 149 0
123 142 0
128 148 0
122 142 0
125 145 0
122 141 0
130 148 0
135 155 0
124 144 0
135 155 0
126 146 0
131 150 0
118 136 0
130 150 0
127 148 0
132 152 0
131 151 0
124 145 0
127 147 0
123 142 0
130 150 0
134 154 0
130 149 0
133 153 0
137 156 0
136 156 0
122 143 0
141 160 0
128 148 0
125 145 0
139 158 0
139 159 0
142 162 0
132 152 0
125 143 0
146 168 0
146 167 0
133 154 0
139 159 0
138 158 0
144 165 0
140 161 0
145 165 0
135 156 0
135 156 0
140 159 0
138 160 0
139 159 0
141 161 0
142 162 0
138 159 0
138 160 0
150 171 0
143 165 0
143 163 0
143 164 0
150 172 0
146 167 0
137 157 0
145 165 0
148 167 0
142 163 0
148 170 0
152 172 0
139 159 0
152 173 0
145 166 0
152 173 0
149 170 0
151 172 0
145 165 0
153 172 0
160 182 0
150 171 0
151 172 0
155 176 0
150 170 0
157 178 0
156 178 0
148 170 0
155 174 0
150 170 0
156 177 0
154 173 0
153 173 0
152 172 0
153 175 0
151 172 0
157 179 0
143 164 0
148 168 0
149 169 0
157 178 0
159 180 0
156 176 0
148 170 0
162 184 0
154 174 0
154 175 0
157 179 0
155 176 0
158 180 0
158 180 0
158 179 0
156 178 0
151 170 0
156 177 0
158 178 0
164 183 0
161 181 0
156 176 0
160 180 0
156 178 0
155 177 0
158 179 0
161 183 0
155 175 0
162 184 0
160 183 0
157 179 0
166 187 0
157 178 0
155 177 0
158 178 0
153 173 0
160 183 0
156 176 0
153 174 0
160 183 0
154 175 0
160 182 0
159 180 0
162 183 0
166 188 0
162 184 0
167 189 0
162 184 0
154 176 0
158 179 0
165 187 0
164 186 0
163 183 0
159 181 0
166 188 0
160 182 0
159 181 0
162 183 0
167 189 0
159 181 0
162 185 0
164 188 0
164 186 0
156 178 0
170 189 0
162 184 0
167 189 0
162 184 0
159 180 0
168 189 0
165 187 0
164 185 0
161 182 0
164 187 0
164 186 0
166 188 0
159 180 0
167 190 0
166 189 0
169 191 0
158 179 0
166 188 0
165 187 0
166 187 0
166 188 0
165 187 0
162 183 0
167 190 0
166 188 0
161 182 0
166 186 0
168 190 0
169 191 0
167 190 0
170 190 0
167 188 0
165 188 0
167 189 0
169 191 0
165 186 0
170 191 0
169 190 0
162 183 0
166 188 0
167 186 0
165 186 0
168 190 0
172 194 102
171 194 92
174 197 108
175 198 105
171 194 88
176 199 111
171 194 105
175 198 105
172 195 92
170 193 95
175 198 105
170 193 51
167 191 80
171 194 99
172 196 95
170 193 105
170 193 102
176 199 99
172 194 76
170 194 102
171 194 102
170 193 76
171 195 102
170 192 92
168 191 102
170 193 88
171 194 84
162 185 80
170 193 108
166 189 84
167 191 67
170 193 105
169 192 108
166 190 95
168 192 108
176 200 125
164 187 95
165 188 102
165 189 92
170 194 105
160 183 80
171 195 120
166 188 111
161 184 99
167 189 95
166 190 111
165 189 99
169 192 105
167 190 92
169 193 99
168 191 117
166 189 95
164 187 105
171 194 108
158 182 105
162 185 95
160 183 84
170 193 84
163 185 76
156 179 95
161 184 105
168 191 111
156 179 92
161 184 105
162 183 111
164 186 105
162 185 84
161 185 67
164 187 111
159 182 92
170 193 120
158 180 76
160 182 88
162 184 88
158 180 108
164 185 105
162 185 84
162 184 92
159 181 72
153 174 72
152 174 76
154 176 105
156 178 95
156 178 88
164 185 117
155 177 76
160 182 108
151 173 88
160 182 92
160 179 99
160 181 92
152 173 105
151 171 105
153 175 88
157 178 99
150 171 84
156 177 84
159 179 114
160 180 108
154 174 92
154 173 105
161 181 108
157 176 95
154 173 105
149 169 80
155 174 105
159 178 111
148 167 108
162 181 114
157 176 108
150 170 80
150 169 92
137 157 57
140 160 36
144 163 72
139 159 62
152 171 67
142 161 72
128 148 36
139 159 51
142 162 62
130 149 57
136 156 25
138 158 0
143 165 25
137 158 0
144 164 36
146 166 25
140 160 36
142 162 25
140 162 0
138 158 0
156 177 25
152 174 0
161 183 0
146 168 0
149 170 0
142 164 0
145 165 0
140 162 0
149 170 0
144 163 0
138 159 0
135 154 0
137 157 0
123 143 0
121 140 0
120 139 0
130 148 0
121 140 0
132 152 0
123 143 0
142 162 0
133 153 0
137 158 0
113 131 0
119 139 0
121 140 0
130 149 0
120 139 0
127 146 0
127 147 0
126 144 0
129 149 0
112 131 0
123 142 0
120 139 0
116 135 0
127 146 0
133 152 0
125 142 0
118 137 0
118 137 0
114 132 0
118 137 0
124 143 0
110 128 0
122 141 0
116 135 0
125 144 0
116 137 0
124 143 0
121 142 0
126 147 0
124 144 0
134 152 0
124 143 0
128 148 0
114 133 0
112 131 0
119 138 0
126 145 0
126 145 0
125 144 0
125 144 0
129 149 0
126 145 0
125 144 0
121 140 0
133 153 0
119 138 0
129 149 0
127 147 0
127 146 0
121 141 0
134 154 0
141 161 0
124 143 0
130 149 0
134 154 0
111 131 0
122 143 0
133 154 0
119 138 0
130 150 0
134 153 0
139 159 0
130 149 0
135 155 0
128 147 0
129 150 0
130 150 0
130 149 0
135 154 0
131 150 0
140 160 0
126 146 0
131 151 0
152 172 0
136 156 0
144 164 0
136 157 0
134 154 0
134 154 0
144 164 0
141 162 0
138 159 0
144 164 0
145 166 0
145 167 0
141 161 0
144 163 0
145 165 0
135 156 0
149 170 0
146 167 0
144 164 0
147 167 0
148 170 0
131 151 0
138 159 0
140 161 0
143 164 0
141 160 0
145 167 0
144 165 0
145 166 0
142 163 0
146 167 0
149 169 0
141 161 0
154 175 0
149 167 0
149 169 0
150 173 0
147 167 0
150 171 0
147 167 0
141 162 0
141 162 0
150 171 0
150 170 0
150 169 0
150 171 0
152 173 0
151 171 0
148 169 0
154 175 0
155 176 0
151 173 0
149 169 0
151 172 0
156 177 0
144 163 0
152 173 0
157 179 0
158 180 0
155 175 0
153 174 0
149 170 0
158 179 0
151 172 0
155 177 0
151 172 0
155 179 0
155 177 0
152 172 0
156 176 0
160 182 0
160 182 0
161 182 0
152 174 0
156 177 0
159 180 0
156 176 0
152 174 0
147 167 0
154 175 0
155 176 0
157 179 0
160 180 0
156 178 0
156 177 0
153 172 0
156 176 0
155 175 0
164 186 0
158 179 0
159 181 0
154 177 0
157 176 0
156 177 0
158 178 0
153 173 0
158 177 0
159 181 0
158 180 0
164 185 0
154 174 0
160 181 0
167 188 0
158 179 0
161 182 0
158 181 0
164 184 0
160 180 0
162 184 0
157 179 0
160 181 0
163 185 0
158 179 0
161 183 0
156 176 0
162 181 0
157 179 0
162 183 0
165 188 0
165 186 0
159 181 0
157 180 0
161 183 0
166 188 0
160 182 0
163 182 0
166 189 0
165 187 0
166 188 0
161 183 0
162 184 0
165 186 0
163 186 0
163 184 0
165 186 0
167 189 0
161 181 0
167 187 0
164 184 0
160 181 0
158 179 0
162 183 0
164 185 0
165 186 0
167 187 0
166 187 0
161 183 0
166 188 0
165 186 0
159 180 0
165 187 0
168 189 0
166 189 0
161 183 0
166 188 0
163 185 0
167 188 0
164 186 0
167 188 0
166 189 0
163 187 0
164 186 0
164 185 0
164 186 0
165 186 0
167 189 0
168 191 0
169 192 0
168 190 0
165 186 0
166 187 0
163 184 0
169 192 76
171 194 99
172 196 80
173 196 84
174 197 92
169 192 99
173 196 92
171 194 105
174 197 108
170 193 88
171 194 102
170 192 102
170 194 84
174 197 105
174 197 88
169 193 92
174 198 95
173 197 84
167 190 84
171 194 99
169 193 92
170 193 92
171 195 105
165 189 84
169 193 102
170 194 108
171 194 84
167 191 95
170 194 108
164 187 80
163 187 95
170 193 99
168 190 99
168 191 84
169 192 88
172 196 122
163 186 80
163 186 99
162 186 95
164 186 76
165 188 105
165 188 99
168 191 102
160 183 92
162 186 88
167 191 88
165 188 88
166 188 99
158 181 84
161 184 76
162 186 102
163 186 95
170 193 120
163 186 84
162 185 88
169 193 105
167 191 108
166 189 105
162 186 102
164 186 84
160 182 84
160 183 92
164 187 102
160 183 88
165 187 111
169 192 105
160 182 99
168 190 105
166 189 117
161 183 95
165 187 120
156 178 99
166 189 114
166 188 120
157 180 76
152 175 76
163 185 99
159 182 80
154 176 84
156 178 67
156 178 102
156 177 88
153 174 111
164 186 99
156 177 92
149 171 88
150 172 72
157 179 92
160 181 108
156 178 80
150 171 88
150 171 84
159 179 117
162 182 105
163 184 108
155 176 102
162 182 84
162 182 88
160 181 92
159 179 99
157 177 105
158 179 99
148 168 99
157 177 92
160 180 111
156 176 99
154 174 105
149 168 99
158 177 88
150 169 102
140 160 72
139 160 44
156 177 72
153 173 72
133 153 51
144 163 62
147 166 67
140 159 72
143 163 44
130 150 25
139 158 51
140 161 36
141 161 44
133 153 62
136 154 25
143 163 25
133 153 36
140 161 25
137 157 0
135 155 36
141 162 36
140 161 0
146 168 0
157 177 0
160 182 0
158 180 0
145 167 0
148 169 0
149 170 0
147 168 0
149 170 0
136 156 0
140 160 0
135 156 0
128 147 0
131 151 0
131 152 0
127 145 0
119 139 0
134 153 0
129 149 0
126 146 0
129 149 0
134 154 0
135 155 0
133 152 0
126 147 0
113 133 0
128 148 0
116 135 0
121 140 0
126 146 0
120 140 0
123 142 0
134 153 0
126 144 0
126 147 0
124 142 0
130 150 0
116 136 0
130 149 0
128 147 0
119 138 0
123 143 0
122 141 0
138 157 0
128 147 0
123 142 0
121 141 0
125 145 0
119 139 0
116 135 0
118 138 0
126 146 0
125 145 0
125 145 0
130 149 0
111 130 0
123 142 0
120 139 0
121 141 0
128 147 0
122 141 0
124 143 0
119 138 0
129 149 0
124 143 0
128 147 0
127 146 0
121 141 0
133 152 0
131 151 0
121 141 0
128 147 0
123 144 0
131 151 0
124 143 0
129 148 0
133 152 0
139 160 0
132 152 0
120 140 0
129 149 0
139 159 0
136 156 0
128 148 0
134 155 0
133 152 0
127 147 0
123 144 0
127 147 0
135 154 0
133 152 0
135 155 0
126 145 0
145 166 0
141 163 0
135 154 0
137 159 0
129 147 0
147 166 0
126 146 0
139 160 0
133 153 0
143 164 0
138 159 0
140 161 0
141 161 0
135 155 0
137 157 0
148 169 0
136 157 0
146 167 0
139 159 0
127 147 0
147 167 0
138 159 0
143 164 0
144 164 0
144 166 0
144 165 0
146 167 0
145 166 0
144 165 0
136 157 0
148 169 0
143 165 0
145 166 0
138 160 0
142 164 0
144 164 0
142 163 0
148 169 0
144 165 0
151 171 0
144 166 0
155 176 0
147 168 0
155 175 0
147 167 0
147 169 0
145 165 0
151 173 0
151 172 0
145 166 0
150 170 0
149 170 0
153 173 0
154 175 0
159 180 0
148 169 0
153 173 0
150 170 0
146 168 0
152 174 0
157 177 0
153 175 0
159 182 0
150 171 0
157 178 0
157 180 0
152 174 0
156 178 0
159 181 0
149 171 0
151 172 0
155 175 0
152 173 0
156 179 0
154 176 0
151 172 0
153 174 0
156 177 0
155 178 0
154 175 0
161 182 0
156 178 0
156 176 0
162 182 0
156 178 0
158 180 0
155 176 0
157 177 0
155 176 0
162 184 0
160 182 0
162 183 0
151 171 0
160 181 0
155 176 0
163 185 0
158 179 0
155 176 0
162 185 0
162 182 0
161 182 0
162 184 0
160 183 0
158 180 0
161 182 0
155 177 0
164 185 0
155 177 0
157 177 0
158 180 0
163 185 0
163 184 0
163 186 0
160 181 0
164 186 0
163 183 0
162 183 0
165 186 0
159 181 0
161 184 0
165 188 0
165 186 0
160 181 0
160 182 0
162 184 0
162 183 0
163 184 0
163 185 0
160 179 0
162 183 0
161 182 0
166 187 0
163 186 0
162 183 0
165 186 0
161 184 0
167 188 0
167 188 0
165 186 0
167 189 0
165 187 0
157 179 0
165 185 0
164 186 0
166 188 0
164 186 0
161 182 0
168 190 0
164 185 0
165 187 0
165 187 0
161 183 0
165 188 0
166 187 0
164 185 0
164 186 0
166 188 0
164 184 0
165 186 0
163 185 0
164 187 0
165 187 0
167 189 0
166 187 0
166 188 0
167 190 0
165 188 0
160 181 0
164 186 0
163 185 0
167 188 0
165 187 0
166 187 0
166 188 0
167 188 0
169 191 84
171 194 99
172 196 84
171 194 108
171 194 88
172 195 88
177 200 111
176 200 111
173 197 108
168 191 92
174 197 88
171 194 114
172 195 95
168 191 99
175 198 92
172 196 108
173 195 88
170 193 95
170 193 72
170 193 111
169 193 88
166 189 84
169 193 92
168 192 84
172 194 99
167 191 108
170 194 102
165 188 99
172 195 102
166 189 102
169 193 102
169 192 88
168 191 108
170 193 92
168 191 102
164 188 102
168 192 120
163 186 117
162 186 88
165 188 67
164 188 76
168 192 92
170 193 117
161 184 102
163 185 80
161 185 88
169 193 111
164 188 108
162 186 105
163 186 84
170 193 105
167 190 117
170 192 108
159 182 99
160 182 99
163 185 72
169 193 102
161 184 80
160 183 99
165 189 105
165 188 102
160 183 108
170 192 108
166 190 122
161 184 95
156 178 80
164 186 117
158 181 102
157 180 95
154 177 84
159 181 108
163 186 92
156 178 99
165 187 95
160 183 80
168 190 108
160 182 92
167 190 105
152 173 102
161 182 84
155 178 95
156 178 84
162 184 108
156 177 84
164 184 120
163 184 84
162 183 102
168 189 122
154 174 80
151 172 88
162 184 102
156 178 99
157 178 114
162 182 92
162 184 88
164 184 111
154 175 95
155 176 108
157 177 88
149 170 88
158 178 92
160 180 114
150 170 88
156 176 111
162 181 108
151 170 102
155 174 99
148 167 111
158 176 105
148 166 105
151 170 92
142 164 44
152 172 84
155 175 95
148 167 62
148 167 76
134 155 44
145 165 72
134 155 62
146 165 57
151 171 67
149 170 36
130 151 44
136 156 44
141 161 25
130 149 36
131 153 25
132 153 0
140 162 0
148 169 0
141 162 36
145 165 25
153 174 0
157 180 0
150 172 0
149 171 0
154 175 0
151 172 0
142 164 0
142 163 0
147 168 0
130 150 0
134 154 0
137 159 0
137 158 0
133 153 0
130 150 0
135 154 0
125 144 0
121 141 0
133 153 0
138 158 0
135 155 0
143 162 0
131 150 0
132 152 0
131 150 0
119 136 0
126 145 0
125 145 0
131 151 0
128 147 0
112 132 0
124 143 0
128 147 0
128 148 0
134 153 0
121 141 0
124 144 0
132 151 0
124 144 0
123 143 0
122 140 0
122 143 0
131 151 0
126 145 0
119 138 0
112 131 0
124 144 0
116 135 0
129 148 0
130 148 0
120 139 0
125 144 0
131 150 0
120 139 0
121 141 0
121 140 0
126 145 0
114 134 0
126 145 0
114 133 0
139 160 0
121 140 0
129 148 0
129 148 0
130 151 0
119 139 0
125 145 0
135 156 0
123 143 0
123 143 0
128 149 0
137 157 0
137 156 0
134 154 0
141 161 0
125 146 0
134 154 0
127 148 0
126 145 0
132 152 0
136 157 0
135 156 0
136 155 0
134 154 0
134 155 0
139 158 0
128 148 0
135 155 0
124 145 0
132 152 0
141 163 0
137 157 0
142 163 0
136 156 0
139 159 0
138 159 0
139 160 0
147 169 0
136 155 0
139 160 0
146 166 0
146 167 0
141 162 0
138 158 0
141 162 0
146 165 0
142 163 0
135 155 0
133 153 0
135 156 0
150 170 0
146 168 0
146 166 0
143 165 0
142 163 0
134 154 0
146 168 0
138 158 0
151 172 0
147 168 0
145 165 0
133 154 0
149 170 0
143 162 0
151 173 0
152 173 0
145 167 0
149 170 0
149 169 0
145 166 0
153 174 0
143 164 0
141 162 0
143 164 0
146 167 0
148 170 0
153 173 0
150 172 0
151 172 0
142 164 0
150 171 0
151 172 0
147 167 0
157 179 0
148 169 0
151 172 0
151 173 0
145 166 0
154 175 0
157 178 0
153 173 0
151 172 0
148 168 0
146 168 0
156 177 0
152 173 0
151 171 0
150 171 0
159 180 0
156 178 0
150 171 0
153 175 0
153 175 0
152 174 0
159 181 0
151 171 0
159 180 0
153 174 0
153 173 0
156 178 0
158 179 0
149 169 0
157 178 0
161 182 0
153 174 0
157 179 0
157 178 0
159 181 0
161 183 0
164 186 0
162 184 0
157 179 0
159 179 0
161 183 0
160 182 0
158 179 0
158 180 0
158 178 0
157 178 0
159 180 0
162 184 0
158 179 0
159 178 0
159 181 0
155 177 0
162 185 0
156 177 0
157 177 0
154 176 0
161 182 0
165 186 0
159 181 0
165 187 0
159 178 0
162 183 0
155 175 0
158 179 0
160 180 0
163 184 0
164 186 0
157 177 0
159 180 0
161 183 0
164 186 0
158 178 0
159 180 0
164 185 0
164 187 0
162 184 0
163 184 0
158 180 0
165 187 0
166 188 0
161 183 0
165 187 0
163 183 0
163 186 0
163 184 0
162 184 0
159 180 0
160 183 0
165 188 0
163 184 0
168 188 0
165 186 0
168 189 0
164 185 0
165 187 0
162 183 0
163 183 0
167 189 0
163 185 0
162 185 0
167 190 0
163 183 0
165 188 0
168 189 0
166 187 0
164 186 0
166 187 0
167 189 0
161 183 0
170 192 0
163 185 0
166 186 0
161 182 0
166 187 0
162 184 0
168 190 0
162 183 0
166 188 0
161 183 0
167 189 0
166 188 0
167 188 0
166 187 0
166 187 0
170 192 0
170 194 95
172 195 88
171 193 111
176 199 114
175 197 117
175 197 102
174 197 95
168 192 84
175 198 111
167 190 88
172 195 111
172 196 76
166 190 95
166 189 80
173 196 99
172 195 114
172 195 72
172 195 111
169 193 102
169 192 88
168 191 84
171 194 62
175 199 111
162 185 92
169 192 99
169 192 108
168 191 99
167 190 92
164 188 84
171 195 108
167 191 102
165 188 84
169 193 108
165 188 80
168 192 92
169 192 80
166 189 84
166 189 102
160 183 92
168 191 84
160 183 92
166 190 111
169 191 95
159 184 99
169 193 111
163 185 76
170 193 111
166 189 84
167 191 102
169 192 111
163 185 76
161 184 95
161 184 92
167 190 92
166 189 102
167 190 114
159 182 95
164 187 76
163 187 95
160 182 92
165 188 111
164 187 80
169 191 105
161 183 76
163 187 95
164 186 92
164 186 84
165 189 99
157 180 92
167 190 99
164 186 92
165 188 92
153 175 72
161 184 114
157 179 99
161 183 111
156 179 84
159 181 111
158 180 99
158 180 84
161 184 95
161 182 99
157 178 105
157 179 102
161 183 102
155 176 72
162 183 105
151 172 80
151 172 72
162 183 99
150 171 92
154 175 84
154 175 99
155 176 95
156 177 99
163 183 99
161 181 114
168 188 120
161 181 114
154 174 92
149 170 102
152 171 88
155 174 111
151 171 95
164 183 99
155 175 88
153 174 95
160 180 102
156 174 117
151 172 84
146 165 80
151 170 72
139 158 62
144 165 76
140 160 62
153 172 88
154 174 67
149 169 67
151 171 62
146 166 44
140 160 25
142 163 36
137 158 25
134 154 44
145 166 25
139 160 25
131 151 0
145 166 25
138 158 36
143 163 25
153 174 44
143 165 25
154 175 0
155 177 0
152 173 0
153 175 0
153 175 0
155 176 0
151 172 0
142 162 0
134 155 0
139 160 0
144 164 0
141 163 0
129 147 0
135 154 0
136 157 0
135 155 0
121 141 0
127 148 0
130 149 0
130 150 0
133 153 0
134 155 0
141 161 0
127 147 0
128 148 0
125 144 0
129 149 0
116 136 0
135 154 0
123 141 0
123 144 0
129 149 0
124 143 0
128 147 0
130 150 0
128 148 0
125 145 0
122 142 0
131 151 0
135 154 0
122 143 0
132 151 0
126 145 0
125 145 0
118 138 0
134 153 0
119 139 0
126 144 0
130 151 0
129 149 0
126 145 0
119 138 0
119 139 0
127 147 0
131 151 0
127 146 0
137 157 0
125 143 0
131 151 0
125 144 0
123 142 0
124 144 0
119 138 0
142 163 0
128 148 0
124 145 0
137 157 0
129 149 0
134 154 0
128 148 0
127 148 0
134 155 0
125 145 0
130 151 0
133 153 0
131 151 0
122 143 0
134 154 0
144 165 0
126 146 0
137 157 0
125 144 0
132 153 0
132 151 0
130 151 0
138 159 0
136 157 0
130 151 0
134 156 0
140 161 0
140 160 0
122 140 0
131 151 0
142 162 0
123 144 0
132 152 0
150 170 0
138 157 0
140 162 0
147 168 0
133 156 0
137 158 0
140 161 0
142 162 0
142 163 0
140 160 0
145 166 0
135 155 0
139 160 0
137 159 0
139 161 0
138 159 0
136 156 0
138 160 0
148 169 0
147 169 0
145 165 0
140 161 0
147 167 0
144 164 0
148 167 0
141 162 0
143 164 0
148 169 0
150 171 0
144 165 0
144 166 0
143 164 0
152 174 0
148 168 0
149 171 0
147 168 0
144 166 0
138 159 0
144 165 0
146 167 0
137 160 0
150 171 0
158 179 0
154 176 0
149 171 0
155 177 0
144 165 0
149 170 0
150 171 0
150 169 0
144 167 0
150 170 0
151 172 0
154 174 0
154 177 0
157 177 0
155 177 0
151 171 0
151 174 0
154 174 0
152 173 0
155 176 0
153 175 0
162 183 0
159 180 0
153 174 0
154 174 0
149 171 0
158 179 0
147 168 0
155 178 0
157 177 0
163 184 0
153 174 0
156 178 0
152 171 0
160 181 0
154 176 0
153 175 0
160 180 0
158 180 0
155 177 0
156 178 0
156 177 0
159 182 0
159 179 0
157 178 0
156 177 0
158 180 0
157 178 0
158 179 0
157 179 0
156 177 0
162 184 0
161 184 0
151 173 0
162 186 0
164 185 0
157 178 0
158 179 0
154 176 0
169 191 0
155 177 0
160 181 0
160 183 0
157 179 0
161 181 0
158 179 0
158 179 0
162 184 0
158 178 0
157 177 0
164 187 0
158 180 0
163 185 0
161 182 0
161 184 0
166 187 0
161 181 0
165 188 0
160 182 0
161 183 0
163 185 0
163 184 0
163 182 0
162 184 0
166 189 0
159 182 0
161 184 0
165 187 0
165 185 0
165 185 0
163 185 0
162 184 0
160 181 0
168 189 0
165 186 0
168 189 0
160 182 0
160 182 0
167 189 0
168 190 0
165 187 0
163 187 0
167 187 0
162 184 0
160 181 0
163 185 0
169 192 0
162 183 0
166 188 0
169 191 0
165 188 0
165 186 0
164 186 0
167 189 0
165 187 0
164 187 0
167 189 0
165 187 0
169 192 0
166 187 0
166 188 0
164 186 0
165 187 0
168 190 0
164 187 0
165 186 0
165 187 0
165 186 0
168 190 0
166 189 0
178 201 108
172 194 95
179 202 108
171 193 105
172 195 105
172 195 102
174 197 102
176 199 105
175 199 108
164 188 84
169 192 92
173 196 92
168 192 99
173 196 117
170 193 99
169 192 76
172 195 95
173 197 88
170 193 88
169 192 99
169 193 88
176 199 102
170 193 105
169 192 99
166 190 105
168 191 114
170 194 80
165 189 92
166 190 72
165 188 76
165 188 80
163 187 76
168 192 105
168 191 88
166 189 88
161 184 72
165 187 72
170 194 95
162 185 76
164 187 88
167 191 105
170 194 111
168 193 108
164 188 102
165 188 84
167 190 111
169 192 111
164 188 102
161 184 92
166 190 95
168 192 95
165 188 102
164 187 92
163 186 80
167 189 95
168 191 102
169 191 95
165 188 80
153 177 88
167 190 105
159 182 102
156 179 80
163 185 67
165 188 84
159 182 76
170 192 95
164 187 108
157 180 105
163 186 92
151 172 92
168 189 99
161 184 76
162 184 76
166 188 95
163 184 95
157 177 80
161 184 102
162 184 99
165 186 105
157 179 95
165 187 111
162 184 92
163 184 105
162 184 102
162 182 102
154 174 95
159 180 88
160 182 99
164 185 105
157 178 88
147 167 92
152 173 57
157 178 95
159 179 95
175 196 122
157 177 99
146 165 95
152 172 95
156 177 99
150 171 72
152 171 114
159 178 102
152 172 92
145 166 76
159 179 102
147 167 88
145 164 99
151 170 76
147 167 84
146 166 67
154 173 99
155 174 102
142 163 67
133 152 44
150 170 72
148 168 62
143 163 51
148 168 67
152 172 72
138 159 36
136 157 25
129 150 25
138 159 0
151 172 36
124 144 25
149 170 25
142 164 0
146 167 25
136 157 25
139 160 36
150 171 25
143 164 25
160 182 0
160 182 0
158 180 0
156 178 0
153 173 0
150 173 0
151 172 0
144 166 0
148 169 0
143 165 0
133 155 0
136 156 0
134 155 0
139 159 0
120 140 0
125 145 0
124 145 0
132 153 0
121 140 0
138 158 0
126 145 0
149 170 0
134 154 0
134 154 0
133 153 0
127 146 0
125 143 0
130 150 0
129 148 0
113 133 0
129 149 0
136 156 0
130 149 0
121 140 0
124 144 0
123 143 0
127 146 0
131 151 0
122 142 0
135 155 0
125 146 0
135 155 0
127 146 0
128 148 0
133 152 0
123 143 0
121 141 0
143 163 0
131 149 0
134 154 0
129 149 0
127 147 0
129 148 0
128 149 0
134 154 0
124 143 0
126 147 0
125 145 0
132 152 0
129 149 0
125 144 0
123 143 0
122 141 0
132 151 0
125 146 0
114 133 0
127 146 0
143 162 0
124 144 0
127 147 0
133 154 0
132 152 0
130 149 0
134 154 0
129 149 0
130 147 0
132 151 0
124 144 0
135 154 0
135 156 0
140 159 0
137 158 0
140 160 0
142 163 0
144 164 0
139 160 0
138 158 0
138 158 0
138 158 0
134 154 0
129 150 0
138 157 0
140 162 0
139 160 0
132 153 0
130 150 0
139 160 0
133 154 0
136 156 0
140 160 0
139 159 0
142 163 0
143 163 0
140 161 0
143 163 0
136 157 0
143 164 0
131 151 0
133 153 0
149 169 0
137 157 0
143 164 0
139 160 0
153 174 0
143 162 0
136 157 0
145 165 0
144 164 0
141 163 0
148 169 0
149 171 0
145 164 0
137 158 0
141 163 0
143 165 0
141 161 0
141 161 0
146 167 0
154 175 0
145 166 0
147 170 0
148 169 0
149 170 0
148 168 0
147 167 0
157 178 0
151 171 0
152 172 0
146 167 0
159 182 0
146 166 0
151 172 0
146 167 0
148 169 0
141 162 0
154 175 0
153 173 0
149 171 0
151 172 0
159 180 0
155 174 0
144 166 0
152 174 0
148 169 0
151 171 0
153 174 0
155 176 0
151 172 0
152 174 0
153 174 0
162 185 0
154 174 0
161 184 0
155 176 0
157 180 0
155 177 0
157 179 0
154 176 0
157 178 0
160 181 0
159 180 0
159 181 0
151 172 0
153 174 0
159 181 0
159 182 0
161 181 0
152 172 0
150 172 0
155 176 0
161 182 0
160 181 0
155 176 0
155 176 0
158 180 0
154 175 0
161 182 0
158 177 0
157 177 0
157 179 0
162 183 0
158 179 0
159 180 0
157 179 0
162 183 0
160 180 0
161 182 0
167 190 0
162 183 0
161 184 0
166 187 0
161 183 0
159 179 0
160 181 0
159 180 0
164 185 0
164 185 0
162 183 0
161 183 0
157 178 0
160 182 0
165 187 0
164 185 0
163 186 0
164 185 0
153 176 0
162 183 0
161 182 0
159 181 0
163 183 0
163 184 0
166 187 0
166 188 0
164 184 0
161 182 0
164 187 0
168 191 0
164 185 0
162 183 0
164 185 0
164 186 0
161 184 0
161 183 0
165 187 0
163 185 0
167 188 0
165 187 0
165 186 0
166 188 0
166 187 0
164 185 0
158 181 0
167 188 0
165 188 0
170 191 0
169 191 0
166 186 0
168 191 0
164 186 0
163 184 0
165 187 0
160 183 0
168 190 0
168 190 0
166 188 0
166 188 0
161 182 0
168 190 0
165 187 0
166 188 0
165 187 0
165 187 0
168 190 0
163 185 0
165 186 0
167 188 0
164 185 0
165 188 0
170 194 92
169 192 95
175 198 111
176 199 108
176 199 111
172 195 114
171 194 95
171 193 95
172 195 92
172 195 102
174 196 88
169 193 105
171 194 99
168 191 92
170 194 102
170 194 95
167 191 95
168 191 105
171 193 80
170 194 117
165 188 84
174 197 84
167 191 84
165 188 99
174 197 114
164 187 88
167 190 88
170 194 108
169 192 102
169 192 92
168 191 95
166 189 88
170 194 92
167 190 99
170 193 108
164 188 88
172 196 114
163 186 80
165 188 99
161 184 92
164 187 88
165 187 88
165 189 108
168 191 92
168 191 92
171 194 99
170 193 102
161 184 99
164 187 72
165 188 114
167 189 102
167 190 92
160 184 99
155 178 99
165 189 102
168 190 111
167 190 108
154 176 80
163 186 102
161 183 88
165 188 95
166 189 108
162 184 99
172 194 111
167 189 92
165 187 84
159 180 92
159 181 99
163 186 127
158 181 95
158 180 80
161 183 76
163 185 95
164 186 88
160 183 108
165 186 102
156 179 62
166 188 102
164 185 99
156 178 88
150 172 67
153 174 80
164 186 102
155 176 88
158 179 102
153 175 102
154 176 92
151 172 84
153 174 84
161 182 108
159 180 108
153 174 84
155 175 99
156 176 99
159 180 99
162 181 114
166 187 114
155 176 92
156 177 102
149 169 92
157 178 84
155 175 102
164 184 114
152 171 99
155 176 105
146 166 80
145 165 84
157 177 88
152 172 84
152 173 72
141 160 88
159 179 88
151 171 67
140 160 51
141 161 44
146 166 84
147 167 67
151 171 57
145 166 25
138 160 36
140 162 25
130 150 25
146 167 36
141 161 0
141 162 25
148 168 44
142 162 36
140 161 0
141 162 0
139 160 0
139 160 0
141 163 0
160 181 0
158 179 0
152 173 0
151 174 0
151 173 0
145 167 0
148 169 0
141 162 0
142 163 0
144 165 0
137 158 0
138 158 0
144 165 0
133 153 0
128 150 0
130 150 0
130 150 0
137 157 0
138 159 0
131 150 0
136 156 0
131 151 0
133 153 0
130 150 0
135 156 0
134 153 0
125 144 0
123 143 0
128 148 0
129 149 0
134 154 0
130 150 0
117 137 0
124 144 0
139 159 0
132 152 0
129 149 0
131 151 0
120 140 0
122 142 0
113 132 0
126 146 0
123 143 0
121 140 0
130 150 0
125 145 0
124 143 0
130 150 0
123 143 0
131 151 0
121 141 0
125 145 0
137 157 0
126 146 0
126 146 0
131 150 0
121 140 0
129 150 0
122 142 0
132 152 0
133 154 0
130 150 0
133 153 0
129 148 0
138 159 0
134 154 0
131 151 0
127 146 0
132 152 0
131 149 0
130 149 0
134 154 0
128 149 0
136 157 0
133 153 0
129 148 0
131 150 0
141 162 0
137 157 0
141 161 0
136 156 0
136 158 0
131 152 0
134 153 0
138 159 0
136 157 0
129 149 0
138 158 0
136 156 0
143 163 0
136 155 0
138 158 0
133 154 0
138 158 0
122 142 0
138 159 0
132 151 0
136 156 0
137 157 0
141 163 0
141 162 0
133 154 0
146 168 0
143 163 0
148 169 0
152 173 0
147 167 0
137 158 0
139 160 0
147 167 0
143 164 0
146 166 0
139 160 0
143 164 0
143 164 0
143 163 0
148 169 0
149 170 0
143 163 0
142 161 0
146 166 0
139 160 0
140 161 0
151 173 0
145 167 0
146 167 0
144 165 0
151 173 0
151 171 0
139 160 0
151 171 0
145 167 0
142 162 0
150 171 0
142 163 0
136 157 0
143 164 0
144 163 0
146 168 0
151 173 0
151 173 0
158 179 0
155 177 0
147 167 0
149 170 0
150 172 0
152 172 0
145 165 0
152 173 0
146 168 0
155 176 0
156 177 0
150 171 0
150 171 0
162 183 0
154 175 0
155 176 0
156 177 0
159 181 0
155 178 0
158 179 0
150 172 0
156 177 0
149 172 0
153 174 0
153 174 0
147 169 0
153 175 0
158 179 0
162 184 0
158 180 0
160 181 0
155 176 0
157 178 0
160 181 0
158 179 0
159 181 0
153 175 0
158 178 0
155 176 0
161 182 0
157 179 0
155 177 0
151 171 0
156 177 0
161 182 0
158 180 0
153 175 0
163 186 0
156 177 0
158 179 0
161 181 0
158 180 0
160 181 0
159 180 0
160 182 0
164 186 0
163 183 0
162 184 0
167 188 0
167 188 0
160 182 0
155 177 0
164 186 0
162 182 0
161 184 0
162 184 0
158 179 0
161 183 0
158 180 0
159 181 0
162 185 0
160 182 0
164 187 0
162 184 0
163 183 0
167 190 0
165 186 0
162 184 0
157 179 0
163 184 0
164 185 0
162 183 0
165 187 0
163 184 0
163 184 0
166 188 0
167 188 0
165 187 0
164 187 0
159 181 0
166 188 0
164 186 0
163 186 0
163 185 0
162 184 0
169 191 0
164 187 0
160 182 0
162 183 0
164 186 0
164 185 0
162 185 0
163 185 0
162 185 0
164 185 0
163 184 0
170 192 0
162 184 0
164 187 0
168 190 0
169 191 0
165 187 0
167 190 0
165 187 0
165 187 0
164 186 0
166 188 0
163 186 0
169 191 0
165 186 0
166 189 0
166 189 0
170 192 0
165 188 0
167 188 0
169 190 0
167 189 0
178 201 120
170 193 92
172 195 105
178 201 127
173 196 88
173 196 88
169 193 92
173 195 88
171 194 95
172 196 88
168 190 80
168 190 92
169 192 88
173 196 84
170 193 88
175 198 111
167 190 72
169 191 84
173 196 105
166 189 84
165 189 114
169 192 111
172 196 111
163 186 99
168 191 92
170 194 114
169 193 111
161 184 80
172 196 114
162 185 88
171 195 102
172 195 102
172 195 108
170 193 72
159 182 80
167 191 92
167 191 108
170 193 108
168 192 76
168 192 108
167 190 99
163 187 95
163 187 108
169 193 114
173 196 108
166 189 99
164 187 95
165 188 117
163 186 108
166 190 105
165 188 105
168 192 92
165 189 99
163 186 92
164 187 99
160 182 92
168 190 108
166 189 95
165 188 117
170 192 92
163 186 102
164 187 108
163 187 120
170 192 88
159 182 84
159 182 80
165 187 108
159 180 80
168 191 111
163 185 88
161 183 114
170 193 120
157 179 99
156 178 92
163 184 114
154 175 67
162 184 51
165 187 95
160 181 102
161 183 95
159 182 95
150 172 99
162 184 111
164 185 102
158 179 102
155 177 92
162 183 102
156 177 105
160 181 105
155 177 92
162 183 105
157 178 88
164 185 95
155 176 92
161 182 105
160 181 105
156 177 76
161 181 105
158 178 92
149 170 88
159 179 84
157 177 84
155 175 84
161 181 105
154 174 99
158 178 108
163 184 88
150 169 84
158 179 84
144 164 88
140 160 67
154 175 72
156 176 76
145 164 84
151 172 62
147 168 44
149 169 72
152 173 51
142 163 36
138 159 0
143 165 25
147 167 44
145 167 36
132 153 25
148 169 51
149 170 0
143 163 0
146 167 0
141 162 36
136 157 0
137 157 36
148 170 0
160 182 0
154 177 0
159 181 0
142 165 0
149 172 0
148 170 0
149 170 0
141 163 0
145 166 0
151 172 0
149 170 0
131 151 0
133 154 0
125 146 0
137 159 0
131 151 0
136 157 0
131 152 0
139 160 0
128 149 0
139 158 0
139 160 0
131 151 0
131 152 0
134 154 0
121 141 0
132 152 0
132 153 0
128 148 0
119 139 0
126 146 0
127 147 0
143 164 0
135 155 0
119 138 0
119 139 0
136 156 0
126 145 0
136 157 0
122 142 0
130 150 0
126 146 0
123 143 0
127 147 0
126 145 0
129 148 0
118 137 0
134 155 0
134 153 0
123 144 0
128 148 0
123 143 0
132 151 0
134 154 0
131 152 0
129 150 0
133 154 0
124 143 0
127 147 0
127 147 0
124 144 0
134 153 0
125 146 0
125 145 0
122 142 0
129 149 0
131 151 0
146 168 0
128 148 0
124 145 0
130 149 0
129 149 0
131 151 0
119 139 0
127 147 0
129 150 0
136 157 0
132 150 0
132 152 0
135 155 0
143 165 0
139 160 0
123 142 0
130 150 0
134 156 0
136 157 0
133 153 0
139 159 0
130 152 0
132 152 0
141 163 0
137 158 0
146 166 0
141 161 0
142 164 0
137 158 0
134 155 0
147 168 0
138 159 0
145 165 0
139 159 0
141 162 0
141 163 0
143 163 0
129 150 0
144 166 0
147 167 0
143 163 0
140 161 0
140 159 0
145 165 0
147 168 0
142 163 0
148 171 0
143 164 0
146 167 0
137 159 0
144 165 0
141 162 0
144 165 0
146 167 0
150 172 0
145 167 0
141 162 0
142 164 0
146 168 0
151 172 0
146 169 0
139 158 0
150 172 0
147 168 0
143 162 0
150 173 0
145 167 0
143 164 0
149 170 0
152 174 0
151 172 0
149 171 0
153 174 0
149 172 0
154 174 0
154 176 0
153 173 0
148 169 0
148 168 0
154 176 0
149 170 0
151 172 0
156 178 0
152 173 0
154 175 0
153 173 0
149 171 0
157 179 0
156 177 0
155 177 0
151 173 0
159 179 0
158 179 0
151 173 0
156 178 0
160 182 0
156 177 0
153 175 0
159 180 0
161 183 0
164 186 0
162 183 0
155 177 0
156 177 0
153 175 0
150 171 0
157 178 0
157 179 0
151 173 0
156 176 0
158 180 0
156 176 0
154 176 0
154 174 0
160 183 0
155 176 0
155 176 0
162 185 0
161 182 0
154 175 0
162 186 0
159 181 0
162 184 0
158 179 0
158 180 0
159 181 0
161 182 0
159 180 0
159 182 0
166 189 0
158 180 0
165 187 0
164 185 0
162 182 0
161 182 0
161 183 0
163 186 0
163 183 0
162 184 0
160 182 0
161 183 0
158 180 0
167 189 0
161 184 0
160 181 0
155 177 0
166 188 0
161 183 0
159 181 0
158 180 0
161 183 0
158 181 0
166 187 0
164 184 0
162 185 0
163 185 0
162 184 0
160 183 0
163 185 0
160 182 0
168 190 0
160 182 0
170 192 0
163 184 0
164 186 0
165 187 0
165 187 0
166 189 0
158 180 0
161 182 0
166 186 0
164 186 0
168 189 0
163 185 0
166 188 0
170 192 0
165 186 0
164 186 0
163 186 0
168 190 0
163 186 0
162 184 0
162 185 0
164 186 0
168 190 0
167 188 0
170 190 0
167 189 0
166 188 0
164 187 0
166 187 0
165 187 0
167 189 0
163 185 0
166 187 0
165 188 0
164 187 0
165 188 0
169 191 0
164 186 0
165 187 0
175 198 102
171 194 102
171 194 80
172 194 95
171 193 99
173 196 92
168 191 80
175 198 111
166 190 80
167 190 76
172 196 105
177 200 92
166 190 92
171 195 108
171 194 92
171 194 95
167 190 80
167 191 84
170 194 99
170 193 92
167 189 108
171 194 108
169 191 88
168 191 105
167 190 88
172 195 95
169 193 102
167 191 102
172 194 95
170 193 84
168 191 72
170 194 105
170 193 114
173 196 88
170 193 92
170 193 95
163 186 95
165 188 72
168 191 102
160 183 76
168 191 102
168 190 88
163 186 95
168 191 99
164 186 99
171 194 105
165 188 76
169 193 95
161 184 88
162 186 84
167 191 117
161 184 84
169 191 102
166 188 92
164 186 84
162 185 105
157 180 95
166 189 102
162 184 117
166 189 114
163 185 99
170 192 88
167 189 88
164 186 92
164 187 111
160 182 88
163 186 105
164 186 92
161 182 102
161 183 88
156 178 88
166 189 102
158 180 80
164 186 80
159 181 84
153 176 95
164 185 102
162 184 76
158 179 92
162 183 108
159 181 105
160 181 99
158 181 88
164 185 95
159 180 80
155 176 88
146 167 84
152 173 80
157 178 95
156 177 99
161 183 92
158 179 67
162 183 114
160 180 111
168 189 108
155 176 99
156 176 92
157 177 111
152 173 99
158 178 102
154 174 88
160 179 108
154 175 95
154 174 99
163 183 111
163 182 120
142 162 62
154 175 80
148 168 88
159 180 62
150 170 76
155 176 62
142 162 67
151 171 76
154 175 67
142 162 67
140 161 51
147 168 0
147 168 0
145 167 0
147 167 25
145 166 36
139 160 44
142 163 25
147 167 0
147 169 0
150 172 36
142 163 0
145 167 0
151 172 25
151 172 0
151 173 0
161 184 0
159 181 0
160 183 0
154 175 0
155 177 0
153 176 0
147 169 0
146 167 0
153 174 0
141 162 0
139 160 0
139 160 0
145 166 0
135 156 0
125 146 0
141 162 0
139 159 0
137 158 0
132 153 0
132 152 0
137 157 0
136 157 0
129 149 0
125 144 0
137 158 0
134 154 0
133 154 0
129 149 0
137 156 0
129 149 0
133 153 0
130 149 0
132 152 0
139 159 0
134 155 0
126 146 0
124 144 0
122 142 0
140 160 0
131 151 0
123 142 0
123 143 0
137 157 0
136 156 0
133 153 0
122 142 0
138 158 0
139 160 0
133 152 0
134 155 0
129 149 0
135 156 0
123 143 0
125 145 0
138 158 0
126 147 0
137 158 0
132 152 0
127 148 0
135 155 0
131 151 0
134 155 0
133 154 0
131 151 0
130 151 0
143 164 0
137 157 0
135 156 0
139 161 0
147 168 0
133 153 0
124 144 0
134 155 0
130 151 0
134 154 0
137 157 0
133 153 0
137 158 0
149 171 0
135 156 0
148 168 0
124 145 0
138 157 0
127 148 0
135 156 0
140 160 0
145 165 0
138 160 0
136 157 0
133 153 0
139 159 0
140 160 0
135 155 0
135 155 0
137 158 0
129 150 0
148 168 0
144 166 0
141 162 0
141 161 0
148 169 0
140 160 0
147 168 0
144 165 0
136 157 0
143 164 0
143 164 0
151 173 0
148 168 0
148 168 0
158 180 0
144 165 0
139 160 0
143 165 0
138 158 0
143 163 0
145 164 0
150 172 0
149 172 0
145 165 0
144 166 0
142 164 0
144 166 0
148 169 0
154 177 0
150 170 0
151 171 0
147 168 0
151 173 0
149 171 0
157 178 0
152 173 0
149 170 0
145 166 0
144 165 0
144 166 0
152 173 0
149 172 0
151 172 0
154 175 0
145 165 0
151 174 0
148 169 0
157 177 0
153 175 0
161 184 0
152 173 0
151 172 0
153 175 0
156 177 0
156 178 0
159 180 0
152 173 0
150 171 0
158 180 0
149 170 0
154 175 0
153 176 0
153 173 0
154 175 0
155 177 0
154 174 0
156 178 0
152 173 0
158 180 0
144 166 0
154 175 0
161 183 0
157 179 0
152 173 0
157 178 0
160 183 0
157 178 0
154 175 0
159 181 0
161 183 0
159 180 0
159 181 0
162 182 0
159 180 0
152 173 0
151 172 0
160 180 0
165 185 0
161 183 0
155 177 0
163 185 0
162 184 0
161 182 0
158 181 0
155 175 0
157 178 0
160 181 0
163 185 0
161 183 0
161 183 0
150 171 0
159 180 0
159 181 0
168 190 0
165 185 0
162 184 0
159 181 0
157 179 0
165 188 0
166 187 0
161 183 0
164 187 0
160 183 0
157 178 0
161 182 0
164 185 0
160 183 0
166 187 0
167 188 0
168 190 0
161 184 0
159 181 0
164 186 0
163 185 0
157 180 0
159 181 0
159 181 0
164 187 0
160 182 0
167 189 0
156 178 0
163 185 0
158 180 0
165 188 0
157 180 0
165 186 0
164 187 0
165 187 0
168 191 0
168 190 0
166 187 0
166 187 0
162 184 0
165 187 0
166 188 0
161 184 0
162 184 0
162 184 0
166 189 0
163 184 0
168 191 0
164 186 0
164 187 0
166 187 0
169 190 0
164 186 0
164 186 0
159 179 0
165 187 0
164 186 0
165 188 0
166 188 0
166 189 0
169 191 0
169 189 0
165 186 0
165 188 0
166 187 0
168 191 0
167 189 0
167 188 0
166 187 0
174 196 84
173 196 95
175 198 95
172 196 92
174 197 102
168 190 92
176 199 99
171 193 102
175 198 99
171 194 88
169 192 84
174 196 88
175 199 105
176 199 95
171 195 92
166 188 95
170 193 92
172 195 88
176 199 99
170 194 92
172 194 99
170 193 88
167 191 88
165 188 80
167 191 99
172 195 117
172 196 108
169 192 105
168 191 88
170 194 108
167 191 84
166 190 102
167 190 99
167 191 92
166 190 95
169 193 92
171 194 114
165 189 76
168 191 114
167 191 102
167 190 102
164 187 95
162 185 99
167 190 88
168 190 99
163 186 102
164 187 80
163 187 102
161 184 92
160 183 72
163 186 102
166 189 99
160 183 67
161 184 76
163 186 92
164 186 88
164 187 88
167 190 114
157 179 95
166 189 105
159 182 102
160 182 99
159 181 99
155 177 108
162 185 84
162 186 105
165 187 99
166 188 114
162 184 102
161 184 95
164 186 105
163 186 95
164 186 84
156 176 108
162 184 99
164 185 76
163 186 80
156 178 99
163 185 99
158 180 88
164 185 88
162 185 114
168 190 111
160 181 102
160 182 88
164 186 84
151 173 108
162 183 88
151 172 88
165 187 111
154 175 95
154 175 80
164 184 108
162 183 88
149 171 76
159 179 108
163 183 105
159 180 99
160 181 99
155 175 88
161 182 105
143 164 67
160 180 108
149 168 92
151 170 108
154 175 95
155 175 92
154 176 57
153 173 84
158 178 88
156 176 88
156 176 67
147 168 57
154 173 80
141 161 57
155 175 76
146 166 36
139 160 36
153 175 0
145 166 0
139 160 25
143 164 25
149 170 25
154 176 0
151 171 44
144 165 25
138 160 0
147 168 0
151 172 0
153 174 0
143 165 0
152 173 25
159 182 0
157 179 0
158 181 0
158 180 0
150 171 0
151 174 0
143 164 0
139 159 0
146 168 0
133 154 0
143 164 0
144 165 0
147 167 0
141 163 0
127 147 0
131 151 0
134 152 0
137 157 0
137 157 0
134 155 0
140 160 0
131 151 0
135 155 0
138 158 0
141 161 0
136 155 0
130 150 0
137 158 0
130 150 0
139 159 0
135 155 0
133 152 0
139 160 0
129 148 0
132 152 0
134 155 0
133 154 0
137 157 0
124 143 0
144 165 0
136 157 0
130 150 0
140 161 0
143 165 0
138 159 0
135 155 0
126 146 0
124 143 0
129 149 0
143 163 0
134 155 0
129 150 0
130 150 0
130 151 0
126 146 0
130 149 0
139 160 0
131 151 0
132 153 0
129 149 0
127 146 0
133 155 0
135 155 0
140 159 0
138 158 0
133 153 0
139 159 0
125 145 0
138 158 0
134 154 0
131 151 0
127 147 0
133 154 0
139 159 0
135 155 0
130 149 0
134 155 0
141 161 0
138 158 0
146 167 0
138 158 0
136 156 0
143 163 0
143 163 0
136 157 0
137 158 0
136 156 0
150 170 0
135 155 0
138 158 0
140 160 0
142 164 0
136 157 0
139 160 0
135 156 0
150 171 0
137 157 0
139 159 0
145 167 0
152 173 0
141 160 0
129 149 0
144 166 0
143 162 0
135 154 0
150 171 0
140 160 0
145 166 0
142 165 0
135 155 0
138 159 0
144 165 0
134 156 0
139 159 0
144 163 0
141 162 0
150 172 0
145 166 0
142 163 0
143 164 0
139 159 0
150 172 0
150 171 0
156 178 0
152 174 0
143 165 0
152 173 0
146 168 0
141 162 0
150 172 0
146 167 0
148 169 0
149 170 0
147 169 0
150 171 0
144 165 0
153 175 0
152 172 0
153 175 0
156 178 0
154 176 0
148 169 0
149 171 0
153 174 0
151 173 0
153 174 0
150 170 0
152 172 0
146 166 0
155 177 0
151 173 0
157 178 0
151 172 0
150 171 0
152 173 0
149 170 0
151 173 0
153 175 0
149 170 0
156 178 0
160 181 0
156 177 0
154 175 0
154 176 0
156 177 0
164 186 0
155 177 0
160 181 0
155 178 0
156 177 0
147 167 0
153 176 0
156 177 0
150 171 0
157 178 0
155 176 0
162 185 0
153 175 0
155 176 0
148 170 0
162 183 0
163 185 0
152 174 0
165 186 0
158 178 0
158 179 0
154 175 0
154 175 0
152 174 0
166 187 0
157 178 0
165 186 0
158 180 0
166 188 0
165 188 0
157 179 0
152 173 0
166 188 0
160 181 0
157 178 0
162 184 0
161 181 0
164 185 0
160 181 0
161 183 0
165 187 0
159 181 0
165 186 0
160 182 0
164 186 0
160 182 0
163 186 0
165 187 0
168 190 0
162 184 0
157 179 0
164 184 0
168 191 0
167 188 0
166 189 0
162 182 0
157 178 0
161 182 0
162 185 0
162 184 0
164 185 0
166 188 0
165 188 0
168 191 0
162 185 0
163 185 0
162 184 0
164 186 0
163 183 0
166 188 0
163 186 0
163 186 0
163 184 0
165 187 0
165 187 0
164 185 0
162 183 0
165 185 0
162 185 0
163 185 0
166 188 0
164 185 0
165 187 0
168 189 0
168 190 0
167 188 0
166 187 0
166 188 0
168 189 0
169 192 0
164 184 0
165 188 0
168 190 0
168 191 0
166 188 0
165 187 0
162 183 0
170 193 0
166 187 0
170 193 0
168 191 0
169 191 0
172 194 0
176 198 114
173 196 105
169 192 84
169 192 80
177 199 108
175 198 102
169 191 102
173 196 111
176 198 99
168 191 88
168 191 99
172 196 95
172 195 92
174 198 99
171 193 84
170 193 105
172 195 105
166 189 92
172 195 108
170 193 108
170 193 99
172 194 99
171 193 102
169 193 92
170 193 92
169 193 108
169 192 95
165 187 84
170 194 84
170 194 111
165 188 72
171 195 114
166 188 80
173 196 92
165 188 88
168 191 99
169 192 80
169 192 102
166 188 92
169 192 92
168 191 102
171 195 114
171 194 108
167 190 114
170 192 88
165 188 105
164 187 102
165 188 95
165 189 102
167 190 95
166 188 92
154 177 84
168 191 92
162 184 95
161 183 102
163 186 108
171 194 95
162 183 84
163 186 84
161 183 84
164 186 95
165 186 105
165 188 88
156 178 95
158 181 62
158 179 88
162 184 67
168 190 102
165 187 92
167 190 105
165 187 67
165 187 92
162 184 80
169 191 88
161 182 95
162 183 120
158 180 105
161 182 84
159 181 99
163 184 99
157 179 92
156 178 95
153 174 95
163 184 99
157 178 80
159 181 88
167 189 95
162 183 92
160 182 95
157 178 95
159 180 76
160 181 102
158 179 99
162 183 108
161 182 99
164 185 102
155 176 88
164 185 105
158 179 114
162 183 99
152 172 92
153 173 84
156 175 88
151 172 67
164 183 99
152 173 88
159 178 88
155 175 95
155 175 92
155 176 72
148 168 84
160 180 95
145 165 84
149 168 67
154 174 84
152 173 44
142 163 36
144 165 25
148 169 0
146 168 25
140 160 0
136 157 36
144 165 36
143 164 36
141 163 25
150 171 36
152 174 0
145 167 25
149 170 44
147 167 44
145 167 0
151 172 0
159 181 0
160 181 0
154 176 0
153 175 0
150 172 0
150 172 0
152 174 0
145 165 0
148 170 0
138 159 0
144 166 0
142 163 0
140 161 0
135 156 0
139 159 0
135 156 0
142 162 0
134 154 0
143 163 0
132 153 0
133 155 0
133 154 0
130 150 0
120 141 0
138 158 0
136 157 0
139 160 0
133 154 0
137 156 0
130 151 0
126 146 0
130 150 0
135 154 0
138 158 0
132 153 0
131 152 0
139 160 0
131 153 0
131 151 0
132 153 0
130 150 0
130 149 0
133 153 0
137 158 0
132 151 0
131 152 0
122 142 0
127 147 0
139 159 0
127 146 0
131 153 0
129 149 0
132 153 0
131 152 0
137 159 0
136 156 0
130 150 0
137 157 0
135 155 0
135 156 0
140 161 0
131 150 0
142 162 0
125 146 0
133 152 0
122 141 0
144 165 0
138 158 0
139 160 0
139 160 0
138 160 0
136 156 0
123 145 0
134 155 0
144 164 0
140 161 0
138 157 0
141 162 0
136 157 0
136 157 0
141 163 0
141 161 0
136 155 0
147 167 0
130 151 0
139 159 0
146 167 0
139 161 0
138 159 0
142 163 0
136 158 0
133 154 0
136 157 0
131 152 0
136 157 0
135 156 0
140 160 0
138 159 0
137 158 0
144 166 0
142 162 0
136 155 0
145 165 0
142 164 0
143 164 0
146 167 0
140 161 0
147 168 0
152 173 0
149 170 0
143 165 0
148 168 0
150 171 0
149 169 0
146 168 0
145 166 0
151 171 0
152 174 0
150 171 0
149 170 0
156 178 0
149 169 0
142 164 0
151 174 0
141 160 0
155 176 0
145 168 0
149 170 0
150 173 0
150 171 0
145 167 0
153 175 0
146 167 0
150 171 0
150 173 0
163 184 0
146 166 0
154 176 0
144 165 0
145 168 0
145 165 0
156 177 0
159 181 0
154 175 0
150 172 0
158 179 0
149 171 0
161 183 0
144 165 0
157 178 0
155 176 0
157 177 0
160 182 0
156 177 0
152 173 0
150 172 0
148 171 0
162 183 0
159 181 0
155 176 0
149 169 0
155 176 0
149 170 0
153 174 0
151 171 0
153 174 0
157 179 0
163 185 0
158 181 0
157 178 0
158 178 0
153 175 0
163 185 0
156 177 0
163 185 0
158 181 0
149 174 0
156 178 0
160 183 0
160 183 0
158 179 0
162 184 0
153 175 0
154 175 0
157 179 0
156 177 0
157 179 0
154 175 0
159 180 0
160 181 0
155 177 0
159 180 0
159 181 0
163 185 0
162 183 0
163 185 0
163 184 0
158 179 0
155 174 0
165 186 0
155 177 0
162 184 0
162 185 0
161 183 0
167 189 0
159 178 0
165 186 0
156 178 0
165 188 0
159 183 0
157 177 0
160 183 0
156 176 0
163 184 0
157 178 0
158 180 0
161 183 0
168 190 0
164 187 0
164 185 0
161 182 0
163 184 0
167 188 0
166 188 0
162 183 0
167 190 0
163 185 0
161 183 0
169 190 0
164 185 0
163 184 0
161 183 0
163 184 0
165 187 0
163 183 0
170 193 0
164 187 0
163 184 0
159 181 0
164 186 0
167 190 0
164 186 0
167 190 0
163 184 0
168 189 0
168 192 0
162 184 0
164 185 0
164 185 0
170 192 0
162 185 0
167 189 0
167 190 0
165 187 0
164 185 0
165 187 0
167 190 0
165 187 0
166 188 0
169 189 0
167 188 0
162 185 0
165 187 0
165 186 0
163 185 0
169 192 0
168 189 0
164 185 0
175 199 102
174 197 99
172 195 111
170 193 76
172 195 108
173 196 92
174 197 92
175 198 95
174 198 102
176 198 102
174 197 120
171 194 88
174 197 102
171 194 84
173 196 95
170 193 95
168 191 80
174 196 111
167 190 99
168 190 76
170 193 95
170 194 114
171 194 99
168 191 72
166 189 99
166 189 95
166 190 80
166 189 108
170 193 88
169 193 95
173 196 99
173 196 80
165 189 102
169 192 95
169 192 84
167 190 102
167 190 80
163 185 72
165 188 88
163 186 99
168 190 80
164 187 88
162 184 108
167 189 114
167 190 102
163 186 99
164 188 76
165 187 99
167 190 80
160 182 72
161 183 84
164 187 102
166 188 92
164 186 84
163 186 102
168 191 108
162 184 95
165 187 114
161 184 88
164 188 102
166 188 111
165 188 102
160 183 95
169 192 102
164 186 108
166 187 95
164 186 108
161 182 105
161 183 92
161 183 95
158 181 80
165 187 88
171 193 108
162 184 114
165 185 92
164 186 102
160 181 111
160 181 102
149 170 67
161 183 99
167 188 105
161 183 111
162 185 88
156 177 95
158 179 105
166 188 108
161 183 105
154 175 80
164 185 114
163 184 99
149 171 84
166 187 76
161 181 102
159 180 84
153 173 84
160 181 92
152 173 95
161 182 76
162 183 105
162 182 105
155 176 88
161 182 99
168 187 120
157 178 84
149 171 76
156 176 95
153 174 67
153 173 84
157 178 84
158 178 95
144 165 57
161 181 92
164 184 92
155 175 72
146 167 72
146 167 44
155 177 36
155 177 0
148 170 25
150 171 36
140 161 51
145 167 36
147 168 44
147 167 62
141 163 25
148 169 25
144 166 0
144 166 0
146 167 36
151 173 0
147 168 0
149 172 0
159 182 0
158 182 0
153 175 0
152 174 0
153 175 0
140 162 0
147 169 0
153 173 0
142 163 0
143 165 0
138 160 0
143 164 0
135 156 0
133 154 0
134 153 0
141 161 0
137 158 0
146 167 0
130 151 0
138 159 0
141 162 0
141 162 25
142 163 0
145 167 0
134 155 0
132 153 0
143 163 0
141 162 0
136 156 0
135 155 0
131 151 0
130 150 0
124 145 0
136 156 0
140 161 0
129 149 0
132 152 0
134 154 0
142 162 0
120 140 0
131 153 0
128 149 0
146 167 0
130 150 0
138 158 0
130 149 0
138 157 0
134 154 0
139 159 0
143 164 0
141 161 0
131 151 0
138 159 0
137 158 0
140 160 0
137 157 0
126 146 0
134 153 0
127 146 0
137 157 0
125 146 0
139 159 0
134 154 0
137 157 0
139 157 0
141 161 0
139 161 0
135 155 0
137 158 0
137 159 0
133 153 0
143 164 0
129 150 0
143 165 0
143 164 0
136 158 0
138 158 0
146 166 0
131 150 0
132 153 0
141 161 0
133 155 0
141 163 0
140 161 0
140 161 0
143 164 0
135 156 0
139 161 0
151 173 0
147 167 0
144 165 0
147 170 0
142 163 0
146 166 0
145 164 0
137 158 0
149 170 0
135 156 0
143 165 0
141 162 0
149 169 0
148 169 0
151 174 0
141 163 0
146 168 0
140 160 0
143 164 0
141 162 0
149 170 0
137 158 0
153 174 0
146 168 0
145 165 0
147 170 0
154 176 0
143 164 0
150 172 0
144 166 0
147 170 0
145 167 0
152 174 0
149 171 0
149 170 0
146 167 0
147 168 0
145 165 0
155 178 0
153 176 0
154 176 0
152 173 0
151 173 0
144 166 0
150 172 0
147 169 0
147 168 0
149 170 0
146 167 0
148 171 0
162 183 0
151 173 0
155 176 0
155 177 0
150 170 0
149 171 0
156 177 0
158 178 0
152 174 0
156 178 0
152 174 0
155 177 0
153 176 0
156 178 0
153 174 0
156 178 0
156 178 0
150 171 0
150 170 0
159 181 0
158 179 0
153 176 0
158 179 0
157 179 0
158 179 0
149 170 0
155 177 0
165 185 0
149 170 0
155 176 0
158 180 0
158 180 0
152 174 0
156 177 0
154 175 0
156 178 0
160 182 0
150 171 0
158 180 0
157 178 0
158 180 0
158 179 0
160 182 0
158 181 0
161 182 0
163 184 0
159 181 0
159 179 0
161 183 0
154 176 0
161 183 0
155 176 0
154 175 0
164 187 0
161 181 0
164 186 0
163 186 0
159 181 0
164 185 0
161 182 0
159 181 0
155 175 0
162 184 0
163 185 0
164 186 0
160 182 0
156 177 0
162 183 0
166 187 0
161 181 0
160 181 0
164 186 0
164 187 0
164 185 0
162 185 0
162 183 0
162 184 0
163 185 0
159 179 0
163 185 0
160 180 0
158 179 0
165 189 0
159 180 0
165 187 0
160 182 0
162 184 0
163 186 0
167 190 0
163 184 0
161 182 0
164 186 0
162 185 0
164 185 0
165 187 0
165 186 0
164 185 0
163 186 0
166 187 0
163 185 0
164 188 0
163 184 0
164 186 0
161 182 0
165 187 0
167 188 0
167 188 0
165 186 0
169 192 0
167 188 0
167 189 0
163 184 0
165 188 0
166 187 0
169 191 0
166 189 0
169 192 0
168 190 0
169 192 0
167 188 0
164 185 0
163 185 0
164 184 0
166 187 0
167 189 0
165 187 0
168 192 0
170 192 0
166 189 0
169 192 0
171 193 105
171 193 92
176 198 111
179 202 127
175 198 117
170 193 95
174 196 99
172 195 99
171 194 102
172 194 84
173 196 105
168 191 84
171 195 92
170 194 99
164 186 84
173 196 80
173 196 117
171 195 88
168 192 105
166 189 95
162 185 76
167 190 105
174 196 95
166 190 80
169 192 92
169 192 92
169 192 76
168 190 95
167 190 102
169 192 111
168 191 76
159 183 76
167 189 67
172 195 114
170 193 88
169 192 99
167 190 108
165 188 84
164 187 88
170 192 92
169 192 95
165 189 95
172 194 88
167 190 72
169 191 108
165 188 88
161 184 92
167 189 84
165 188 88
168 190 95
163 186 108
165 189 99
166 189 92
162 185 88
165 187 105
166 188 88
159 181 80
163 185 80
164 186 105
166 189 99
167 190 102
167 190 102
156 178 80
166 187 95
170 191 95
162 185 111
166 188 102
158 180 84
163 185 92
164 186 92
165 187 117
168 190 102
164 186 88
162 184 88
165 187 105
160 182 105
164 186 114
165 187 117
168 189 117
162 183 105
157 178 84
162 184 72
156 178 72
162 184 92
159 180 88
157 178 95
156 177 84
161 183 84
163 183 105
166 187 95
160 180 108
158 180 67
165 186 88
160 180 105
154 174 88
162 182 105
159 179 111
151 171 102
157 178 88
153 174 88
166 186 120
169 189 125
161 181 105
155 176 88
153 174 80
158 179 76
157 177 99
155 176 62
154 174 92
146 167 62
151 171 80
160 180 84
160 180 57
152 173 72
152 174 57
157 178 44
156 177 67
152 174 36
149 170 0
150 172 0
146 167 25
148 170 36
150 172 25
148 170 51
152 174 25
150 171 36
152 173 36
148 169 44
150 171 44
139 161 0
146 168 25
155 177 0
163 187 0
165 187 0
160 182 0
149 171 0
159 181 0
153 175 0
152 175 0
143 164 0
149 171 0
147 168 0
154 176 0
150 172 0
133 155 0
134 155 0
141 160 0
147 167 0
139 159 0
145 166 0
146 168 0
146 166 0
133 154 0
137 158 0
134 154 0
136 157 0
131 151 0
137 157 0
142 163 0
132 153 0
144 165 0
132 153 0
136 157 0
141 161 0
139 160 0
134 155 0
133 154 0
126 146 0
134 154 0
129 149 0
134 154 0
134 154 0
132 153 0
126 147 0
137 159 0
128 148 0
130 150 0
142 163 0
136 156 0
133 154 0
137 159 0
131 150 0
129 150 0
138 159 0
140 160 0
133 153 0
127 147 0
133 153 0
135 155 0
137 159 0
138 160 0
130 151 0
134 155 0
134 156 0
141 162 0
130 150 0
135 155 0
136 156 0
140 162 0
135 155 0
138 159 0
139 158 0
145 165 0
136 157 0
131 153 0
130 152 0
142 163 0
135 157 0
131 152 0
151 172 0
134 156 0
141 162 0
144 165 0
150 171 0
143 165 0
140 160 0
147 168 0
142 164 0
143 164 0
142 162 0
144 165 0
150 171 0
136 156 0
145 166 0
145 166 0
137 158 0
142 163 0
145 166 0
146 168 0
143 164 0
150 171 0
146 165 0
136 157 0
149 171 0
147 167 0
148 170 0
146 167 0
138 159 0
135 156 0
143 163 0
149 171 0
150 171 0
144 166 0
157 177 0
152 172 0
145 167 0
143 163 0
139 160 0
151 174 0
146 169 0
142 163 0
149 170 0
153 174 0
143 166 0
144 167 0
146 167 0
151 173 0
150 171 0
149 170 0
156 178 0
140 162 0
150 172 0
146 167 0
151 172 0
150 171 0
146 167 0
150 172 0
150 171 0
157 178 0
153 175 0
151 173 0
160 180 0
152 173 0
153 176 0
153 175 0
157 179 0
155 177 0
150 170 0
152 174 0
149 171 0
154 176 0
159 181 0
161 182 0
154 176 0
155 176 0
151 173 0
157 179 0
156 178 0
154 176 0
159 180 0
157 179 0
162 185 0
157 178 0
152 175 0
152 173 0
161 183 0
158 180 0
158 180 0
159 182 0
160 181 0
156 179 0
156 176 0
159 181 0
157 178 0
162 184 0
154 175 0
161 184 0
155 178 0
149 170 0
161 184 0
161 184 0
156 178 0
159 180 0
156 178 0
160 181 0
160 181 0
156 178 0
154 175 0
160 182 0
160 181 0
159 181 0
164 187 0
161 183 0
155 177 0
162 183 0
159 181 0
162 182 0
162 182 0
161 184 0
166 189 0
162 182 0
158 180 0
161 184 0
164 185 0
164 187 0
160 182 0
161 184 0
163 185 0
162 184 0
165 188 0
162 183 0
163 184 0
165 188 0
163 185 0
165 187 0
162 184 0
164 186 0
158 180 0
162 182 0
162 184 0
166 188 0
166 188 0
163 185 0
164 187 0
160 181 0
163 185 0
163 185 0
166 188 0
166 188 0
165 187 0
168 189 0
166 188 0
165 186 0
160 182 0
162 185 0
164 185 0
164 186 0
165 187 0
163 187 0
169 190 0
161 183 0
167 190 0
166 188 0
167 189 0
162 183 0
166 187 0
165 187 0
167 189 0
169 191 0
162 183 0
166 188 0
166 189 0
162 183 0
167 189 0
164 186 0
165 186 0
166 188 0
168 190 0
165 186 0
164 187 0
161 183 0
162 183 0
167 189 0
166 190 0
171 194 0
168 189 0
160 181 0
168 191 0
166 187 0
163 185 0
169 192 92
173 197 102
180 202 108
174 197 84
173 196 95
174 197 108
170 193 88
175 198 117
173 196 99
172 196 99
174 197 99
174 196 92
169 192 86
168 191 84
164 186 84
172 195 111
163 186 72
172 195 95
164 187 88
171 194 102
176 198 88
172 195 108
166 189 92
168 192 105
174 197 105
166 188 76
171 194 99
174 196 102
172 195 120
166 189 76
170 193 88
163 186 80
171 194 99
170 193 95
169 192 80
172 196 95
162 186 80
170 193 95
163 185 95
165 188 72
166 189 102
164 187 102
160 182 99
164 186 102
165 187 84
160 183 84
163 186 84
167 191 105
164 186 76
166 189 92
164 186 80
166 188 95
165 187 108
170 193 95
163 185 67
165 187 111
165 187 92
167 189 95
170 192 105
162 184 92
169 191 95
170 192 105
167 188 99
160 182 99
162 184 95
158 181 88
163 186 88
165 186 105
161 183 76
163 186 99
168 189 114
168 191 88
156 178 92
161 182 99
160 181 80
158 180 80
159 181 92
158 179 99
164 186 102
169 190 99
155 177 117
165 186 99
155 177 88
163 184 92
164 185 95
152 173 80
155 175 108
160 181 99
165 186 99
165 186 102
161 182 117
161 182 99
161 182 88
162 182 92
162 181 105
151 172 80
162 183 102
169 190 99
174 195 117
161 182 92
166 186 102
153 174 84
156 176 80
159 180 80
156 176 80
155 177 84
167 187 72
163 184 95
154 174 99
148 169 76
150 170 62
156 176 84
157 177 62
150 171 62
149 170 44
156 178 25
147 168 44
155 176 36
152 174 0
153 175 0
146 168 0
148 170 25
149 170 36
153 176 25
145 167 25
142 164 25
141 163 0
140 162 0
151 173 25
148 171 0
153 175 0
159 180 0
159 181 0
158 180 0
152 174 0
154 176 0
153 175 0
151 172 0
152 174 0
150 171 0
150 171 0
146 168 0
136 157 0
147 169 0
142 163 0
143 164 0
137 158 0
132 152 0
142 163 0
131 152 0
142 162 0
141 162 0
132 151 25
140 160 0
135 156 0
144 164 0
133 154 0
127 148 0
129 150 0
139 160 0
138 158 0
140 161 0
128 148 0
132 152 0
147 167 0
135 156 0
137 159 0
141 161 0
144 166 0
129 149 0
140 161 0
140 161 0
138 159 0
129 150 0
131 151 0
136 156 0
136 157 0
123 144 0
143 164 0
143 164 0
132 153 0
132 152 0
136 157 0
148 169 0
134 155 0
141 162 0
138 158 0
129 148 0
138 158 0
144 165 0
130 151 0
140 160 0
136 157 0
138 158 0
133 154 0
145 167 0
137 158 0
132 153 0
135 156 0
140 161 0
141 162 0
143 164 0
143 164 0
133 155 0
136 156 0
147 168 0
141 163 0
135 156 0
139 161 0
149 170 0
139 161 0
145 166 0
143 164 0
139 160 0
139 161 0
145 165 0
138 159 0
134 154 0
147 168 0
148 169 0
140 161 0
144 167 0
137 157 0
150 173 0
133 153 0
141 162 0
138 159 0
142 163 0
139 161 0
142 162 0
144 166 0
141 163 0
145 168 0
146 168 0
147 169 0
145 167 0
146 167 0
144 166 0
146 167 0
139 160 0
145 167 0
140 161 0
147 169 0
142 163 0
142 162 0
144 166 0
153 175 0
149 172 0
147 168 0
146 168 0
142 162 0
140 163 0
146 166 0
152 173 0
153 176 0
147 170 0
156 177 0
150 172 0
148 169 0
144 163 0
156 178 0
144 167 0
153 176 0
151 174 0
151 173 0
151 173 0
155 176 0
152 173 0
152 173 0
157 178 0
159 180 0
155 177 0
149 172 0
145 166 0
151 172 0
151 173 0
153 175 0
152 174 0
148 170 0
153 175 0
153 174 0
158 180 0
155 177 0
154 176 0
157 179 0
149 172 0
150 170 0
147 169 0
163 185 0
161 183 0
150 171 0
153 176 0
160 182 0
149 172 0
156 178 0
158 178 0
160 180 0
162 183 0
153 176 0
156 178 0
158 180 0
160 182 0
159 182 0
159 179 0
162 185 0
157 179 0
159 180 0
162 184 0
155 177 0
156 176 0
160 181 0
161 183 0
157 180 0
166 188 0
158 180 0
156 179 0
161 183 0
158 179 0
161 182 0
158 180 0
157 180 0
162 185 0
161 182 0
164 187 0
162 185 0
159 182 0
156 176 0
158 180 0
161 184 0
161 181 0
161 183 0
164 184 0
163 185 0
166 190 0
162 184 0
162 184 0
158 180 0
156 178 0
162 185 0
164 186 0
164 186 0
161 184 0
160 182 0
162 184 0
163 187 0
164 185 0
160 182 0
162 184 0
160 181 0
161 182 0
160 182 0
165 188 0
163 184 0
165 188 0
167 190 0
161 182 0
164 186 0
163 185 0
163 184 0
166 188 0
161 183 0
168 191 0
158 179 0
166 187 0
161 182 0
161 184 0
166 187 0
165 186 0
167 190 0
159 181 0
165 187 0
165 187 0
164 187 0
167 190 0
169 191 0
166 187 0
169 190 0
163 185 0
162 183 0
168 190 0
165 187 0
168 190 0
167 190 0
166 189 0
168 190 0
167 190 0
167 188 0
163 185 0
166 187 0
167 187 0
168 191 0
167 190 0
168 189 0
166 188 0
166 188 0
161 183 0
168 191 0
169 191 0
168 189 0
168 190 0
172 195 95
175 197 88
176 198 92
172 195 111
175 197 99
174 198 105
178 201 117
175 197 99
172 195 102
175 198 108
172 194 92
172 196 105
173 196 88
172 196 108
170 193 88
170 193 102
169 192 108
171 194 99
168 191 76
173 197 88
168 191 99
171 193 88
171 193 88
168 191 88
170 193 92
174 196 95
171 194 99
171 195 84
173 196 99
173 196 88
167 189 80
168 190 84
163 186 92
168 190 67
165 188 88
168 191 105
166 188 88
166 188 80
160 183 102
172 196 114
169 193 135
163 186 84
166 189 76
169 191 99
163 187 92
169 191 102
166 189 92
166 189 108
167 190 84
165 188 51
161 184 95
164 186 76
162 185 108
161 184 111
165 189 114
169 192 95
161 184 92
159 181 67
162 184 92
168 190 102
167 189 99
157 180 102
164 186 105
167 189 95
161 183 102
162 183 84
162 184 84
167 188 111
165 188 92
159 181 88
162 184 99
167 189 114
167 189 92
159 180 99
160 181 84
167 190 114
164 186 99
158 181 102
155 176 80
160 181 99
161 181 105
160 180 95
158 177 108
156 177 84
165 187 105
159 180 99
162 183 114
156 177 92
162 183 95
161 181 88
160 180 95
159 180 95
156 176 88
168 190 111
166 186 102
158 179 108
161 182 102
157 177 108
160 180 92
151 171 80
155 175 84
164 184 92
155 175 88
160 181 95
154 174 76
161 182 76
157 177 105
160 180 84
160 180 92
153 174 57
156 176 95
156 176 95
149 169 0
152 174 51
150 172 51
146 168 25
151 172 36
149 170 36
148 169 0
142 162 36
153 175 44
144 165 25
154 176 25
155 177 44
140 161 25
147 169 51
152 173 44
157 179 36
150 171 0
149 169 44
156 178 25
155 178 0
152 175 0
157 180 0
159 181 0
161 184 0
145 167 0
157 178 0
150 173 0
149 171 0
147 167 0
143 165 0
140 161 0
146 167 0
145 166 0
142 163 0
138 159 0
142 163 0
138 159 0
138 159 0
140 160 0
140 161 0
145 167 0
135 156 0
148 167 0
135 156 0
134 155 0
133 152 0
138 157 0
134 156 0
130 151 0
144 165 0
134 155 0
135 156 0
144 166 0
143 163 0
139 161 0
148 170 0
141 161 0
132 153 0
144 164 0
135 155 0
137 157 0
137 157 0
136 157 0
137 159 0
138 158 0
137 157 0
138 159 0
152 173 0
131 150 0
139 160 0
143 165 0
130 152 0
141 163 0
136 156 0
143 165 0
144 165 0
133 152 0
146 166 0
128 148 0
135 156 0
134 155 0
147 168 0
125 146 0
140 162 0
140 161 0
136 156 0
140 162 0
140 162 0
143 164 0
138 158 0
132 152 0
127 148 0
136 157 0
145 166 0
141 163 0
144 164 0
148 170 0
141 163 0
132 153 0
139 160 0
136 157 0
144 165 0
143 166 0
140 162 0
148 169 0
142 164 0
141 162 0
143 163 0
147 169 0
145 166 0
141 162 0
147 168 0
147 168 0
143 163 0
145 166 0
145 166 0
151 172 0
148 169 0
139 160 0
143 164 0
150 171 0
145 167 0
143 164 0
154 176 0
148 170 0
152 174 0
149 169 0
145 166 0
143 166 0
143 165 0
145 166 0
150 171 0
142 164 0
140 161 0
149 169 0
144 165 0
149 170 0
150 173 0
139 161 0
147 168 0
152 174 0
146 167 0
148 171 0
153 175 0
141 163 0
148 169 0
157 178 0
145 167 0
152 174 0
152 173 0
157 178 0
146 167 0
150 171 0
156 177 0
158 180 0
151 172 0
143 164 0
156 178 0
151 173 0
149 171 0
151 174 0
159 181 0
152 175 0
148 170 0
162 183 0
152 173 0
155 174 0
153 175 0
154 177 0
155 178 0
150 170 0
153 175 0
156 178 0
159 181 0
158 181 0
158 181 0
156 178 0
154 177 0
154 177 0
161 184 0
158 181 0
150 172 0
153 176 0
153 175 0
158 180 0
156 179 0
162 184 0
157 179 0
161 183 0
157 178 0
155 177 0
159 180 0
157 178 0
152 172 0
164 186 0
159 182 0
162 184 0
156 177 0
160 183 0
164 186 0
163 185 0
164 186 0
162 184 0
160 182 0
163 185 0
161 182 0
162 184 0
163 185 0
162 184 0
164 185 0
165 187 0
163 184 0
156 177 0
156 178 0
158 180 0
160 182 0
159 181 0
165 187 0
157 179 0
165 187 0
163 185 0
162 183 0
164 186 0
161 183 0
165 188 0
162 183 0
155 177 0
164 186 0
159 180 0
158 180 0
157 179 0
161 181 0
158 178 0
156 176 0
167 189 0
161 183 0
163 185 0
166 188 0
166 187 0
163 186 0
165 187 0
161 183 0
164 186 0
165 186 0
164 185 0
162 184 0
167 190 0
166 187 0
165 186 0
166 189 0
168 191 0
163 184 0
163 185 0
168 190 0
170 192 0
167 191 0
168 189 0
164 187 0
164 185 0
162 183 0
164 186 0
166 189 0
169 191 0
162 184 0
167 189 0
165 188 0
163 185 0
168 191 0
166 189 0
165 187 0
160 181 0
167 189 0
166 189 0
166 189 0
167 188 0
167 189 0
164 186 0
169 193 0
164 185 0
166 187 0
167 189 0
167 188 0
166 188 0
165 186 0
168 189 0
171 194 0
165 187 0
167 190 0
174 197 102
168 190 67
176 199 108
168 191 84
177 200 99
169 192 88
176 199 105
171 195 108
167 189 84
174 197 120
174 196 84
170 194 120
174 197 102
174 196 80
173 196 114
170 193 76
171 193 111
171 193 92
168 191 80
170 194 84
174 197 108
174 197 99
168 190 77
170 193 102
168 191 99
171 194 84
169 192 84
166 189 84
169 191 62
173 196 99
167 190 76
167 191 114
166 189 84
169 192 84
167 190 111
169 192 88
173 196 108
172 194 92
167 190 80
171 194 95
168 190 105
162 186 108
171 194 105
168 191 84
160 183 84
164 187 105
168 191 95
170 192 92
167 189 80
167 189 99
160 183 84
165 188 88
165 188 92
170 193 122
164 186 105
166 188 76
161 185 95
166 189 102
167 189 84
157 179 62
156 178 80
158 180 111
170 191 92
165 187 111
161 184 84
159 181 95
167 188 88
164 185 99
159 182 92
165 187 92
159 182 117
163 185 99
167 189 99
168 190 95
161 183 88
165 186 102
171 194 92
165 188 88
160 182 92
159 181 108
162 184 95
156 178 84
154 175 84
166 187 88
162 183 125
168 189 99
156 178 92
161 183 88
156 178 105
164 185 111
163 184 99
154 176 99
162 182 108
165 186 108
158 179 92
152 173 84
161 181 99
161 182 99
162 183 99
156 178 67
166 187 95
159 181 84
154 175 67
152 173 62
154 175 80
160 180 76
158 178 76
154 175 88
156 176 80
159 179 88
159 179 80
156 177 76
144 166 51
146 167 44
148 170 44
154 175 57
150 171 36
147 168 25
147 170 0
149 171 36
149 171 0
155 177 62
150 171 51
149 170 36
150 172 25
150 171 0
151 172 0
151 173 25
144 166 0
147 168 25
153 176 0
161 183 0
159 180 0
153 175 0
154 177 0
154 175 0
149 171 0
144 167 0
156 177 0
148 169 0
149 170 0
149 172 0
149 170 0
134 156 0
139 160 0
136 158 0
142 164 0
147 167 0
137 158 0
140 161 0
141 162 0
136 156 0
140 162 0
143 165 0
143 164 0
146 166 0
144 166 0
133 154 0
134 155 0
142 163 0
137 157 0
140 161 0
137 158 0
139 161 0
136 156 0
135 157 0
136 157 0
139 160 0
138 160 0
134 155 0
146 168 0
129 149 0
145 166 0
135 155 0
134 155 0
138 159 0
138 159 0
138 159 0
136 157 0
141 164 0
132 152 0
133 153 0
136 156 0
138 159 0
143 164 0
140 162 0
147 168 0
133 154 0
142 163 0
141 162 0
142 163 0
135 156 0
136 157 0
140 161 0
145 165 0
138 159 0
136 157 0
133 154 0
136 156 0
138 159 0
139 160 0
141 162 0
142 164 0
140 162 0
138 159 0
127 148 0
139 160 0
148 169 0
150 171 0
139 161 0
138 159 0
143 164 0
134 156 0
144 165 0
135 155 0
142 162 0
150 170 0
145 166 0
142 162 0
140 161 0
134 156 0
145 166 0
144 165 0
150 171 0
144 166 0
148 169 0
139 160 0
146 168 0
147 167 0
150 171 0
152 174 0
149 170 0
139 160 0
137 158 0
155 177 0
150 171 0
141 163 0
145 166 0
150 172 0
150 170 0
145 166 0
154 176 0
136 158 0
145 167 0
147 168 0
155 177 0
150 172 0
149 171 0
149 170 0
148 169 0
150 171 0
152 174 0
152 174 0
153 176 0
155 176 0
151 173 0
152 174 0
151 172 0
158 178 0
153 175 0
157 179 0
146 168 0
148 170 0
149 170 0
155 176 0
148 168 0
149 171 0
149 171 0
155 178 0
146 168 0
153 174 0
155 177 0
155 177 0
150 172 0
155 177 0
151 173 0
165 187 0
149 170 0
150 171 0
154 175 0
151 172 0
160 181 0
147 170 0
150 170 0
165 187 0
158 182 0
165 186 0
157 179 0
155 176 0
155 176 0
147 169 0
148 170 0
154 176 0
156 177 0
161 184 0
161 184 0
156 179 0
157 180 0
155 177 0
162 182 0
157 179 0
158 180 0
157 179 0
160 181 0
158 178 0
162 184 0
158 180 0
155 178 0
158 179 0
158 180 0
162 184 0
160 180 0
162 185 0
164 186 0
163 186 0
155 176 0
159 181 0
160 181 0
161 182 0
160 182 0
161 182 0
160 181 0
158 179 0
162 184 0
157 179 0
161 181 0
164 185 0
160 183 0
168 190 0
164 188 0
152 174 0
161 183 0
163 185 0
159 180 0
160 182 0
167 190 0
158 180 0
163 185 0
162 183 0
162 184 0
155 176 0
163 184 0
162 184 0
158 180 0
161 182 0
163 185 0
158 179 0
163 185 0
166 189 0
161 182 0
163 185 0
166 187 0
169 191 0
162 184 0
165 188 0
164 185 0
165 187 0
166 189 0
164 186 0
163 185 0
166 188 0
165 186 0
164 186 0
162 185 0
165 187 0
162 182 0
169 192 0
159 181 0
165 188 0
163 184 0
164 186 0
169 191 0
164 185 0
165 186 0
168 189 0
166 187 0
167 190 0
168 190 0
165 188 0
167 189 0
165 187 0
166 186 0
171 193 0
168 190 0
159 181 0
167 189 0
165 187 0
165 188 0
164 186 0
166 189 0
169 193 0
168 189 0
165 188 0
166 188 0
164 186 0
168 190 0
169 191 0
166 187 0
167 188 0
169 191 0
175 198 108
172 195 80
173 195 84
177 200 117
176 199 105
167 190 62
173 196 111
177 199 105
170 193 80
172 195 102
172 195 84
168 191 84
171 194 95
169 192 57
171 194 92
171 194 108
174 197 108
170 192 84
174 196 95
168 191 88
170 193 111
175 197 114
173 195 88
169 192 84
172 195 95
167 191 114
170 192 108
168 192 102
164 187 88
170 193 102
168 192 105
166 189 92
163 185 99
162 184 76
169 192 108
167 189 117
166 189 102
169 192 105
163 186 88
172 194 102
165 188 88
171 195 92
167 189 95
166 188 84
169 191 84
164 187 111
161 183 108
172 195 102
166 188 84
163 185 72
170 193 111
170 194 114
165 188 105
165 187 67
167 188 76
167 190 92
158 181 92
159 182 84
159 180 95
158 181 80
168 190 102
161 184 92
165 187 92
167 190 99
169 190 88
175 197 117
164 186 80
163 184 95
166 188 105
161 182 108
164 186 108
159 181 76
164 186 102
155 176 67
157 179 92
157 180 102
163 184 95
159 179 80
166 187 92
164 186 102
161 184 84
160 182 102
167 190 108
150 171 92
167 189 92
151 173 92
164 185 95
162 182 108
165 185 114
148 168 92
152 174 88
149 170 76
160 181 102
158 178 92
157 178 76
162 182 95
165 186 92
155 176 67
168 189 105
161 182 84
158 178 88
166 187 105
160 181 84
161 181 84
152 173 51
160 181 92
157 176 67
155 176 76
162 182 95
157 177 88
153 174 51
151 171 67
149 170 44
156 178 57
154 176 36
157 178 36
152 175 44
143 165 0
155 178 36
153 174 36
155 177 25
147 170 25
145 166 36
159 180 0
143 164 25
160 181 36
151 173 57
151 172 57
157 180 25
154 176 25
152 173 0
158 181 0
160 183 0
159 183 0
158 181 0
156 179 0
155 177 0
159 181 0
157 179 0
152 174 0
148 171 0
142 165 0
143 164 0
142 165 0
145 165 0
146 168 0
150 172 0
141 162 0
134 156 0
139 160 0
135 155 0
141 162 0
136 158 25
140 161 0
129 150 0
147 168 0
142 163 0
134 155 0
143 164 0
132 152 0
137 159 0
144 165 0
144 164 0
130 151 0
131 152 0
148 170 0
143 163 0
137 158 0
142 163 0
139 158 0
148 169 0
125 145 0
146 167 0
140 162 0
141 162 0
143 164 0
140 160 0
141 161 0
137 158 0
142 164 0
140 161 0
134 155 0
142 164 0
147 167 0
143 164 0
137 157 0
144 166 0
144 165 0
142 164 0
139 160 0
147 168 0
143 165 0
142 161 0
127 149 0
142 163 0
144 166 0
141 161 0
141 162 0
142 163 0
141 162 0
131 152 0
138 160 0
132 153 0
148 169 0
144 165 0
140 162 0
155 177 0
136 157 0
139 160 0
138 159 0
143 164 0
144 166 0
141 162 0
147 168 0
145 166 0
153 175 0
142 164 0
146 168 0
146 168 0
144 165 0
144 164 0
148 169 0
151 173 0
140 162 0
148 170 0
143 166 0
145 165 0
148 170 0
141 163 0
142 163 0
153 176 0
148 170 0
146 167 0
150 171 0
142 164 0
147 167 0
141 162 0
148 170 0
150 172 0
140 161 0
150 172 0
151 172 0
147 168 0
146 166 0
153 173 0
156 179 0
151 173 0
142 163 0
141 162 0
149 171 0
149 170 0
147 169 0
153 175 0
152 174 0
143 164 0
150 173 0
152 175 0
149 171 0
153 175 0
148 169 0
153 175 0
156 179 0
146 167 0
149 171 0
147 169 0
152 174 0
148 171 0
149 172 0
151 173 0
148 171 0
156 178 0
153 174 0
151 173 0
153 174 0
151 173 0
155 178 0
159 181 0
155 176 0
155 175 0
158 180 0
154 177 0
158 180 0
159 181 0
157 179 0
150 169 0
153 176 0
150 172 0
162 184 0
162 183 0
155 178 0
161 184 0
158 181 0
147 169 0
155 177 0
150 172 0
153 173 0
156 177 0
154 175 0
159 180 0
159 180 0
163 186 0
151 173 0
162 185 0
157 178 0
159 181 0
149 171 0
159 181 0
159 181 0
164 187 0
157 178 0
159 182 0
163 183 0
163 186 0
157 178 0
158 180 0
157 178 0
166 188 0
163 185 0
161 183 0
160 179 0
152 173 0
161 184 0
161 183 0
166 189 0
164 186 0
163 185 0
156 178 0
160 182 0
157 177 0
158 180 0
165 187 0
164 186 0
161 184 0
163 186 0
162 185 0
167 190 0
163 185 0
159 180 0
161 182 0
161 182 0
163 186 0
163 186 0
165 187 0
157 179 0
162 185 0
164 185 0
162 183 0
164 187 0
161 183 0
158 179 0
168 191 0
167 188 0
159 180 0
165 188 0
161 184 0
167 189 0
169 191 0
165 187 0
162 183 0
163 184 0
160 181 0
161 183 0
164 185 0
169 191 0
163 186 0
167 189 0
166 189 0
168 190 0
168 190 0
165 188 0
164 185 0
164 186 0
166 187 0
164 187 0
163 186 0
164 187 0
163 186 0
163 185 0
165 187 0
168 191 0
168 190 0
163 186 0
162 183 0
162 182 0
166 188 0
169 191 0
168 191 0
170 193 0
168 192 0
166 187 0
167 190 0
167 189 0
169 192 0
166 188 0
167 189 0
170 192 0
166 189 0
170 193 0
167 188 0
166 189 0
178 200 105
173 195 84
175 197 95
175 197 95
174 198 108
170 194 80
174 197 88
172 194 105
170 193 92
175 198 92
170 193 102
175 198 88
173 196 117
174 197 105
167 191 88
176 200 111
173 195 105
166 189 72
171 193 84
173 196 99
171 195 72
173 196 105
167 190 88
170 192 80
166 190 95
171 194 92
172 195 111
174 196 95
166 189 102
172 195 105
169 193 92
164 187 102
171 193 99
168 192 95
165 187 92
168 191 95
167 191 95
171 194 99
171 194 92
168 191 80
165 188 67
160 183 72
165 189 111
167 190 102
164 187 111
169 193 95
172 195 105
161 185 105
163 187 84
162 184 84
166 188 95
159 181 84
161 183 80
162 184 92
170 192 95
172 195 117
163 186 95
162 184 99
168 190 111
164 187 102
164 186 88
159 181 102
151 174 80
159 181 80
166 188 102
159 181 67
163 185 99
159 181 84
171 193 95
160 182 72
163 184 80
161 183 88
163 185 88
158 180 72
161 181 88
165 187 99
166 188 102
162 183 105
159 181 92
169 190 92
164 185 92
164 183 99
164 185 72
167 188 99
165 185 99
157 178 88
168 190 102
174 194 114
155 177 84
157 177 88
163 183 99
153 174 105
163 183 95
162 183 95
165 186 92
170 190 105
167 187 108
157 177 92
163 183 92
163 182 92
155 177 80
159 180 76
158 179 88
158 178 80
157 178 67
156 178 88
163 183 105
161 182 92
163 181 99
161 182 88
160 181 76
158 179 80
157 177 57
158 180 36
160 182 62
144 164 44
159 181 36
149 170 36
148 171 36
156 177 36
143 164 36
144 165 25
142 164 0
144 166 0
153 175 0
156 178 36
151 172 36
149 171 25
161 183 36
155 177 0
155 178 0
159 182 0
161 183 0
150 173 0
155 177 0
151 173 0
150 172 0
153 176 0
157 180 0
150 172 0
148 171 0
154 178 0
143 165 0
145 166 0
137 158 0
131 152 0
141 162 0
141 163 0
149 170 0
140 161 0
136 157 0
140 161 0
148 171 0
142 164 0
143 164 0
147 168 0
150 170 0
134 154 0
141 162 0
141 161 0
135 156 0
142 162 0
133 154 0
131 152 0
146 168 0
152 174 0
147 169 0
138 158 0
136 157 0
147 168 0
130 151 0
136 157 0
145 166 0
143 163 0
145 166 0
137 159 0
138 158 0
133 154 0
138 160 0
147 168 0
143 165 0
140 160 0
132 154 0
136 156 0
139 159 0
139 159 0
139 161 0
147 169 0
129 150 0
138 160 0
141 162 0
139 160 0
144 167 0
138 160 0
138 159 0
133 154 0
145 167 0
140 162 0
148 170 0
145 166 0
135 156 0
133 154 0
138 161 0
139 160 0
143 164 0
140 161 0
140 162 0
136 158 0
139 160 0
141 162 0
135 157 0
136 157 0
148 170 0
143 164 0
139 161 0
143 163 0
145 167 0
142 162 0
142 164 0
148 169 0
146 166 0
142 162 0
143 165 0
155 177 0
145 166 0
140 162 0
145 166 0
151 172 0
149 171 0
147 168 0
141 164 0
156 179 0
146 167 0
145 165 0
140 160 0
136 157 0
146 167 0
145 167 0
151 171 0
146 168 0
149 171 0
146 167 0
155 178 0
150 171 0
152 175 0
145 167 0
150 171 0
150 173 0
152 176 0
145 165 0
146 167 0
151 172 0
152 174 0
154 175 0
148 170 0
150 171 0
146 167 0
156 177 0
150 173 0
151 172 0
147 169 0
143 165 0
156 177 0
155 177 0
151 173 0
149 171 0
151 173 0
151 174 0
156 177 0
155 178 0
157 179 0
156 179 0
155 178 0
149 170 0
153 175 0
151 172 0
153 175 0
162 185 0
149 172 0
155 176 0
157 178 0
151 173 0
158 180 0
157 178 0
156 179 0
156 178 0
157 180 0
158 179 0
152 173 0
154 176 0
158 180 0
161 183 0
153 176 0
155 176 0
153 176 0
156 177 0
160 183 0
158 181 0
156 177 0
156 178 0
160 181 0
162 184 0
155 177 0
157 179 0
160 182 0
162 184 0
160 182 0
163 185 0
158 179 0
161 183 0
162 185 0
158 179 0
158 178 0
156 178 0
162 184 0
161 182 0
159 182 0
161 183 0
167 188 0
161 184 0
162 183 0
161 183 0
161 184 0
156 179 0
163 185 0
160 181 0
163 186 0
161 182 0
161 183 0
157 179 0
159 182 0
156 178 0
159 181 0
161 183 0
159 181 0
164 185 0
165 188 0
167 188 0
164 185 0
160 182 0
165 187 0
159 180 0
160 181 0
161 183 0
162 184 0
163 185 0
162 182 0
164 186 0
160 182 0
164 188 0
160 181 0
160 182 0
167 189 0
163 186 0
166 188 0
160 182 0
160 182 0
165 188 0
164 187 0
165 186 0
164 185 0
168 191 0
163 185 0
169 191 0
163 185 0
163 186 0
165 187 0
169 190 0
167 190 0
163 185 0
161 184 0
165 188 0
166 188 0
163 186 0
164 186 0
164 185 0
163 184 0
167 189 0
168 191 0
166 190 0
164 187 0
169 191 0
162 184 0
170 192 0
168 190 0
162 184 0
167 187 0
165 189 0
161 182 0
163 185 0
165 188 0
167 188 0
167 190 0
162 183 0
167 190 0
167 190 0
167 189 0
166 188 0
160 183 0
167 189 0
172 195 95
175 198 102
176 199 99
169 192 84
172 194 108
172 194 95
176 198 88
171 194 108
171 194 80
173 195 88
169 192 72
174 197 92
177 200 108
172 196 84
175 198 105
173 195 108
171 193 92
172 195 92
173 195 111
165 188 102
173 197 114
173 196 99
166 189 57
162 185 84
170 193 111
173 195 117
171 194 105
167 190 99
168 191 84
169 192 102
166 189 99
164 187 95
167 190 99
170 193 95
174 197 99
164 187 102
164 186 95
159 182 92
164 186 102
164 187 80
163 185 76
169 192 95
169 191 95
165 188 114
165 188 111
166 189 99
167 191 102
171 193 105
160 182 88
172 194 102
165 188 99
170 192 102
158 181 88
162 184 99
169 191 105
165 188 95
165 187 108
162 184 105
166 188 80
158 181 102
165 187 95
168 189 108
163 185 105
159 181 76
165 187 102
164 186 95
164 186 80
167 189 117
168 190 99
166 187 95
159 180 92
165 186 102
157 179 92
166 187 99
158 180 99
167 188 120
166 187 114
164 187 102
164 185 105
159 181 84
169 191 88
163 183 102
165 184 114
164 186 120
163 184 95
164 185 95
161 181 80
165 186 95
153 174 80
163 184 127
153 174 108
163 184 105
165 186 99
161 182 105
156 177 76
165 186 80
158 179 80
155 176 95
160 180 76
159 179 88
163 183 84
149 171 76
162 182 84
158 178 92
157 178 76
155 174 92
155 175 62
161 182 80
150 172 62
156 177 51
152 173 72
156 177 57
156 178 44
160 182 62
159 181 36
153 174 57
152 173 0
145 167 0
156 178 0
147 170 36
145 167 25
147 169 0
153 175 36
155 177 57
140 162 25
158 179 25
151 174 0
154 176 25
152 175 25
151 173 36
158 182 0
160 181 0
161 183 0
158 180 0
157 180 0
159 181 0
155 177 0
155 178 0
157 179 0
137 159 0
144 165 0
150 172 0
148 169 0
151 173 0
152 174 0
134 155 0
143 164 0
143 165 0
142 162 0
142 163 0
151 172 0
149 171 0
151 172 0
146 167 0
150 172 0
137 158 0
143 164 0
139 161 0
137 158 0
143 164 0
143 165 0
140 162 0
128 148 0
132 152 0
147 168 0
146 167 0
139 159 0
144 166 0
141 161 0
139 160 0
141 161 0
137 158 0
137 158 0
129 150 0
124 145 0
140 162 0
140 161 0
134 156 0
140 162 0
143 163 0
132 153 0
138 159 0
146 167 0
143 165 0
140 162 0
147 168 0
141 162 0
137 158 0
137 157 0
136 157 0
140 162 0
144 164 0
143 164 0
137 157 0
147 169 0
145 164 0
136 158 0
136 157 0
146 167 0
136 156 0
151 173 0
132 153 0
145 168 0
143 165 0
138 160 0
138 159 0
142 164 0
143 164 0
142 162 0
146 167 0
142 163 0
146 167 0
146 167 0
139 160 0
140 163 0
150 173 0
150 169 0
139 160 0
148 170 0
142 163 0
148 168 0
151 171 0
144 165 0
145 168 0
148 169 0
150 172 0
148 170 0
144 164 0
142 163 0
144 166 0
144 166 0
153 176 0
142 164 0
152 174 0
148 170 0
146 167 0
147 169 0
145 166 0
157 179 0
147 169 0
154 175 0
149 170 0
147 169 0
144 165 0
150 172 0
146 167 0
153 174 0
149 172 0
155 176 0
151 172 0
157 178 0
148 171 0
163 186 0
152 173 0
146 166 0
153 176 0
151 173 0
149 171 0
157 178 0
151 173 0
154 176 0
154 176 0
156 178 0
151 173 0
156 179 0
154 177 0
153 175 0
146 166 0
151 171 0
149 170 0
147 168 0
155 177 0
146 168 0
156 178 0
153 175 0
160 181 0
152 176 0
154 175 0
146 168 0
158 180 0
148 169 0
156 177 0
155 177 0
148 170 0
151 172 0
151 173 0
153 175 0
150 172 0
160 183 0
157 179 0
154 176 0
161 183 0
156 178 0
154 176 0
161 183 0
162 184 0
151 172 0
154 176 0
157 178 0
159 181 0
156 177 0
154 176 0
158 179 0
158 179 0
159 182 0
165 186 0
162 183 0
160 182 0
159 182 0
156 177 0
161 183 0
160 182 0
161 182 0
160 182 0
161 183 0
163 186 0
166 189 0
163 186 0
157 179 0
159 182 0
158 179 0
165 186 0
160 180 0
161 185 0
162 185 0
165 187 0
161 183 0
166 187 0
162 183 0
161 183 0
162 185 0
164 187 0
161 184 0
158 180 0
160 182 0
164 186 0
161 183 0
166 187 0
164 185 0
167 188 0
167 189 0
164 185 0
158 180 0
161 182 0
162 184 0
162 184 0
162 185 0
163 186 0
165 188 0
167 190 0
165 187 0
167 189 0
162 184 0
164 185 0
160 182 0
160 182 0
163 187 0
167 189 0
162 184 0
164 186 0
163 186 0
166 188 0
164 187 0
164 186 0
168 190 0
162 182 0
166 188 0
159 181 0
170 191 0
165 186 0
168 190 0
162 185 0
169 190 0
166 189 0
165 187 0
165 188 0
170 191 0
164 186 0
166 189 0
162 183 0
165 186 0
167 189 0
165 186 0
165 187 0
164 186 0
167 191 0
166 188 0
166 187 0
165 186 0
166 188 0
166 189 0
163 186 0
164 186 0
166 188 0
162 184 0
168 191 0
167 188 0
165 186 0
165 187 0
166 187 0
173 196 80
170 193 95
176 198 111
172 195 84
178 200 120
174 197 108
172 195 76
169 192 72
170 193 105
173 196 102
171 194 102
174 196 84
173 196 95
166 189 92
169 192 108
175 198 80
174 197 120
169 192 88
171 193 95
172 195 92
170 194 102
175 198 111
167 191 92
172 194 80
168 191 80
167 191 84
167 189 72
169 191 88
171 193 84
171 194 92
173 195 88
171 194 72
168 190 88
169 192 102
163 186 92
172 194 99
166 189 92
171 194 95
169 192 99
167 190 117
165 187 99
161 183 80
171 193 84
164 186 80
169 192 95
165 187 102
170 192 117
164 186 76
170 192 102
165 188 99
164 186 95
166 188 92
171 193 111
168 191 108
166 188 88
169 192 99
163 185 99
167 189 72
172 195 102
163 186 95
166 189 108
163 185 95
170 193 108
165 186 92
162 185 108
162 183 99
162 184 99
157 179 76
161 183 92
158 180 88
166 188 99
157 179 84
164 185 99
163 184 84
166 186 95
159 180 95
165 187 84
157 180 95
161 182 88
160 182 84
165 186 88
160 181 102
172 193 108
156 178 99
162 183 80
160 180 92
167 188 92
158 179 102
158 180 95
165 186 108
164 185 80
165 186 114
158 179 102
154 174 84
163 183 80
161 183 72
167 188 72
161 182 84
164 185 92
166 187 84
156 176 105
158 180 76
148 168 62
160 181 84
155 175 76
163 184 76
160 181 72
161 182 76
151 172 62
154 176 51
149 171 57
163 184 44
154 175 67
155 177 44
152 174 25
156 177 25
146 168 36
152 173 25
156 177 25
153 174 0
152 174 36
156 178 25
151 173 25
147 169 25
147 169 36
151 174 25
157 178 36
153 175 25
159 181 36
161 185 25
165 188 0
160 183 0
160 183 0
153 176 0
158 180 0
151 174 0
157 178 0
148 171 0
156 176 0
158 181 0
153 175 0
151 172 0
141 162 0
142 164 0
144 166 0
148 169 0
144 165 0
140 161 0
135 157 0
151 172 0
143 165 0
143 164 0
138 159 0
144 165 0
134 155 0
141 163 0
138 160 0
149 169 0
144 165 0
138 160 0
136 157 0
145 168 0
152 173 0
140 161 0
143 165 0
140 161 0
140 161 0
137 160 0
147 169 0
138 160 0
137 158 0
141 162 0
145 167 0
140 162 0
144 165 0
147 169 0
142 163 0
148 170 0
141 162 0
141 162 0
144 165 0
146 168 0
155 177 0
134 155 0
133 155 0
148 170 0
136 157 0
141 162 0
139 160 0
143 163 0
147 169 0
149 170 0
148 171 0
139 161 0
146 166 0
140 161 0
138 158 0
141 162 0
141 163 0
149 170 0
141 163 0
134 154 0
149 169 0
143 164 0
138 159 0
138 159 0
143 164 0
144 166 0
137 159 0
139 159 0
137 158 0
154 176 0
142 163 0
139 161 0
148 169 0
149 170 0
144 166 0
140 163 0
144 166 0
132 153 0
149 170 0
148 168 0
145 166 0
137 159 0
149 171 0
148 168 0
146 167 0
145 168 0
145 166 0
147 169 0
150 172 0
134 155 0
144 164 0
141 162 0
151 173 0
152 174 0
148 171 0
151 173 0
144 165 0
145 167 0
149 171 0
146 168 0
150 172 0
144 167 0
149 170 0
139 161 0
150 172 0
156 176 0
155 177 0
153 174 0
143 165 0
151 174 0
152 173 0
152 173 0
152 172 0
152 174 0
148 171 0
152 174 0
154 175 0
155 177 0
154 176 0
146 168 0
157 179 0
148 171 0
153 175 0
154 175 0
153 174 0
152 174 0
154 175 0
152 174 0
152 174 0
157 180 0
157 179 0
150 170 0
150 172 0
156 178 0
151 174 0
155 176 0
145 166 0
152 174 0
153 174 0
154 175 0
145 166 0
154 177 0
158 181 0
160 181 0
157 178 0
162 184 0
159 181 0
155 177 0
154 175 0
162 183 0
160 182 0
153 176 0
160 182 0
166 188 0
162 185 0
155 177 0
157 179 0
158 181 0
159 181 0
156 178 0
160 182 0
159 181 0
160 182 0
158 180 0
162 184 0
157 178 0
158 180 0
154 176 0
161 182 0
159 181 0
155 177 0
163 185 0
155 177 0
162 182 0
157 180 0
159 179 0
159 181 0
156 178 0
165 186 0
154 176 0
161 183 0
160 183 0
164 186 0
163 184 0
161 184 0
164 185 0
164 186 0
155 177 0
160 182 0
158 180 0
158 179 0
164 186 0
163 184 0
161 182 0
164 186 0
163 186 0
161 181 0
165 188 0
165 187 0
162 183 0
166 188 0
162 184 0
164 185 0
163 185 0
160 183 0
169 192 0
166 188 0
163 184 0
160 182 0
160 181 0
162 184 0
165 186 0
166 188 0
165 186 0
161 183 0
163 185 0
164 187 0
158 180 0
169 192 0
159 181 0
164 186 0
168 190 0
169 190 0
164 186 0
171 193 0
168 191 0
163 184 0
167 189 0
164 185 0
165 186 0
163 185 0
167 190 0
166 187 0
167 190 0
165 187 0
166 188 0
168 191 0
164 186 0
168 191 0
169 191 0
166 188 0
163 185 0
168 190 0
168 191 0
162 185 0
164 186 0
171 193 0
166 188 0
164 185 0
165 187 0
164 185 0
169 189 0
166 188 0
168 190 0
164 187 0
164 187 0
166 188 0
164 185 0
