P3
400 225
255
204 226 255
204 226 255
204 226 255
204 226 255
204 226 255
204 226 255
204 226 255
204 226 255
204 226 255
204 226 255
204 226 255
204 226 255
204 226 255
204 226 255
204 226 255
203 226 255
203 226 255
203 226 255
203 226 255
203 226 255
203 226 255
203 226 255
203 226 255
203 225 255
203 225 255
203 225 255
203 225 255
203 225 255
203 225 255
203 225 255
203 225 255
203 225 255
202 225 255
202 225 255
202 225 255
202 225 255
202 225 255
202 225 255
202 225 255
202 225 255
202 225 255
202 225 255
202 225 255
202 225 255
202 225 255
202 225 255
202 225 255
202 225 255
201 225 255
201 225 255
201 225 255
201 225 255
201 224 255
201 224 255
201 224 255
201 224 255
201 224 255
201 224 255
201 224 255
201 224 255
201 224 255
201 224 255
201 224 255
200 224 255
200 224 255
200 224 255
200 224 255
200 224 255
200 224 255
200 224 255
200 224 255
200 224 255
200 224 255
200 224 255
200 224 255
200 224 255
200 224 255
199 224 255
199 224 255
199 223 255
199 223 255
199 223 255
199 223 255
199 223 255
199 223 255
199 223 255
199 223 255
199 223 255
199 223 255
199 223 255
199 223 255
199 223 255
198 223 255
198 223 255
198 223 255
198 223 255
198 223 255
198 223 255
198 223 255
198 223 255
198 223 255
198 223 255
198 223 255
198 223 255
198 223 255
198 223 255
197 223 255
197 222 255
197 222 255
197 222 255
197 222 255
197 222 255
197 222 255
197 222 255
197 222 255
197 222 255
197 222 255
197 222 255
197 222 255
197 222 255
197 222 255
196 222 255
196 222 255
196 222 255
196 222 255
196 222 255
196 222 255
196 222 255
196 222 255
196 222 255
196 222 255
196 222 255
196 222 255
196 222 255
196 222 255
196 221 255
196 221 255
195 221 255
195 221 255
195 221 255
195 221 255
195 221 255
195 221 255
195 221 255
195 221 255
195 221 255
195 221 255
195 221 255
195 221 255
195 221 255
195 221 255
195 221 255
195 221 255
195 221 255
195 221 255
194 221 255
194 221 255
194 221 255
194 221 255
194 221 255
194 221 255
194 221 255
194 221 255
194 221 255
194 221 255
194 221 255
194 221 255
194 221 255
194 221 255
194 221 255
194 221 255
194 221 255
194 221 255
194 221 255
194 221 255
194 221 255
194 220 255
194 220 255
194 220 255
194 220 255
194 220 255
194 220 255
194 220 255
194 220 255
194 220 255
193 220 255
193 220 255
193 220 255
193 220 255
193 220 255
193 220 255
193 220 255
193 220 255
193 220 255
193 220 255
193 220 255
193 220 255
193 220 255
193 220 255
193 220 255
193 220 255
193 220 255
193 220 255
193 220 255
193 220 255
193 220 255
193 220 255
193 220 255
193 220 255
193 220 255
193 220 255
193 220 255
193 220 255
194 220 255
194 220 255
194 220 255
194 220 255
194 220 255
194 220 255
194 220 255
194 220 255
194 220 255
194 220 255
194 221 255
194 221 255
194 221 255
194 221 255
194 221 255
194 221 255
194 221 255
194 221 255
194 221 255
194 221 255
194 221 255
194 221 255
194 221 255
194 221 255
194 221 255
194 221 255
194 221 255
194 221 255
194 221 255
194 221 255
194 221 255
194 221 255
195 221 255
195 221 255
195 221 255
195 221 255
195 221 255
195 221 255
195 221 255
195 221 255
195 221 255
195 221 255
195 221 255
195 221 255
195 221 255
195 221 255
195 221 255
195 221 255
195 221 255
195 221 255
196 221 255
196 221 255
196 222 255
196 222 255
196 222 255
196 222 255
196 222 255
196 222 255
196 222 255
196 222 255
196 222 255
196 222 255
196 222 255
196 222 255
196 222 255
196 222 255
197 222 255
197 222 255
197 222 255
197 222 255
197 222 255
197 222 255
197 222 255
197 222 255
197 222 255
197 222 255
197 222 255
197 222 255
197 222 255
197 222 255
197 223 255
198 223 255
198 223 255
198 223 255
198 223 255
198 223 255
198 223 255
198 223 255
198 223 255
198 223 255
198 223 255
198 223 255
198 223 255
198 223 255
198 223 255
198 223 255
199 223 255
199 223 255
199 223 255
199 223 255
199 223 255
199 223 255
199 223 255
199 223 255
199 223 255
199 223 255
199 223 255
199 224 255
199 224 255
200 224 255
200 224 255
200 224 255
200 224 255
200 224 255
200 224 255
200 224 255
200 224 255
200 224 255
200 224 255
200 224 255
200 224 255
200 224 255
200 224 255
200 224 255
201 224 255
201 224 255
201 224 255
201 224 255
201 224 255
201 224 255
201 224 255
201 224 255
201 224 255
201 224 255
201 225 255
201 225 255
201 225 255
201 225 255
201 225 255
202 225 255
202 225 255
202 225 255
202 225 255
202 225 255
202 225 255
202 225 255
202 225 255
202 225 255
202 225 255
202 225 255
202 225 255
202 225 255
202 225 255
202 225 255
202 225 255
203 225 255
203 225 255
203 225 255
203 225 255
203 225 255
203 225 255
203 225 255
203 225 255
203 225 255
203 226 255
203 226 255
203 226 255
203 226 255
203 226 255
203 226 255
203 226 255
204 226 255
204 226 255
204 226 255
204 226 255
204 226 255
204 226 255
204 226 255
204 226 255
204 226 255
204 226 255
204 226 255
204 226 255
204 226 255
204 226 255
204 226 255
204 226 255
204 226 255
204 226 255
204 226 255
204 226 255
204 226 255
204 226 255
204 226 255
204 226 255
204 226 255
204 226 255
204 226 255
204 226 255
204 226 255
204 226 255
204 226 255
204 226 255
204 226 255
204 226 255
203 226 255
203 226 255
203 226 255
203 226 255
203 226 255
203 226 255
203 226 255
203 225 255
203 225 255
203 225 255
203 225 255
203 225 255
203 225 255
203 225 255
203 225 255
203 225 255
202 225 255
202 225 255
202 225 255
202 225 255
202 225 255
202 225 255
202 225 255
202 225 255
202 225 255
202 225 255
202 225 255
202 225 255
202 225 255
202 225 255
202 225 255
202 225 255
201 225 255
201 225 255
201 225 255
201 225 255
201 225 255
201 224 255
201 224 255
201 224 255
201 224 255
201 224 255
201 224 255
201 224 255
201 224 255
201 224 255
201 224 255
200 224 255
200 224 255
200 224 255
200 224 255
200 224 255
200 224 255
200 224 255
200 224 255
200 224 255
200 224 255
200 224 255
200 224 255
200 224 255
200 224 255
200 224 255
199 224 255
199 224 255
199 223 255
199 223 255
199 223 255
199 223 255
199 223 255
199 223 255
199 223 255
199 223 255
199 223 255
199 223 255
199 223 255
199 223 255
198 223 255
198 223 255
198 223 255
198 223 255
198 223 255
198 223 255
198 223 255
198 223 255
198 223 255
198 223 255
198 223 255
198 223 255
198 223 255
198 223 255
197 223 255
197 222 255
197 222 255
197 222 255
197 222 255
197 222 255
197 222 255
197 222 255
197 222 255
197 222 255
197 222 255
197 222 255
197 222 255
197 222 255
197 222 255
196 222 255
196 222 255
196 222 255
196 222 255
196 222 255
196 222 255
196 222 255
196 222 255
196 222 255
196 222 255
196 222 255
196 222 255
196 222 255
196 222 255
196 221 255
196 221 255
195 221 255
195 221 255
195 221 255
195 221 255
195 221 255
195 221 255
195 221 255
195 221 255
195 221 255
195 221 255
195 221 255
195 221 255
195 221 255
195 221 255
195 221 255
195 221 255
195 221 255
195 221 255
195 221 255
194 221 255
194 221 255
194 221 255
194 221 255
194 221 255
194 221 255
194 221 255
194 221 255
194 221 255
194 221 255
194 221 255
194 221 255
194 221 255
194 221 255
194 221 255
194 221 255
194 221 255
194 221 255
194 221 255
194 221 255
194 221 255
194 221 255
194 221 255
194 221 255
194 221 255
194 220 255
194 220 255
194 220 255
194 220 255
194 220 255
194 220 255
194 220 255
194 220 255
194 220 255
194 220 255
194 220 255
194 220 255
194 220 255
194 220 255
194 220 255
194 220 255
194 220 255
194 220 255
194 220 255
194 220 255
194 220 255
194 220 255
194 220 255
194 220 255
194 220 255
194 220 255
194 220 255
194 220 255
194 220 255
194 220 255
194 220 255
194 220 255
194 220 255
194 220 255
194 221 255
194 221 255
194 221 255
194 221 255
194 221 255
194 221 255
194 221 255
194 221 255
194 221 255
194 221 255
194 221 255
194 221 255
194 221 255
194 221 255
194 221 255
194 221 255
194 221 255
194 221 255
194 221 255
194 221 255
194 221 255
194 221 255
194 221 255
194 221 255
194 221 255
195 221 255
195 221 255
195 221 255
195 221 255
195 221 255
195 221 255
195 221 255
195 221 255
195 221 255
195 221 255
195 221 255
195 221 255
195 221 255
195 221 255
195 221 255
195 221 255
195 221 255
195 221 255
195 221 255
196 221 255
196 222 255
196 222 255
196 222 255
196 222 255
196 222 255
196 222 255
196 222 255
196 222 255
196 222 255
196 222 255
196 222 255
196 222 255
196 222 255
196 222 255
196 222 255
197 222 255
197 222 255
197 222 255
197 222 255
197 222 255
197 222 255
197 222 255
197 222 255
197 222 255
197 222 255
197 222 255
197 222 255
197 222 255
197 222 255
197 223 255
198 223 255
198 223 255
198 223 255
198 223 255
198 223 255
198 223 255
198 223 255
198 223 255
198 223 255
198 223 255
198 223 255
198 223 255
198 223 255
198 223 255
199 223 255
199 223 255
199 223 255
199 223 255
199 223 255
199 223 255
199 223 255
199 223 255
199 223 255
199 223 255
199 223 255
199 223 255
199 224 255
199 224 255
199 224 255
200 224 255
200 224 255
200 224 255
200 224 255
200 224 255
200 224 255
200 224 255
200 224 255
200 224 255
200 224 255
200 224 255
200 224 255
200 224 255
200 224 255
201 224 255
201 224 255
201 224 255
201 224 255
201 224 255
201 224 255
201 224 255
201 224 255
201 224 255
201 224 255
201 224 255
201 225 255
201 225 255
201 225 255
201 225 255
202 225 255
202 225 255
202 225 255
202 225 255
202 225 255
202 225 255
202 225 255
202 225 255
202 225 255
202 225 255
202 225 255
202 225 255
202 225 255
202 225 255
202 225 255
202 225 255
203 225 255
203 225 255
203 225 255
203 225 255
203 225 255
203 225 255
203 225 255
203 225 255
203 225 255
203 226 255
203 226 255
203 226 255
203 226 255
203 226 255
203 226 255
203 226 255
204 226 255
204 226 255
204 226 255
204 226 255
204 226 255
204 226 255
204 226 255
204 226 255
204 226 255
204 226 255
204 226 255
204 226 255
204 226 255
204 226 255
204 226 255
204 226 255
204 226 255
204 226 255
205 226 255
205 226 255
204 226 255
204 226 255
204 226 255
204 226 255
204 226 255
204 226 255
204 226 255
204 226 255
204 226 255
204 226 255
204 226 255
204 226 255
204 226 255
204 226 255
204 226 255
204 226 255
204 226 255
204 226 255
203 226 255
203 226 255
203 226 255
203 226 255
203 226 255
203 226 255
203 226 255
203 225 255
203 225 255
203 225 255
203 225 255
203 225 255
203 225 255
203 225 255
203 225 255
203 225 255
203 225 255
202 225 255
202 225 255
202 225 255
202 225 255
202 225 255
202 225 255
202 225 255
202 225 255
202 225 255
202 225 255
202 225 255
202 225 255
202 225 255
202 225 255
202 225 255
201 225 255
201 225 255
201 225 255
201 225 255
201 224 255
201 224 255
201 224 255
201 224 255
201 224 255
201 224 255
201 224 255
201 224 255
201 224 255
201 224 255
201 224 255
200 224 255
200 224 255
200 224 255
200 224 255
200 224 255
200 224 255
200 224 255
200 224 255
200 224 255
200 224 255
200 224 255
200 224 255
200 224 255
200 224 255
199 224 255
199 224 255
199 224 255
199 223 255
199 223 255
199 223 255
199 223 255
199 223 255
199 223 255
199 223 255
199 223 255
199 223 255
199 223 255
199 223 255
199 223 255
198 223 255
198 223 255
198 223 255
198 223 255
198 223 255
198 223 255
198 223 255
198 223 255
198 223 255
198 223 255
198 223 255
198 223 255
198 223 255
198 223 255
197 222 255
197 222 255
197 222 255
197 222 255
197 222 255
197 222 255
197 222 255
197 222 255
197 222 255
197 222 255
197 222 255
197 222 255
197 222 255
197 222 255
197 222 255
196 222 255
196 222 255
196 222 255
196 222 255
196 222 255
196 222 255
196 222 255
196 222 255
196 222 255
196 222 255
196 222 255
196 222 255
196 222 255
196 222 255
196 222 255
196 221 255
196 221 255
195 221 255
195 221 255
195 221 255
195 221 255
195 221 255
195 221 255
195 221 255
195 221 255
195 221 255
195 221 255
195 221 255
195 221 255
195 221 255
195 221 255
195 221 255
195 221 255
195 221 255
195 221 255
195 221 255
194 221 255
194 221 255
194 221 255
194 221 255
194 221 255
194 221 255
194 221 255
194 221 255
194 221 255
194 221 255
194 221 255
194 221 255
194 221 255
194 221 255
194 221 255
194 221 255
194 221 255
194 221 255
194 221 255
194 221 255
194 221 255
194 221 255
194 221 255
194 221 255
194 221 255
194 221 255
194 221 255
194 221 255
194 221 255
194 221 255
194 221 255
194 220 255
194 221 255
194 220 255
194 220 255
194 220 255
194 220 255
194 220 255
194 220 255
194 220 255
194 220 255
194 220 255
194 220 255
194 220 255
194 220 255
194 220 255
194 220 255
194 221 255
194 220 255
194 221 255
194 221 255
194 221 255
194 221 255
194 221 255
194 221 255
194 221 255
194 221 255
194 221 255
194 221 255
194 221 255
194 221 255
194 221 255
194 221 255
194 221 255
194 221 255
194 221 255
194 221 255
194 221 255
194 221 255
194 221 255
194 221 255
194 221 255
194 221 255
194 221 255
194 221 255
194 221 255
194 221 255
195 221 255
195 221 255
195 221 255
195 221 255
195 221 255
195 221 255
195 221 255
195 221 255
195 221 255
195 221 255
195 221 255
195 221 255
195 221 255
195 221 255
195 221 255
195 221 255
195 221 255
195 221 255
195 221 255
195 221 255
195 221 255
196 221 255
196 222 255
196 222 255
196 222 255
196 222 255
196 222 255
196 222 255
196 222 255
196 222 255
196 222 255
196 222 255
196 222 255
196 222 255
196 222 255
196 222 255
196 222 255
197 222 255
197 222 255
197 222 255
197 222 255
197 222 255
197 222 255
197 222 255
197 222 255
197 222 255
197 222 255
197 222 255
197 222 255
197 222 255
197 222 255
197 222 255
198 223 255
198 223 255
198 223 255
198 223 255
198 223 255
198 223 255
198 223 255
198 223 255
198 223 255
198 223 255
198 223 255
198 223 255
198 223 255
198 223 255
199 223 255
199 223 255
199 223 255
199 223 255
199 223 255
199 223 255
199 223 255
199 223 255
199 223 255
199 223 255
199 223 255
199 223 255
199 224 255
199 224 255
199 224 255
200 224 255
200 224 255
200 224 255
200 224 255
200 224 255
200 224 255
200 224 255
200 224 255
200 224 255
200 224 255
200 224 255
200 224 255
200 224 255
200 224 255
201 224 255
201 224 255
201 224 255
201 224 255
201 224 255
201 224 255
201 224 255
201 224 255
201 224 255
201 224 255
201 225 255
201 225 255
201 225 255
201 225 255
201 225 255
202 225 255
202 225 255
202 225 255
202 225 255
202 225 255
202 225 255
202 225 255
202 225 255
202 225 255
202 225 255
202 225 255
202 225 255
202 225 255
202 225 255
202 225 255
202 225 255
203 225 255
203 225 255
203 225 255
203 225 255
203 225 255
203 225 255
203 225 255
203 225 255
203 225 255
203 226 255
203 226 255
203 226 255
203 226 255
203 226 255
203 226 255
203 226 255
204 226 255
204 226 255
204 226 255
204 226 255
204 226 255
204 226 255
204 226 255
204 226 255
204 226 255
204 226 255
204 226 255
204 226 255
204 226 255
204 226 255
204 226 255
204 226 255
204 226 255
204 226 255
205 226 255
205 226 255
205 226 255
205 226 255
205 226 255
205 226 255
205 226 255
204 226 255
204 226 255
204 226 255
204 226 255
204 226 255
204 226 255
204 226 255
204 226 255
204 226 255
204 226 255
204 226 255
204 226 255
204 226 255
204 226 255
204 226 255
204 226 255
204 226 255
204 226 255
203 226 255
203 226 255
203 226 255
203 226 255
203 226 255
203 226 255
203 225 255
203 225 255
203 225 255
203 225 255
203 225 255
203 225 255
203 225 255
203 225 255
203 225 255
203 225 255
202 225 255
202 225 255
202 225 255
202 225 255
202 225 255
202 225 255
202 225 255
202 225 255
202 225 255
202 225 255
202 225 255
202 225 255
202 225 255
202 225 255
202 225 255
201 225 255
201 225 255
201 225 255
201 225 255
201 225 255
201 224 255
201 224 255
201 224 255
201 224 255
201 224 255
201 224 255
201 224 255
201 224 255
201 224 255
201 224 255
200 224 255
200 224 255
200 224 255
200 224 255
200 224 255
200 224 255
200 224 255
200 224 255
200 224 255
200 224 255
200 224 255
200 224 255
200 224 255
200 224 255
199 224 255
199 224 255
199 224 255
199 223 255
199 223 255
199 223 255
199 223 255
199 223 255
199 223 255
199 223 255
199 223 255
199 223 255
199 223 255
199 223 255
199 223 255
198 223 255
198 223 255
198 223 255
198 223 255
198 223 255
198 223 255
198 223 255
198 223 255
198 223 255
198 223 255
198 223 255
198 223 255
198 223 255
198 223 255
197 223 255
197 222 255
197 222 255
197 222 255
197 222 255
197 222 255
197 222 255
197 222 255
197 222 255
197 222 255
197 222 255
197 222 255
197 222 255
197 222 255
197 222 255
197 222 255
196 222 255
196 222 255
196 222 255
196 222 255
196 222 255
196 222 255
196 222 255
196 222 255
196 222 255
196 222 255
196 222 255
196 222 255
196 222 255
196 222 255
196 221 255
196 221 255
195 221 255
195 221 255
195 221 255
195 221 255
195 221 255
195 221 255
195 221 255
195 221 255
195 221 255
195 221 255
195 221 255
195 221 255
195 221 255
195 221 255
195 221 255
195 221 255
195 221 255
195 221 255
195 221 255
195 221 255
195 221 255
194 221 255
194 221 255
194 221 255
194 221 255
194 221 255
194 221 255
194 221 255
194 221 255
194 221 255
194 221 255
194 221 255
194 221 255
194 221 255
194 221 255
194 221 255
194 221 255
194 221 255
194 221 255
194 221 255
194 221 255
194 221 255
194 221 255
194 221 255
194 221 255
194 221 255
194 221 255
194 221 255
194 221 255
194 221 255
194 221 255
194 221 255
194 221 255
194 221 255
194 221 255
194 221 255
194 221 255
194 221 255
194 221 255
194 221 255
194 221 255
194 221 255
194 221 255
194 221 255
194 221 255
194 221 255
194 221 255
194 221 255
194 221 255
194 221 255
194 221 255
194 221 255
194 221 255
194 221 255
194 221 255
194 221 255
194 221 255
194 221 255
194 221 255
194 221 255
194 221 255
194 221 255
194 221 255
194 221 255
194 221 255
194 221 255
194 221 255
194 221 255
194 221 255
194 221 255
194 221 255
195 221 255
195 221 255
195 221 255
195 221 255
195 221 255
195 221 255
195 221 255
195 221 255
195 221 255
195 221 255
195 221 255
195 221 255
195 221 255
195 221 255
195 221 255
195 221 255
195 221 255
195 221 255
195 221 255
195 221 255
196 221 255
196 221 255
196 222 255
196 222 255
196 222 255
196 222 255
196 222 255
196 222 255
196 222 255
196 222 255
196 222 255
196 222 255
196 222 255
196 222 255
196 222 255
196 222 255
196 222 255
197 222 255
197 222 255
197 222 255
197 222 255
197 222 255
197 222 255
197 222 255
197 222 255
197 222 255
197 222 255
197 222 255
197 222 255
197 222 255
197 222 255
197 222 255
197 223 255
198 223 255
198 223 255
198 223 255
198 223 255
198 223 255
198 223 255
198 223 255
198 223 255
198 223 255
198 223 255
198 223 255
198 223 255
198 223 255
198 223 255
199 223 255
199 223 255
199 223 255
199 223 255
199 223 255
199 223 255
199 223 255
199 223 255
199 223 255
199 223 255
199 223 255
199 223 255
199 224 255
199 224 255
200 224 255
200 224 255
200 224 255
200 224 255
200 224 255
200 224 255
200 224 255
200 224 255
200 224 255
200 224 255
200 224 255
200 224 255
200 224 255
200 224 255
200 224 255
201 224 255
201 224 255
201 224 255
201 224 255
201 224 255
201 224 255
201 224 255
201 224 255
201 224 255
201 224 255
201 225 255
201 225 255
201 225 255
201 225 255
201 225 255
202 225 255
202 225 255
202 225 255
202 225 255
202 225 255
202 225 255
202 225 255
202 225 255
202 225 255
202 225 255
202 225 255
202 225 255
202 225 255
202 225 255
202 225 255
203 225 255
203 225 255
203 225 255
203 225 255
203 225 255
203 225 255
203 225 255
203 225 255
203 225 255
203 225 255
203 226 255
203 226 255
203 226 255
203 226 255
203 226 255
203 226 255
203 226 255
204 226 255
204 226 255
204 226 255
204 226 255
204 226 255
204 226 255
204 226 255
204 226 255
204 226 255
204 226 255
204 226 255
204 226 255
204 226 255
204 226 255
204 226 255
204 226 255
204 226 255
204 226 255
205 226 255
205 226 255
205 226 255
205 226 255
205 226 255
205 226 255
205 226 255
205 226 255
205 226 255
205 226 255
205 226 255
204 226 255
204 226 255
204 226 255
204 226 255
204 226 255
204 226 255
204 226 255
204 226 255
204 226 255
204 226 255
204 226 255
204 226 255
204 226 255
204 226 255
204 226 255
204 226 255
204 226 255
204 226 255
203 226 255
203 226 255
203 226 255
203 226 255
203 226 255
203 226 255
203 226 255
203 225 255
203 225 255
203 225 255
203 225 255
203 225 255
203 225 255
203 225 255
203 225 255
203 225 255
202 225 255
202 225 255
202 225 255
202 225 255
202 225 255
202 225 255
202 225 255
202 225 255
202 225 255
202 225 255
202 225 255
202 225 255
202 225 255
202 225 255
202 225 255
202 225 255
201 225 255
201 225 255
201 225 255
201 225 255
201 224 255
201 224 255
201 224 255
201 224 255
201 224 255
201 224 255
201 224 255
201 224 255
201 224 255
201 224 255
200 224 255
200 224 255
200 224 255
200 224 255
200 224 255
200 224 255
200 224 255
200 224 255
200 224 255
200 224 255
200 224 255
200 224 255
200 224 255
200 224 255
200 224 255
199 224 255
199 224 255
199 223 255
199 223 255
199 223 255
199 223 255
199 223 255
199 223 255
199 223 255
199 223 255
199 223 255
199 223 255
199 223 255
199 223 255
198 223 255
198 223 255
198 223 255
198 223 255
198 223 255
198 223 255
198 223 255
198 223 255
198 223 255
198 223 255
198 223 255
198 223 255
198 223 255
198 223 255
198 223 255
197 222 255
197 222 255
197 222 255
197 222 255
197 222 255
197 222 255
197 222 255
197 222 255
197 222 255
197 222 255
197 222 255
197 222 255
197 222 255
197 222 255
196 222 255
196 222 255
196 222 255
196 222 255
196 222 255
196 222 255
196 222 255
196 222 255
196 222 255
196 222 255
196 222 255
196 222 255
196 222 255
196 222 255
196 222 255
196 222 255
196 221 255
196 221 255
195 221 255
195 221 255
195 221 255
195 221 255
195 221 255
195 221 255
195 221 255
195 221 255
195 221 255
195 221 255
195 221 255
195 221 255
195 221 255
195 221 255
195 221 255
195 221 255
195 221 255
195 221 255
195 221 255
195 221 255
195 221 255
195 221 255
194 221 255
194 221 255
194 221 255
194 221 255
194 221 255
194 221 255
194 221 255
194 221 255
194 221 255
194 221 255
194 221 255
194 221 255
194 221 255
194 221 255
194 221 255
194 221 255
194 221 255
194 221 255
194 221 255
194 221 255
194 221 255
194 221 255
194 221 255
194 221 255
194 221 255
194 221 255
194 221 255
194 221 255
194 221 255
194 221 255
194 221 255
194 221 255
194 221 255
194 221 255
194 221 255
194 221 255
194 221 255
194 221 255
194 221 255
194 221 255
194 221 255
194 221 255
194 221 255
194 221 255
194 221 255
194 221 255
194 221 255
194 221 255
194 221 255
194 221 255
194 221 255
194 221 255
194 221 255
194 221 255
194 221 255
194 221 255
194 221 255
194 221 255
194 221 255
194 221 255
194 221 255
194 221 255
195 221 255
195 221 255
195 221 255
195 221 255
195 221 255
195 221 255
195 221 255
195 221 255
195 221 255
195 221 255
195 221 255
195 221 255
195 221 255
195 221 255
195 221 255
195 221 255
195 221 255
195 221 255
195 221 255
195 221 255
195 221 255
195 221 255
196 221 255
196 221 255
196 222 255
196 222 255
196 222 255
196 222 255
196 222 255
196 222 255
196 222 255
196 222 255
196 222 255
196 222 255
196 222 255
196 222 255
196 222 255
196 222 255
196 222 255
196 222 255
197 222 255
197 222 255
197 222 255
197 222 255
197 222 255
197 222 255
197 222 255
197 222 255
197 222 255
197 222 255
197 222 255
197 222 255
197 222 255
197 222 255
197 223 255
198 223 255
198 223 255
198 223 255
198 223 255
198 223 255
198 223 255
198 223 255
198 223 255
198 223 255
198 223 255
198 223 255
198 223 255
198 223 255
198 223 255
199 223 255
199 223 255
199 223 255
199 223 255
199 223 255
199 223 255
199 223 255
199 223 255
199 223 255
199 223 255
199 223 255
199 223 255
199 224 255
199 224 255
200 224 255
200 224 255
200 224 255
200 224 255
200 224 255
200 224 255
200 224 255
200 224 255
200 224 255
200 224 255
200 224 255
200 224 255
200 224 255
200 224 255
200 224 255
201 224 255
201 224 255
201 224 255
201 224 255
201 224 255
201 224 255
201 224 255
201 224 255
201 224 255
201 224 255
201 225 255
201 225 255
201 225 255
201 225 255
201 225 255
202 225 255
202 225 255
202 225 255
202 225 255
202 225 255
202 225 255
202 225 255
202 225 255
202 225 255
202 225 255
202 225 255
202 225 255
202 225 255
202 225 255
202 225 255
203 225 255
203 225 255
203 225 255
203 225 255
203 225 255
203 225 255
203 225 255
203 225 255
203 225 255
203 226 255
203 226 255
203 226 255
203 226 255
203 226 255
203 226 255
203 226 255
203 226 255
204 226 255
204 226 255
204 226 255
204 226 255
204 226 255
204 226 255
204 226 255
204 226 255
204 226 255
204 226 255
204 226 255
204 226 255
204 226 255
204 226 255
204 226 255
204 226 255
204 226 255
204 226 255
205 226 255
205 226 255
205 226 255
205 226 255
205 226 255
205 226 255
205 227 255
205 227 255
205 226 255
205 226 255
205 226 255
205 226 255
205 226 255
205 226 255
205 226 255
204 226 255
204 226 255
204 226 255
204 226 255
204 226 255
204 226 255
204 226 255
204 226 255
204 226 255
204 226 255
204 226 255
204 226 255
204 226 255
204 226 255
204 226 255
204 226 255
204 226 255
204 226 255
203 226 255
203 226 255
203 226 255
203 226 255
203 226 255
203 226 255
203 226 255
203 226 255
203 225 255
203 225 255
203 225 255
203 225 255
203 225 255
203 225 255
203 225 255
203 225 255
202 225 255
202 225 255
202 225 255
202 225 255
202 225 255
202 225 255
202 225 255
202 225 255
202 225 255
202 225 255
202 225 255
202 225 255
202 225 255
202 225 255
202 225 255
201 225 255
201 225 255
201 225 255
201 225 255
201 225 255
201 224 255
201 224 255
201 224 255
201 224 255
201 224 255
201 224 255
201 224 255
201 224 255
201 224 255
201 224 255
200 224 255
200 224 255
200 224 255
200 224 255
200 224 255
200 224 255
200 224 255
200 224 255
200 224 255
200 224 255
200 224 255
200 224 255
200 224 255
200 224 255
200 224 255
199 224 255
199 224 255
199 223 255
199 223 255
199 223 255
199 223 255
199 223 255
199 223 255
199 223 255
199 223 255
199 223 255
199 223 255
199 223 255
199 223 255
198 223 255
198 223 255
198 223 255
198 223 255
198 223 255
198 223 255
198 223 255
198 223 255
198 223 255
198 223 255
198 223 255
198 223 255
198 223 255
198 223 255
198 223 255
197 222 255
197 222 255
197 222 255
197 222 255
197 222 255
197 222 255
197 222 255
197 222 255
197 222 255
197 222 255
197 222 255
197 222 255
197 222 255
197 222 255
197 222 255
196 222 255
196 222 255
196 222 255
196 222 255
196 222 255
196 222 255
196 222 255
196 222 255
196 222 255
196 222 255
196 222 255
196 222 255
196 222 255
196 222 255
196 222 255
196 222 255
196 221 255
195 221 255
195 221 255
195 221 255
195 221 255
195 221 255
195 221 255
195 221 255
195 221 255
195 221 255
195 221 255
195 221 255
195 221 255
195 221 255
195 221 255
195 221 255
195 221 255
195 221 255
195 221 255
195 221 255
195 221 255
195 221 255
195 221 255
195 221 255
195 221 255
195 221 255
194 221 255
194 221 255
194 221 255
194 221 255
194 221 255
194 221 255
194 221 255
194 221 255
194 221 255
194 221 255
194 221 255
194 221 255
194 221 255
194 221 255
194 221 255
194 221 255
194 221 255
194 221 255
194 221 255
194 221 255
194 221 255
194 221 255
194 221 255
194 221 255
194 221 255
194 221 255
194 221 255
194 221 255
194 221 255
194 221 255
194 221 255
194 221 255
194 221 255
194 221 255
194 221 255
194 221 255
194 221 255
194 221 255
194 221 255
194 221 255
194 221 255
194 221 255
194 221 255
194 221 255
194 221 255
194 221 255
194 221 255
194 221 255
194 221 255
194 221 255
194 221 255
194 221 255
194 221 255
195 221 255
195 221 255
195 221 255
195 221 255
195 221 255
195 221 255
195 221 255
195 221 255
195 221 255
195 221 255
195 221 255
195 221 255
195 221 255
195 221 255
195 221 255
195 221 255
195 221 255
195 221 255
195 221 255
195 221 255
195 221 255
195 221 255
195 221 255
195 221 255
196 221 255
196 221 255
196 222 255
196 222 255
196 222 255
196 222 255
196 222 255
196 222 255
196 222 255
196 222 255
196 222 255
196 222 255
196 222 255
196 222 255
196 222 255
196 222 255
196 222 255
197 222 255
197 222 255
197 222 255
197 222 255
197 222 255
197 222 255
197 222 255
197 222 255
197 222 255
197 222 255
197 222 255
197 222 255
197 222 255
197 222 255
197 222 255
197 223 255
198 223 255
198 223 255
198 223 255
198 223 255
198 223 255
198 223 255
198 223 255
198 223 255
198 223 255
198 223 255
198 223 255
198 223 255
198 223 255
198 223 255
199 223 255
199 223 255
199 223 255
199 223 255
199 223 255
199 223 255
199 223 255
199 223 255
199 223 255
199 223 255
199 223 255
199 223 255
199 224 255
199 224 255
200 224 255
200 224 255
200 224 255
200 224 255
200 224 255
200 224 255
200 224 255
200 224 255
200 224 255
200 224 255
200 224 255
200 224 255
200 224 255
200 224 255
200 224 255
201 224 255
201 224 255
201 224 255
201 224 255
201 224 255
201 224 255
201 224 255
201 224 255
201 224 255
201 224 255
201 225 255
201 225 255
201 225 255
201 225 255
201 225 255
202 225 255
202 225 255
202 225 255
202 225 255
202 225 255
202 225 255
202 225 255
202 225 255
202 225 255
202 225 255
202 225 255
202 225 255
202 225 255
202 225 255
202 225 255
203 225 255
203 225 255
203 225 255
203 225 255
203 225 255
203 225 255
203 225 255
203 225 255
203 225 255
203 226 255
203 226 255
203 226 255
203 226 255
203 226 255
203 226 255
203 226 255
203 226 255
204 226 255
204 226 255
204 226 255
204 226 255
204 226 255
204 226 255
204 226 255
204 226 255
204 226 255
204 226 255
204 226 255
204 226 255
204 226 255
204 226 255
204 226 255
204 226 255
205 226 255
205 226 255
205 226 255
205 226 255
205 226 255
205 226 255
205 226 255
205 226 255
205 227 255
205 227 255
205 227 255
205 227 255
205 227 255
205 227 255
205 226 255
205 226 255
205 226 255
205 226 255
205 226 255
205 226 255
205 226 255
204 226 255
204 226 255
204 226 255
204 226 255
204 226 255
204 226 255
204 226 255
204 226 255
204 226 255
204 226 255
204 226 255
204 226 255
204 226 255
204 226 255
204 226 255
204 226 255
204 226 255
204 226 255
203 226 255
203 226 255
203 226 255
203 226 255
203 226 255
203 226 255
203 226 255
203 225 255
203 225 255
203 225 255
203 225 255
203 225 255
203 225 255
203 225 255
203 225 255
203 225 255
202 225 255
202 225 255
202 225 255
202 225 255
202 225 255
202 225 255
202 225 255
202 225 255
202 225 255
202 225 255
202 225 255
202 225 255
202 225 255
202 225 255
202 225 255
202 225 255
201 225 255
201 225 255
201 225 255
201 225 255
201 224 255
201 224 255
201 224 255
201 224 255
201 224 255
201 224 255
201 224 255
201 224 255
201 224 255
201 224 255
200 224 255
200 224 255
200 224 255
200 224 255
200 224 255
200 224 255
200 224 255
200 224 255
200 224 255
200 224 255
200 224 255
200 224 255
200 224 255
200 224 255
200 224 255
199 224 255
199 224 255
199 223 255
199 223 255
199 223 255
199 223 255
199 223 255
199 223 255
199 223 255
199 223 255
199 223 255
199 223 255
199 223 255
199 223 255
198 223 255
198 223 255
198 223 255
198 223 255
198 223 255
198 223 255
198 223 255
198 223 255
198 223 255
198 223 255
198 223 255
198 223 255
198 223 255
198 223 255
198 223 255
197 222 255
197 222 255
197 222 255
197 222 255
197 222 255
197 222 255
197 222 255
197 222 255
197 222 255
197 222 255
197 222 255
197 222 255
197 222 255
197 222 255
197 222 255
197 222 255
196 222 255
196 222 255
196 222 255
196 222 255
196 222 255
196 222 255
196 222 255
196 222 255
196 222 255
196 222 255
196 222 255
196 222 255
196 222 255
196 222 255
196 222 255
196 221 255
196 221 255
195 221 255
195 221 255
195 221 255
195 221 255
195 221 255
195 221 255
195 221 255
195 221 255
195 221 255
195 221 255
195 221 255
195 221 255
195 221 255
195 221 255
195 221 255
195 221 255
195 221 255
195 221 255
195 221 255
195 221 255
195 221 255
195 221 255
195 221 255
195 221 255
195 221 255
195 221 255
195 221 255
194 221 255
194 221 255
194 221 255
194 221 255
194 221 255
194 221 255
194 221 255
194 221 255
194 221 255
194 221 255
194 221 255
194 221 255
194 221 255
194 221 255
194 221 255
194 221 255
194 221 255
194 221 255
194 221 255
194 221 255
194 221 255
194 221 255
194 221 255
194 221 255
194 221 255
194 221 255
194 221 255
194 221 255
194 221 255
194 221 255
194 221 255
194 221 255
194 221 255
194 221 255
194 221 255
194 221 255
194 221 255
194 221 255
194 221 255
194 221 255
194 221 255
194 221 255
194 221 255
195 221 255
195 221 255
195 221 255
195 221 255
195 221 255
195 221 255
195 221 255
195 221 255
195 221 255
195 221 255
195 221 255
195 221 255
195 221 255
195 221 255
195 221 255
195 221 255
195 221 255
195 221 255
195 221 255
195 221 255
195 221 255
195 221 255
195 221 255
195 221 255
195 221 255
196 221 255
196 221 255
196 222 255
196 222 255
196 222 255
196 222 255
196 222 255
196 222 255
196 222 255
196 222 255
196 222 255
196 222 255
196 222 255
196 222 255
196 222 255
196 222 255
196 222 255
196 222 255
197 222 255
197 222 255
197 222 255
197 222 255
197 222 255
197 222 255
197 222 255
197 222 255
197 222 255
197 222 255
197 222 255
197 222 255
197 222 255
197 222 255
197 222 255
197 222 255
197 223 255
198 223 255
198 223 255
198 223 255
198 223 255
198 223 255
198 223 255
198 223 255
198 223 255
198 223 255
198 223 255
198 223 255
198 223 255
198 223 255
198 223 255
199 223 255
199 223 255
199 223 255
199 223 255
199 223 255
199 223 255
199 223 255
199 223 255
199 223 255
199 223 255
199 223 255
199 223 255
199 224 255
199 224 255
200 224 255
200 224 255
200 224 255
200 224 255
200 224 255
200 224 255
200 224 255
200 224 255
200 224 255
200 224 255
200 224 255
200 224 255
200 224 255
200 224 255
201 224 255
201 224 255
201 224 255
201 224 255
201 224 255
201 224 255
201 224 255
201 224 255
201 224 255
201 224 255
201 224 255
201 225 255
201 225 255
201 225 255
201 225 255
202 225 255
202 225 255
202 225 255
202 225 255
202 225 255
202 225 255
202 225 255
202 225 255
202 225 255
202 225 255
202 225 255
202 225 255
202 225 255
202 225 255
202 225 255
202 225 255
203 225 255
203 225 255
203 225 255
203 225 255
203 225 255
203 225 255
203 225 255
203 225 255
203 225 255
203 226 255
203 226 255
203 226 255
203 226 255
203 226 255
203 226 255
203 226 255
204 226 255
204 226 255
204 226 255
204 226 255
204 226 255
204 226 255
204 226 255
204 226 255
204 226 255
204 226 255
204 226 255
204 226 255
204 226 255
204 226 255
204 226 255
204 226 255
204 226 255
204 226 255
205 226 255
205 226 255
205 226 255
205 226 255
205 226 255
205 226 255
205 226 255
205 227 255
205 227 255
205 227 255
205 227 255
205 227 255
205 227 255
205 227 255
205 227 255
205 227 255
205 227 255
205 227 255
205 226 255
205 226 255
205 226 255
205 226 255
205 226 255
205 226 255
205 226 255
204 226 255
204 226 255
204 226 255
204 226 255
204 226 255
204 226 255
204 226 255
204 226 255
204 226 255
204 226 255
204 226 255
204 226 255
204 226 255
204 226 255
204 226 255
204 226 255
204 226 255
203 226 255
203 226 255
203 226 255
203 226 255
203 226 255
203 226 255
203 226 255
203 226 255
203 225 255
203 225 255
203 225 255
203 225 255
203 225 255
203 225 255
203 225 255
203 225 255
203 225 255
202 225 255
202 225 255
202 225 255
202 225 255
202 225 255
202 225 255
202 225 255
202 225 255
202 225 255
202 225 255
202 225 255
202 225 255
202 225 255
202 225 255
202 225 255
201 225 255
201 225 255
201 225 255
201 225 255
201 224 255
201 224 255
201 224 255
201 224 255
201 224 255
201 224 255
201 224 255
201 224 255
201 224 255
201 224 255
201 224 255
200 224 255
200 224 255
200 224 255
200 224 255
200 224 255
200 224 255
200 224 255
200 224 255
200 224 255
200 224 255
200 224 255
200 224 255
200 224 255
200 224 255
199 224 255
199 224 255
199 223 255
199 223 255
199 223 255
199 223 255
199 223 255
199 223 255
199 223 255
199 223 255
199 223 255
199 223 255
199 223 255
199 223 255
199 223 255
198 223 255
198 223 255
198 223 255
198 223 255
198 223 255
198 223 255
198 223 255
198 223 255
198 223 255
198 223 255
198 223 255
198 223 255
198 223 255
198 223 255
197 222 255
197 222 255
197 222 255
197 222 255
197 222 255
197 222 255
197 222 255
197 222 255
197 222 255
197 222 255
197 222 255
197 222 255
197 222 255
197 222 255
197 222 255
197 222 255
196 222 255
196 222 255
196 222 255
196 222 255
196 222 255
196 222 255
196 222 255
196 222 255
196 222 255
196 222 255
196 222 255
196 222 255
196 222 255
196 222 255
196 222 255
196 222 255
196 222 255
196 221 255
195 221 255
195 221 255
195 221 255
195 221 255
195 221 255
195 221 255
195 221 255
195 221 255
195 221 255
195 221 255
195 221 255
195 221 255
195 221 255
195 221 255
195 221 255
195 221 255
195 221 255
195 221 255
195 221 255
195 221 255
195 221 255
195 221 255
195 221 255
195 221 255
195 221 255
195 221 255
195 221 255
195 221 255
195 221 255
195 221 255
194 221 255
194 221 255
194 221 255
194 221 255
194 221 255
194 221 255
194 221 255
194 221 255
194 221 255
194 221 255
194 221 255
194 221 255
194 221 255
194 221 255
194 221 255
194 221 255
194 221 255
194 221 255
194 221 255
194 221 255
194 221 255
194 221 255
194 221 255
194 221 255
194 221 255
194 221 255
194 221 255
194 221 255
194 221 255
194 221 255
195 221 255
195 221 255
195 221 255
195 221 255
195 221 255
195 221 255
195 221 255
195 221 255
195 221 255
195 221 255
195 221 255
195 221 255
195 221 255
195 221 255
195 221 255
195 221 255
195 221 255
195 221 255
195 221 255
195 221 255
195 221 255
195 221 255
195 221 255
195 221 255
195 221 255
195 221 255
195 221 255
195 221 255
195 221 255
195 221 255
196 221 255
196 221 255
196 222 255
196 222 255
196 222 255
196 222 255
196 222 255
196 222 255
196 222 255
196 222 255
196 222 255
196 222 255
196 222 255
196 222 255
196 222 255
196 222 255
196 222 255
196 222 255
197 222 255
197 222 255
197 222 255
197 222 255
197 222 255
197 222 255
197 222 255
197 222 255
197 222 255
197 222 255
197 222 255
197 222 255
197 222 255
197 222 255
197 222 255
197 223 255
198 223 255
198 223 255
198 223 255
198 223 255
198 223 255
198 223 255
198 223 255
198 223 255
198 223 255
198 223 255
198 223 255
198 223 255
198 223 255
198 223 255
199 223 255
199 223 255
199 223 255
199 223 255
199 223 255
199 223 255
199 223 255
199 223 255
199 223 255
199 223 255
199 223 255
199 223 255
199 223 255
199 224 255
199 224 255
200 224 255
200 224 255
200 224 255
200 224 255
200 224 255
200 224 255
200 224 255
200 224 255
200 224 255
200 224 255
200 224 255
200 224 255
200 224 255
200 224 255
201 224 255
201 224 255
201 224 255
201 224 255
201 224 255
201 224 255
201 224 255
201 224 255
201 224 255
201 224 255
201 224 255
201 225 255
201 225 255
201 225 255
201 225 255
202 225 255
202 225 255
202 225 255
202 225 255
202 225 255
202 225 255
202 225 255
202 225 255
202 225 255
202 225 255
202 225 255
202 225 255
202 225 255
202 225 255
202 225 255
202 225 255
203 225 255
203 225 255
203 225 255
203 225 255
203 225 255
203 225 255
203 225 255
203 225 255
203 226 255
203 226 255
203 226 255
203 226 255
203 226 255
203 226 255
203 226 255
203 226 255
204 226 255
204 226 255
204 226 255
204 226 255
204 226 255
204 226 255
204 226 255
204 226 255
204 226 255
204 226 255
204 226 255
204 226 255
204 226 255
204 226 255
204 226 255
204 226 255
204 226 255
205 226 255
205 226 255
205 226 255
205 226 255
205 226 255
205 226 255
205 226 255
205 226 255
205 227 255
205 227 255
205 227 255
205 227 255
205 227 255
205 227 255
205 227 255
205 227 255
205 227 255
205 227 255
205 227 255
205 227 255
205 227 255
205 227 255
205 227 255
205 226 255
205 226 255
205 226 255
205 226 255
205 226 255
205 226 255
205 226 255
204 226 255
204 226 255
204 226 255
204 226 255
204 226 255
204 226 255
204 226 255
204 226 255
204 226 255
204 226 255
204 226 255
204 226 255
204 226 255
204 226 255
204 226 255
204 226 255
204 226 255
204 226 255
203 226 255
203 226 255
203 226 255
203 226 255
203 226 255
203 226 255
203 226 255
203 225 255
203 225 255
203 225 255
203 225 255
203 225 255
203 225 255
203 225 255
203 225 255
202 225 255
202 225 255
202 225 255
202 225 255
202 225 255
202 225 255
202 225 255
202 225 255
202 225 255
202 225 255
202 225 255
202 225 255
202 225 255
202 225 255
202 225 255
202 225 255
201 225 255
201 225 255
201 225 255
201 225 255
201 224 255
201 224 255
201 224 255
201 224 255
201 224 255
201 224 255
201 224 255
201 224 255
201 224 255
201 224 255
201 224 255
200 224 255
200 224 255
200 224 255
200 224 255
200 224 255
200 224 255
200 224 255
200 224 255
200 224 255
200 224 255
200 224 255
200 224 255
200 224 255
200 224 255
199 224 255
199 224 255
199 224 255
199 223 255
199 223 255
199 223 255
199 223 255
199 223 255
199 223 255
199 223 255
199 223 255
199 223 255
199 223 255
199 223 255
199 223 255
198 223 255
198 223 255
198 223 255
198 223 255
198 223 255
198 223 255
198 223 255
198 223 255
198 223 255
198 223 255
198 223 255
198 223 255
198 223 255
198 223 255
197 223 255
197 222 255
197 222 255
197 222 255
197 222 255
197 222 255
197 222 255
197 222 255
197 222 255
197 222 255
197 222 255
197 222 255
197 222 255
197 222 255
197 222 255
197 222 255
196 222 255
196 222 255
196 222 255
196 222 255
196 222 255
196 222 255
196 222 255
196 222 255
196 222 255
196 222 255
196 222 255
196 222 255
196 222 255
196 222 255
196 222 255
196 222 255
196 222 255
196 222 255
196 221 255
195 221 255
195 221 255
195 221 255
195 221 255
195 221 255
195 221 255
195 221 255
195 221 255
195 221 255
195 221 255
195 221 255
195 221 255
195 221 255
195 221 255
195 221 255
195 221 255
195 221 255
195 221 255
195 221 255
195 221 255
195 221 255
195 221 255
195 221 255
195 221 255
195 221 255
195 221 255
195 221 255
195 221 255
195 221 255
195 221 255
195 221 255
195 221 255
195 221 255
195 221 255
195 221 255
195 221 255
195 221 255
195 221 255
195 221 255
195 221 255
195 221 255
195 221 255
195 221 255
195 221 255
195 221 255
195 221 255
195 221 255
195 221 255
195 221 255
195 221 255
195 221 255
195 221 255
195 221 255
195 221 255
195 221 255
195 221 255
195 221 255
195 221 255
195 221 255
195 221 255
195 221 255
195 221 255
195 221 255
195 221 255
195 221 255
195 221 255
195 221 255
195 221 255
195 221 255
195 221 255
195 221 255
195 221 255
195 221 255
195 221 255
195 221 255
195 221 255
195 221 255
195 221 255
195 221 255
195 221 255
195 221 255
195 221 255
195 221 255
195 221 255
196 221 255
196 222 255
196 222 255
196 222 255
196 222 255
196 222 255
196 222 255
196 222 255
196 222 255
196 222 255
196 222 255
196 222 255
196 222 255
196 222 255
196 222 255
196 222 255
196 222 255
196 222 255
196 222 255
197 222 255
197 222 255
197 222 255
197 222 255
197 222 255
197 222 255
197 222 255
197 222 255
197 222 255
197 222 255
197 222 255
197 222 255
197 222 255
197 222 255
197 222 255
198 223 255
198 223 255
198 223 255
198 223 255
198 223 255
198 223 255
198 223 255
198 223 255
198 223 255
198 223 255
198 223 255
198 223 255
198 223 255
198 223 255
198 223 255
199 223 255
199 223 255
199 223 255
199 223 255
199 223 255
199 223 255
199 223 255
199 223 255
199 223 255
199 223 255
199 223 255
199 223 255
199 224 255
199 224 255
199 224 255
200 224 255
200 224 255
200 224 255
200 224 255
200 224 255
200 224 255
200 224 255
200 224 255
200 224 255
200 224 255
200 224 255
200 224 255
200 224 255
200 224 255
201 224 255
201 224 255
201 224 255
201 224 255
201 224 255
201 224 255
201 224 255
201 224 255
201 224 255
201 224 255
201 224 255
201 225 255
201 225 255
201 225 255
201 225 255
202 225 255
202 225 255
202 225 255
202 225 255
202 225 255
202 225 255
202 225 255
202 225 255
202 225 255
202 225 255
202 225 255
202 225 255
202 225 255
202 225 255
202 225 255
203 225 255
203 225 255
203 225 255
203 225 255
203 225 255
203 225 255
203 225 255
203 225 255
203 225 255
203 226 255
203 226 255
203 226 255
203 226 255
203 226 255
203 226 255
203 226 255
203 226 255
204 226 255
204 226 255
204 226 255
204 226 255
204 226 255
204 226 255
204 226 255
204 226 255
204 226 255
204 226 255
204 226 255
204 226 255
204 226 255
204 226 255
204 226 255
204 226 255
205 226 255
205 226 255
205 226 255
205 226 255
205 226 255
205 226 255
205 226 255
205 226 255
205 227 255
205 227 255
205 227 255
205 227 255
205 227 255
205 227 255
205 227 255
205 227 255
205 227 255
205 227 255
205 227 255
205 227 255
205 227 255
205 227 255
205 227 255
205 227 255
205 227 255
205 227 255
205 227 255
205 227 255
205 227 255
205 226 255
205 226 255
205 226 255
205 226 255
205 226 255
205 226 255
205 226 255
204 226 255
204 226 255
204 226 255
204 226 255
204 226 255
204 226 255
204 226 255
204 226 255
204 226 255
204 226 255
204 226 255
204 226 255
204 226 255
204 226 255
204 226 255
204 226 255
204 226 255
203 226 255
203 226 255
203 226 255
203 226 255
203 226 255
203 226 255
203 226 255
203 225 255
203 225 255
203 225 255
203 225 255
203 225 255
203 225 255
203 225 255
203 225 255
203 225 255
202 225 255
202 225 255
202 225 255
202 225 255
202 225 255
202 225 255
202 225 255
202 225 255
202 225 255
202 225 255
202 225 255
202 225 255
202 225 255
202 225 255
202 225 255
202 225 255
201 225 255
201 225 255
201 225 255
201 225 255
201 224 255
201 224 255
201 224 255
201 224 255
201 224 255
201 224 255
201 224 255
201 224 255
201 224 255
201 224 255
200 224 255
200 224 255
200 224 255
200 224 255
200 224 255
200 224 255
200 224 255
200 224 255
200 224 255
200 224 255
200 224 255
200 224 255
200 224 255
200 224 255
199 224 255
199 224 255
199 224 255
199 223 255
199 223 255
199 223 255
199 223 255
199 223 255
199 223 255
199 223 255
199 223 255
199 223 255
199 223 255
199 223 255
199 223 255
198 223 255
198 223 255
198 223 255
198 223 255
198 223 255
198 223 255
198 223 255
198 223 255
198 223 255
198 223 255
198 223 255
198 223 255
198 223 255
198 223 255
198 223 255
197 223 255
197 222 255
197 222 255
197 222 255
197 222 255
197 222 255
197 222 255
197 222 255
197 222 255
197 222 255
197 222 255
197 222 255
197 222 255
197 222 255
197 222 255
197 222 255
196 222 255
196 222 255
196 222 255
196 222 255
196 222 255
196 222 255
196 222 255
196 222 255
196 222 255
196 222 255
196 222 255
196 222 255
196 222 255
196 222 255
196 222 255
196 222 255
196 222 255
196 222 255
196 221 255
196 221 255
195 221 255
195 221 255
195 221 255
195 221 255
195 221 255
195 221 255
195 221 255
195 221 255
195 221 255
195 221 255
195 221 255
195 221 255
195 221 255
195 221 255
195 221 255
195 221 255
195 221 255
195 221 255
195 221 255
195 221 255
195 221 255
195 221 255
195 221 255
195 221 255
195 221 255
195 221 255
195 221 255
195 221 255
195 221 255
195 221 255
195 221 255
195 221 255
195 221 255
195 221 255
195 221 255
195 221 255
195 221 255
195 221 255
195 221 255
195 221 255
195 221 255
195 221 255
195 221 255
195 221 255
195 221 255
195 221 255
195 221 255
195 221 255
195 221 255
195 221 255
195 221 255
195 221 255
195 221 255
195 221 255
195 221 255
195 221 255
195 221 255
195 221 255
195 221 255
195 221 255
195 221 255
195 221 255
195 221 255
195 221 255
195 221 255
195 221 255
195 221 255
195 221 255
195 221 255
195 221 255
195 221 255
195 221 255
195 221 255
195 221 255
195 221 255
195 221 255
195 221 255
196 221 255
196 222 255
196 222 255
196 222 255
196 222 255
196 222 255
196 222 255
196 222 255
196 222 255
196 222 255
196 222 255
196 222 255
196 222 255
196 222 255
196 222 255
196 222 255
196 222 255
196 222 255
197 222 255
197 222 255
197 222 255
197 222 255
197 222 255
197 222 255
197 222 255
197 222 255
197 222 255
197 222 255
197 222 255
197 222 255
197 222 255
197 222 255
197 222 255
197 222 255
197 222 255
198 223 255
198 223 255
198 223 255
198 223 255
198 223 255
198 223 255
198 223 255
198 223 255
198 223 255
198 223 255
198 223 255
198 223 255
198 223 255
198 223 255
198 223 255
199 223 255
199 223 255
199 223 255
199 223 255
199 223 255
199 223 255
199 223 255
199 223 255
199 223 255
199 223 255
199 223 255
199 223 255
199 223 255
199 224 255
199 224 255
200 224 255
200 224 255
200 224 255
200 224 255
200 224 255
200 224 255
200 224 255
200 224 255
200 224 255
200 224 255
200 224 255
200 224 255
200 224 255
200 224 255
201 224 255
201 224 255
201 224 255
201 224 255
201 224 255
201 224 255
201 224 255
201 224 255
201 224 255
201 224 255
201 224 255
201 225 255
201 225 255
201 225 255
201 225 255
202 225 255
202 225 255
202 225 255
202 225 255
202 225 255
202 225 255
202 225 255
202 225 255
202 225 255
202 225 255
202 225 255
202 225 255
202 225 255
202 225 255
202 225 255
203 225 255
203 225 255
203 225 255
203 225 255
203 225 255
203 225 255
203 225 255
203 225 255
203 225 255
203 226 255
203 226 255
203 226 255
203 226 255
203 226 255
203 226 255
203 226 255
204 226 255
204 226 255
204 226 255
204 226 255
204 226 255
204 226 255
204 226 255
204 226 255
204 226 255
204 226 255
204 226 255
204 226 255
204 226 255
204 226 255
204 226 255
204 226 255
204 226 255
205 226 255
205 226 255
205 226 255
205 226 255
205 226 255
205 226 255
205 226 255
205 227 255
205 227 255
205 227 255
205 227 255
205 227 255
205 227 255
205 227 255
205 227 255
205 227 255
205 227 255
205 227 255
205 227 255
206 227 255
206 227 255
206 227 255
205 227 255
205 227 255
205 227 255
205 227 255
205 227 255
205 227 255
205 227 255
205 227 255
205 227 255
205 227 255
205 227 255
205 226 255
205 226 255
205 226 255
205 226 255
205 226 255
205 226 255
205 226 255
204 226 255
204 226 255
204 226 255
204 226 255
204 226 255
204 226 255
204 226 255
204 226 255
204 226 255
204 226 255
204 226 255
204 226 255
204 226 255
204 226 255
204 226 255
204 226 255
204 226 255
203 226 255
203 226 255
203 226 255
203 226 255
203 226 255
203 226 255
203 226 255
203 225 255
203 225 255
203 225 255
203 225 255
203 225 255
203 225 255
203 225 255
203 225 255
203 225 255
202 225 255
202 225 255
202 225 255
202 225 255
202 225 255
202 225 255
202 225 255
202 225 255
202 225 255
202 225 255
202 225 255
202 225 255
202 225 255
202 225 255
202 225 255
201 225 255
201 225 255
201 225 255
201 225 255
201 225 255
201 224 255
201 224 255
201 224 255
201 224 255
201 224 255
201 224 255
201 224 255
201 224 255
201 224 255
201 224 255
200 224 255
200 224 255
200 224 255
200 224 255
200 224 255
200 224 255
200 224 255
200 224 255
200 224 255
200 224 255
200 224 255
200 224 255
200 224 255
200 224 255
200 224 255
199 224 255
199 224 255
199 223 255
199 223 255
199 223 255
199 223 255
199 223 255
199 223 255
199 223 255
199 223 255
199 223 255
199 223 255
199 223 255
199 223 255
199 223 255
198 223 255
198 223 255
198 223 255
198 223 255
198 223 255
198 223 255
198 223 255
198 223 255
198 223 255
198 223 255
198 223 255
198 223 255
198 223 255
198 223 255
197 222 255
197 222 255
197 222 255
197 222 255
197 222 255
197 222 255
197 222 255
197 222 255
197 222 255
197 222 255
197 222 255
197 222 255
197 222 255
197 222 255
197 222 255
197 222 255
197 222 255
196 222 255
196 222 255
196 222 255
196 222 255
196 222 255
196 222 255
196 222 255
196 222 255
196 222 255
196 222 255
196 222 255
196 222 255
196 222 255
196 222 255
196 222 255
196 222 255
196 222 255
196 222 255
196 221 255
196 221 255
196 221 255
195 221 255
195 221 255
195 221 255
195 221 255
195 221 255
195 221 255
195 221 255
195 221 255
195 221 255
195 221 255
195 221 255
195 221 255
195 221 255
195 221 255
195 221 255
195 221 255
195 221 255
195 221 255
195 221 255
195 221 255
195 221 255
195 221 255
195 221 255
195 221 255
195 221 255
195 221 255
195 221 255
195 221 255
195 221 255
195 221 255
195 221 255
195 221 255
195 221 255
195 221 255
195 221 255
195 221 255
195 221 255
195 221 255
195 221 255
195 221 255
195 221 255
195 221 255
195 221 255
195 221 255
195 221 255
195 221 255
195 221 255
195 221 255
195 221 255
195 221 255
195 221 255
195 221 255
195 221 255
195 221 255
195 221 255
195 221 255
195 221 255
195 221 255
195 221 255
195 221 255
195 221 255
195 221 255
195 221 255
195 221 255
195 221 255
195 221 255
195 221 255
195 221 255
196 221 255
196 221 255
196 222 255
196 222 255
196 222 255
196 222 255
196 222 255
196 222 255
196 222 255
196 222 255
196 222 255
196 222 255
196 222 255
196 222 255
196 222 255
196 222 255
196 222 255
196 222 255
196 222 255
196 222 255
196 222 255
197 222 255
197 222 255
197 222 255
197 222 255
197 222 255
197 222 255
197 222 255
197 222 255
197 222 255
197 222 255
197 222 255
197 222 255
197 222 255
197 222 255
197 222 255
197 222 255
197 223 255
198 223 255
198 223 255
198 223 255
198 223 255
198 223 255
198 223 255
198 223 255
198 223 255
198 223 255
198 223 255
198 223 255
198 223 255
198 223 255
198 223 255
198 223 255
199 223 255
199 223 255
199 223 255
199 223 255
199 223 255
199 223 255
199 223 255
199 223 255
199 223 255
199 223 255
199 223 255
199 223 255
199 224 255
199 224 255
200 224 255
200 224 255
200 224 255
200 224 255
200 224 255
200 224 255
200 224 255
200 224 255
200 224 255
200 224 255
200 224 255
200 224 255
200 224 255
200 224 255
201 224 255
201 224 255
201 224 255
201 224 255
201 224 255
201 224 255
201 224 255
201 224 255
201 224 255
201 224 255
201 224 255
201 225 255
201 225 255
201 225 255
201 225 255
201 225 255
202 225 255
202 225 255
202 225 255
202 225 255
202 225 255
202 225 255
202 225 255
202 225 255
202 225 255
202 225 255
202 225 255
202 225 255
202 225 255
202 225 255
202 225 255
203 225 255
203 225 255
203 225 255
203 225 255
203 225 255
203 225 255
203 225 255
203 225 255
203 225 255
203 226 255
203 226 255
203 226 255
203 226 255
203 226 255
203 226 255
203 226 255
204 226 255
204 226 255
204 226 255
204 226 255
204 226 255
204 226 255
204 226 255
204 226 255
204 226 255
204 226 255
204 226 255
204 226 255
204 226 255
204 226 255
204 226 255
204 226 255
204 226 255
205 226 255
205 226 255
205 226 255
205 226 255
205 226 255
205 226 255
205 226 255
205 227 255
205 227 255
205 227 255
205 227 255
205 227 255
205 227 255
205 227 255
205 227 255
205 227 255
205 227 255
205 227 255
206 227 255
206 227 255
206 227 255
206 227 255
206 227 255
206 227 255
206 227 255
206 227 255
205 227 255
205 227 255
205 227 255
205 227 255
205 227 255
205 227 255
205 227 255
205 227 255
205 227 255
205 227 255
205 227 255
205 227 255
205 226 255
205 226 255
205 226 255
205 226 255
205 226 255
205 226 255
205 226 255
204 226 255
204 226 255
204 226 255
204 226 255
204 226 255
204 226 255
204 226 255
204 226 255
204 226 255
204 226 255
204 226 255
204 226 255
204 226 255
204 226 255
204 226 255
204 226 255
204 226 255
203 226 255
203 226 255
203 226 255
203 226 255
203 226 255
203 226 255
203 225 255
203 225 255
203 225 255
203 225 255
203 225 255
203 225 255
203 225 255
203 225 255
203 225 255
203 225 255
202 225 255
202 225 255
202 225 255
202 225 255
202 225 255
202 225 255
202 225 255
202 225 255
202 225 255
202 225 255
202 225 255
202 225 255
202 225 255
202 225 255
202 225 255
201 225 255
201 225 255
201 225 255
201 225 255
201 224 255
201 224 255
201 224 255
201 224 255
201 224 255
201 224 255
201 224 255
201 224 255
201 224 255
201 224 255
200 224 255
200 224 255
200 224 255
200 224 255
200 224 255
200 224 255
200 224 255
200 224 255
200 224 255
200 224 255
200 224 255
200 224 255
200 224 255
200 224 255
200 224 255
199 224 255
199 224 255
199 223 255
199 223 255
199 223 255
199 223 255
199 223 255
199 223 255
199 223 255
199 223 255
199 223 255
199 223 255
199 223 255
199 223 255
198 223 255
198 223 255
198 223 255
198 223 255
198 223 255
198 223 255
198 223 255
198 223 255
198 223 255
198 223 255
198 223 255
198 223 255
198 223 255
198 223 255
198 223 255
198 223 255
197 222 255
197 222 255
197 222 255
197 222 255
197 222 255
197 222 255
197 222 255
197 222 255
197 222 255
197 222 255
197 222 255
197 222 255
197 222 255
197 222 255
197 222 255
197 222 255
197 222 255
196 222 255
196 222 255
196 222 255
196 222 255
196 222 255
196 222 255
196 222 255
196 222 255
196 222 255
196 222 255
196 222 255
196 222 255
196 222 255
196 222 255
196 222 255
196 222 255
196 222 255
196 222 255
196 222 255
196 221 255
196 221 255
196 221 255
195 221 255
195 221 255
195 221 255
195 221 255
195 221 255
195 221 255
195 221 255
195 221 255
195 221 255
195 221 255
195 221 255
195 221 255
195 221 255
195 221 255
195 221 255
195 221 255
195 221 255
195 221 255
195 221 255
195 221 255
195 221 255
195 221 255
195 221 255
195 221 255
195 221 255
195 221 255
195 221 255
195 221 255
195 221 255
195 221 255
195 221 255
195 221 255
195 221 255
195 221 255
195 221 255
195 221 255
195 221 255
195 221 255
195 221 255
195 221 255
195 221 255
195 221 255
195 221 255
195 221 255
195 221 255
195 221 255
195 221 255
195 221 255
195 221 255
195 221 255
195 221 255
195 221 255
195 221 255
195 221 255
195 221 255
195 221 255
195 221 255
195 221 255
195 221 255
195 221 255
196 221 255
196 221 255
196 221 255
196 222 255
196 222 255
196 222 255
196 222 255
196 222 255
196 222 255
196 222 255
196 222 255
196 222 255
196 222 255
196 222 255
196 222 255
196 222 255
196 222 255
196 222 255
196 222 255
196 222 255
196 222 255
196 222 255
196 222 255
197 222 255
197 222 255
197 222 255
197 222 255
197 222 255
197 222 255
197 222 255
197 222 255
197 222 255
197 222 255
197 222 255
197 222 255
197 222 255
197 222 255
197 222 255
197 222 255
198 223 255
198 223 255
198 223 255
198 223 255
198 223 255
198 223 255
198 223 255
198 223 255
198 223 255
198 223 255
198 223 255
198 223 255
198 223 255
198 223 255
198 223 255
199 223 255
199 223 255
199 223 255
199 223 255
199 223 255
199 223 255
199 223 255
199 223 255
199 223 255
199 223 255
199 223 255
199 223 255
199 223 255
199 224 255
199 224 255
200 224 255
200 224 255
200 224 255
200 224 255
200 224 255
200 224 255
200 224 255
200 224 255
200 224 255
200 224 255
200 224 255
200 224 255
200 224 255
200 224 255
200 224 255
201 224 255
201 224 255
201 224 255
201 224 255
201 224 255
201 224 255
201 224 255
201 224 255
201 224 255
201 224 255
201 225 255
201 225 255
201 225 255
201 225 255
202 225 255
202 225 255
202 225 255
202 225 255
202 225 255
202 225 255
202 225 255
202 225 255
202 225 255
202 225 255
202 225 255
202 225 255
202 225 255
202 225 255
202 225 255
203 225 255
203 225 255
203 225 255
203 225 255
203 225 255
203 225 255
203 225 255
203 225 255
203 225 255
203 226 255
203 226 255
203 226 255
203 226 255
203 226 255
203 226 255
203 226 255
204 226 255
204 226 255
204 226 255
204 226 255
204 226 255
204 226 255
204 226 255
204 226 255
204 226 255
204 226 255
204 226 255
204 226 255
204 226 255
204 226 255
204 226 255
204 226 255
204 226 255
205 226 255
205 226 255
205 226 255
205 226 255
205 226 255
205 226 255
205 226 255
205 226 255
205 227 255
205 227 255
205 227 255
205 227 255
205 227 255
205 227 255
205 227 255
205 227 255
205 227 255
205 227 255
206 227 255
206 227 255
206 227 255
206 227 255
206 227 255
206 227 255
206 227 255
206 227 255
206 227 255
206 227 255
206 227 255
206 227 255
206 227 255
206 227 255
205 227 255
205 227 255
205 227 255
205 227 255
205 227 255
205 227 255
205 227 255
205 227 255
205 227 255
205 227 255
205 227 255
205 226 255
205 226 255
205 226 255
205 226 255
205 226 255
205 226 255
205 226 255
204 226 255
204 226 255
204 226 255
204 226 255
204 226 255
204 226 255
204 226 255
204 226 255
204 226 255
204 226 255
204 226 255
204 226 255
204 226 255
204 226 255
204 226 255
204 226 255
204 226 255
203 226 255
203 226 255
203 226 255
203 226 255
203 226 255
203 226 255
203 226 255
203 225 255
203 225 255
203 225 255
203 225 255
203 225 255
203 225 255
203 225 255
203 225 255
203 225 255
202 225 255
202 225 255
202 225 255
202 225 255
202 225 255
202 225 255
202 225 255
202 225 255
202 225 255
202 225 255
202 225 255
202 225 255
202 225 255
202 225 255
202 225 255
201 225 255
201 225 255
201 225 255
201 225 255
201 224 255
201 224 255
201 224 255
201 224 255
201 224 255
201 224 255
201 224 255
201 224 255
201 224 255
201 224 255
201 224 255
200 224 255
200 224 255
200 224 255
200 224 255
200 224 255
200 224 255
200 224 255
200 224 255
200 224 255
200 224 255
200 224 255
200 224 255
200 224 255
200 224 255
199 224 255
199 224 255
199 223 255
199 223 255
199 223 255
199 223 255
199 223 255
199 223 255
199 223 255
199 223 255
199 223 255
199 223 255
199 223 255
199 223 255
199 223 255
198 223 255
198 223 255
198 223 255
198 223 255
198 223 255
198 223 255
198 223 255
198 223 255
198 223 255
198 223 255
198 223 255
198 223 255
198 223 255
198 223 255
198 223 255
197 223 255
197 222 255
197 222 255
197 222 255
197 222 255
197 222 255
197 222 255
197 222 255
197 222 255
197 222 255
197 222 255
197 222 255
197 222 255
197 222 255
197 222 255
197 222 255
197 222 255
197 222 255
196 222 255
196 222 255
196 222 255
196 222 255
196 222 255
196 222 255
196 222 255
196 222 255
196 222 255
196 222 255
196 222 255
196 222 255
196 222 255
196 222 255
196 222 255
196 222 255
196 222 255
196 222 255
196 222 255
196 222 255
196 222 255
196 221 255
196 221 255
195 221 255
196 221 255
195 221 255
195 221 255
195 221 255
195 221 255
195 221 255
195 221 255
195 221 255
195 221 255
195 221 255
195 221 255
195 221 255
195 221 255
195 221 255
195 221 255
195 221 255
195 221 255
195 221 255
195 221 255
195 221 255
195 221 255
195 221 255
195 221 255
195 221 255
195 221 255
195 221 255
195 221 255
195 221 255
195 221 255
195 221 255
195 221 255
195 221 255
195 221 255
195 221 255
195 221 255
195 221 255
195 221 255
195 221 255
195 221 255
195 221 255
195 221 255
195 221 255
195 221 255
195 221 255
195 221 255
195 221 255
195 221 255
195 221 255
195 221 255
195 221 255
196 221 255
196 221 255
196 221 255
196 221 255
196 222 255
196 222 255
196 222 255
196 222 255
196 222 255
196 222 255
196 222 255
196 222 255
196 222 255
196 222 255
196 222 255
196 222 255
196 222 255
196 222 255
196 222 255
196 222 255
196 222 255
196 222 255
196 222 255
196 222 255
196 222 255
197 222 255
197 222 255
197 222 255
197 222 255
197 222 255
197 222 255
197 222 255
197 222 255
197 222 255
197 222 255
197 222 255
197 222 255
197 222 255
197 222 255
197 222 255
197 222 255
197 223 255
198 223 255
198 223 255
198 223 255
198 223 255
198 223 255
198 223 255
198 223 255
198 223 255
198 223 255
198 223 255
198 223 255
198 223 255
198 223 255
198 223 255
198 223 255
199 223 255
199 223 255
199 223 255
199 223 255
199 223 255
199 223 255
199 223 255
199 223 255
199 223 255
199 223 255
199 223 255
199 223 255
199 223 255
199 224 255
199 224 255
200 224 255
200 224 255
200 224 255
200 224 255
200 224 255
200 224 255
200 224 255
200 224 255
200 224 255
200 224 255
200 224 255
200 224 255
200 224 255
200 224 255
200 224 255
201 224 255
201 224 255
201 224 255
201 224 255
201 224 255
201 224 255
201 224 255
201 224 255
201 224 255
201 225 255
201 225 255
201 225 255
201 225 255
201 225 255
202 225 255
202 225 255
202 225 255
202 225 255
202 225 255
202 225 255
202 225 255
202 225 255
202 225 255
202 225 255
202 225 255
202 225 255
202 225 255
202 225 255
202 225 255
203 225 255
203 225 255
203 225 255
203 225 255
203 225 255
203 225 255
203 225 255
203 225 255
203 225 255
203 226 255
203 226 255
203 226 255
203 226 255
203 226 255
203 226 255
203 226 255
204 226 255
204 226 255
204 226 255
204 226 255
204 226 255
204 226 255
204 226 255
204 226 255
204 226 255
204 226 255
204 226 255
204 226 255
204 226 255
204 226 255
204 226 255
204 226 255
204 226 255
205 226 255
205 226 255
205 226 255
205 226 255
205 226 255
205 226 255
205 226 255
205 227 255
205 227 255
205 227 255
205 227 255
205 227 255
205 227 255
205 227 255
205 227 255
205 227 255
205 227 255
205 227 255
206 227 255
206 227 255
206 227 255
206 227 255
206 227 255
206 227 255
206 227 255
206 227 255
206 227 255
206 227 255
206 227 255
206 227 255
206 227 255
206 227 255
206 227 255
206 227 255
206 227 255
206 227 255
206 227 255
205 227 255
205 227 255
205 227 255
205 227 255
205 227 255
205 227 255
205 227 255
205 227 255
205 227 255
205 227 255
205 226 255
205 226 255
205 226 255
205 226 255
205 226 255
205 226 255
205 226 255
205 226 255
204 226 255
204 226 255
204 226 255
204 226 255
204 226 255
204 226 255
204 226 255
204 226 255
204 226 255
204 226 255
204 226 255
204 226 255
204 226 255
204 226 255
204 226 255
204 226 255
204 226 255
203 226 255
203 226 255
203 226 255
203 226 255
203 226 255
203 226 255
203 226 255
203 225 255
203 225 255
203 225 255
203 225 255
203 225 255
203 225 255
203 225 255
203 225 255
202 225 255
202 225 255
202 225 255
202 225 255
202 225 255
202 225 255
202 225 255
202 225 255
202 225 255
202 225 255
202 225 255
202 225 255
202 225 255
202 225 255
202 225 255
202 225 255
201 225 255
201 225 255
201 225 255
201 224 255
201 224 255
201 224 255
201 224 255
201 224 255
201 224 255
201 224 255
201 224 255
201 224 255
201 224 255
201 224 255
200 224 255
200 224 255
200 224 255
200 224 255
200 224 255
200 224 255
200 224 255
200 224 255
200 224 255
200 224 255
200 224 255
200 224 255
200 224 255
200 224 255
199 224 255
199 224 255
199 224 255
199 223 255
199 223 255
199 223 255
199 223 255
199 223 255
199 223 255
199 223 255
199 223 255
199 223 255
199 223 255
199 223 255
199 223 255
198 223 255
198 223 255
198 223 255
198 223 255
198 223 255
198 223 255
198 223 255
198 223 255
198 223 255
198 223 255
198 223 255
198 223 255
198 223 255
198 223 255
198 223 255
197 223 255
197 222 255
197 222 255
197 222 255
197 222 255
197 222 255
197 222 255
197 222 255
197 222 255
197 222 255
197 222 255
197 222 255
197 222 255
197 222 255
197 222 255
197 222 255
197 222 255
197 222 255
197 222 255
196 222 255
196 222 255
196 222 255
196 222 255
196 222 255
196 222 255
196 222 255
196 222 255
196 222 255
196 222 255
196 222 255
196 222 255
196 222 255
196 222 255
196 222 255
196 222 255
196 222 255
196 222 255
196 222 255
196 222 255
196 222 255
196 222 255
196 222 255
196 222 255
196 221 255
196 221 255
196 221 255
195 221 255
195 221 255
195 221 255
195 221 255
195 221 255
195 221 255
195 221 255
195 221 255
195 221 255
195 221 255
195 221 255
195 221 255
195 221 255
195 221 255
195 221 255
195 221 255
195 221 255
195 221 255
195 221 255
195 221 255
195 221 255
195 221 255
195 221 255
195 221 255
195 221 255
195 221 255
195 221 255
195 221 255
195 221 255
195 221 255
195 221 255
195 221 255
195 221 255
195 221 255
195 221 255
195 221 255
195 221 255
195 221 255
196 221 255
196 221 255
196 221 255
196 221 255
196 222 255
196 222 255
196 222 255
196 222 255
196 222 255
196 222 255
196 222 255
196 222 255
196 222 255
196 222 255
196 222 255
196 222 255
196 222 255
196 222 255
196 222 255
196 222 255
196 222 255
196 222 255
196 222 255
196 222 255
196 222 255
196 222 255
196 222 255
197 222 255
197 222 255
197 222 255
197 222 255
197 222 255
197 222 255
197 222 255
197 222 255
197 222 255
197 222 255
197 222 255
197 222 255
197 222 255
197 222 255
197 222 255
197 222 255
197 222 255
197 222 255
197 223 255
198 223 255
198 223 255
198 223 255
198 223 255
198 223 255
198 223 255
198 223 255
198 223 255
198 223 255
198 223 255
198 223 255
198 223 255
198 223 255
198 223 255
198 223 255
199 223 255
199 223 255
199 223 255
199 223 255
199 223 255
199 223 255
199 223 255
199 223 255
199 223 255
199 223 255
199 223 255
199 223 255
199 223 255
199 224 255
199 224 255
200 224 255
200 224 255
200 224 255
200 224 255
200 224 255
200 224 255
200 224 255
200 224 255
200 224 255
200 224 255
200 224 255
200 224 255
200 224 255
200 224 255
201 224 255
201 224 255
201 224 255
201 224 255
201 224 255
201 224 255
201 224 255
201 224 255
201 224 255
201 224 255
201 225 255
201 225 255
201 225 255
201 225 255
201 225 255
202 225 255
202 225 255
202 225 255
202 225 255
202 225 255
202 225 255
202 225 255
202 225 255
202 225 255
202 225 255
202 225 255
202 225 255
202 225 255
202 225 255
203 225 255
203 225 255
203 225 255
203 225 255
203 225 255
203 225 255
203 225 255
203 225 255
203 225 255
203 226 255
203 226 255
203 226 255
203 226 255
203 226 255
203 226 255
203 226 255
203 226 255
204 226 255
204 226 255
204 226 255
204 226 255
204 226 255
204 226 255
204 226 255
204 226 255
204 226 255
204 226 255
204 226 255
204 226 255
204 226 255
204 226 255
204 226 255
204 226 255
205 226 255
205 226 255
205 226 255
205 226 255
205 226 255
205 226 255
205 226 255
205 227 255
205 227 255
205 227 255
205 227 255
205 227 255
205 227 255
205 227 255
205 227 255
205 227 255
205 227 255
205 227 255
206 227 255
206 227 255
206 227 255
206 227 255
206 227 255
206 227 255
206 227 255
206 227 255
206 227 255
206 227 255
206 227 255
206 227 255
206 227 255
206 227 255
206 227 255
206 227 255
206 227 255
206 227 255
206 227 255
206 227 255
206 227 255
206 227 255
206 227 255
206 227 255
205 227 255
205 227 255
205 227 255
205 227 255
205 227 255
205 227 255
205 227 255
205 227 255
205 227 255
205 227 255
205 227 255
205 226 255
205 226 255
205 226 255
205 226 255
205 226 255
205 226 255
205 226 255
204 226 255
204 226 255
204 226 255
204 226 255
204 226 255
204 226 255
204 226 255
204 226 255
204 226 255
204 226 255
204 226 255
204 226 255
204 226 255
204 226 255
204 226 255
204 226 255
204 226 255
203 226 255
203 226 255
203 226 255
203 226 255
203 226 255
203 226 255
203 226 255
203 225 255
203 225 255
203 225 255
203 225 255
203 225 255
203 225 255
203 225 255
203 225 255
203 225 255
202 225 255
202 225 255
202 225 255
202 225 255
202 225 255
202 225 255
202 225 255
202 225 255
202 225 255
202 225 255
202 225 255
202 225 255
202 225 255
202 225 255
202 225 255
201 225 255
201 225 255
201 225 255
201 225 255
201 224 255
201 224 255
201 224 255
201 224 255
201 224 255
201 224 255
201 224 255
201 224 255
201 224 255
201 224 255
200 224 255
200 224 255
200 224 255
200 224 255
200 224 255
200 224 255
200 224 255
200 224 255
200 224 255
200 224 255
200 224 255
200 224 255
200 224 255
200 224 255
200 224 255
199 224 255
199 224 255
199 223 255
199 223 255
199 223 255
199 223 255
199 223 255
199 223 255
199 223 255
199 223 255
199 223 255
199 223 255
199 223 255
199 223 255
199 223 255
198 223 255
198 223 255
198 223 255
198 223 255
198 223 255
198 223 255
198 223 255
198 223 255
198 223 255
198 223 255
198 223 255
198 223 255
198 223 255
198 223 255
198 223 255
198 223 255
197 222 255
197 222 255
197 222 255
197 222 255
197 222 255
197 222 255
197 222 255
197 222 255
197 222 255
197 222 255
197 222 255
197 222 255
197 222 255
197 222 255
197 222 255
197 222 255
197 222 255
197 222 255
196 222 255
196 222 255
196 222 255
196 222 255
196 222 255
196 222 255
196 222 255
196 222 255
196 222 255
196 222 255
196 222 255
196 222 255
196 222 255
196 222 255
196 222 255
196 222 255
196 222 255
196 222 255
196 222 255
196 222 255
196 222 255
196 222 255
196 222 255
196 222 255
196 222 255
196 222 255
196 222 255
196 221 255
196 221 255
196 221 255
196 221 255
196 221 255
195 221 255
195 221 255
195 221 255
195 221 255
195 221 255
195 221 255
195 221 255
195 221 255
195 221 255
195 221 255
195 221 255
195 221 255
195 221 255
195 221 255
195 221 255
195 221 255
195 221 255
195 221 255
195 221 255
195 221 255
195 221 255
195 221 255
196 221 255
196 221 255
196 221 255
196 221 255
196 222 255
196 222 255
196 222 255
196 222 255
196 222 255
196 222 255
196 222 255
196 222 255
196 222 255
196 222 255
196 222 255
196 222 255
196 222 255
196 222 255
196 222 255
196 222 255
196 222 255
196 222 255
196 222 255
196 222 255
196 222 255
196 222 255
196 222 255
196 222 255
196 222 255
196 222 255
196 222 255
196 222 255
197 222 255
197 222 255
197 222 255
197 222 255
197 222 255
197 222 255
197 222 255
197 222 255
197 222 255
197 222 255
197 222 255
197 222 255
197 222 255
197 222 255
197 222 255
197 222 255
197 222 255
197 222 255
197 223 255
198 223 255
198 223 255
198 223 255
198 223 255
198 223 255
198 223 255
198 223 255
198 223 255
198 223 255
198 223 255
198 223 255
198 223 255
198 223 255
198 223 255
198 223 255
198 223 255
199 223 255
199 223 255
199 223 255
199 223 255
199 223 255
199 223 255
199 223 255
199 223 255
199 223 255
199 223 255
199 223 255
199 223 255
199 224 255
199 224 255
200 224 255
200 224 255
200 224 255
200 224 255
200 224 255
200 224 255
200 224 255
200 224 255
200 224 255
200 224 255
200 224 255
200 224 255
200 224 255
200 224 255
200 224 255
201 224 255
201 224 255
201 224 255
201 224 255
201 224 255
201 224 255
201 224 255
201 224 255
201 224 255
201 224 255
201 225 255
201 225 255
201 225 255
201 225 255
202 225 255
202 225 255
202 225 255
202 225 255
202 225 255
202 225 255
202 225 255
202 225 255
202 225 255
202 225 255
202 225 255
202 225 255
202 225 255
202 225 255
202 225 255
203 225 255
203 225 255
203 225 255
203 225 255
203 225 255
203 225 255
203 225 255
203 225 255
203 225 255
203 226 255
203 226 255
203 226 255
203 226 255
203 226 255
203 226 255
203 226 255
204 226 255
204 226 255
204 226 255
204 226 255
204 226 255
204 226 255
204 226 255
204 226 255
204 226 255
204 226 255
204 226 255
204 226 255
204 226 255
204 226 255
204 226 255
204 226 255
204 226 255
205 226 255
205 226 255
205 226 255
205 226 255
205 226 255
205 226 255
205 226 255
205 227 255
205 227 255
205 227 255
205 227 255
205 227 255
205 227 255
205 227 255
205 227 255
205 227 255
205 227 255
205 227 255
206 227 255
206 227 255
206 227 255
206 227 255
206 227 255
206 227 255
206 227 255
206 227 255
206 227 255
206 227 255
206 227 255
206 227 255
206 227 255
206 227 255
206 227 255
206 227 255
206 227 255
206 227 255
206 227 255
206 227 255
206 227 255
206 227 255
206 227 255
206 227 255
206 227 255
206 227 255
206 227 255
206 227 255
206 227 255
205 227 255
205 227 255
205 227 255
205 227 255
205 227 255
205 227 255
205 227 255
205 227 255
205 227 255
205 227 255
205 227 255
205 226 255
205 226 255
205 226 255
205 226 255
205 226 255
205 226 255
205 226 255
204 226 255
204 226 255
204 226 255
204 226 255
204 226 255
204 226 255
204 226 255
204 226 255
204 226 255
204 226 255
204 226 255
204 226 255
204 226 255
204 226 255
204 226 255
204 226 255
203 226 255
203 226 255
203 226 255
203 226 255
203 226 255
203 226 255
203 226 255
203 225 255
203 225 255
203 225 255
203 225 255
203 225 255
203 225 255
203 225 255
203 225 255
203 225 255
202 225 255
202 225 255
202 225 255
202 225 255
202 225 255
202 225 255
202 225 255
202 225 255
202 225 255
202 225 255
202 225 255
202 225 255
202 225 255
202 225 255
202 225 255
201 225 255
201 225 255
201 225 255
201 225 255
201 224 255
201 224 255
201 224 255
201 224 255
201 224 255
201 224 255
201 224 255
201 224 255
201 224 255
201 224 255
200 224 255
200 224 255
200 224 255
200 224 255
200 224 255
200 224 255
200 224 255
200 224 255
200 224 255
200 224 255
200 224 255
200 224 255
200 224 255
200 224 255
200 224 255
199 224 255
199 224 255
199 223 255
199 223 255
199 223 255
199 223 255
199 223 255
199 223 255
199 223 255
199 223 255
199 223 255
199 223 255
199 223 255
199 223 255
199 223 255
198 223 255
198 223 255
198 223 255
198 223 255
198 223 255
198 223 255
198 223 255
198 223 255
198 223 255
198 223 255
198 223 255
198 223 255
198 223 255
198 223 255
198 223 255
198 223 255
197 223 255
197 222 255
197 222 255
197 222 255
197 222 255
197 222 255
197 222 255
197 222 255
197 222 255
197 222 255
197 222 255
197 222 255
197 222 255
197 222 255
197 222 255
197 222 255
197 222 255
197 222 255
197 222 255
196 222 255
196 222 255
196 222 255
196 222 255
196 222 255
196 222 255
196 222 255
196 222 255
196 222 255
196 222 255
196 222 255
196 222 255
196 222 255
196 222 255
196 222 255
196 222 255
196 222 255
196 222 255
196 222 255
196 222 255
196 222 255
196 222 255
196 222 255
196 222 255
196 222 255
196 222 255
196 222 255
196 222 255
196 222 255
196 222 255
196 222 255
196 222 255
196 222 255
196 222 255
196 222 255
196 222 255
196 222 255
196 222 255
196 222 255
196 221 255
196 222 255
196 221 255
196 222 255
196 222 255
196 222 255
196 222 255
196 222 255
196 222 255
196 222 255
196 222 255
196 222 255
196 222 255
196 222 255
196 222 255
196 222 255
196 222 255
196 222 255
196 222 255
196 222 255
196 222 255
196 222 255
196 222 255
196 222 255
196 222 255
196 222 255
196 222 255
196 222 255
196 222 255
196 222 255
196 222 255
196 222 255
196 222 255
196 222 255
196 222 255
196 222 255
196 222 255
196 222 255
196 222 255
196 222 255
196 222 255
197 222 255
197 222 255
197 222 255
197 222 255
197 222 255
197 222 255
197 222 255
197 222 255
197 222 255
197 222 255
197 222 255
197 222 255
197 222 255
197 222 255
197 222 255
197 222 255
197 222 255
197 222 255
197 223 255
198 223 255
198 223 255
198 223 255
198 223 255
198 223 255
198 223 255
198 223 255
198 223 255
198 223 255
198 223 255
198 223 255
198 223 255
198 223 255
198 223 255
198 223 255
198 223 255
198 223 255
199 223 255
199 223 255
199 223 255
199 223 255
199 223 255
199 223 255
199 223 255
199 223 255
199 223 255
199 223 255
199 223 255
199 224 255
199 224 255
199 224 255
200 224 255
200 224 255
200 224 255
200 224 255
200 224 255
200 224 255
200 224 255
200 224 255
200 224 255
200 224 255
200 224 255
200 224 255
200 224 255
200 224 255
201 224 255
201 224 255
201 224 255
201 224 255
201 224 255
201 224 255
201 224 255
201 224 255
201 224 255
201 224 255
201 224 255
201 225 255
201 225 255
201 225 255
201 225 255
202 225 255
202 225 255
202 225 255
202 225 255
202 225 255
202 225 255
202 225 255
202 225 255
202 225 255
202 225 255
202 225 255
202 225 255
202 225 255
202 225 255
202 225 255
203 225 255
203 225 255
203 225 255
203 225 255
203 225 255
203 225 255
203 225 255
203 225 255
203 225 255
203 226 255
203 226 255
203 226 255
203 226 255
203 226 255
203 226 255
204 226 255
204 226 255
204 226 255
204 226 255
204 226 255
204 226 255
204 226 255
204 226 255
204 226 255
204 226 255
204 226 255
204 226 255
204 226 255
204 226 255
204 226 255
204 226 255
204 226 255
205 226 255
205 226 255
205 226 255
205 226 255
205 226 255
205 226 255
205 226 255
205 227 255
205 227 255
205 227 255
205 227 255
205 227 255
205 227 255
205 227 255
205 227 255
205 227 255
205 227 255
205 227 255
206 227 255
206 227 255
206 227 255
206 227 255
206 227 255
206 227 255
206 227 255
206 227 255
206 227 255
206 227 255
206 227 255
206 227 255
206 227 255
206 227 255
206 227 255
206 227 255
206 227 255
206 227 255
206 227 255
206 227 255
206 227 255
206 227 255
206 227 255
206 227 255
206 227 255
206 227 255
206 227 255
206 227 255
206 227 255
206 227 255
206 227 255
206 227 255
206 227 255
206 227 255
206 227 255
205 227 255
205 227 255
205 227 255
205 227 255
205 227 255
205 227 255
205 227 255
205 227 255
205 227 255
205 227 255
205 226 255
205 226 255
205 226 255
205 226 255
205 226 255
205 226 255
205 226 255
204 226 255
204 226 255
204 226 255
204 226 255
204 226 255
204 226 255
204 226 255
204 226 255
204 226 255
204 226 255
204 226 255
204 226 255
204 226 255
204 226 255
204 226 255
204 226 255
204 226 255
203 226 255
203 226 255
203 226 255
203 226 255
203 226 255
203 226 255
203 226 255
203 225 255
203 225 255
203 225 255
203 225 255
203 225 255
203 225 255
203 225 255
203 225 255
203 225 255
202 225 255
202 225 255
202 225 255
202 225 255
202 225 255
202 225 255
202 225 255
202 225 255
202 225 255
202 225 255
202 225 255
202 225 255
202 225 255
202 225 255
201 225 255
201 225 255
201 225 255
201 225 255
201 225 255
201 224 255
201 224 255
201 224 255
201 224 255
201 224 255
201 224 255
201 224 255
201 224 255
201 224 255
201 224 255
200 224 255
200 224 255
200 224 255
200 224 255
200 224 255
200 224 255
200 224 255
200 224 255
200 224 255
200 224 255
200 224 255
200 224 255
200 224 255
200 224 255
199 224 255
199 224 255
199 224 255
199 223 255
199 223 255
199 223 255
199 223 255
199 223 255
199 223 255
199 223 255
199 223 255
199 223 255
199 223 255
199 223 255
199 223 255
199 223 255
198 223 255
198 223 255
198 223 255
198 223 255
198 223 255
198 223 255
198 223 255
198 223 255
198 223 255
198 223 255
198 223 255
198 223 255
198 223 255
198 223 255
198 223 255
198 223 255
197 223 255
197 222 255
197 222 255
197 222 255
197 222 255
197 222 255
197 222 255
197 222 255
197 222 255
197 222 255
197 222 255
197 222 255
197 222 255
197 222 255
197 222 255
197 222 255
197 222 255
197 222 255
197 222 255
197 222 255
196 222 255
196 222 255
196 222 255
196 222 255
196 222 255
196 222 255
196 222 255
196 222 255
196 222 255
196 222 255
196 222 255
196 222 255
196 222 255
196 222 255
196 222 255
196 222 255
196 222 255
196 222 255
196 222 255
196 222 255
196 222 255
196 222 255
196 222 255
196 222 255
196 222 255
196 222 255
196 222 255
196 222 255
196 222 255
196 222 255
196 222 255
196 222 255
196 222 255
196 222 255
196 222 255
196 222 255
196 222 255
196 222 255
196 222 255
196 222 255
196 222 255
196 222 255
196 222 255
196 222 255
196 222 255
196 222 255
196 222 255
196 222 255
196 222 255
196 222 255
196 222 255
196 222 255
196 222 255
196 222 255
196 222 255
196 222 255
196 222 255
196 222 255
196 222 255
196 222 255
196 222 255
196 222 255
196 222 255
196 222 255
196 222 255
196 222 255
196 222 255
196 222 255
196 222 255
196 222 255
196 222 255
197 222 255
197 222 255
197 222 255
197 222 255
197 222 255
197 222 255
197 222 255
197 222 255
197 222 255
197 222 255
197 222 255
197 222 255
197 222 255
197 222 255
197 222 255
197 222 255
197 222 255
197 222 255
197 222 255
197 222 255
197 223 255
198 223 255
198 223 255
198 223 255
198 223 255
198 223 255
198 223 255
198 223 255
198 223 255
198 223 255
198 223 255
198 223 255
198 223 255
198 223 255
198 223 255
198 223 255
198 223 255
198 223 255
199 223 255
199 223 255
199 223 255
199 223 255
199 223 255
199 223 255
199 223 255
199 223 255
199 223 255
199 223 255
199 223 255
199 223 255
199 224 255
199 224 255
200 224 255
200 224 255
200 224 255
200 224 255
200 224 255
200 224 255
200 224 255
200 224 255
200 224 255
200 224 255
200 224 255
200 224 255
200 224 255
200 224 255
200 224 255
201 224 255
201 224 255
201 224 255
201 224 255
201 224 255
201 224 255
201 224 255
201 224 255
201 224 255
201 224 255
201 225 255
201 225 255
201 225 255
201 225 255
201 225 255
202 225 255
202 225 255
202 225 255
202 225 255
202 225 255
202 225 255
202 225 255
202 225 255
202 225 255
202 225 255
202 225 255
202 225 255
202 225 255
202 225 255
202 225 255
203 225 255
203 225 255
203 225 255
203 225 255
203 225 255
203 225 255
203 225 255
203 225 255
203 225 255
203 226 255
203 226 255
203 226 255
203 226 255
203 226 255
203 226 255
203 226 255
204 226 255
204 226 255
204 226 255
204 226 255
204 226 255
204 226 255
204 226 255
204 226 255
204 226 255
204 226 255
204 226 255
204 226 255
204 226 255
204 226 255
204 226 255
204 226 255
205 226 255
205 226 255
205 226 255
205 226 255
205 226 255
205 226 255
205 226 255
205 227 255
205 227 255
205 227 255
205 227 255
205 227 255
205 227 255
205 227 255
205 227 255
205 227 255
205 227 255
205 227 255
206 227 255
206 227 255
206 227 255
206 227 255
206 227 255
206 227 255
206 227 255
206 227 255
206 227 255
206 227 255
206 227 255
206 227 255
206 227 255
206 227 255
206 227 255
206 227 255
206 227 255
206 227 255
207 227 255
206 227 255
206 227 255
206 227 255
206 227 255
206 227 255
206 227 255
206 227 255
206 227 255
206 227 255
206 227 255
206 227 255
206 227 255
206 227 255
206 227 255
206 227 255
206 227 255
206 227 255
206 227 255
206 227 255
206 227 255
205 227 255
205 227 255
205 227 255
205 227 255
205 227 255
205 227 255
205 227 255
205 227 255
205 227 255
205 227 255
205 227 255
205 226 255
205 226 255
205 226 255
205 226 255
205 226 255
205 226 255
205 226 255
204 226 255
204 226 255
204 226 255
204 226 255
204 226 255
204 226 255
204 226 255
204 226 255
204 226 255
204 226 255
204 226 255
204 226 255
204 226 255
204 226 255
204 226 255
204 226 255
203 226 255
203 226 255
203 226 255
203 226 255
203 226 255
203 226 255
203 226 255
203 225 255
203 225 255
203 225 255
203 225 255
203 225 255
203 225 255
203 225 255
203 225 255
203 225 255
202 225 255
202 225 255
202 225 255
202 225 255
202 225 255
202 225 255
202 225 255
202 225 255
202 225 255
202 225 255
202 225 255
202 225 255
202 225 255
202 225 255
201 225 255
201 225 255
201 225 255
201 225 255
201 225 255
201 224 255
201 224 255
201 224 255
201 224 255
201 224 255
201 224 255
201 224 255
201 224 255
201 224 255
201 224 255
200 224 255
200 224 255
200 224 255
200 224 255
200 224 255
200 224 255
200 224 255
200 224 255
200 224 255
200 224 255
200 224 255
200 224 255
200 224 255
200 224 255
200 224 255
199 224 255
199 224 255
199 223 255
199 223 255
199 223 255
199 223 255
199 223 255
199 223 255
199 223 255
199 223 255
199 223 255
199 223 255
199 223 255
199 223 255
199 223 255
198 223 255
198 223 255
198 223 255
198 223 255
198 223 255
198 223 255
198 223 255
198 223 255
198 223 255
198 223 255
198 223 255
198 223 255
198 223 255
198 223 255
198 223 255
198 223 255
198 223 255
197 223 255
197 223 255
197 222 255
197 222 255
197 222 255
197 222 255
197 222 255
197 222 255
197 222 255
197 222 255
197 222 255
197 222 255
197 222 255
197 222 255
197 222 255
197 222 255
197 222 255
197 222 255
197 222 255
197 222 255
197 222 255
197 222 255
196 222 255
196 222 255
196 222 255
196 222 255
196 222 255
196 222 255
196 222 255
196 222 255
196 222 255
196 222 255
196 222 255
196 222 255
196 222 255
196 222 255
196 222 255
196 222 255
196 222 255
196 222 255
196 222 255
196 222 255
196 222 255
196 222 255
196 222 255
196 222 255
196 222 255
196 222 255
196 222 255
196 222 255
196 222 255
196 222 255
196 222 255
196 222 255
196 222 255
196 222 255
196 222 255
196 222 255
196 222 255
196 222 255
196 222 255
196 222 255
196 222 255
196 222 255
196 222 255
196 222 255
196 222 255
196 222 255
196 222 255
196 222 255
196 222 255
196 222 255
196 222 255
196 222 255
196 222 255
196 222 255
196 222 255
196 222 255
196 222 255
196 222 255
196 222 255
196 222 255
196 222 255
196 222 255
197 222 255
197 222 255
197 222 255
197 222 255
197 222 255
197 222 255
197 222 255
197 222 255
197 222 255
197 222 255
197 222 255
197 222 255
197 222 255
197 222 255
197 222 255
197 222 255
197 222 255
197 222 255
197 222 255
197 222 255
197 222 255
197 223 255
198 223 255
198 223 255
198 223 255
198 223 255
198 223 255
198 223 255
198 223 255
198 223 255
198 223 255
198 223 255
198 223 255
198 223 255
198 223 255
198 223 255
198 223 255
198 223 255
199 223 255
199 223 255
199 223 255
199 223 255
199 223 255
199 223 255
199 223 255
199 223 255
199 223 255
199 223 255
199 223 255
199 223 255
199 223 255
199 224 255
199 224 255
199 224 255
200 224 255
200 224 255
200 224 255
200 224 255
200 224 255
200 224 255
200 224 255
200 224 255
200 224 255
200 224 255
200 224 255
200 224 255
200 224 255
200 224 255
200 224 255
201 224 255
201 224 255
201 224 255
201 224 255
201 224 255
201 224 255
201 224 255
201 224 255
201 224 255
201 224 255
201 224 255
201 225 255
201 225 255
201 225 255
202 225 255
202 225 255
202 225 255
202 225 255
202 225 255
202 225 255
202 225 255
202 225 255
202 225 255
202 225 255
202 225 255
202 225 255
202 225 255
202 225 255
202 225 255
202 225 255
203 225 255
203 225 255
203 225 255
203 225 255
203 225 255
203 225 255
203 225 255
203 225 255
203 226 255
203 226 255
203 226 255
203 226 255
203 226 255
203 226 255
203 226 255
204 226 255
204 226 255
204 226 255
204 226 255
204 226 255
204 226 255
204 226 255
204 226 255
204 226 255
204 226 255
204 226 255
204 226 255
204 226 255
204 226 255
204 226 255
204 226 255
205 226 255
205 226 255
205 226 255
205 226 255
205 226 255
205 226 255
205 226 255
205 227 255
205 227 255
205 227 255
205 227 255
205 227 255
205 227 255
205 227 255
205 227 255
205 227 255
205 227 255
205 227 255
206 227 255
206 227 255
206 227 255
206 227 255
206 227 255
206 227 255
206 227 255
206 227 255
206 227 255
206 227 255
206 227 255
206 227 255
206 227 255
206 227 255
206 227 255
206 227 255
206 227 255
206 227 255
206 227 255
207 227 255
207 227 255
207 227 255
207 227 255
207 227 255
207 227 255
206 227 255
206 227 255
206 227 255
206 227 255
206 227 255
206 227 255
206 227 255
206 227 255
206 227 255
206 227 255
206 227 255
206 227 255
206 227 255
206 227 255
206 227 255
206 227 255
206 227 255
206 227 255
206 227 255
206 227 255
205 227 255
205 227 255
205 227 255
205 227 255
205 227 255
205 227 255
205 227 255
205 227 255
205 227 255
205 227 255
205 226 255
205 226 255
205 226 255
205 226 255
205 226 255
205 226 255
205 226 255
204 226 255
204 226 255
204 226 255
204 226 255
204 226 255
204 226 255
204 226 255
204 226 255
204 226 255
204 226 255
204 226 255
204 226 255
204 226 255
204 226 255
204 226 255
204 226 255
204 226 255
203 226 255
203 226 255
203 226 255
203 226 255
203 226 255
203 226 255
203 225 255
203 225 255
203 225 255
203 225 255
203 225 255
203 225 255
203 225 255
203 225 255
203 225 255
202 225 255
202 225 255
202 225 255
202 225 255
202 225 255
202 225 255
202 225 255
202 225 255
202 225 255
202 225 255
202 225 255
202 225 255
202 225 255
202 225 255
202 225 255
201 225 255
201 225 255
201 225 255
201 225 255
201 224 255
201 224 255
201 224 255
201 224 255
201 224 255
201 224 255
201 224 255
201 224 255
201 224 255
201 224 255
200 224 255
200 224 255
200 224 255
200 224 255
200 224 255
200 224 255
200 224 255
200 224 255
200 224 255
200 224 255
200 224 255
200 224 255
200 224 255
200 224 255
200 224 255
199 224 255
199 224 255
199 224 255
199 223 255
199 223 255
199 223 255
199 223 255
199 223 255
199 223 255
199 223 255
199 223 255
199 223 255
199 223 255
199 223 255
199 223 255
199 223 255
198 223 255
198 223 255
198 223 255
198 223 255
198 223 255
198 223 255
198 223 255
198 223 255
198 223 255
198 223 255
198 223 255
198 223 255
198 223 255
198 223 255
198 223 255
198 223 255
198 223 255
198 223 255
197 222 255
197 222 255
197 222 255
197 222 255
197 222 255
197 222 255
197 222 255
197 222 255
197 222 255
197 222 255
197 222 255
197 222 255
197 222 255
197 222 255
197 222 255
197 222 255
197 222 255
197 222 255
197 222 255
197 222 255
197 222 255
197 222 255
197 222 255
196 222 255
196 222 255
196 222 255
196 222 255
196 222 255
196 222 255
196 222 255
196 222 255
196 222 255
196 222 255
196 222 255
196 222 255
196 222 255
196 222 255
196 222 255
196 222 255
196 222 255
196 222 255
196 222 255
196 222 255
196 222 255
196 222 255
196 222 255
196 222 255
196 222 255
196 222 255
196 222 255
196 222 255
196 222 255
196 222 255
196 222 255
196 222 255
196 222 255
196 222 255
196 222 255
196 222 255
196 222 255
196 222 255
196 222 255
196 222 255
196 222 255
196 222 255
196 222 255
196 222 255
196 222 255
196 222 255
196 222 255
196 222 255
196 222 255
196 222 255
196 222 255
196 222 255
197 222 255
197 222 255
197 222 255
197 222 255
197 222 255
197 222 255
197 222 255
197 222 255
197 222 255
197 222 255
197 222 255
197 222 255
197 222 255
197 222 255
197 222 255
197 222 255
197 222 255
197 222 255
197 222 255
197 222 255
197 222 255
197 222 255
197 222 255
197 223 255
198 223 255
198 223 255
198 223 255
198 223 255
198 223 255
198 223 255
198 223 255
198 223 255
198 223 255
198 223 255
198 223 255
198 223 255
198 223 255
198 223 255
198 223 255
198 223 255
198 223 255
199 223 255
199 223 255
199 223 255
199 223 255
199 223 255
199 223 255
199 223 255
199 223 255
199 223 255
199 223 255
199 223 255
199 223 255
199 223 255
199 224 255
199 224 255
199 224 255
200 224 255
200 224 255
200 224 255
200 224 255
200 224 255
200 224 255
200 224 255
200 224 255
200 224 255
200 224 255
200 224 255
200 224 255
200 224 255
200 224 255
200 224 255
201 224 255
201 224 255
201 224 255
201 224 255
201 224 255
201 224 255
201 224 255
201 224 255
201 224 255
201 224 255
201 225 255
201 225 255
201 225 255
201 225 255
202 225 255
202 225 255
202 225 255
202 225 255
202 225 255
202 225 255
202 225 255
202 225 255
202 225 255
202 225 255
202 225 255
202 225 255
202 225 255
202 225 255
202 225 255
203 225 255
203 225 255
203 225 255
203 225 255
203 225 255
203 225 255
203 225 255
203 225 255
203 225 255
203 226 255
203 226 255
203 226 255
203 226 255
203 226 255
203 226 255
204 226 255
204 226 255
204 226 255
204 226 255
204 226 255
204 226 255
204 226 255
204 226 255
204 226 255
204 226 255
204 226 255
204 226 255
204 226 255
204 226 255
204 226 255
204 226 255
204 226 255
205 226 255
205 226 255
205 226 255
205 226 255
205 226 255
205 226 255
205 226 255
205 227 255
205 227 255
205 227 255
205 227 255
205 227 255
205 227 255
205 227 255
205 227 255
205 227 255
205 227 255
206 227 255
206 227 255
206 227 255
206 227 255
206 227 255
206 227 255
206 227 255
206 227 255
206 227 255
206 227 255
206 227 255
206 227 255
206 227 255
206 227 255
206 227 255
206 227 255
206 227 255
206 227 255
206 227 255
206 227 255
207 227 255
207 227 255
207 227 255
207 227 255
207 228 255
207 228 255
207 227 255
207 227 255
207 227 255
207 227 255
207 227 255
206 227 255
206 227 255
206 227 255
206 227 255
206 227 255
206 227 255
206 227 255
206 227 255
206 227 255
206 227 255
206 227 255
206 227 255
206 227 255
206 227 255
206 227 255
206 227 255
206 227 255
206 227 255
206 227 255
206 227 255
205 227 255
205 227 255
205 227 255
205 227 255
205 227 255
205 227 255
205 227 255
205 227 255
205 227 255
205 227 255
205 226 255
205 226 255
205 226 255
205 226 255
205 226 255
205 226 255
205 226 255
204 226 255
204 226 255
204 226 255
204 226 255
204 226 255
204 226 255
204 226 255
204 226 255
204 226 255
204 226 255
204 226 255
204 226 255
204 226 255
204 226 255
204 226 255
204 226 255
203 226 255
203 226 255
203 226 255
203 226 255
203 226 255
203 226 255
203 226 255
203 225 255
203 225 255
203 225 255
203 225 255
203 225 255
203 225 255
203 225 255
203 225 255
202 225 255
202 225 255
202 225 255
202 225 255
202 225 255
202 225 255
202 225 255
202 225 255
202 225 255
202 225 255
202 225 255
202 225 255
202 225 255
202 225 255
202 225 255
201 225 255
201 225 255
201 225 255
201 225 255
201 225 255
201 224 255
201 224 255
201 224 255
201 224 255
201 224 255
201 224 255
201 224 255
201 224 255
201 224 255
201 224 255
200 224 255
200 224 255
200 224 255
200 224 255
200 224 255
200 224 255
200 224 255
200 224 255
200 224 255
200 224 255
200 224 255
200 224 255
200 224 255
200 224 255
200 224 255
199 224 255
199 224 255
199 223 255
199 223 255
199 223 255
199 223 255
199 223 255
199 223 255
199 223 255
199 223 255
199 223 255
199 223 255
199 223 255
199 223 255
199 223 255
198 223 255
198 223 255
198 223 255
198 223 255
198 223 255
198 223 255
198 223 255
198 223 255
198 223 255
198 223 255
198 223 255
198 223 255
198 223 255
198 223 255
198 223 255
198 223 255
198 223 255
198 223 255
198 223 255
197 222 255
197 222 255
197 222 255
197 222 255
197 222 255
197 222 255
197 222 255
197 222 255
197 222 255
197 222 255
197 222 255
197 222 255
197 222 255
197 222 255
197 222 255
197 222 255
197 222 255
197 222 255
197 222 255
197 222 255
197 222 255
197 222 255
197 222 255
197 222 255
197 222 255
197 222 255
197 222 255
196 222 255
196 222 255
196 222 255
196 222 255
196 222 255
196 222 255
196 222 255
196 222 255
196 222 255
196 222 255
196 222 255
196 222 255
196 222 255
196 222 255
196 222 255
196 222 255
196 222 255
196 222 255
196 222 255
196 222 255
196 222 255
196 222 255
196 222 255
196 222 255
196 222 255
196 222 255
196 222 255
196 222 255
196 222 255
196 222 255
196 222 255
196 222 255
196 222 255
196 222 255
196 222 255
196 222 255
196 222 255
196 222 255
196 222 255
197 222 255
197 222 255
197 222 255
197 222 255
197 222 255
197 222 255
197 222 255
197 222 255
197 222 255
197 222 255
197 222 255
197 222 255
197 222 255
197 222 255
197 222 255
197 222 255
197 222 255
197 222 255
197 222 255
197 222 255
197 222 255
197 222 255
197 222 255
197 222 255
197 222 255
197 223 255
198 223 255
198 223 255
198 223 255
198 223 255
198 223 255
198 223 255
198 223 255
198 223 255
198 223 255
198 223 255
198 223 255
198 223 255
198 223 255
198 223 255
198 223 255
198 223 255
198 223 255
198 223 255
198 223 255
199 223 255
199 223 255
199 223 255
199 223 255
199 223 255
199 223 255
199 223 255
199 223 255
199 223 255
199 223 255
199 223 255
199 223 255
199 223 255
199 224 255
199 224 255
200 224 255
200 224 255
200 224 255
200 224 255
200 224 255
200 224 255
200 224 255
200 224 255
200 224 255
200 224 255
200 224 255
200 224 255
200 224 255
200 224 255
200 224 255
201 224 255
201 224 255
201 224 255
201 224 255
201 224 255
201 224 255
201 224 255
201 224 255
201 224 255
201 224 255
201 225 255
201 225 255
201 225 255
201 225 255
202 225 255
202 225 255
202 225 255
202 225 255
202 225 255
202 225 255
202 225 255
202 225 255
202 225 255
202 225 255
202 225 255
202 225 255
202 225 255
202 225 255
202 225 255
202 225 255
203 225 255
203 225 255
203 225 255
203 225 255
203 225 255
203 225 255
203 225 255
203 225 255
203 226 255
203 226 255
203 226 255
203 226 255
203 226 255
203 226 255
204 226 255
204 226 255
204 226 255
204 226 255
204 226 255
204 226 255
204 226 255
204 226 255
204 226 255
204 226 255
204 226 255
204 226 255
204 226 255
204 226 255
204 226 255
204 226 255
204 226 255
204 226 255
205 226 255
205 226 255
205 226 255
205 226 255
205 226 255
205 226 255
205 227 255
205 227 255
205 227 255
205 227 255
205 227 255
205 227 255
205 227 255
205 227 255
205 227 255
205 227 255
205 227 255
206 227 255
206 227 255
206 227 255
206 227 255
206 227 255
206 227 255
206 227 255
206 227 255
206 227 255
206 227 255
206 227 255
206 227 255
206 227 255
206 227 255
206 227 255
206 227 255
206 227 255
206 227 255
206 227 255
207 227 255
207 227 255
207 227 255
207 227 255
207 227 255
207 228 255
207 228 255
207 228 255
207 228 255
207 228 255
207 228 255
207 228 255
207 227 255
207 227 255
207 227 255
207 227 255
207 227 255
206 227 255
206 227 255
206 227 255
206 227 255
206 227 255
206 227 255
206 227 255
206 227 255
206 227 255
206 227 255
206 227 255
206 227 255
206 227 255
206 227 255
206 227 255
206 227 255
206 227 255
206 227 255
206 227 255
205 227 255
205 227 255
205 227 255
205 227 255
205 227 255
205 227 255
205 227 255
205 227 255
205 227 255
205 227 255
205 227 255
205 226 255
205 226 255
205 226 255
205 226 255
205 226 255
205 226 255
205 226 255
204 226 255
204 226 255
204 226 255
204 226 255
204 226 255
204 226 255
204 226 255
204 226 255
204 226 255
204 226 255
204 226 255
204 226 255
204 226 255
204 226 255
204 226 255
204 226 255
203 226 255
203 226 255
203 226 255
203 226 255
203 226 255
203 226 255
203 225 255
203 225 255
203 225 255
203 225 255
203 225 255
203 225 255
203 225 255
203 225 255
203 225 255
202 225 255
202 225 255
202 225 255
202 225 255
202 225 255
202 225 255
202 225 255
202 225 255
202 225 255
202 225 255
202 225 255
202 225 255
202 225 255
202 225 255
202 225 255
201 225 255
201 225 255
201 225 255
201 225 255
201 224 255
201 224 255
201 224 255
201 224 255
201 224 255
201 224 255
201 224 255
201 224 255
201 224 255
201 224 255
201 224 255
200 224 255
200 224 255
200 224 255
200 224 255
200 224 255
200 224 255
200 224 255
200 224 255
200 224 255
200 224 255
200 224 255
200 224 255
200 224 255
200 224 255
199 224 255
199 224 255
199 224 255
199 223 255
199 223 255
199 223 255
199 223 255
199 223 255
199 223 255
199 223 255
199 223 255
199 223 255
199 223 255
199 223 255
199 223 255
199 223 255
199 223 255
198 223 255
198 223 255
198 223 255
198 223 255
198 223 255
198 223 255
198 223 255
198 223 255
198 223 255
198 223 255
198 223 255
198 223 255
198 223 255
198 223 255
198 223 255
198 223 255
198 223 255
198 223 255
197 223 255
197 222 255
197 222 255
197 222 255
197 222 255
197 222 255
197 222 255
197 222 255
197 222 255
197 222 255
197 222 255
197 222 255
197 222 255
197 222 255
197 222 255
197 222 255
197 222 255
197 222 255
197 222 255
197 222 255
197 222 255
197 222 255
197 222 255
197 222 255
197 222 255
197 222 255
197 222 255
197 222 255
197 222 255
197 222 255
197 222 255
197 222 255
196 222 255
196 222 255
196 222 255
196 222 255
196 222 255
196 222 255
196 222 255
196 222 255
196 222 255
196 222 255
196 222 255
196 222 255
196 222 255
196 222 255
196 222 255
196 222 255
196 222 255
196 222 255
196 222 255
196 222 255
197 222 255
196 222 255
196 222 255
197 222 255
197 222 255
197 222 255
197 222 255
197 222 255
197 222 255
197 222 255
197 222 255
197 222 255
197 222 255
197 222 255
197 222 255
197 222 255
197 222 255
197 222 255
197 222 255
197 222 255
197 222 255
197 222 255
197 222 255
197 222 255
197 222 255
197 222 255
197 222 255
197 222 255
197 222 255
197 222 255
197 222 255
197 222 255
197 222 255
197 223 255
198 223 255
198 223 255
198 223 255
198 223 255
198 223 255
198 223 255
198 223 255
198 223 255
198 223 255
198 223 255
198 223 255
198 223 255
198 223 255
198 223 255
198 223 255
198 223 255
198 223 255
198 223 255
198 223 255
199 223 255
199 223 255
199 223 255
199 223 255
199 223 255
199 223 255
199 223 255
199 223 255
199 223 255
199 223 255
199 223 255
199 223 255
199 223 255
199 224 255
199 224 255
200 224 255
200 224 255
200 224 255
200 224 255
200 224 255
200 224 255
200 224 255
200 224 255
200 224 255
200 224 255
200 224 255
200 224 255
200 224 255
200 224 255
200 224 255
201 224 255
201 224 255
201 224 255
201 224 255
201 224 255
201 224 255
201 224 255
201 224 255
201 224 255
201 224 255
201 224 255
201 225 255
201 225 255
201 225 255
201 225 255
202 225 255
202 225 255
202 225 255
202 225 255
202 225 255
202 225 255
202 225 255
202 225 255
202 225 255
202 225 255
202 225 255
202 225 255
202 225 255
202 225 255
202 225 255
203 225 255
203 225 255
203 225 255
203 225 255
203 225 255
203 225 255
203 225 255
203 225 255
203 225 255
203 226 255
203 226 255
203 226 255
203 226 255
203 226 255
203 226 255
204 226 255
204 226 255
204 226 255
204 226 255
204 226 255
204 226 255
204 226 255
204 226 255
204 226 255
204 226 255
204 226 255
204 226 255
204 226 255
204 226 255
204 226 255
204 226 255
205 226 255
205 226 255
205 226 255
205 226 255
205 226 255
205 226 255
205 226 255
205 227 255
205 227 255
205 227 255
205 227 255
205 227 255
205 227 255
205 227 255
205 227 255
205 227 255
205 227 255
205 227 255
206 227 255
206 227 255
206 227 255
206 227 255
206 227 255
206 227 255
206 227 255
206 227 255
206 227 255
206 227 255
206 227 255
206 227 255
206 227 255
206 227 255
206 227 255
206 227 255
206 227 255
206 227 255
206 227 255
207 227 255
207 227 255
207 227 255
207 227 255
207 228 255
207 228 255
207 228 255
207 228 255
207 228 255
207 228 255
207 228 255
207 228 255
207 228 255
207 228 255
207 228 255
207 228 255
207 228 255
207 228 255
207 227 255
207 227 255
207 227 255
207 227 255
207 227 255
206 227 255
206 227 255
206 227 255
206 227 255
206 227 255
206 227 255
206 227 255
206 227 255
206 227 255
206 227 255
206 227 255
206 227 255
206 227 255
206 227 255
206 227 255
206 227 255
206 227 255
206 227 255
205 227 255
205 227 255
205 227 255
205 227 255
205 227 255
205 227 255
205 227 255
205 227 255
205 227 255
205 227 255
205 227 255
205 226 255
205 226 255
205 226 255
205 226 255
205 226 255
205 226 255
205 226 255
204 226 255
204 226 255
204 226 255
204 226 255
204 226 255
204 226 255
204 226 255
204 226 255
204 226 255
204 226 255
204 226 255
204 226 255
204 226 255
204 226 255
204 226 255
203 226 255
203 226 255
203 226 255
203 226 255
203 226 255
203 226 255
203 226 255
203 226 255
203 225 255
203 225 255
203 225 255
203 225 255
203 225 255
203 225 255
203 225 255
203 225 255
202 225 255
202 225 255
202 225 255
202 225 255
202 225 255
202 225 255
202 225 255
202 225 255
202 225 255
202 225 255
202 225 255
202 225 255
202 225 255
202 225 255
202 225 255
201 225 255
201 225 255
201 225 255
201 225 255
201 224 255
201 224 255
201 224 255
201 224 255
201 224 255
201 224 255
201 224 255
201 224 255
201 224 255
201 224 255
201 224 255
200 224 255
200 224 255
200 224 255
200 224 255
200 224 255
200 224 255
200 224 255
200 224 255
200 224 255
200 224 255
200 224 255
200 224 255
200 224 255
200 224 255
200 224 255
199 224 255
199 224 255
199 224 255
199 223 255
199 223 255
199 223 255
199 223 255
199 223 255
199 223 255
199 223 255
199 223 255
199 223 255
199 223 255
199 223 255
199 223 255
199 223 255
198 223 255
198 223 255
198 223 255
198 223 255
198 223 255
198 223 255
198 223 255
198 223 255
198 223 255
198 223 255
198 223 255
198 223 255
198 223 255
198 223 255
198 223 255
198 223 255
198 223 255
198 223 255
198 223 255
198 223 255
197 223 255
197 222 255
197 222 255
197 222 255
197 222 255
197 222 255
197 222 255
197 222 255
197 222 255
197 222 255
197 222 255
197 222 255
197 222 255
197 222 255
197 222 255
197 222 255
197 222 255
197 222 255
197 222 255
197 222 255
197 222 255
197 222 255
197 222 255
197 222 255
197 222 255
197 222 255
197 222 255
197 222 255
197 222 255
197 222 255
197 222 255
197 222 255
197 222 255
197 222 255
197 222 255
197 222 255
197 222 255
197 222 255
197 222 255
197 222 255
197 222 255
197 222 255
197 222 255
197 222 255
197 222 255
197 222 255
197 222 255
197 222 255
197 222 255
197 222 255
197 222 255
197 222 255
197 222 255
197 222 255
197 222 255
197 222 255
197 222 255
197 222 255
197 222 255
197 222 255
197 222 255
197 222 255
197 222 255
197 222 255
197 222 255
197 222 255
197 222 255
197 222 255
197 222 255
197 222 255
197 222 255
197 222 255
197 222 255
197 222 255
197 222 255
197 222 255
197 222 255
197 223 255
198 223 255
198 223 255
198 223 255
198 223 255
198 223 255
198 223 255
198 223 255
198 223 255
198 223 255
198 223 255
198 223 255
198 223 255
198 223 255
198 223 255
198 223 255
198 223 255
198 223 255
198 223 255
198 223 255
199 223 255
199 223 255
199 223 255
199 223 255
199 223 255
199 223 255
199 223 255
199 223 255
199 223 255
199 223 255
199 223 255
199 223 255
199 223 255
199 223 255
199 224 255
199 224 255
199 224 255
200 224 255
200 224 255
200 224 255
200 224 255
200 224 255
200 224 255
200 224 255
200 224 255
200 224 255
200 224 255
200 224 255
200 224 255
200 224 255
200 224 255
200 224 255
201 224 255
201 224 255
201 224 255
201 224 255
201 224 255
201 224 255
201 224 255
201 224 255
201 224 255
201 224 255
201 225 255
201 225 255
201 225 255
201 225 255
201 225 255
202 225 255
202 225 255
202 225 255
202 225 255
202 225 255
202 225 255
202 225 255
202 225 255
202 225 255
202 225 255
202 225 255
202 225 255
202 225 255
202 225 255
202 225 255
203 225 255
203 225 255
203 225 255
203 225 255
203 225 255
203 225 255
203 225 255
203 225 255
203 226 255
203 226 255
203 226 255
203 226 255
203 226 255
203 226 255
203 226 255
204 226 255
204 226 255
204 226 255
204 226 255
204 226 255
204 226 255
204 226 255
204 226 255
204 226 255
204 226 255
204 226 255
204 226 255
204 226 255
204 226 255
204 226 255
204 226 255
205 226 255
205 226 255
205 226 255
205 226 255
205 226 255
205 226 255
205 226 255
205 227 255
205 227 255
205 227 255
205 227 255
205 227 255
205 227 255
205 227 255
205 227 255
205 227 255
205 227 255
205 227 255
206 227 255
206 227 255
206 227 255
206 227 255
206 227 255
206 227 255
206 227 255
206 227 255
206 227 255
206 227 255
206 227 255
206 227 255
206 227 255
206 227 255
206 227 255
206 227 255
206 227 255
206 227 255
207 227 255
207 227 255
207 227 255
207 227 255
207 227 255
207 228 255
207 228 255
207 228 255
207 228 255
207 228 255
207 228 255
207 228 255
207 228 255
207 228 255
207 228 255
207 228 255
207 228 255
207 228 255
207 228 255
207 228 255
207 228 255
207 228 255
207 228 255
207 228 255
207 227 255
207 227 255
207 227 255
207 227 255
207 227 255
206 227 255
206 227 255
206 227 255
206 227 255
206 227 255
206 227 255
206 227 255
206 227 255
206 227 255
206 227 255
206 227 255
206 227 255
206 227 255
206 227 255
206 227 255
206 227 255
206 227 255
206 227 255
206 227 255
205 227 255
205 227 255
205 227 255
205 227 255
205 227 255
205 227 255
205 227 255
205 227 255
205 227 255
205 227 255
205 226 255
205 226 255
205 226 255
205 226 255
205 226 255
205 226 255
204 226 255
204 226 255
204 226 255
204 226 255
204 226 255
204 226 255
204 226 255
204 226 255
204 226 255
204 226 255
204 226 255
204 226 255
204 226 255
204 226 255
204 226 255
204 226 255
203 226 255
203 226 255
203 226 255
203 226 255
203 226 255
203 226 255
203 226 255
203 225 255
203 225 255
203 225 255
203 225 255
203 225 255
203 225 255
203 225 255
203 225 255
203 225 255
202 225 255
202 225 255
202 225 255
202 225 255
202 225 255
202 225 255
202 225 255
202 225 255
202 225 255
202 225 255
202 225 255
202 225 255
202 225 255
202 225 255
202 225 255
201 225 255
201 225 255
201 225 255
201 225 255
201 224 255
201 224 255
201 224 255
201 224 255
201 224 255
201 224 255
201 224 255
201 224 255
201 224 255
201 224 255
201 224 255
200 224 255
200 224 255
200 224 255
200 224 255
200 224 255
200 224 255
200 224 255
200 224 255
200 224 255
200 224 255
200 224 255
200 224 255
200 224 255
200 224 255
200 224 255
199 224 255
199 224 255
199 223 255
199 223 255
199 223 255
199 223 255
199 223 255
199 223 255
199 223 255
199 223 255
199 223 255
199 223 255
199 223 255
199 223 255
199 223 255
199 223 255
198 223 255
198 223 255
198 223 255
198 223 255
198 223 255
198 223 255
198 223 255
198 223 255
198 223 255
198 223 255
198 223 255
198 223 255
198 223 255
198 223 255
198 223 255
198 223 255
198 223 255
198 223 255
198 223 255
198 223 255
198 223 255
197 223 255
197 222 255
197 222 255
197 222 255
197 222 255
197 222 255
197 222 255
197 222 255
197 222 255
197 222 255
197 222 255
197 222 255
197 222 255
197 222 255
197 222 255
197 222 255
197 222 255
197 222 255
197 222 255
197 222 255
197 222 255
197 222 255
197 222 255
197 222 255
197 222 255
197 222 255
197 222 255
197 222 255
197 222 255
197 222 255
197 222 255
197 222 255
197 222 255
197 222 255
197 222 255
197 222 255
197 222 255
197 222 255
197 222 255
197 222 255
197 222 255
197 222 255
197 222 255
197 222 255
197 222 255
197 222 255
197 222 255
197 222 255
197 222 255
197 222 255
197 222 255
197 222 255
197 222 255
197 222 255
197 222 255
197 222 255
197 222 255
197 222 255
197 222 255
197 222 255
197 222 255
197 222 255
197 222 255
197 222 255
197 222 255
197 222 255
197 222 255
197 222 255
197 222 255
197 222 255
198 223 255
198 223 255
198 223 255
198 223 255
198 223 255
198 223 255
198 223 255
198 223 255
198 223 255
198 223 255
198 223 255
198 223 255
198 223 255
198 223 255
198 223 255
198 223 255
198 223 255
198 223 255
198 223 255
198 223 255
198 223 255
199 223 255
199 223 255
199 223 255
199 223 255
199 223 255
199 223 255
199 223 255
199 223 255
199 223 255
199 223 255
199 223 255
199 223 255
199 223 255
199 223 255
199 224 255
199 224 255
199 224 255
200 224 255
200 224 255
200 224 255
200 224 255
200 224 255
200 224 255
200 224 255
200 224 255
200 224 255
200 224 255
200 224 255
200 224 255
200 224 255
200 224 255
201 224 255
201 224 255
201 224 255
201 224 255
201 224 255
201 224 255
201 224 255
201 224 255
201 224 255
201 224 255
201 224 255
201 225 255
201 225 255
201 225 255
201 225 255
202 225 255
202 225 255
202 225 255
202 225 255
202 225 255
202 225 255
202 225 255
202 225 255
202 225 255
202 225 255
202 225 255
202 225 255
202 225 255
202 225 255
202 225 255
203 225 255
203 225 255
203 225 255
203 225 255
203 225 255
203 225 255
203 225 255
203 225 255
203 226 255
203 226 255
203 226 255
203 226 255
203 226 255
203 226 255
203 226 255
204 226 255
204 226 255
204 226 255
204 226 255
204 226 255
204 226 255
204 226 255
204 226 255
204 226 255
204 226 255
204 226 255
204 226 255
204 226 255
204 226 255
204 226 255
204 226 255
205 226 255
205 226 255
205 226 255
205 226 255
205 226 255
205 226 255
205 226 255
205 227 255
205 227 255
205 227 255
205 227 255
205 227 255
205 227 255
205 227 255
205 227 255
205 227 255
205 227 255
205 227 255
206 227 255
206 227 255
206 227 255
206 227 255
206 227 255
206 227 255
206 227 255
206 227 255
206 227 255
206 227 255
206 227 255
206 227 255
206 227 255
206 227 255
206 227 255
206 227 255
206 227 255
206 227 255
207 227 255
207 227 255
207 227 255
207 227 255
207 227 255
207 228 255
207 228 255
207 228 255
207 228 255
207 228 255
207 228 255
207 228 255
207 228 255
207 228 255
207 228 255
207 228 255
207 228 255
207 228 255
207 228 255
207 228 255
207 228 255
207 228 255
207 228 255
207 228 255
207 228 255
207 228 255
207 228 255
207 228 255
207 228 255
207 228 255
207 227 255
207 227 255
207 227 255
207 227 255
206 227 255
206 227 255
206 227 255
206 227 255
206 227 255
206 227 255
206 227 255
206 227 255
206 227 255
206 227 255
206 227 255
206 227 255
206 227 255
206 227 255
206 227 255
206 227 255
206 227 255
206 227 255
206 227 255
205 227 255
205 227 255
205 227 255
205 227 255
205 227 255
205 227 255
205 227 255
205 227 255
205 227 255
205 227 255
205 226 255
205 226 255
205 226 255
205 226 255
205 226 255
205 226 255
205 226 255
204 226 255
204 226 255
204 226 255
204 226 255
204 226 255
204 226 255
204 226 255
204 226 255
204 226 255
204 226 255
204 226 255
204 226 255
204 226 255
204 226 255
204 226 255
204 226 255
203 226 255
203 226 255
203 226 255
203 226 255
203 226 255
203 226 255
203 226 255
203 225 255
203 225 255
203 225 255
203 225 255
203 225 255
203 225 255
203 225 255
203 225 255
202 225 255
202 225 255
202 225 255
202 225 255
202 225 255
202 225 255
202 225 255
202 225 255
202 225 255
202 225 255
202 225 255
202 225 255
202 225 255
202 225 255
202 225 255
201 225 255
201 225 255
201 225 255
201 225 255
201 225 255
201 224 255
201 224 255
201 224 255
201 224 255
201 224 255
201 224 255
201 224 255
201 224 255
201 224 255
201 224 255
200 224 255
200 224 255
200 224 255
200 224 255
200 224 255
200 224 255
200 224 255
200 224 255
200 224 255
200 224 255
200 224 255
200 224 255
200 224 255
200 224 255
200 224 255
199 224 255
199 224 255
199 224 255
199 223 255
199 223 255
199 223 255
199 223 255
199 223 255
199 223 255
199 223 255
199 223 255
199 223 255
199 223 255
199 223 255
199 223 255
199 223 255
199 223 255
198 223 255
198 223 255
198 223 255
198 223 255
198 223 255
198 223 255
198 223 255
198 223 255
198 223 255
198 223 255
198 223 255
198 223 255
198 223 255
198 223 255
198 223 255
198 223 255
198 223 255
198 223 255
198 223 255
198 223 255
198 223 255
198 223 255
197 223 255
197 223 255
197 222 255
197 222 255
197 222 255
197 222 255
197 222 255
197 222 255
197 222 255
197 222 255
197 222 255
197 222 255
197 222 255
197 222 255
197 222 255
197 222 255
197 222 255
197 222 255
197 222 255
197 222 255
197 222 255
197 222 255
197 222 255
197 222 255
197 222 255
197 222 255
197 222 255
197 222 255
197 222 255
197 222 255
197 222 255
197 222 255
197 222 255
197 222 255
197 222 255
197 222 255
197 222 255
197 222 255
197 222 255
197 222 255
197 222 255
197 222 255
197 222 255
197 222 255
197 222 255
197 222 255
197 222 255
197 222 255
197 222 255
197 222 255
197 222 255
197 222 255
197 222 255
197 222 255
197 222 255
197 222 255
197 222 255
197 222 255
197 222 255
197 222 255
197 223 255
198 223 255
198 223 255
198 223 255
198 223 255
198 223 255
198 223 255
198 223 255
198 223 255
198 223 255
198 223 255
198 223 255
198 223 255
198 223 255
198 223 255
198 223 255
198 223 255
198 223 255
198 223 255
198 223 255
198 223 255
198 223 255
198 223 255
199 223 255
199 223 255
199 223 255
199 223 255
199 223 255
199 223 255
199 223 255
199 223 255
199 223 255
199 223 255
199 223 255
199 223 255
199 223 255
199 223 255
199 223 255
199 224 255
199 224 255
200 224 255
200 224 255
200 224 255
200 224 255
200 224 255
200 224 255
200 224 255
200 224 255
200 224 255
200 224 255
200 224 255
200 224 255
200 224 255
200 224 255
200 224 255
200 224 255
201 224 255
201 224 255
201 224 255
201 224 255
201 224 255
201 224 255
201 224 255
201 224 255
201 224 255
201 224 255
201 225 255
201 225 255
201 225 255
201 225 255
201 225 255
202 225 255
202 225 255
202 225 255
202 225 255
202 225 255
202 225 255
202 225 255
202 225 255
202 225 255
202 225 255
202 225 255
202 225 255
202 225 255
202 225 255
202 225 255
203 225 255
203 225 255
203 225 255
203 225 255
203 225 255
203 225 255
203 225 255
203 225 255
203 225 255
203 226 255
203 226 255
203 226 255
203 226 255
203 226 255
203 226 255
204 226 255
204 226 255
204 226 255
204 226 255
204 226 255
204 226 255
204 226 255
204 226 255
204 226 255
204 226 255
204 226 255
204 226 255
204 226 255
204 226 255
204 226 255
204 226 255
205 226 255
205 226 255
205 226 255
205 226 255
205 226 255
205 226 255
205 226 255
205 227 255
205 227 255
205 227 255
205 227 255
205 227 255
205 227 255
205 227 255
205 227 255
205 227 255
205 227 255
206 227 255
206 227 255
206 227 255
206 227 255
206 227 255
206 227 255
206 227 255
206 227 255
206 227 255
206 227 255
206 227 255
206 227 255
206 227 255
206 227 255
206 227 255
206 227 255
206 227 255
206 227 255
206 227 255
207 227 255
207 227 255
207 227 255
207 227 255
207 228 255
207 228 255
207 228 255
207 228 255
207 228 255
207 228 255
207 228 255
207 228 255
207 228 255
207 228 255
207 228 255
207 228 255
207 228 255
207 228 255
208 228 255
207 228 255
207 228 255
207 228 255
207 228 255
207 228 255
207 228 255
207 228 255
207 228 255
207 228 255
207 228 255
207 228 255
207 228 255
207 228 255
207 228 255
207 228 255
207 228 255
207 227 255
207 227 255
207 227 255
207 227 255
206 227 255
206 227 255
206 227 255
206 227 255
206 227 255
206 227 255
206 227 255
206 227 255
206 227 255
206 227 255
206 227 255
206 227 255
206 227 255
206 227 255
206 227 255
206 227 255
206 227 255
206 227 255
206 227 255
205 227 255
205 227 255
205 227 255
205 227 255
205 227 255
205 227 255
205 227 255
205 227 255
205 227 255
205 227 255
205 226 255
205 226 255
205 226 255
205 226 255
205 226 255
205 226 255
205 226 255
204 226 255
204 226 255
204 226 255
204 226 255
204 226 255
204 226 255
204 226 255
204 226 255
204 226 255
204 226 255
204 226 255
204 226 255
204 226 255
204 226 255
204 226 255
204 226 255
203 226 255
203 226 255
203 226 255
203 226 255
203 226 255
203 226 255
203 226 255
203 225 255
203 225 255
203 225 255
203 225 255
203 225 255
203 225 255
203 225 255
203 225 255
202 225 255
202 225 255
202 225 255
202 225 255
202 225 255
202 225 255
202 225 255
202 225 255
202 225 255
202 225 255
202 225 255
202 225 255
202 225 255
202 225 255
202 225 255
201 225 255
201 225 255
201 225 255
201 225 255
201 225 255
201 224 255
201 224 255
201 224 255
201 224 255
201 224 255
201 224 255
201 224 255
201 224 255
201 224 255
201 224 255
200 224 255
200 224 255
200 224 255
200 224 255
200 224 255
200 224 255
200 224 255
200 224 255
200 224 255
200 224 255
200 224 255
200 224 255
200 224 255
200 224 255
200 224 255
199 224 255
199 224 255
199 224 255
199 223 255
199 223 255
199 223 255
199 223 255
199 223 255
199 223 255
199 223 255
199 223 255
199 223 255
199 223 255
199 223 255
199 223 255
199 223 255
199 223 255
199 223 255
198 223 255
198 223 255
198 223 255
198 223 255
198 223 255
198 223 255
198 223 255
198 223 255
198 223 255
198 223 255
198 223 255
198 223 255
198 223 255
198 223 255
198 223 255
198 223 255
198 223 255
198 223 255
198 223 255
198 223 255
198 223 255
198 223 255
198 223 255
198 223 255
198 223 255
197 222 255
197 222 255
197 222 255
197 222 255
197 222 255
197 222 255
197 222 255
197 222 255
197 222 255
197 222 255
197 222 255
197 222 255
197 222 255
197 222 255
197 222 255
197 222 255
197 222 255
197 222 255
197 222 255
197 222 255
197 222 255
197 222 255
197 222 255
197 222 255
197 222 255
197 222 255
197 222 255
197 222 255
197 222 255
197 222 255
197 222 255
197 222 255
197 222 255
197 222 255
197 222 255
197 222 255
197 222 255
197 222 255
197 222 255
197 222 255
197 222 255
197 222 255
197 222 255
197 222 255
197 222 255
197 222 255
197 222 255
197 223 255
197 222 255
198 223 255
198 223 255
198 223 255
198 223 255
198 223 255
198 223 255
198 223 255
198 223 255
198 223 255
198 223 255
198 223 255
198 223 255
198 223 255
198 223 255
198 223 255
198 223 255
198 223 255
198 223 255
198 223 255
198 223 255
198 223 255
198 223 255
198 223 255
198 223 255
199 223 255
199 223 255
199 223 255
199 223 255
199 223 255
199 223 255
199 223 255
199 223 255
199 223 255
199 223 255
199 223 255
199 223 255
199 223 255
199 223 255
199 223 255
199 224 255
199 224 255
200 224 255
200 224 255
200 224 255
200 224 255
200 224 255
200 224 255
200 224 255
200 224 255
200 224 255
200 224 255
200 224 255
200 224 255
200 224 255
200 224 255
200 224 255
200 224 255
201 224 255
201 224 255
201 224 255
201 224 255
201 224 255
201 224 255
201 224 255
201 224 255
201 224 255
201 224 255
201 224 255
201 225 255
201 225 255
201 225 255
201 225 255
202 225 255
202 225 255
202 225 255
202 225 255
202 225 255
202 225 255
202 225 255
202 225 255
202 225 255
202 225 255
202 225 255
202 225 255
202 225 255
202 225 255
202 225 255
203 225 255
203 225 255
203 225 255
203 225 255
203 225 255
203 225 255
203 225 255
203 225 255
203 225 255
203 226 255
203 226 255
203 226 255
203 226 255
203 226 255
203 226 255
204 226 255
204 226 255
204 226 255
204 226 255
204 226 255
204 226 255
204 226 255
204 226 255
204 226 255
204 226 255
204 226 255
204 226 255
204 226 255
204 226 255
204 226 255
204 226 255
205 226 255
205 226 255
205 226 255
205 226 255
205 226 255
205 226 255
205 226 255
205 227 255
205 227 255
205 227 255
205 227 255
205 227 255
205 227 255
205 227 255
205 227 255
205 227 255
205 227 255
206 227 255
206 227 255
206 227 255
206 227 255
206 227 255
206 227 255
206 227 255
206 227 255
206 227 255
206 227 255
206 227 255
206 227 255
206 227 255
206 227 255
206 227 255
206 227 255
206 227 255
206 227 255
206 227 255
207 227 255
207 227 255
207 227 255
207 227 255
207 228 255
207 228 255
207 228 255
207 228 255
207 228 255
207 228 255
207 228 255
207 228 255
207 228 255
207 228 255
207 228 255
207 228 255
207 228 255
207 228 255
207 228 255
207 228 255
208 228 255
208 228 255
208 228 255
208 228 255
208 228 255
207 228 255
207 228 255
207 228 255
207 228 255
207 228 255
207 228 255
207 228 255
207 228 255
207 228 255
207 228 255
207 228 255
207 228 255
207 228 255
207 228 255
207 228 255
207 228 255
207 227 255
207 227 255
207 227 255
207 227 255
206 227 255
206 227 255
206 227 255
206 227 255
206 227 255
206 227 255
206 227 255
206 227 255
206 227 255
206 227 255
206 227 255
206 227 255
206 227 255
206 227 255
206 227 255
206 227 255
206 227 255
206 227 255
206 227 255
205 227 255
205 227 255
205 227 255
205 227 255
205 227 255
205 227 255
205 227 255
205 227 255
205 227 255
205 227 255
205 226 255
205 226 255
205 226 255
205 226 255
205 226 255
205 226 255
204 226 255
204 226 255
204 226 255
204 226 255
204 226 255
204 226 255
204 226 255
204 226 255
204 226 255
204 226 255
204 226 255
204 226 255
204 226 255
204 226 255
204 226 255
204 226 255
203 226 255
203 226 255
203 226 255
203 226 255
203 226 255
203 226 255
203 226 255
203 225 255
203 225 255
203 225 255
203 225 255
203 225 255
203 225 255
203 225 255
203 225 255
202 225 255
202 225 255
202 225 255
202 225 255
202 225 255
202 225 255
202 225 255
202 225 255
202 225 255
202 225 255
202 225 255
202 225 255
202 225 255
202 225 255
202 225 255
201 225 255
201 225 255
201 225 255
201 225 255
201 225 255
201 224 255
201 224 255
201 224 255
201 224 255
201 224 255
201 224 255
201 224 255
201 224 255
201 224 255
201 224 255
201 224 255
200 224 255
200 224 255
200 224 255
200 224 255
200 224 255
200 224 255
200 224 255
200 224 255
200 224 255
200 224 255
200 224 255
200 224 255
200 224 255
200 224 255
200 224 255
199 224 255
199 224 255
199 224 255
199 224 255
199 223 255
199 223 255
199 223 255
199 223 255
199 223 255
199 223 255
199 223 255
199 223 255
199 223 255
199 223 255
199 223 255
199 223 255
199 223 255
199 223 255
199 223 255
198 223 255
198 223 255
198 223 255
198 223 255
198 223 255
198 223 255
198 223 255
198 223 255
198 223 255
198 223 255
198 223 255
198 223 255
198 223 255
198 223 255
198 223 255
198 223 255
198 223 255
198 223 255
198 223 255
198 223 255
198 223 255
198 223 255
198 223 255
198 223 255
198 223 255
198 223 255
198 223 255
197 222 255
198 223 255
197 222 255
197 222 255
197 222 255
197 222 255
197 222 255
197 222 255
197 222 255
197 222 255
197 222 255
197 222 255
197 222 255
197 222 255
197 222 255
197 222 255
197 222 255
197 222 255
197 222 255
197 222 255
197 222 255
197 222 255
197 222 255
197 222 255
197 222 255
197 222 255
197 222 255
197 222 255
197 222 255
197 222 255
197 222 255
197 222 255
197 222 255
197 223 255
197 222 255
198 223 255
198 223 255
198 223 255
198 223 255
198 223 255
198 223 255
198 223 255
198 223 255
198 223 255
198 223 255
198 223 255
198 223 255
198 223 255
198 223 255
198 223 255
198 223 255
198 223 255
198 223 255
198 223 255
198 223 255
198 223 255
198 223 255
198 223 255
198 223 255
198 223 255
198 223 255
198 223 255
198 223 255
199 223 255
199 223 255
199 223 255
199 223 255
199 223 255
199 223 255
199 223 255
199 223 255
199 223 255
199 223 255
199 223 255
199 223 255
199 223 255
199 223 255
199 223 255
199 224 255
199 224 255
199 224 255
199 224 255
200 224 255
200 224 255
200 224 255
200 224 255
200 224 255
200 224 255
200 224 255
200 224 255
200 224 255
200 224 255
200 224 255
200 224 255
200 224 255
200 224 255
200 224 255
200 224 255
201 224 255
201 224 255
201 224 255
201 224 255
201 224 255
201 224 255
201 224 255
201 224 255
201 224 255
201 224 255
201 225 255
201 225 255
201 225 255
201 225 255
202 225 255
202 225 255
202 225 255
202 225 255
202 225 255
202 225 255
202 225 255
202 225 255
202 225 255
202 225 255
202 225 255
202 225 255
202 225 255
202 225 255
202 225 255
202 225 255
203 225 255
203 225 255
203 225 255
203 225 255
203 225 255
203 225 255
203 225 255
203 225 255
203 226 255
203 226 255
203 226 255
203 226 255
203 226 255
203 226 255
203 226 255
204 226 255
204 226 255
204 226 255
204 226 255
204 226 255
204 226 255
204 226 255
204 226 255
204 226 255
204 226 255
204 226 255
204 226 255
204 226 255
204 226 255
204 226 255
205 226 255
205 226 255
205 226 255
205 226 255
205 226 255
205 226 255
205 226 255
205 227 255
205 227 255
205 227 255
205 227 255
205 227 255
205 227 255
205 227 255
205 227 255
205 227 255
205 227 255
205 227 255
206 227 255
206 227 255
206 227 255
206 227 255
206 227 255
206 227 255
206 227 255
206 227 255
206 227 255
206 227 255
206 227 255
206 227 255
206 227 255
206 227 255
206 227 255
206 227 255
206 227 255
206 227 255
207 227 255
207 227 255
207 227 255
207 227 255
207 227 255
207 228 255
207 228 255
207 228 255
207 228 255
207 228 255
207 228 255
207 228 255
207 228 255
207 228 255
207 228 255
207 228 255
207 228 255
207 228 255
207 228 255
207 228 255
208 228 255
208 228 255
208 228 255
208 228 255
208 228 255
208 228 255
208 228 255
208 228 255
208 228 255
208 228 255
208 228 255
207 228 255
207 228 255
207 228 255
207 228 255
207 228 255
207 228 255
207 228 255
207 228 255
207 228 255
207 228 255
207 228 255
207 228 255
207 228 255
207 228 255
207 228 255
207 227 255
207 227 255
207 227 255
207 227 255
207 227 255
206 227 255
206 227 255
206 227 255
206 227 255
206 227 255
206 227 255
206 227 255
206 227 255
206 227 255
206 227 255
206 227 255
206 227 255
206 227 255
206 227 255
206 227 255
206 227 255
206 227 255
206 227 255
205 227 255
205 227 255
205 227 255
205 227 255
205 227 255
205 227 255
205 227 255
205 227 255
205 227 255
205 227 255
205 227 255
205 226 255
205 226 255
205 226 255
205 226 255
205 226 255
205 226 255
204 226 255
204 226 255
204 226 255
204 226 255
204 226 255
204 226 255
204 226 255
204 226 255
204 226 255
204 226 255
204 226 255
204 226 255
204 226 255
204 226 255
204 226 255
204 226 255
203 226 255
203 226 255
203 226 255
203 226 255
203 226 255
203 226 255
203 226 255
203 225 255
203 225 255
203 225 255
203 225 255
203 225 255
203 225 255
203 225 255
203 225 255
203 225 255
202 225 255
202 225 255
202 225 255
202 225 255
202 225 255
202 225 255
202 225 255
202 225 255
202 225 255
202 225 255
202 225 255
202 225 255
202 225 255
202 225 255
201 225 255
201 225 255
201 225 255
201 225 255
201 225 255
201 224 255
201 224 255
201 224 255
201 224 255
201 224 255
201 224 255
201 224 255
201 224 255
201 224 255
201 224 255
200 224 255
200 224 255
200 224 255
200 224 255
200 224 255
200 224 255
200 224 255
200 224 255
200 224 255
200 224 255
200 224 255
200 224 255
200 224 255
200 224 255
200 224 255
200 224 255
200 224 255
199 224 255
199 224 255
199 223 255
199 223 255
199 223 255
199 223 255
199 223 255
199 223 255
199 223 255
199 223 255
199 223 255
199 223 255
199 223 255
199 223 255
199 223 255
199 223 255
199 223 255
199 223 255
199 223 255
198 223 255
198 223 255
198 223 255
198 223 255
198 223 255
198 223 255
198 223 255
198 223 255
198 223 255
198 223 255
198 223 255
198 223 255
198 223 255
198 223 255
198 223 255
198 223 255
198 223 255
198 223 255
198 223 255
198 223 255
198 223 255
198 223 255
198 223 255
198 223 255
198 223 255
198 223 255
198 223 255
198 223 255
198 223 255
198 223 255
198 223 255
198 223 255
198 223 255
198 223 255
197 223 255
198 223 255
198 223 255
198 223 255
198 223 255
197 223 255
198 223 255
197 223 255
198 223 255
197 223 255
197 222 255
197 223 255
198 223 255
198 223 255
198 223 255
198 223 255
198 223 255
198 223 255
198 223 255
198 223 255
198 223 255
198 223 255
198 223 255
198 223 255
198 223 255
198 223 255
198 223 255
198 223 255
198 223 255
198 223 255
198 223 255
198 223 255
198 223 255
198 223 255
198 223 255
198 223 255
198 223 255
198 223 255
198 223 255
198 223 255
198 223 255
198 223 255
198 223 255
198 223 255
198 223 255
198 223 255
198 223 255
198 223 255
198 223 255
199 223 255
199 223 255
199 223 255
199 223 255
199 223 255
199 223 255
199 223 255
199 223 255
199 223 255
199 223 255
199 223 255
199 223 255
199 223 255
199 223 255
199 223 255
199 223 255
199 224 255
199 224 255
200 224 255
200 224 255
200 224 255
200 224 255
200 224 255
200 224 255
200 224 255
200 224 255
200 224 255
200 224 255
200 224 255
200 224 255
200 224 255
200 224 255
200 224 255
200 224 255
200 224 255
201 224 255
201 224 255
201 224 255
201 224 255
201 224 255
201 224 255
201 224 255
201 224 255
201 224 255
201 224 255
201 225 255
201 225 255
201 225 255
201 225 255
201 225 255
202 225 255
202 225 255
202 225 255
202 225 255
202 225 255
202 225 255
202 225 255
202 225 255
202 225 255
202 225 255
202 225 255
202 225 255
202 225 255
202 225 255
202 225 255
203 225 255
203 225 255
203 225 255
203 225 255
203 225 255
203 225 255
203 225 255
203 225 255
203 225 255
203 226 255
203 226 255
203 226 255
203 226 255
203 226 255
203 226 255
204 226 255
204 226 255
204 226 255
204 226 255
204 226 255
204 226 255
204 226 255
204 226 255
204 226 255
204 226 255
204 226 255
204 226 255
204 226 255
204 226 255
204 226 255
204 226 255
205 226 255
205 226 255
205 226 255
205 226 255
205 226 255
205 226 255
205 226 255
205 227 255
205 227 255
205 227 255
205 227 255
205 227 255
205 227 255
205 227 255
205 227 255
205 227 255
205 227 255
206 227 255
206 227 255
206 227 255
206 227 255
206 227 255
206 227 255
206 227 255
206 227 255
206 227 255
206 227 255
206 227 255
206 227 255
206 227 255
206 227 255
206 227 255
206 227 255
206 227 255
206 227 255
207 227 255
207 227 255
207 227 255
207 227 255
207 227 255
207 228 255
207 228 255
207 228 255
207 228 255
207 228 255
207 228 255
207 228 255
207 228 255
207 228 255
207 228 255
207 228 255
207 228 255
207 228 255
207 228 255
207 228 255
208 228 255
208 228 255
208 228 255
208 228 255
208 228 255
208 228 255
208 228 255
208 228 255
208 228 255
208 228 255
208 228 255
208 228 255
208 228 255
208 228 255
208 228 255
208 228 255
208 228 255
207 228 255
207 228 255
207 228 255
207 228 255
207 228 255
207 228 255
207 228 255
207 228 255
207 228 255
207 228 255
207 228 255
207 228 255
207 228 255
207 228 255
207 228 255
207 228 255
207 227 255
207 227 255
207 227 255
207 227 255
206 227 255
206 227 255
206 227 255
206 227 255
206 227 255
206 227 255
206 227 255
206 227 255
206 227 255
206 227 255
206 227 255
206 227 255
206 227 255
206 227 255
206 227 255
206 227 255
206 227 255
206 227 255
205 227 255
205 227 255
205 227 255
205 227 255
205 227 255
205 227 255
205 227 255
205 227 255
205 227 255
205 227 255
205 226 255
205 226 255
205 226 255
205 226 255
205 226 255
205 226 255
205 226 255
204 226 255
204 226 255
204 226 255
204 226 255
204 226 255
204 226 255
204 226 255
204 226 255
204 226 255
204 226 255
204 226 255
204 226 255
204 226 255
204 226 255
204 226 255
204 226 255
203 226 255
203 226 255
203 226 255
203 226 255
203 226 255
203 226 255
203 225 255
203 225 255
203 225 255
203 225 255
203 225 255
203 225 255
203 225 255
203 225 255
203 225 255
202 225 255
202 225 255
202 225 255
202 225 255
202 225 255
202 225 255
202 225 255
202 225 255
202 225 255
202 225 255
202 225 255
202 225 255
202 225 255
202 225 255
202 225 255
201 225 255
201 225 255
201 225 255
201 225 255
201 225 255
201 224 255
201 224 255
201 224 255
201 224 255
201 224 255
201 224 255
201 224 255
201 224 255
201 224 255
201 224 255
200 224 255
200 224 255
200 224 255
200 224 255
200 224 255
200 224 255
200 224 255
200 224 255
200 224 255
200 224 255
200 224 255
200 224 255
200 224 255
200 224 255
200 224 255
200 224 255
200 224 255
199 224 255
199 224 255
199 223 255
199 223 255
199 223 255
199 223 255
199 223 255
199 223 255
199 223 255
199 223 255
199 223 255
199 223 255
199 223 255
199 223 255
199 223 255
199 223 255
199 223 255
199 223 255
199 223 255
199 223 255
198 223 255
198 223 255
198 223 255
198 223 255
198 223 255
198 223 255
198 223 255
198 223 255
198 223 255
198 223 255
198 223 255
198 223 255
198 223 255
198 223 255
198 223 255
198 223 255
198 223 255
198 223 255
198 223 255
198 223 255
198 223 255
198 223 255
198 223 255
198 223 255
198 223 255
198 223 255
198 223 255
198 223 255
198 223 255
198 223 255
198 223 255
198 223 255
198 223 255
198 223 255
198 223 255
198 223 255
198 223 255
198 223 255
198 223 255
198 223 255
198 223 255
198 223 255
198 223 255
198 223 255
198 223 255
198 223 255
198 223 255
198 223 255
198 223 255
198 223 255
198 223 255
198 223 255
198 223 255
198 223 255
198 223 255
198 223 255
198 223 255
198 223 255
198 223 255
198 223 255
198 223 255
198 223 255
198 223 255
198 223 255
198 223 255
198 223 255
198 223 255
198 223 255
198 223 255
198 223 255
198 223 255
198 223 255
198 223 255
198 223 255
199 223 255
199 223 255
199 223 255
199 223 255
199 223 255
199 223 255
199 223 255
199 223 255
199 223 255
199 223 255
199 223 255
199 223 255
199 223 255
199 223 255
199 223 255
199 223 255
199 223 255
199 224 255
199 224 255
199 224 255
200 224 255
200 224 255
200 224 255
200 224 255
200 224 255
200 224 255
200 224 255
200 224 255
200 224 255
200 224 255
200 224 255
200 224 255
200 224 255
200 224 255
200 224 255
200 224 255
200 224 255
201 224 255
201 224 255
201 224 255
201 224 255
201 224 255
201 224 255
201 224 255
201 224 255
201 224 255
201 224 255
201 225 255
201 225 255
201 225 255
201 225 255
201 225 255
202 225 255
202 225 255
202 225 255
202 225 255
202 225 255
202 225 255
202 225 255
202 225 255
202 225 255
202 225 255
202 225 255
202 225 255
202 225 255
202 225 255
202 225 255
203 225 255
203 225 255
203 225 255
203 225 255
203 225 255
203 225 255
203 225 255
203 225 255
203 226 255
203 226 255
203 226 255
203 226 255
203 226 255
203 226 255
203 226 255
204 226 255
204 226 255
204 226 255
204 226 255
204 226 255
204 226 255
204 226 255
204 226 255
204 226 255
204 226 255
204 226 255
204 226 255
204 226 255
204 226 255
204 226 255
204 226 255
205 226 255
205 226 255
205 226 255
205 226 255
205 226 255
205 226 255
205 226 255
205 227 255
205 227 255
205 227 255
205 227 255
205 227 255
205 227 255
205 227 255
205 227 255
205 227 255
205 227 255
206 227 255
206 227 255
206 227 255
206 227 255
206 227 255
206 227 255
206 227 255
206 227 255
206 227 255
206 227 255
206 227 255
206 227 255
206 227 255
206 227 255
206 227 255
206 227 255
206 227 255
206 227 255
207 227 255
207 227 255
207 227 255
207 227 255
207 228 255
207 228 255
207 228 255
207 228 255
207 228 255
207 228 255
207 228 255
207 228 255
207 228 255
207 228 255
207 228 255
207 228 255
207 228 255
207 228 255
207 228 255
207 228 255
208 228 255
208 228 255
208 228 255
208 228 255
208 228 255
208 228 255
208 228 255
208 228 255
208 228 255
208 228 255
208 228 255
208 228 255
208 228 255
208 228 255
208 228 255
208 228 255
208 228 255
208 228 255
208 228 255
208 228 255
208 228 255
208 228 255
208 228 255
207 228 255
207 228 255
207 228 255
207 228 255
207 228 255
207 228 255
207 228 255
207 228 255
207 228 255
207 228 255
207 228 255
207 228 255
207 228 255
207 228 255
207 228 255
207 227 255
207 227 255
207 227 255
207 227 255
206 227 255
206 227 255
206 227 255
206 227 255
206 227 255
206 227 255
206 227 255
206 227 255
206 227 255
206 227 255
206 227 255
206 227 255
206 227 255
206 227 255
206 227 255
206 227 255
206 227 255
206 227 255
206 227 255
205 227 255
205 227 255
205 227 255
205 227 255
205 227 255
205 227 255
205 227 255
205 227 255
205 227 255
205 226 255
205 226 255
205 226 255
205 226 255
205 226 255
205 226 255
205 226 255
204 226 255
204 226 255
204 226 255
204 226 255
204 226 255
204 226 255
204 226 255
204 226 255
204 226 255
204 226 255
204 226 255
204 226 255
204 226 255
204 226 255
204 226 255
204 226 255
203 226 255
203 226 255
203 226 255
203 226 255
203 226 255
203 226 255
203 226 255
203 225 255
203 225 255
203 225 255
203 225 255
203 225 255
203 225 255
203 225 255
203 225 255
202 225 255
202 225 255
202 225 255
202 225 255
202 225 255
202 225 255
202 225 255
202 225 255
202 225 255
202 225 255
202 225 255
202 225 255
202 225 255
202 225 255
202 225 255
201 225 255
201 225 255
201 225 255
201 225 255
201 225 255
201 224 255
201 224 255
201 224 255
201 224 255
201 224 255
201 224 255
201 224 255
201 224 255
201 224 255
201 224 255
201 224 255
200 224 255
200 224 255
200 224 255
200 224 255
200 224 255
200 224 255
200 224 255
200 224 255
200 224 255
200 224 255
200 224 255
200 224 255
200 224 255
200 224 255
200 224 255
200 224 255
200 224 255
199 224 255
199 224 255
199 224 255
199 223 255
199 223 255
199 223 255
199 223 255
199 223 255
199 223 255
199 223 255
199 223 255
199 223 255
199 223 255
199 223 255
199 223 255
199 223 255
199 223 255
199 223 255
199 223 255
199 223 255
199 223 255
198 223 255
198 223 255
198 223 255
198 223 255
198 223 255
198 223 255
198 223 255
198 223 255
198 223 255
198 223 255
198 223 255
198 223 255
198 223 255
198 223 255
198 223 255
198 223 255
198 223 255
198 223 255
198 223 255
198 223 255
198 223 255
198 223 255
198 223 255
198 223 255
198 223 255
198 223 255
198 223 255
198 223 255
198 223 255
198 223 255
198 223 255
198 223 255
198 223 255
198 223 255
198 223 255
198 223 255
198 223 255
198 223 255
198 223 255
198 223 255
198 223 255
198 223 255
198 223 255
198 223 255
198 223 255
198 223 255
198 223 255
198 223 255
198 223 255
198 223 255
198 223 255
198 223 255
198 223 255
198 223 255
198 223 255
198 223 255
198 223 255
198 223 255
198 223 255
198 223 255
198 223 255
198 223 255
198 223 255
198 223 255
198 223 255
199 223 255
199 223 255
199 223 255
199 223 255
199 223 255
199 223 255
199 223 255
199 223 255
199 223 255
199 223 255
199 223 255
199 223 255
199 223 255
199 223 255
199 223 255
199 223 255
199 223 255
199 223 255
199 223 255
199 224 255
199 224 255
199 224 255
199 224 255
200 224 255
200 224 255
200 224 255
200 224 255
200 224 255
200 224 255
200 224 255
200 224 255
200 224 255
200 224 255
200 224 255
200 224 255
200 224 255
200 224 255
200 224 255
201 224 255
201 224 255
201 224 255
201 224 255
201 224 255
201 224 255
201 224 255
201 224 255
201 224 255
201 224 255
201 224 255
201 224 255
201 225 255
201 225 255
201 225 255
201 225 255
201 225 255
202 225 255
202 225 255
202 225 255
202 225 255
202 225 255
202 225 255
202 225 255
202 225 255
202 225 255
202 225 255
202 225 255
202 225 255
202 225 255
202 225 255
202 225 255
203 225 255
203 225 255
203 225 255
203 225 255
203 225 255
203 225 255
203 225 255
203 225 255
203 226 255
203 226 255
203 226 255
203 226 255
203 226 255
203 226 255
203 226 255
204 226 255
204 226 255
204 226 255
204 226 255
204 226 255
204 226 255
204 226 255
204 226 255
204 226 255
204 226 255
204 226 255
204 226 255
204 226 255
204 226 255
204 226 255
204 226 255
205 226 255
205 226 255
205 226 255
205 226 255
205 226 255
205 226 255
205 227 255
205 227 255
205 227 255
205 227 255
205 227 255
205 227 255
205 227 255
205 227 255
205 227 255
205 227 255
206 227 255
206 227 255
206 227 255
206 227 255
206 227 255
206 227 255
206 227 255
206 227 255
206 227 255
206 227 255
206 227 255
206 227 255
206 227 255
206 227 255
206 227 255
206 227 255
206 227 255
206 227 255
207 227 255
207 227 255
207 227 255
207 227 255
207 227 255
207 228 255
207 228 255
207 228 255
207 228 255
207 228 255
207 228 255
207 228 255
207 228 255
207 228 255
207 228 255
207 228 255
207 228 255
207 228 255
207 228 255
207 228 255
208 228 255
208 228 255
208 228 255
208 228 255
208 228 255
208 228 255
208 228 255
208 228 255
208 228 255
208 228 255
208 228 255
208 228 255
208 228 255
208 228 255
208 228 255
208 228 255
208 228 255
208 228 255
208 228 255
208 228 255
208 228 255
208 228 255
208 228 255
208 228 255
208 228 255
208 228 255
208 228 255
208 228 255
208 228 255
207 228 255
207 228 255
207 228 255
207 228 255
207 228 255
207 228 255
207 228 255
207 228 255
207 228 255
207 228 255
207 228 255
207 228 255
207 228 255
207 228 255
207 228 255
207 227 255
207 227 255
207 227 255
207 227 255
207 227 255
206 227 255
206 227 255
206 227 255
206 227 255
206 227 255
206 227 255
206 227 255
206 227 255
206 227 255
206 227 255
206 227 255
206 227 255
206 227 255
206 227 255
206 227 255
206 227 255
206 227 255
205 227 255
205 227 255
205 227 255
205 227 255
205 227 255
205 227 255
205 227 255
205 227 255
205 227 255
205 227 255
205 226 255
205 226 255
205 226 255
205 226 255
205 226 255
205 226 255
205 226 255
204 226 255
204 226 255
204 226 255
204 226 255
204 226 255
204 226 255
204 226 255
204 226 255
204 226 255
204 226 255
204 226 255
204 226 255
204 226 255
204 226 255
204 226 255
204 226 255
203 226 255
203 226 255
203 226 255
203 226 255
203 226 255
203 226 255
203 226 255
203 225 255
203 225 255
203 225 255
203 225 255
203 225 255
203 225 255
203 225 255
203 225 255
202 225 255
202 225 255
202 225 255
202 225 255
202 225 255
202 225 255
202 225 255
202 225 255
202 225 255
202 225 255
202 225 255
202 225 255
202 225 255
202 225 255
202 225 255
201 225 255
201 225 255
201 225 255
201 225 255
201 225 255
201 224 255
201 224 255
201 224 255
201 224 255
201 224 255
201 224 255
201 224 255
201 224 255
201 224 255
201 224 255
201 224 255
200 224 255
200 224 255
200 224 255
200 224 255
200 224 255
200 224 255
200 224 255
200 224 255
200 224 255
200 224 255
200 224 255
200 224 255
200 224 255
200 224 255
200 224 255
200 224 255
200 224 255
200 224 255
199 224 255
199 224 255
199 223 255
199 223 255
199 223 255
199 223 255
199 223 255
199 223 255
199 223 255
199 223 255
199 223 255
199 223 255
199 223 255
199 223 255
199 223 255
199 223 255
199 223 255
199 223 255
199 223 255
199 223 255
199 223 255
199 223 255
199 223 255
199 223 255
198 223 255
198 223 255
198 223 255
198 223 255
198 223 255
198 223 255
198 223 255
198 223 255
198 223 255
198 223 255
198 223 255
198 223 255
198 223 255
198 223 255
198 223 255
198 223 255
198 223 255
198 223 255
198 223 255
198 223 255
198 223 255
198 223 255
198 223 255
198 223 255
198 223 255
198 223 255
198 223 255
198 223 255
198 223 255
198 223 255
198 223 255
198 223 255
198 223 255
198 223 255
198 223 255
198 223 255
198 223 255
198 223 255
198 223 255
198 223 255
198 223 255
198 223 255
198 223 255
198 223 255
198 223 255
198 223 255
198 223 255
198 223 255
198 223 255
198 223 255
198 223 255
198 223 255
198 223 255
199 223 255
199 223 255
199 223 255
199 223 255
199 223 255
199 223 255
199 223 255
199 223 255
199 223 255
199 223 255
199 223 255
199 223 255
199 223 255
199 223 255
199 223 255
199 223 255
199 223 255
199 223 255
199 223 255
199 223 255
199 224 255
199 224 255
199 224 255
200 224 255
200 224 255
200 224 255
200 224 255
200 224 255
200 224 255
200 224 255
200 224 255
200 224 255
200 224 255
200 224 255
200 224 255
200 224 255
200 224 255
200 224 255
200 224 255
200 224 255
200 224 255
201 224 255
201 224 255
201 224 255
201 224 255
201 224 255
201 224 255
201 224 255
201 224 255
201 224 255
201 224 255
201 224 255
201 225 255
201 225 255
201 225 255
201 225 255
201 225 255
202 225 255
202 225 255
202 225 255
202 225 255
202 225 255
202 225 255
202 225 255
202 225 255
202 225 255
202 225 255
202 225 255
202 225 255
202 225 255
202 225 255
202 225 255
203 225 255
203 225 255
203 225 255
203 225 255
203 225 255
203 225 255
203 225 255
203 225 255
203 226 255
203 226 255
203 226 255
203 226 255
203 226 255
203 226 255
203 226 255
203 226 255
204 226 255
204 226 255
204 226 255
204 226 255
204 226 255
204 226 255
204 226 255
204 226 255
204 226 255
204 226 255
204 226 255
204 226 255
204 226 255
204 226 255
204 226 255
205 226 255
205 226 255
205 226 255
205 226 255
205 226 255
205 226 255
205 226 255
205 227 255
205 227 255
205 227 255
205 227 255
205 227 255
205 227 255
205 227 255
205 227 255
205 227 255
205 227 255
206 227 255
206 227 255
206 227 255
206 227 255
206 227 255
206 227 255
206 227 255
206 227 255
206 227 255
206 227 255
206 227 255
206 227 255
206 227 255
206 227 255
206 227 255
206 227 255
206 227 255
207 227 255
207 227 255
207 227 255
207 227 255
207 227 255
207 228 255
207 228 255
207 228 255
207 228 255
207 228 255
207 228 255
207 228 255
207 228 255
207 228 255
207 228 255
207 228 255
207 228 255
207 228 255
207 228 255
207 228 255
208 228 255
208 228 255
208 228 255
208 228 255
208 228 255
208 228 255
208 228 255
208 228 255
208 228 255
208 228 255
208 228 255
208 228 255
208 228 255
208 228 255
208 228 255
208 228 255
208 228 255
208 228 255
208 228 255
208 228 255
208 228 255
208 228 255
208 228 255
208 228 255
208 228 255
208 228 255
208 228 255
208 228 255
208 228 255
208 228 255
208 228 255
208 228 255
208 228 255
208 228 255
208 228 255
207 228 255
207 228 255
207 228 255
207 228 255
207 228 255
207 228 255
207 228 255
207 228 255
207 228 255
207 228 255
207 228 255
207 228 255
207 228 255
207 228 255
207 228 255
207 227 255
207 227 255
207 227 255
207 227 255
207 227 255
206 227 255
206 227 255
206 227 255
206 227 255
206 227 255
206 227 255
206 227 255
206 227 255
206 227 255
206 227 255
206 227 255
206 227 255
206 227 255
206 227 255
206 227 255
206 227 255
206 227 255
206 227 255
205 227 255
205 227 255
205 227 255
205 227 255
205 227 255
205 227 255
205 227 255
205 227 255
205 227 255
205 226 255
205 226 255
205 226 255
205 226 255
205 226 255
205 226 255
205 226 255
204 226 255
204 226 255
204 226 255
204 226 255
204 226 255
204 226 255
204 226 255
204 226 255
204 226 255
204 226 255
204 226 255
204 226 255
204 226 255
204 226 255
204 226 255
203 226 255
203 226 255
203 226 255
203 226 255
203 226 255
203 226 255
203 226 255
203 225 255
203 225 255
203 225 255
203 225 255
203 225 255
203 225 255
203 225 255
203 225 255
203 225 255
202 225 255
202 225 255
202 225 255
202 225 255
202 225 255
202 225 255
202 225 255
202 225 255
202 225 255
202 225 255
202 225 255
202 225 255
202 225 255
202 225 255
202 225 255
201 225 255
201 225 255
201 225 255
201 225 255
201 225 255
201 224 255
201 224 255
201 224 255
201 224 255
201 224 255
201 224 255
201 224 255
201 224 255
201 224 255
201 224 255
201 224 255
200 224 255
200 224 255
200 224 255
200 224 255
200 224 255
200 224 255
200 224 255
200 224 255
200 224 255
200 224 255
200 224 255
200 224 255
200 224 255
200 224 255
200 224 255
200 224 255
200 224 255
200 224 255
200 224 255
199 224 255
199 224 255
199 224 255
199 223 255
199 223 255
199 223 255
199 223 255
199 223 255
199 223 255
199 223 255
199 223 255
199 223 255
199 223 255
199 223 255
199 223 255
199 223 255
199 223 255
199 223 255
199 223 255
199 223 255
199 223 255
199 223 255
199 223 255
199 223 255
199 223 255
199 223 255
198 223 255
198 223 255
198 223 255
198 223 255
198 223 255
198 223 255
198 223 255
198 223 255
198 223 255
198 223 255
198 223 255
198 223 255
198 223 255
198 223 255
198 223 255
198 223 255
198 223 255
198 223 255
198 223 255
198 223 255
198 223 255
198 223 255
198 223 255
198 223 255
198 223 255
198 223 255
198 223 255
198 223 255
198 223 255
198 223 255
198 223 255
198 223 255
198 223 255
198 223 255
198 223 255
198 223 255
198 223 255
198 223 255
198 223 255
198 223 255
198 223 255
199 223 255
199 223 255
199 223 255
199 223 255
199 223 255
199 223 255
199 223 255
199 223 255
199 223 255
199 223 255
199 223 255
199 223 255
199 223 255
199 223 255
199 223 255
199 223 255
199 223 255
199 223 255
199 223 255
199 223 255
199 223 255
199 223 255
199 224 255
199 224 255
199 224 255
200 224 255
200 224 255
200 224 255
200 224 255
200 224 255
200 224 255
200 224 255
200 224 255
200 224 255
200 224 255
200 224 255
200 224 255
200 224 255
200 224 255
200 224 255
200 224 255
200 224 255
200 224 255
200 224 255
201 224 255
201 224 255
201 224 255
201 224 255
201 224 255
201 224 255
201 224 255
201 224 255
201 224 255
201 224 255
201 224 255
201 225 255
201 225 255
201 225 255
201 225 255
201 225 255
202 225 255
202 225 255
202 225 255
202 225 255
202 225 255
202 225 255
202 225 255
202 225 255
202 225 255
202 225 255
202 225 255
202 225 255
202 225 255
202 225 255
202 225 255
203 225 255
203 225 255
203 225 255
203 225 255
203 225 255
203 225 255
203 225 255
203 225 255
203 226 255
203 226 255
203 226 255
203 226 255
203 226 255
203 226 255
203 226 255
204 226 255
204 226 255
204 226 255
204 226 255
204 226 255
204 226 255
204 226 255
204 226 255
204 226 255
204 226 255
204 226 255
204 226 255
204 226 255
204 226 255
204 226 255
204 226 255
205 226 255
205 226 255
205 226 255
205 226 255
205 226 255
205 226 255
205 226 255
205 227 255
205 227 255
205 227 255
205 227 255
205 227 255
205 227 255
205 227 255
205 227 255
205 227 255
205 227 255
206 227 255
206 227 255
206 227 255
206 227 255
206 227 255
206 227 255
206 227 255
206 227 255
206 227 255
206 227 255
206 227 255
206 227 255
206 227 255
206 227 255
206 227 255
206 227 255
206 227 255
207 227 255
207 227 255
207 227 255
207 227 255
207 227 255
207 228 255
207 228 255
207 228 255
207 228 255
207 228 255
207 228 255
207 228 255
207 228 255
207 228 255
207 228 255
207 228 255
207 228 255
207 228 255
207 228 255
208 228 255
208 228 255
208 228 255
208 228 255
208 228 255
208 228 255
208 228 255
208 228 255
208 228 255
208 228 255
208 228 255
208 228 255
208 228 255
208 228 255
208 228 255
208 228 255
208 228 255
208 228 255
208 228 255
208 228 255
209 228 255
208 228 255
208 228 255
208 228 255
208 228 255
208 228 255
208 228 255
208 228 255
208 228 255
208 228 255
208 228 255
208 228 255
208 228 255
208 228 255
208 228 255
208 228 255
208 228 255
208 228 255
208 228 255
208 228 255
208 228 255
208 228 255
207 228 255
207 228 255
207 228 255
207 228 255
207 228 255
207 228 255
207 228 255
207 228 255
207 228 255
207 228 255
207 228 255
207 228 255
207 228 255
207 228 255
207 228 255
207 227 255
207 227 255
207 227 255
207 227 255
206 227 255
206 227 255
206 227 255
206 227 255
206 227 255
206 227 255
206 227 255
206 227 255
206 227 255
206 227 255
206 227 255
206 227 255
206 227 255
206 227 255
206 227 255
206 227 255
206 227 255
206 227 255
205 227 255
205 227 255
205 227 255
205 227 255
205 227 255
205 227 255
205 227 255
205 227 255
205 227 255
205 227 255
205 226 255
205 226 255
205 226 255
205 226 255
205 226 255
205 226 255
205 226 255
204 226 255
204 226 255
204 226 255
204 226 255
204 226 255
204 226 255
204 226 255
204 226 255
204 226 255
204 226 255
204 226 255
204 226 255
204 226 255
204 226 255
204 226 255
204 226 255
203 226 255
203 226 255
203 226 255
203 226 255
203 226 255
203 226 255
203 225 255
203 225 255
203 225 255
203 225 255
203 225 255
203 225 255
203 225 255
203 225 255
202 225 255
202 225 255
202 225 255
202 225 255
202 225 255
202 225 255
202 225 255
202 225 255
202 225 255
202 225 255
202 225 255
202 225 255
202 225 255
202 225 255
202 225 255
202 225 255
201 225 255
201 225 255
201 225 255
201 225 255
201 225 255
201 224 255
201 224 255
201 224 255
201 224 255
201 224 255
201 224 255
201 224 255
201 224 255
201 224 255
201 224 255
201 224 255
201 224 255
200 224 255
200 224 255
200 224 255
200 224 255
200 224 255
200 224 255
200 224 255
200 224 255
200 224 255
200 224 255
200 224 255
200 224 255
200 224 255
200 224 255
200 224 255
200 224 255
200 224 255
200 224 255
200 224 255
199 224 255
199 224 255
199 223 255
199 223 255
199 223 255
199 223 255
199 223 255
199 223 255
199 223 255
199 223 255
199 223 255
199 223 255
199 223 255
199 223 255
199 223 255
199 223 255
199 223 255
199 223 255
199 223 255
199 223 255
199 223 255
199 223 255
199 223 255
199 223 255
199 223 255
199 223 255
199 223 255
199 223 255
199 223 255
199 223 255
199 223 255
199 223 255
198 223 255
199 223 255
199 223 255
198 223 255
198 223 255
198 223 255
198 223 255
198 223 255
198 223 255
198 223 255
198 223 255
198 223 255
198 223 255
198 223 255
198 223 255
198 223 255
198 223 255
198 223 255
199 223 255
199 223 255
199 223 255
199 223 255
199 223 255
199 223 255
199 223 255
199 223 255
199 223 255
199 223 255
199 223 255
199 223 255
199 223 255
199 223 255
199 223 255
199 223 255
199 223 255
199 223 255
199 223 255
199 223 255
199 223 255
199 223 255
199 223 255
199 223 255
199 223 255
199 223 255
199 223 255
199 223 255
199 223 255
199 223 255
199 223 255
199 224 255
199 224 255
199 224 255
199 224 255
200 224 255
200 224 255
200 224 255
200 224 255
200 224 255
200 224 255
200 224 255
200 224 255
200 224 255
200 224 255
200 224 255
200 224 255
200 224 255
200 224 255
200 224 255
200 224 255
200 224 255
200 224 255
200 224 255
201 224 255
201 224 255
201 224 255
201 224 255
201 224 255
201 224 255
201 224 255
201 224 255
201 224 255
201 224 255
201 224 255
201 225 255
201 225 255
201 225 255
201 225 255
201 225 255
202 225 255
202 225 255
202 225 255
202 225 255
202 225 255
202 225 255
202 225 255
202 225 255
202 225 255
202 225 255
202 225 255
202 225 255
202 225 255
202 225 255
202 225 255
203 225 255
203 225 255
203 225 255
203 225 255
203 225 255
203 225 255
203 225 255
203 225 255
203 225 255
203 226 255
203 226 255
203 226 255
203 226 255
203 226 255
203 226 255
203 226 255
204 226 255
204 226 255
204 226 255
204 226 255
204 226 255
204 226 255
204 226 255
204 226 255
204 226 255
204 226 255
204 226 255
204 226 255
204 226 255
204 226 255
204 226 255
205 226 255
205 226 255
205 226 255
205 226 255
205 226 255
205 226 255
205 226 255
205 227 255
205 227 255
205 227 255
205 227 255
205 227 255
205 227 255
205 227 255
205 227 255
205 227 255
205 227 255
206 227 255
206 227 255
206 227 255
206 227 255
206 227 255
206 227 255
206 227 255
206 227 255
206 227 255
206 227 255
206 227 255
206 227 255
206 227 255
206 227 255
206 227 255
206 227 255
206 227 255
206 227 255
207 227 255
207 227 255
207 227 255
207 227 255
207 228 255
207 228 255
207 228 255
207 228 255
207 228 255
207 228 255
207 228 255
207 228 255
207 228 255
207 228 255
207 228 255
207 228 255
207 228 255
207 228 255
207 228 255
208 228 255
208 228 255
208 228 255
208 228 255
208 228 255
208 228 255
208 228 255
208 228 255
208 228 255
208 228 255
208 228 255
208 228 255
208 228 255
208 228 255
208 228 255
208 228 255
208 228 255
208 228 255
208 228 255
208 228 255
208 228 255
209 228 255
209 229 255
209 229 255
209 229 255
209 228 255
208 228 255
208 228 255
208 228 255
208 228 255
208 228 255
208 228 255
208 228 255
208 228 255
208 228 255
208 228 255
208 228 255
208 228 255
208 228 255
208 228 255
208 228 255
208 228 255
208 228 255
208 228 255
208 228 255
208 228 255
208 228 255
208 228 255
207 228 255
207 228 255
207 228 255
207 228 255
207 228 255
207 228 255
207 228 255
207 228 255
207 228 255
207 228 255
207 228 255
207 228 255
207 228 255
207 228 255
207 227 255
207 227 255
207 227 255
207 227 255
206 227 255
206 227 255
206 227 255
206 227 255
206 227 255
206 227 255
206 227 255
206 227 255
206 227 255
206 227 255
206 227 255
206 227 255
206 227 255
206 227 255
206 227 255
206 227 255
206 227 255
206 227 255
205 227 255
205 227 255
205 227 255
205 227 255
205 227 255
205 227 255
205 227 255
205 227 255
205 227 255
205 227 255
205 226 255
205 226 255
205 226 255
205 226 255
205 226 255
205 226 255
205 226 255
204 226 255
204 226 255
204 226 255
204 226 255
204 226 255
204 226 255
204 226 255
204 226 255
204 226 255
204 226 255
204 226 255
204 226 255
204 226 255
204 226 255
204 226 255
203 226 255
203 226 255
203 226 255
203 226 255
203 226 255
203 226 255
203 226 255
203 225 255
203 225 255
203 225 255
203 225 255
203 225 255
203 225 255
203 225 255
203 225 255
203 225 255
202 225 255
202 225 255
202 225 255
202 225 255
202 225 255
202 225 255
202 225 255
202 225 255
202 225 255
202 225 255
202 225 255
202 225 255
202 225 255
202 225 255
202 225 255
201 225 255
201 225 255
201 225 255
201 225 255
201 224 255
201 224 255
201 224 255
201 224 255
201 224 255
201 224 255
201 224 255
201 224 255
201 224 255
201 224 255
201 224 255
201 224 255
200 224 255
201 224 255
200 224 255
200 224 255
200 224 255
200 224 255
200 224 255
200 224 255
200 224 255
200 224 255
200 224 255
200 224 255
200 224 255
200 224 255
200 224 255
200 224 255
200 224 255
200 224 255
200 224 255
200 224 255
200 224 255
199 224 255
199 224 255
199 224 255
199 224 255
199 223 255
199 223 255
199 223 255
199 223 255
199 223 255
199 223 255
199 223 255
199 223 255
199 223 255
199 223 255
199 223 255
199 223 255
199 223 255
199 223 255
199 223 255
199 223 255
199 223 255
199 223 255
199 223 255
199 223 255
199 223 255
199 223 255
199 223 255
199 223 255
199 223 255
199 223 255
199 223 255
199 223 255
199 223 255
199 223 255
199 223 255
199 223 255
199 223 255
199 223 255
199 223 255
199 223 255
199 223 255
199 223 255
199 223 255
199 223 255
199 223 255
199 223 255
199 223 255
199 223 255
199 223 255
199 223 255
199 223 255
199 223 255
199 223 255
199 223 255
199 223 255
199 223 255
199 223 255
199 223 255
199 223 255
199 223 255
199 223 255
199 223 255
199 223 255
199 223 255
199 223 255
199 223 255
199 223 255
199 223 255
199 223 255
199 223 255
199 223 255
199 223 255
199 224 255
199 224 255
199 224 255
199 224 255
199 224 255
200 224 255
200 224 255
200 224 255
200 224 255
200 224 255
200 224 255
200 224 255
200 224 255
200 224 255
200 224 255
200 224 255
200 224 255
200 224 255
200 224 255
200 224 255
200 224 255
200 224 255
200 224 255
200 224 255
201 224 255
201 224 255
201 224 255
201 224 255
201 224 255
201 224 255
201 224 255
201 224 255
201 224 255
201 224 255
201 224 255
201 224 255
201 225 255
201 225 255
201 225 255
201 225 255
201 225 255
202 225 255
202 225 255
202 225 255
202 225 255
202 225 255
202 225 255
202 225 255
202 225 255
202 225 255
202 225 255
202 225 255
202 225 255
202 225 255
202 225 255
202 225 255
203 225 255
203 225 255
203 225 255
203 225 255
203 225 255
203 225 255
203 225 255
203 225 255
203 225 255
203 225 255
203 226 255
203 226 255
203 226 255
203 226 255
203 226 255
203 226 255
204 226 255
204 226 255
204 226 255
204 226 255
204 226 255
204 226 255
204 226 255
204 226 255
204 226 255
204 226 255
204 226 255
204 226 255
204 226 255
204 226 255
204 226 255
205 226 255
205 226 255
205 226 255
205 226 255
205 226 255
205 226 255
205 226 255
205 227 255
205 227 255
205 227 255
205 227 255
205 227 255
205 227 255
205 227 255
205 227 255
205 227 255
205 227 255
206 227 255
206 227 255
206 227 255
206 227 255
206 227 255
206 227 255
206 227 255
206 227 255
206 227 255
206 227 255
206 227 255
206 227 255
206 227 255
206 227 255
206 227 255
206 227 255
206 227 255
206 227 255
207 227 255
207 227 255
207 227 255
207 227 255
207 228 255
207 228 255
207 228 255
207 228 255
207 228 255
207 228 255
207 228 255
207 228 255
207 228 255
207 228 255
207 228 255
207 228 255
207 228 255
207 228 255
207 228 255
208 228 255
208 228 255
208 228 255
208 228 255
208 228 255
208 228 255
208 228 255
208 228 255
208 228 255
208 228 255
208 228 255
208 228 255
208 228 255
208 228 255
208 228 255
208 228 255
208 228 255
208 228 255
208 228 255
208 228 255
208 228 255
209 228 255
209 229 255
209 229 255
209 229 255
209 229 255
209 229 255
209 229 255
209 229 255
209 229 255
209 229 255
209 228 255
209 228 255
208 228 255
208 228 255
208 228 255
208 228 255
208 228 255
208 228 255
208 228 255
208 228 255
208 228 255
208 228 255
208 228 255
208 228 255
208 228 255
208 228 255
208 228 255
208 228 255
208 228 255
208 228 255
208 228 255
208 228 255
207 228 255
207 228 255
207 228 255
207 228 255
207 228 255
207 228 255
207 228 255
207 228 255
207 228 255
207 228 255
207 228 255
207 228 255
207 228 255
207 228 255
207 228 255
207 227 255
207 227 255
207 227 255
207 227 255
206 227 255
206 227 255
206 227 255
206 227 255
206 227 255
206 227 255
206 227 255
206 227 255
206 227 255
206 227 255
206 227 255
206 227 255
206 227 255
206 227 255
206 227 255
206 227 255
206 227 255
206 227 255
205 227 255
205 227 255
205 227 255
205 227 255
205 227 255
205 227 255
205 227 255
205 227 255
205 227 255
205 227 255
205 226 255
205 226 255
205 226 255
205 226 255
205 226 255
205 226 255
205 226 255
204 226 255
204 226 255
204 226 255
204 226 255
204 226 255
204 226 255
204 226 255
204 226 255
204 226 255
204 226 255
204 226 255
204 226 255
204 226 255
204 226 255
204 226 255
204 226 255
203 226 255
203 226 255
203 226 255
203 226 255
203 226 255
203 226 255
203 225 255
203 225 255
203 225 255
203 225 255
203 225 255
203 225 255
203 225 255
203 225 255
202 225 255
202 225 255
202 225 255
202 225 255
202 225 255
202 225 255
202 225 255
202 225 255
202 225 255
202 225 255
202 225 255
202 225 255
202 225 255
202 225 255
202 225 255
202 225 255
201 225 255
201 225 255
201 225 255
201 225 255
201 225 255
201 224 255
201 224 255
201 224 255
201 224 255
201 224 255
201 224 255
201 224 255
201 224 255
201 224 255
201 224 255
201 224 255
201 224 255
200 224 255
200 224 255
200 224 255
200 224 255
200 224 255
200 224 255
200 224 255
200 224 255
200 224 255
200 224 255
200 224 255
200 224 255
200 224 255
200 224 255
200 224 255
200 224 255
200 224 255
200 224 255
200 224 255
200 224 255
200 224 255
199 224 255
199 224 255
199 224 255
199 224 255
199 224 255
199 223 255
199 223 255
199 223 255
199 223 255
199 223 255
199 223 255
199 223 255
199 223 255
199 223 255
199 223 255
199 223 255
199 223 255
199 223 255
199 223 255
199 223 255
199 223 255
199 223 255
199 223 255
199 223 255
199 223 255
199 223 255
199 223 255
199 223 255
199 223 255
199 223 255
199 223 255
199 223 255
199 223 255
199 223 255
199 223 255
199 223 255
199 223 255
199 223 255
199 223 255
199 223 255
199 223 255
199 223 255
199 223 255
199 223 255
199 223 255
199 223 255
199 223 255
199 223 255
199 223 255
199 223 255
199 223 255
199 223 255
199 223 255
199 223 255
199 223 255
199 223 255
199 223 255
199 223 255
199 223 255
199 223 255
199 223 255
199 223 255
199 224 255
199 223 255
199 224 255
199 224 255
199 224 255
199 224 255
200 224 255
200 224 255
200 224 255
200 224 255
200 224 255
200 224 255
200 224 255
200 224 255
200 224 255
200 224 255
200 224 255
200 224 255
200 224 255
200 224 255
200 224 255
200 224 255
200 224 255
200 224 255
200 224 255
200 224 255
200 224 255
201 224 255
201 224 255
201 224 255
201 224 255
201 224 255
201 224 255
201 224 255
201 224 255
201 224 255
201 224 255
201 224 255
201 224 255
201 225 255
201 225 255
201 225 255
201 225 255
202 225 255
202 225 255
202 225 255
202 225 255
202 225 255
202 225 255
202 225 255
202 225 255
202 225 255
202 225 255
202 225 255
202 225 255
202 225 255
202 225 255
202 225 255
202 225 255
202 225 255
203 225 255
203 225 255
203 225 255
203 225 255
203 225 255
203 225 255
203 225 255
203 225 255
203 226 255
203 226 255
203 226 255
203 226 255
203 226 255
203 226 255
204 226 255
204 226 255
204 226 255
204 226 255
204 226 255
204 226 255
204 226 255
204 226 255
204 226 255
204 226 255
204 226 255
204 226 255
204 226 255
204 226 255
204 226 255
204 226 255
204 226 255
205 226 255
205 226 255
205 226 255
205 226 255
205 226 255
205 226 255
205 227 255
205 227 255
205 227 255
205 227 255
205 227 255
205 227 255
205 227 255
205 227 255
205 227 255
205 227 255
206 227 255
206 227 255
206 227 255
206 227 255
206 227 255
206 227 255
206 227 255
206 227 255
206 227 255
206 227 255
206 227 255
206 227 255
206 227 255
206 227 255
206 227 255
206 227 255
206 227 255
206 227 255
207 227 255
207 227 255
207 227 255
207 227 255
207 228 255
207 228 255
207 228 255
207 228 255
207 228 255
207 228 255
207 228 255
207 228 255
207 228 255
207 228 255
207 228 255
207 228 255
207 228 255
207 228 255
208 228 255
208 228 255
208 228 255
208 228 255
208 228 255
208 228 255
208 228 255
208 228 255
208 228 255
208 228 255
208 228 255
208 228 255
208 228 255
208 228 255
208 228 255
208 228 255
208 228 255
208 228 255
208 228 255
208 228 255
208 228 255
208 228 255
209 228 255
209 229 255
209 229 255
209 229 255
209 229 255
209 229 255
209 229 255
209 229 255
209 229 255
209 229 255
209 229 255
209 229 255
209 229 255
209 229 255
209 229 255
209 229 255
209 228 255
209 228 255
208 228 255
208 228 255
208 228 255
208 228 255
208 228 255
208 228 255
208 228 255
208 228 255
208 228 255
208 228 255
208 228 255
208 228 255
208 228 255
208 228 255
208 228 255
208 228 255
208 228 255
208 228 255
208 228 255
208 228 255
208 228 255
207 228 255
207 228 255
207 228 255
207 228 255
207 228 255
207 228 255
207 228 255
207 228 255
207 228 255
207 228 255
207 228 255
207 228 255
207 228 255
207 228 255
207 227 255
207 227 255
207 227 255
207 227 255
207 227 255
206 227 255
206 227 255
206 227 255
206 227 255
206 227 255
206 227 255
206 227 255
206 227 255
206 227 255
206 227 255
206 227 255
206 227 255
206 227 255
206 227 255
206 227 255
206 227 255
206 227 255
205 227 255
205 227 255
205 227 255
205 227 255
205 227 255
205 227 255
205 227 255
205 227 255
205 227 255
205 227 255
205 226 255
205 226 255
205 226 255
205 226 255
205 226 255
205 226 255
204 226 255
204 226 255
204 226 255
204 226 255
204 226 255
204 226 255
204 226 255
204 226 255
204 226 255
204 226 255
204 226 255
204 226 255
204 226 255
204 226 255
204 226 255
204 226 255
203 226 255
203 226 255
203 226 255
203 226 255
203 226 255
203 226 255
203 226 255
203 225 255
203 225 255
203 225 255
203 225 255
203 225 255
203 225 255
203 225 255
203 225 255
202 225 255
202 225 255
202 225 255
202 225 255
202 225 255
202 225 255
202 225 255
202 225 255
202 225 255
202 225 255
202 225 255
202 225 255
202 225 255
202 225 255
202 225 255
202 225 255
202 225 255
201 225 255
201 225 255
201 225 255
201 225 255
201 225 255
201 224 255
201 224 255
201 224 255
201 224 255
201 224 255
201 224 255
201 224 255
201 224 255
201 224 255
201 224 255
201 224 255
201 224 255
200 224 255
200 224 255
200 224 255
200 224 255
200 224 255
200 224 255
200 224 255
200 224 255
200 224 255
200 224 255
200 224 255
200 224 255
200 224 255
200 224 255
200 224 255
200 224 255
200 224 255
200 224 255
200 224 255
200 224 255
200 224 255
200 224 255
200 224 255
200 224 255
199 224 255
199 224 255
199 224 255
199 224 255
199 224 255
199 223 255
199 223 255
199 223 255
199 223 255
199 223 255
199 223 255
199 223 255
199 223 255
199 223 255
199 223 255
199 223 255
199 223 255
199 223 255
199 223 255
199 223 255
199 223 255
199 223 255
199 223 255
199 223 255
199 223 255
199 223 255
199 223 255
199 223 255
199 223 255
199 223 255
199 223 255
199 223 255
199 223 255
199 223 255
199 223 255
199 223 255
199 223 255
199 223 255
199 223 255
199 223 255
199 223 255
199 223 255
199 223 255
199 223 255
199 223 255
199 223 255
199 223 255
199 223 255
199 223 255
199 224 255
199 224 255
199 224 255
199 224 255
199 224 255
200 224 255
200 224 255
200 224 255
200 224 255
200 224 255
200 224 255
200 224 255
200 224 255
200 224 255
200 224 255
200 224 255
200 224 255
200 224 255
200 224 255
200 224 255
200 224 255
200 224 255
200 224 255
200 224 255
200 224 255
200 224 255
200 224 255
200 224 255
200 224 255
201 224 255
201 224 255
201 224 255
201 224 255
201 224 255
201 224 255
201 224 255
201 224 255
201 224 255
201 224 255
201 224 255
201 224 255
201 224 255
201 225 255
201 225 255
201 225 255
201 225 255
202 225 255
202 225 255
202 225 255
202 225 255
202 225 255
202 225 255
202 225 255
202 225 255
202 225 255
202 225 255
202 225 255
202 225 255
202 225 255
202 225 255
202 225 255
202 225 255
203 225 255
203 225 255
203 225 255
203 225 255
203 225 255
203 225 255
203 225 255
203 225 255
203 225 255
203 226 255
203 226 255
203 226 255
203 226 255
203 226 255
203 226 255
203 226 255
204 226 255
204 226 255
204 226 255
204 226 255
204 226 255
204 226 255
204 226 255
204 226 255
204 226 255
204 226 255
204 226 255
204 226 255
204 226 255
204 226 255
204 226 255
204 226 255
205 226 255
205 226 255
205 226 255
205 226 255
205 226 255
205 226 255
205 226 255
205 227 255
205 227 255
205 227 255
205 227 255
205 227 255
205 227 255
205 227 255
205 227 255
205 227 255
205 227 255
206 227 255
206 227 255
206 227 255
206 227 255
206 227 255
206 227 255
206 227 255
206 227 255
206 227 255
206 227 255
206 227 255
206 227 255
206 227 255
206 227 255
206 227 255
206 227 255
206 227 255
207 227 255
207 227 255
207 227 255
207 227 255
207 227 255
207 228 255
207 228 255
207 228 255
207 228 255
207 228 255
207 228 255
207 228 255
207 228 255
207 228 255
207 228 255
207 228 255
207 228 255
207 228 255
208 228 255
208 228 255
208 228 255
208 228 255
208 228 255
208 228 255
208 228 255
208 228 255
208 228 255
208 228 255
208 228 255
208 228 255
208 228 255
208 228 255
208 228 255
208 228 255
208 228 255
208 228 255
208 228 255
208 228 255
208 228 255
208 228 255
209 228 255
209 229 255
209 229 255
209 229 255
209 229 255
209 229 255
209 229 255
209 229 255
209 229 255
209 229 255
209 229 255
209 229 255
209 229 255
209 229 255
209 229 255
209 229 255
209 229 255
209 229 255
209 229 255
209 229 255
209 229 255
209 229 255
209 229 255
209 228 255
208 228 255
208 228 255
208 228 255
208 228 255
208 228 255
208 228 255
208 228 255
208 228 255
208 228 255
208 228 255
208 228 255
208 228 255
208 228 255
208 228 255
208 228 255
208 228 255
208 228 255
208 228 255
208 228 255
208 228 255
207 228 255
207 228 255
207 228 255
207 228 255
207 228 255
207 228 255
207 228 255
207 228 255
207 228 255
207 228 255
207 228 255
207 228 255
207 228 255
207 228 255
207 228 255
207 227 255
207 227 255
207 227 255
207 227 255
206 227 255
206 227 255
206 227 255
206 227 255
206 227 255
206 227 255
206 227 255
206 227 255
206 227 255
206 227 255
206 227 255
206 227 255
206 227 255
206 227 255
206 227 255
206 227 255
206 227 255
206 227 255
205 227 255
205 227 255
205 227 255
205 227 255
205 227 255
205 227 255
205 227 255
205 227 255
205 227 255
205 227 255
205 226 255
205 226 255
205 226 255
205 226 255
205 226 255
205 226 255
204 226 255
204 226 255
204 226 255
204 226 255
204 226 255
204 226 255
204 226 255
204 226 255
204 226 255
204 226 255
204 226 255
204 226 255
204 226 255
204 226 255
204 226 255
204 226 255
203 226 255
203 226 255
203 226 255
203 226 255
203 226 255
203 226 255
203 226 255
203 225 255
203 225 255
203 225 255
203 225 255
203 225 255
203 225 255
203 225 255
203 225 255
202 225 255
202 225 255
202 225 255
202 225 255
202 225 255
202 225 255
202 225 255
202 225 255
202 225 255
202 225 255
202 225 255
202 225 255
202 225 255
202 225 255
202 225 255
202 225 255
202 225 255
201 225 255
201 225 255
201 225 255
201 225 255
201 224 255
201 224 255
201 224 255
201 224 255
201 224 255
201 224 255
201 224 255
201 224 255
201 224 255
201 224 255
201 224 255
201 224 255
201 224 255
201 224 255
200 224 255
200 224 255
200 224 255
200 224 255
200 224 255
200 224 255
200 224 255
200 224 255
200 224 255
200 224 255
200 224 255
200 224 255
200 224 255
200 224 255
200 224 255
200 224 255
200 224 255
200 224 255
200 224 255
200 224 255
200 224 255
200 224 255
200 224 255
200 224 255
200 224 255
199 224 255
200 224 255
199 224 255
199 224 255
199 224 255
199 224 255
199 224 255
199 224 255
199 224 255
199 223 255
199 224 255
199 223 255
199 223 255
199 223 255
199 223 255
199 223 255
199 223 255
199 223 255
199 223 255
199 223 255
199 223 255
199 223 255
199 223 255
199 223 255
199 223 255
199 223 255
199 223 255
199 223 255
199 223 255
199 223 255
199 223 255
199 223 255
199 223 255
199 224 255
199 224 255
199 224 255
199 224 255
199 224 255
199 224 255
199 224 255
199 224 255
199 224 255
199 224 255
200 224 255
200 224 255
200 224 255
200 224 255
200 224 255
200 224 255
200 224 255
200 224 255
200 224 255
200 224 255
200 224 255
200 224 255
200 224 255
200 224 255
200 224 255
200 224 255
200 224 255
200 224 255
200 224 255
200 224 255
200 224 255
200 224 255
200 224 255
200 224 255
200 224 255
200 224 255
201 224 255
201 224 255
201 224 255
201 224 255
201 224 255
201 224 255
201 224 255
201 224 255
201 224 255
201 224 255
201 224 255
201 224 255
201 224 255
201 225 255
201 225 255
201 225 255
201 225 255
201 225 255
201 225 255
202 225 255
202 225 255
202 225 255
202 225 255
202 225 255
202 225 255
202 225 255
202 225 255
202 225 255
202 225 255
202 225 255
202 225 255
202 225 255
202 225 255
202 225 255
203 225 255
203 225 255
203 225 255
203 225 255
203 225 255
203 225 255
203 225 255
203 225 255
203 225 255
203 226 255
203 226 255
203 226 255
203 226 255
203 226 255
203 226 255
203 226 255
204 226 255
204 226 255
204 226 255
204 226 255
204 226 255
204 226 255
204 226 255
204 226 255
204 226 255
204 226 255
204 226 255
204 226 255
204 226 255
204 226 255
204 226 255
204 226 255
205 226 255
205 226 255
205 226 255
205 226 255
205 226 255
205 226 255
205 227 255
205 227 255
205 227 255
205 227 255
205 227 255
205 227 255
205 227 255
205 227 255
205 227 255
205 227 255
206 227 255
206 227 255
206 227 255
206 227 255
206 227 255
206 227 255
206 227 255
206 227 255
206 227 255
206 227 255
206 227 255
206 227 255
206 227 255
206 227 255
206 227 255
206 227 255
206 227 255
206 227 255
207 227 255
207 227 255
207 227 255
207 227 255
207 228 255
207 228 255
207 228 255
207 228 255
207 228 255
207 228 255
207 228 255
207 228 255
207 228 255
207 228 255
207 228 255
207 228 255
207 228 255
207 228 255
208 228 255
208 228 255
208 228 255
208 228 255
208 228 255
208 228 255
208 228 255
208 228 255
208 228 255
208 228 255
208 228 255
208 228 255
208 228 255
208 228 255
208 228 255
208 228 255
208 228 255
208 228 255
208 228 255
208 228 255
208 228 255
209 228 255
209 229 255
209 229 255
209 229 255
209 229 255
209 229 255
209 229 255
209 229 255
209 229 255
209 229 255
209 229 255
209 229 255
209 229 255
209 229 255
209 229 255
209 229 255
209 229 255
209 229 255
209 229 255
209 229 255
209 229 255
209 229 255
209 229 255
209 229 255
209 229 255
209 229 255
209 229 255
209 229 255
209 229 255
209 228 255
209 228 255
209 228 255
208 228 255
208 228 255
208 228 255
208 228 255
208 228 255
208 228 255
208 228 255
208 228 255
208 228 255
208 228 255
208 228 255
208 228 255
208 228 255
208 228 255
208 228 255
208 228 255
208 228 255
208 228 255
208 228 255
208 228 255
207 228 255
207 228 255
207 228 255
207 228 255
207 228 255
207 228 255
207 228 255
207 228 255
207 228 255
207 228 255
207 228 255
207 228 255
207 228 255
207 228 255
207 227 255
207 227 255
207 227 255
207 227 255
207 227 255
206 227 255
206 227 255
206 227 255
206 227 255
206 227 255
206 227 255
206 227 255
206 227 255
206 227 255
206 227 255
206 227 255
206 227 255
206 227 255
206 227 255
206 227 255
206 227 255
206 227 255
205 227 255
205 227 255
205 227 255
205 227 255
205 227 255
205 227 255
205 227 255
205 227 255
205 227 255
205 226 255
205 226 255
205 226 255
205 226 255
205 226 255
205 226 255
205 226 255
205 226 255
204 226 255
204 226 255
204 226 255
204 226 255
204 226 255
204 226 255
204 226 255
204 226 255
204 226 255
204 226 255
204 226 255
204 226 255
204 226 255
204 226 255
204 226 255
203 226 255
203 226 255
203 226 255
203 226 255
203 226 255
203 226 255
203 225 255
203 225 255
203 225 255
203 225 255
203 225 255
203 225 255
203 225 255
203 225 255
203 225 255
202 225 255
202 225 255
202 225 255
202 225 255
202 225 255
202 225 255
202 225 255
202 225 255
202 225 255
202 225 255
202 225 255
202 225 255
202 225 255
202 225 255
202 225 255
202 225 255
202 225 255
201 225 255
201 225 255
201 225 255
201 225 255
201 225 255
201 225 255
201 224 255
201 224 255
201 224 255
201 224 255
201 224 255
201 224 255
201 224 255
201 224 255
201 224 255
201 224 255
201 224 255
201 224 255
201 224 255
200 224 255
200 224 255
200 224 255
200 224 255
200 224 255
200 224 255
200 224 255
200 224 255
200 224 255
200 224 255
200 224 255
200 224 255
200 224 255
200 224 255
200 224 255
200 224 255
200 224 255
200 224 255
200 224 255
200 224 255
200 224 255
200 224 255
200 224 255
200 224 255
200 224 255
200 224 255
200 224 255
200 224 255
200 224 255
200 224 255
200 224 255
200 224 255
200 224 255
200 224 255
199 224 255
199 224 255
199 224 255
199 224 255
199 224 255
199 224 255
199 224 255
199 224 255
199 224 255
199 224 255
199 224 255
199 224 255
199 224 255
199 224 255
199 224 255
199 224 255
199 224 255
199 224 255
199 224 255
200 224 255
200 224 255
200 224 255
200 224 255
200 224 255
200 224 255
200 224 255
200 224 255
200 224 255
200 224 255
200 224 255
200 224 255
200 224 255
200 224 255
200 224 255
200 224 255
200 224 255
200 224 255
200 224 255
200 224 255
200 224 255
200 224 255
200 224 255
200 224 255
200 224 255
200 224 255
200 224 255
200 224 255
200 224 255
200 224 255
200 224 255
200 224 255
201 224 255
201 224 255
201 224 255
201 224 255
201 224 255
201 224 255
201 224 255
201 224 255
201 224 255
201 224 255
201 224 255
201 224 255
201 224 255
201 224 255
201 225 255
201 225 255
201 225 255
201 225 255
201 225 255
201 225 255
202 225 255
202 225 255
202 225 255
202 225 255
202 225 255
202 225 255
202 225 255
202 225 255
202 225 255
202 225 255
202 225 255
202 225 255
202 225 255
202 225 255
202 225 255
202 225 255
203 225 255
203 225 255
203 225 255
203 225 255
203 225 255
203 225 255
203 225 255
203 225 255
203 225 255
203 226 255
203 226 255
203 226 255
203 226 255
203 226 255
203 226 255
203 226 255
203 226 255
204 226 255
204 226 255
204 226 255
204 226 255
204 226 255
204 226 255
204 226 255
204 226 255
204 226 255
204 226 255
204 226 255
204 226 255
204 226 255
204 226 255
204 226 255
205 226 255
205 226 255
205 226 255
205 226 255
205 226 255
205 226 255
205 227 255
205 227 255
205 227 255
205 227 255
205 227 255
205 227 255
205 227 255
205 227 255
205 227 255
205 227 255
205 227 255
206 227 255
206 227 255
206 227 255
206 227 255
206 227 255
206 227 255
206 227 255
206 227 255
206 227 255
206 227 255
206 227 255
206 227 255
206 227 255
206 227 255
206 227 255
206 227 255
207 227 255
207 227 255
207 227 255
207 227 255
207 227 255
207 228 255
207 228 255
207 228 255
207 228 255
207 228 255
207 228 255
207 228 255
207 228 255
207 228 255
207 228 255
207 228 255
207 228 255
207 228 255
207 228 255
208 228 255
208 228 255
208 228 255
208 228 255
208 228 255
208 228 255
208 228 255
208 228 255
208 228 255
208 228 255
208 228 255
208 228 255
208 228 255
208 228 255
208 228 255
208 228 255
208 228 255
208 228 255
208 228 255
208 228 255
209 228 255
209 228 255
209 229 255
209 229 255
209 229 255
209 229 255
209 229 255
209 229 255
209 229 255
209 229 255
209 229 255
209 229 255
209 229 255
209 229 255
209 229 255
209 229 255
209 229 255
209 229 255
209 229 255
209 229 255
209 229 255
209 229 255
209 229 255
209 229 255
209 229 255
209 229 255
209 229 255
209 229 255
209 229 255
209 229 255
209 229 255
209 229 255
209 229 255
209 229 255
209 229 255
209 229 255
209 229 255
209 228 255
209 228 255
208 228 255
208 228 255
208 228 255
208 228 255
208 228 255
208 228 255
208 228 255
208 228 255
208 228 255
208 228 255
208 228 255
208 228 255
208 228 255
208 228 255
208 228 255
208 228 255
208 228 255
208 228 255
208 228 255
208 228 255
207 228 255
207 228 255
207 228 255
207 228 255
207 228 255
207 228 255
207 228 255
207 228 255
207 228 255
207 228 255
207 228 255
207 228 255
207 228 255
207 228 255
207 227 255
207 227 255
207 227 255
207 227 255
206 227 255
206 227 255
206 227 255
206 227 255
206 227 255
206 227 255
206 227 255
206 227 255
206 227 255
206 227 255
206 227 255
206 227 255
206 227 255
206 227 255
206 227 255
206 227 255
206 227 255
206 227 255
205 227 255
205 227 255
205 227 255
205 227 255
205 227 255
205 227 255
205 227 255
205 227 255
205 227 255
205 226 255
205 226 255
205 226 255
205 226 255
205 226 255
205 226 255
205 226 255
204 226 255
204 226 255
204 226 255
204 226 255
204 226 255
204 226 255
204 226 255
204 226 255
204 226 255
204 226 255
204 226 255
204 226 255
204 226 255
204 226 255
204 226 255
203 226 255
203 226 255
203 226 255
203 226 255
203 226 255
203 226 255
203 226 255
203 225 255
203 225 255
203 225 255
203 225 255
203 225 255
203 225 255
203 225 255
203 225 255
203 225 255
203 225 255
202 225 255
202 225 255
202 225 255
202 225 255
202 225 255
202 225 255
202 225 255
202 225 255
202 225 255
202 225 255
202 225 255
202 225 255
202 225 255
202 225 255
202 225 255
202 225 255
201 225 255
201 225 255
201 225 255
201 225 255
201 225 255
201 225 255
201 224 255
201 224 255
201 224 255
201 224 255
201 224 255
201 224 255
201 224 255
201 224 255
201 224 255
201 224 255
201 224 255
201 224 255
201 224 255
201 224 255
200 224 255
200 224 255
200 224 255
200 224 255
200 224 255
200 224 255
200 224 255
200 224 255
200 224 255
200 224 255
200 224 255
200 224 255
200 224 255
200 224 255
200 224 255
200 224 255
200 224 255
200 224 255
200 224 255
200 224 255
200 224 255
200 224 255
200 224 255
200 224 255
200 224 255
200 224 255
200 224 255
200 224 255
200 224 255
200 224 255
200 224 255
200 224 255
200 224 255
200 224 255
200 224 255
200 224 255
200 224 255
200 224 255
200 224 255
200 224 255
200 224 255
200 224 255
200 224 255
200 224 255
200 224 255
200 224 255
200 224 255
200 224 255
200 224 255
200 224 255
200 224 255
200 224 255
200 224 255
200 224 255
200 224 255
200 224 255
200 224 255
200 224 255
200 224 255
200 224 255
200 224 255
200 224 255
200 224 255
200 224 255
200 224 255
200 224 255
200 224 255
200 224 255
200 224 255
200 224 255
200 224 255
200 224 255
200 224 255
200 224 255
200 224 255
200 224 255
201 224 255
201 224 255
201 224 255
201 224 255
201 224 255
201 224 255
201 224 255
201 224 255
201 224 255
201 224 255
201 224 255
201 224 255
201 224 255
201 224 255
201 224 255
201 224 255
201 225 255
201 225 255
201 225 255
201 225 255
201 225 255
202 225 255
202 225 255
202 225 255
202 225 255
202 225 255
202 225 255
202 225 255
202 225 255
202 225 255
202 225 255
202 225 255
202 225 255
202 225 255
202 225 255
202 225 255
202 225 255
202 225 255
203 225 255
203 225 255
203 225 255
203 225 255
203 225 255
203 225 255
203 225 255
203 225 255
203 225 255
203 226 255
203 226 255
203 226 255
203 226 255
203 226 255
203 226 255
203 226 255
204 226 255
204 226 255
204 226 255
204 226 255
204 226 255
204 226 255
204 226 255
204 226 255
204 226 255
204 226 255
204 226 255
204 226 255
204 226 255
204 226 255
204 226 255
204 226 255
205 226 255
205 226 255
205 226 255
205 226 255
205 226 255
205 226 255
205 226 255
205 227 255
205 227 255
205 227 255
205 227 255
205 227 255
205 227 255
205 227 255
205 227 255
205 227 255
205 227 255
206 227 255
206 227 255
206 227 255
206 227 255
206 227 255
206 227 255
206 227 255
206 227 255
206 227 255
206 227 255
206 227 255
206 227 255
206 227 255
206 227 255
206 227 255
206 227 255
206 227 255
207 227 255
207 227 255
207 227 255
207 228 255
207 228 255
207 228 255
207 228 255
207 228 255
207 228 255
207 228 255
207 228 255
207 228 255
207 228 255
207 228 255
207 228 255
207 228 255
207 228 255
207 228 255
208 228 255
208 228 255
208 228 255
208 228 255
208 228 255
208 228 255
208 228 255
208 228 255
208 228 255
208 228 255
208 228 255
208 228 255
208 228 255
208 228 255
208 228 255
208 228 255
208 228 255
208 228 255
208 228 255
208 228 255
208 228 255
209 228 255
209 229 255
209 229 255
209 229 255
209 229 255
209 229 255
209 229 255
209 229 255
209 229 255
209 229 255
209 229 255
209 229 255
209 229 255
209 229 255
209 229 255
209 229 255
209 229 255
209 229 255
209 229 255
209 229 255
210 229 255
209 229 255
209 229 255
209 229 255
209 229 255
209 229 255
209 229 255
209 229 255
209 229 255
209 229 255
209 229 255
209 229 255
209 229 255
209 229 255
209 229 255
209 229 255
209 229 255
209 229 255
209 229 255
209 229 255
209 229 255
209 229 255
209 229 255
209 228 255
208 228 255
208 228 255
208 228 255
208 228 255
208 228 255
208 228 255
208 228 255
208 228 255
208 228 255
208 228 255
208 228 255
208 228 255
208 228 255
208 228 255
208 228 255
208 228 255
208 228 255
208 228 255
208 228 255
208 228 255
207 228 255
207 228 255
207 228 255
207 228 255
207 228 255
207 228 255
207 228 255
207 228 255
207 228 255
207 228 255
207 228 255
207 228 255
207 228 255
207 228 255
207 227 255
207 227 255
207 227 255
207 227 255
207 227 255
206 227 255
206 227 255
206 227 255
206 227 255
206 227 255
206 227 255
206 227 255
206 227 255
206 227 255
206 227 255
206 227 255
206 227 255
206 227 255
206 227 255
206 227 255
206 227 255
206 227 255
205 227 255
205 227 255
205 227 255
205 227 255
205 227 255
205 227 255
205 227 255
205 227 255
205 227 255
205 226 255
205 226 255
205 226 255
205 226 255
205 226 255
205 226 255
205 226 255
204 226 255
204 226 255
204 226 255
204 226 255
204 226 255
204 226 255
204 226 255
204 226 255
204 226 255
204 226 255
204 226 255
204 226 255
204 226 255
204 226 255
204 226 255
203 226 255
203 226 255
203 226 255
203 226 255
203 226 255
203 226 255
203 226 255
203 226 255
203 225 255
203 225 255
203 225 255
203 225 255
203 225 255
203 225 255
203 225 255
203 225 255
203 225 255
202 225 255
202 225 255
202 225 255
202 225 255
202 225 255
202 225 255
202 225 255
202 225 255
202 225 255
202 225 255
202 225 255
202 225 255
202 225 255
202 225 255
202 225 255
202 225 255
202 225 255
201 225 255
201 225 255
201 225 255
201 225 255
201 225 255
201 225 255
201 224 255
201 224 255
201 224 255
201 224 255
201 224 255
201 224 255
201 224 255
201 224 255
201 224 255
201 224 255
201 224 255
201 224 255
201 224 255
201 224 255
201 224 255
201 224 255
200 224 255
200 224 255
200 224 255
200 224 255
200 224 255
200 224 255
200 224 255
200 224 255
200 224 255
200 224 255
200 224 255
200 224 255
200 224 255
200 224 255
200 224 255
200 224 255
200 224 255
200 224 255
200 224 255
200 224 255
200 224 255
200 224 255
200 224 255
200 224 255
200 224 255
200 224 255
200 224 255
200 224 255
200 224 255
200 224 255
200 224 255
200 224 255
200 224 255
200 224 255
200 224 255
200 224 255
200 224 255
200 224 255
200 224 255
200 224 255
200 224 255
200 224 255
200 224 255
200 224 255
200 224 255
200 224 255
200 224 255
200 224 255
200 224 255
200 224 255
200 224 255
200 224 255
200 224 255
200 224 255
200 224 255
200 224 255
200 224 255
200 224 255
200 224 255
200 224 255
200 224 255
200 224 255
200 224 255
200 224 255
200 224 255
201 224 255
201 224 255
201 224 255
201 224 255
201 224 255
201 224 255
201 224 255
201 224 255
201 224 255
201 224 255
201 224 255
201 224 255
201 224 255
201 224 255
201 224 255
201 224 255
201 224 255
201 225 255
201 225 255
201 225 255
201 225 255
201 225 255
201 225 255
202 225 255
202 225 255
202 225 255
202 225 255
202 225 255
202 225 255
202 225 255
202 225 255
202 225 255
202 225 255
202 225 255
202 225 255
202 225 255
202 225 255
202 225 255
202 225 255
202 225 255
203 225 255
203 225 255
203 225 255
203 225 255
203 225 255
203 225 255
203 225 255
203 225 255
203 225 255
203 226 255
203 226 255
203 226 255
203 226 255
203 226 255
203 226 255
203 226 255
204 226 255
204 226 255
204 226 255
204 226 255
204 226 255
204 226 255
204 226 255
204 226 255
204 226 255
204 226 255
204 226 255
204 226 255
204 226 255
204 226 255
204 226 255
204 226 255
205 226 255
205 226 255
205 226 255
205 226 255
205 226 255
205 226 255
205 226 255
205 227 255
205 227 255
205 227 255
205 227 255
205 227 255
205 227 255
205 227 255
205 227 255
205 227 255
205 227 255
206 227 255
206 227 255
206 227 255
206 227 255
206 227 255
206 227 255
206 227 255
206 227 255
206 227 255
206 227 255
206 227 255
206 227 255
206 227 255
206 227 255
206 227 255
206 227 255
207 227 255
207 227 255
207 227 255
207 227 255
207 228 255
207 228 255
207 228 255
207 228 255
207 228 255
207 228 255
207 228 255
207 228 255
207 228 255
207 228 255
207 228 255
207 228 255
207 228 255
207 228 255
207 228 255
208 228 255
208 228 255
208 228 255
208 228 255
208 228 255
208 228 255
208 228 255
208 228 255
208 228 255
208 228 255
208 228 255
208 228 255
208 228 255
208 228 255
208 228 255
208 228 255
208 228 255
208 228 255
208 228 255
208 228 255
209 228 255
209 228 255
209 229 255
209 229 255
209 229 255
209 229 255
209 229 255
209 229 255
209 229 255
209 229 255
209 229 255
209 229 255
209 229 255
209 229 255
209 229 255
209 229 255
209 229 255
209 229 255
209 229 255
209 229 255
209 229 255
209 229 255
209 229 255
210 229 255
210 229 255
210 229 255
210 229 255
210 229 255
210 229 255
209 229 255
209 229 255
209 229 255
209 229 255
209 229 255
209 229 255
209 229 255
209 229 255
209 229 255
209 229 255
209 229 255
209 229 255
209 229 255
209 229 255
209 229 255
209 229 255
209 229 255
209 229 255
209 229 255
209 229 255
209 229 255
209 228 255
208 228 255
208 228 255
208 228 255
208 228 255
208 228 255
208 228 255
208 228 255
208 228 255
208 228 255
208 228 255
208 228 255
208 228 255
208 228 255
208 228 255
208 228 255
208 228 255
208 228 255
208 228 255
208 228 255
208 228 255
208 228 255
207 228 255
207 228 255
207 228 255
207 228 255
207 228 255
207 228 255
207 228 255
207 228 255
207 228 255
207 228 255
207 228 255
207 228 255
207 228 255
207 228 255
207 227 255
207 227 255
207 227 255
207 227 255
206 227 255
206 227 255
206 227 255
206 227 255
206 227 255
206 227 255
206 227 255
206 227 255
206 227 255
206 227 255
206 227 255
206 227 255
206 227 255
206 227 255
206 227 255
206 227 255
206 227 255
205 227 255
205 227 255
205 227 255
205 227 255
205 227 255
205 227 255
205 227 255
205 227 255
205 227 255
205 227 255
205 226 255
205 226 255
205 226 255
205 226 255
205 226 255
205 226 255
204 226 255
204 226 255
204 226 255
204 226 255
204 226 255
204 226 255
204 226 255
204 226 255
204 226 255
204 226 255
204 226 255
204 226 255
204 226 255
204 226 255
204 226 255
204 226 255
203 226 255
203 226 255
203 226 255
203 226 255
203 226 255
203 226 255
203 226 255
203 225 255
203 225 255
203 225 255
203 225 255
203 225 255
203 225 255
203 225 255
203 225 255
203 225 255
203 225 255
202 225 255
202 225 255
202 225 255
202 225 255
202 225 255
202 225 255
202 225 255
202 225 255
202 225 255
202 225 255
202 225 255
202 225 255
202 225 255
202 225 255
202 225 255
202 225 255
202 225 255
202 225 255
201 225 255
201 225 255
201 225 255
201 225 255
201 225 255
201 225 255
201 224 255
201 224 255
201 224 255
201 224 255
201 224 255
201 224 255
201 224 255
201 224 255
201 224 255
201 224 255
201 224 255
201 224 255
201 224 255
201 224 255
201 224 255
201 224 255
201 224 255
200 224 255
200 224 255
200 224 255
200 224 255
200 224 255
200 224 255
200 224 255
200 224 255
200 224 255
200 224 255
200 224 255
200 224 255
200 224 255
200 224 255
200 224 255
200 224 255
200 224 255
200 224 255
200 224 255
200 224 255
200 224 255
200 224 255
200 224 255
200 224 255
200 224 255
200 224 255
200 224 255
200 224 255
200 224 255
200 224 255
200 224 255
200 224 255
200 224 255
200 224 255
200 224 255
200 224 255
200 224 255
200 224 255
200 224 255
200 224 255
200 224 255
200 224 255
200 224 255
200 224 255
200 224 255
200 224 255
200 224 255
200 224 255
200 224 255
200 224 255
200 224 255
200 224 255
201 224 255
200 224 255
201 224 255
201 224 255
201 224 255
201 224 255
201 224 255
201 224 255
201 224 255
201 224 255
201 224 255
201 224 255
201 224 255
201 224 255
201 224 255
201 224 255
201 224 255
201 224 255
201 224 255
201 224 255
201 225 255
201 225 255
201 225 255
201 225 255
201 225 255
202 225 255
202 225 255
202 225 255
202 225 255
202 225 255
202 225 255
202 225 255
202 225 255
202 225 255
202 225 255
202 225 255
202 225 255
202 225 255
202 225 255
202 225 255
202 225 255
202 225 255
202 225 255
203 225 255
203 225 255
203 225 255
203 225 255
203 225 255
203 225 255
203 225 255
203 225 255
203 225 255
203 225 255
203 226 255
203 226 255
203 226 255
203 226 255
203 226 255
203 226 255
204 226 255
204 226 255
204 226 255
204 226 255
204 226 255
204 226 255
204 226 255
204 226 255
204 226 255
204 226 255
204 226 255
204 226 255
204 226 255
204 226 255
204 226 255
204 226 255
204 226 255
205 226 255
205 226 255
205 226 255
205 226 255
205 226 255
205 226 255
205 226 255
205 227 255
205 227 255
205 227 255
205 227 255
205 227 255
205 227 255
205 227 255
205 227 255
205 227 255
206 227 255
206 227 255
206 227 255
206 227 255
206 227 255
206 227 255
206 227 255
206 227 255
206 227 255
206 227 255
206 227 255
206 227 255
206 227 255
206 227 255
206 227 255
206 227 255
206 227 255
207 227 255
207 227 255
207 227 255
207 227 255
207 227 255
207 228 255
207 228 255
207 228 255
207 228 255
207 228 255
207 228 255
207 228 255
207 228 255
207 228 255
207 228 255
207 228 255
207 228 255
207 228 255
207 228 255
208 228 255
208 228 255
208 228 255
208 228 255
208 228 255
208 228 255
208 228 255
208 228 255
208 228 255
208 228 255
208 228 255
208 228 255
208 228 255
208 228 255
208 228 255
208 228 255
208 228 255
208 228 255
208 228 255
209 228 255
209 228 255
209 229 255
209 229 255
209 229 255
209 229 255
209 229 255
209 229 255
209 229 255
209 229 255
209 229 255
209 229 255
209 229 255
209 229 255
209 229 255
209 229 255
209 229 255
209 229 255
209 229 255
209 229 255
209 229 255
209 229 255
209 229 255
210 229 255
210 229 255
210 229 255
210 229 255
210 229 255
210 229 255
210 229 255
210 229 255
210 229 255
210 229 255
210 229 255
210 229 255
210 229 255
209 229 255
209 229 255
209 229 255
209 229 255
209 229 255
209 229 255
209 229 255
209 229 255
209 229 255
209 229 255
209 229 255
209 229 255
209 229 255
209 229 255
209 229 255
209 229 255
209 229 255
209 229 255
209 229 255
209 229 255
209 229 255
209 228 255
209 228 255
209 228 255
208 228 255
208 228 255
208 228 255
208 228 255
208 228 255
208 228 255
208 228 255
208 228 255
208 228 255
208 228 255
208 228 255
208 228 255
208 228 255
208 228 255
208 228 255
208 228 255
208 228 255
208 228 255
208 228 255
207 228 255
207 228 255
207 228 255
207 228 255
207 228 255
207 228 255
207 228 255
207 228 255
207 228 255
207 228 255
207 228 255
207 228 255
207 228 255
207 228 255
207 227 255
207 227 255
207 227 255
207 227 255
206 227 255
206 227 255
206 227 255
206 227 255
206 227 255
206 227 255
206 227 255
206 227 255
206 227 255
206 227 255
206 227 255
206 227 255
206 227 255
206 227 255
206 227 255
206 227 255
206 227 255
205 227 255
205 227 255
205 227 255
205 227 255
205 227 255
205 227 255
205 227 255
205 227 255
205 227 255
205 227 255
205 226 255
205 226 255
205 226 255
205 226 255
205 226 255
205 226 255
204 226 255
204 226 255
204 226 255
204 226 255
204 226 255
204 226 255
204 226 255
204 226 255
204 226 255
204 226 255
204 226 255
204 226 255
204 226 255
204 226 255
204 226 255
204 226 255
204 226 255
203 226 255
203 226 255
203 226 255
203 226 255
203 226 255
203 226 255
203 225 255
203 225 255
203 225 255
203 225 255
203 225 255
203 225 255
203 225 255
203 225 255
203 225 255
203 225 255
202 225 255
202 225 255
202 225 255
202 225 255
202 225 255
202 225 255
202 225 255
202 225 255
202 225 255
202 225 255
202 225 255
202 225 255
202 225 255
202 225 255
202 225 255
202 225 255
202 225 255
202 225 255
202 225 255
201 225 255
201 225 255
201 225 255
201 225 255
201 225 255
201 225 255
201 224 255
201 224 255
201 224 255
201 224 255
201 224 255
201 224 255
201 224 255
201 224 255
201 224 255
201 224 255
201 224 255
201 224 255
201 224 255
201 224 255
201 224 255
201 224 255
201 224 255
201 224 255
201 224 255
201 224 255
201 224 255
201 224 255
200 224 255
200 224 255
200 224 255
200 224 255
200 224 255
200 224 255
200 224 255
200 224 255
200 224 255
200 224 255
200 224 255
200 224 255
200 224 255
200 224 255
200 224 255
200 224 255
200 224 255
200 224 255
200 224 255
200 224 255
200 224 255
200 224 255
200 224 255
200 224 255
200 224 255
200 224 255
200 224 255
200 224 255
200 224 255
200 224 255
200 224 255
200 224 255
200 224 255
200 224 255
200 224 255
201 224 255
201 224 255
201 224 255
201 224 255
201 224 255
201 224 255
201 224 255
201 224 255
201 224 255
201 224 255
201 224 255
201 224 255
201 224 255
201 224 255
201 224 255
201 224 255
201 224 255
201 224 255
201 224 255
201 224 255
201 224 255
201 224 255
201 224 255
201 225 255
201 225 255
201 225 255
201 225 255
201 225 255
201 225 255
201 225 255
202 225 255
202 225 255
202 225 255
202 225 255
202 225 255
202 225 255
202 225 255
202 225 255
202 225 255
202 225 255
202 225 255
202 225 255
202 225 255
202 225 255
202 225 255
202 225 255
202 225 255
202 225 255
203 225 255
203 225 255
203 225 255
203 225 255
203 225 255
203 225 255
203 225 255
203 225 255
203 225 255
203 225 255
203 226 255
203 226 255
203 226 255
203 226 255
203 226 255
203 226 255
204 226 255
204 226 255
204 226 255
204 226 255
204 226 255
204 226 255
204 226 255
204 226 255
204 226 255
204 226 255
204 226 255
204 226 255
204 226 255
204 226 255
204 226 255
204 226 255
204 226 255
205 226 255
205 226 255
205 226 255
205 226 255
205 226 255
205 226 255
205 226 255
205 227 255
205 227 255
205 227 255
205 227 255
205 227 255
205 227 255
205 227 255
205 227 255
205 227 255
206 227 255
206 227 255
206 227 255
206 227 255
206 227 255
206 227 255
206 227 255
206 227 255
206 227 255
206 227 255
206 227 255
206 227 255
206 227 255
206 227 255
206 227 255
206 227 255
206 227 255
207 227 255
207 227 255
207 227 255
207 227 255
207 228 255
207 228 255
207 228 255
207 228 255
207 228 255
207 228 255
207 228 255
207 228 255
207 228 255
207 228 255
207 228 255
207 228 255
207 228 255
207 228 255
208 228 255
208 228 255
208 228 255
208 228 255
208 228 255
208 228 255
208 228 255
208 228 255
208 228 255
208 228 255
208 228 255
208 228 255
208 228 255
208 228 255
208 228 255
208 228 255
208 228 255
208 228 255
208 228 255
208 228 255
209 228 255
209 229 255
209 229 255
209 229 255
209 229 255
209 229 255
209 229 255
209 229 255
209 229 255
209 229 255
209 229 255
209 229 255
209 229 255
209 229 255
209 229 255
209 229 255
209 229 255
209 229 255
209 229 255
209 229 255
209 229 255
209 229 255
210 229 255
210 229 255
210 229 255
210 229 255
210 229 255
210 229 255
210 229 255
210 229 255
210 229 255
210 229 255
210 229 255
210 229 255
210 229 255
210 229 255
210 229 255
210 229 255
210 229 255
210 229 255
210 229 255
210 229 255
210 229 255
209 229 255
209 229 255
209 229 255
209 229 255
209 229 255
209 229 255
209 229 255
209 229 255
209 229 255
209 229 255
209 229 255
209 229 255
209 229 255
209 229 255
209 229 255
209 229 255
209 229 255
209 229 255
209 229 255
209 229 255
209 229 255
209 228 255
208 228 255
208 228 255
208 228 255
208 228 255
208 228 255
208 228 255
208 228 255
208 228 255
208 228 255
208 228 255
208 228 255
208 228 255
208 228 255
208 228 255
208 228 255
208 228 255
208 228 255
208 228 255
208 228 255
208 228 255
207 228 255
207 228 255
207 228 255
207 228 255
207 228 255
207 228 255
207 228 255
207 228 255
207 228 255
207 228 255
207 228 255
207 228 255
207 228 255
207 228 255
207 227 255
207 227 255
207 227 255
207 227 255
206 227 255
206 227 255
206 227 255
206 227 255
206 227 255
206 227 255
206 227 255
206 227 255
206 227 255
206 227 255
206 227 255
206 227 255
206 227 255
206 227 255
206 227 255
206 227 255
206 227 255
205 227 255
205 227 255
205 227 255
205 227 255
205 227 255
205 227 255
205 227 255
205 227 255
205 227 255
205 227 255
205 226 255
205 226 255
205 226 255
205 226 255
205 226 255
205 226 255
204 226 255
204 226 255
204 226 255
204 226 255
204 226 255
204 226 255
204 226 255
204 226 255
204 226 255
204 226 255
204 226 255
204 226 255
204 226 255
204 226 255
204 226 255
204 226 255
203 226 255
203 226 255
203 226 255
203 226 255
203 226 255
203 226 255
203 226 255
203 226 255
203 225 255
203 225 255
203 225 255
203 225 255
203 225 255
203 225 255
203 225 255
203 225 255
203 225 255
203 225 255
202 225 255
202 225 255
202 225 255
202 225 255
202 225 255
202 225 255
202 225 255
202 225 255
202 225 255
202 225 255
202 225 255
202 225 255
202 225 255
202 225 255
202 225 255
202 225 255
202 225 255
202 225 255
202 225 255
202 225 255
201 225 255
201 225 255
201 225 255
201 225 255
201 225 255
201 225 255
201 225 255
201 224 255
201 224 255
201 224 255
201 224 255
201 224 255
201 224 255
201 224 255
201 224 255
201 224 255
201 224 255
201 224 255
201 224 255
201 224 255
201 224 255
201 224 255
201 224 255
201 224 255
201 224 255
201 224 255
201 224 255
201 224 255
201 224 255
201 224 255
201 224 255
201 224 255
201 224 255
201 224 255
201 224 255
201 224 255
200 224 255
201 224 255
201 224 255
201 224 255
201 224 255
201 224 255
200 224 255
200 224 255
201 224 255
201 224 255
201 224 255
201 224 255
201 224 255
201 224 255
201 224 255
201 224 255
201 224 255
201 224 255
201 224 255
201 224 255
201 224 255
201 224 255
201 224 255
201 224 255
201 224 255
201 224 255
201 224 255
201 224 255
201 224 255
201 224 255
201 224 255
201 224 255
201 224 255
201 224 255
201 224 255
201 224 255
201 224 255
201 224 255
201 224 255
201 225 255
201 225 255
201 225 255
201 225 255
201 225 255
201 225 255
201 225 255
202 225 255
202 225 255
202 225 255
202 225 255
202 225 255
202 225 255
202 225 255
202 225 255
202 225 255
202 225 255
202 225 255
202 225 255
202 225 255
202 225 255
202 225 255
202 225 255
202 225 255
202 225 255
202 225 255
202 225 255
203 225 255
203 225 255
203 225 255
203 225 255
203 225 255
203 225 255
203 225 255
203 225 255
203 225 255
203 226 255
203 226 255
203 226 255
203 226 255
203 226 255
203 226 255
203 226 255
203 226 255
204 226 255
204 226 255
204 226 255
204 226 255
204 226 255
204 226 255
204 226 255
204 226 255
204 226 255
204 226 255
204 226 255
204 226 255
204 226 255
204 226 255
204 226 255
204 226 255
204 226 255
205 226 255
205 226 255
205 226 255
205 226 255
205 226 255
205 226 255
205 227 255
205 227 255
205 227 255
205 227 255
205 227 255
205 227 255
205 227 255
205 227 255
205 227 255
205 227 255
206 227 255
206 227 255
206 227 255
206 227 255
206 227 255
206 227 255
206 227 255
206 227 255
206 227 255
206 227 255
206 227 255
206 227 255
206 227 255
206 227 255
206 227 255
206 227 255
206 227 255
207 227 255
207 227 255
207 227 255
207 227 255
207 227 255
207 228 255
207 228 255
207 228 255
207 228 255
207 228 255
207 228 255
207 228 255
207 228 255
207 228 255
207 228 255
207 228 255
207 228 255
207 228 255
208 228 255
208 228 255
208 228 255
208 228 255
208 228 255
208 228 255
208 228 255
208 228 255
208 228 255
208 228 255
208 228 255
208 228 255
208 228 255
208 228 255
208 228 255
208 228 255
208 228 255
208 228 255
208 228 255
208 228 255
209 228 255
209 228 255
209 229 255
209 229 255
209 229 255
209 229 255
209 229 255
209 229 255
209 229 255
209 229 255
209 229 255
209 229 255
209 229 255
209 229 255
209 229 255
209 229 255
209 229 255
209 229 255
209 229 255
209 229 255
209 229 255
209 229 255
210 229 255
210 229 255
210 229 255
210 229 255
210 229 255
210 229 255
210 229 255
210 229 255
210 229 255
210 229 255
210 229 255
210 229 255
210 229 255
210 229 255
210 229 255
210 229 255
210 229 255
210 229 255
210 229 255
210 229 255
210 229 255
210 229 255
210 229 255
210 229 255
210 229 255
210 229 255
210 229 255
210 229 255
209 229 255
209 229 255
209 229 255
209 229 255
209 229 255
209 229 255
209 229 255
209 229 255
209 229 255
209 229 255
209 229 255
209 229 255
209 229 255
209 229 255
209 229 255
209 229 255
209 229 255
209 229 255
209 229 255
209 229 255
209 228 255
209 228 255
208 228 255
208 228 255
208 228 255
208 228 255
208 228 255
208 228 255
208 228 255
208 228 255
208 228 255
208 228 255
208 228 255
208 228 255
208 228 255
208 228 255
208 228 255
208 228 255
208 228 255
208 228 255
208 228 255
207 228 255
207 228 255
207 228 255
207 228 255
207 228 255
207 228 255
207 228 255
207 228 255
207 228 255
207 228 255
207 228 255
207 228 255
207 228 255
207 228 255
207 227 255
207 227 255
207 227 255
207 227 255
207 227 255
206 227 255
206 227 255
206 227 255
206 227 255
206 227 255
206 227 255
206 227 255
206 227 255
206 227 255
206 227 255
206 227 255
206 227 255
206 227 255
206 227 255
206 227 255
206 227 255
205 227 255
205 227 255
205 227 255
205 227 255
205 227 255
205 227 255
205 227 255
205 227 255
205 227 255
205 227 255
205 226 255
205 226 255
205 226 255
205 226 255
205 226 255
205 226 255
205 226 255
204 226 255
204 226 255
204 226 255
204 226 255
204 226 255
204 226 255
204 226 255
204 226 255
204 226 255
204 226 255
204 226 255
204 226 255
204 226 255
204 226 255
204 226 255
204 226 255
203 226 255
203 226 255
203 226 255
203 226 255
203 226 255
203 226 255
203 226 255
203 226 255
203 225 255
203 225 255
203 225 255
203 225 255
203 225 255
203 225 255
203 225 255
203 225 255
203 225 255
202 225 255
202 225 255
202 225 255
202 225 255
202 225 255
202 225 255
202 225 255
202 225 255
202 225 255
202 225 255
202 225 255
202 225 255
202 225 255
202 225 255
202 225 255
202 225 255
202 225 255
202 225 255
202 225 255
202 225 255
202 225 255
202 225 255
201 225 255
201 225 255
201 225 255
201 225 255
201 225 255
201 225 255
201 225 255
201 225 255
201 224 255
201 224 255
201 224 255
201 224 255
201 224 255
201 224 255
201 224 255
201 224 255
201 224 255
201 224 255
201 224 255
201 224 255
201 224 255
201 224 255
201 224 255
201 224 255
201 224 255
201 224 255
201 224 255
201 224 255
201 224 255
201 224 255
201 224 255
201 224 255
201 224 255
201 224 255
201 224 255
201 224 255
201 224 255
201 224 255
201 224 255
201 224 255
201 224 255
201 224 255
201 224 255
201 224 255
201 224 255
201 224 255
201 224 255
201 224 255
201 224 255
201 224 255
201 224 255
201 224 255
201 224 255
201 224 255
201 224 255
201 224 255
201 224 255
201 224 255
201 224 255
201 224 255
201 224 255
201 224 255
201 224 255
201 224 255
201 225 255
201 225 255
201 225 255
201 225 255
201 225 255
201 225 255
201 225 255
201 225 255
201 225 255
202 225 255
202 225 255
202 225 255
202 225 255
202 225 255
202 225 255
202 225 255
202 225 255
202 225 255
202 225 255
202 225 255
202 225 255
202 225 255
202 225 255
202 225 255
202 225 255
202 225 255
202 225 255
202 225 255
202 225 255
203 225 255
203 225 255
203 225 255
203 225 255
203 225 255
203 225 255
203 225 255
203 225 255
203 225 255
203 225 255
203 225 255
203 226 255
203 226 255
203 226 255
203 226 255
203 226 255
203 226 255
203 226 255
204 226 255
204 226 255
204 226 255
204 226 255
204 226 255
204 226 255
204 226 255
204 226 255
204 226 255
204 226 255
204 226 255
204 226 255
204 226 255
204 226 255
204 226 255
204 226 255
205 226 255
205 226 255
205 226 255
205 226 255
205 226 255
205 226 255
205 226 255
205 227 255
205 227 255
205 227 255
205 227 255
205 227 255
205 227 255
205 227 255
205 227 255
205 227 255
205 227 255
206 227 255
206 227 255
206 227 255
206 227 255
206 227 255
206 227 255
206 227 255
206 227 255
206 227 255
206 227 255
206 227 255
206 227 255
206 227 255
206 227 255
206 227 255
206 227 255
206 227 255
207 227 255
207 227 255
207 227 255
207 227 255
207 228 255
207 228 255
207 228 255
207 228 255
207 228 255
207 228 255
207 228 255
207 228 255
207 228 255
207 228 255
207 228 255
207 228 255
207 228 255
207 228 255
208 228 255
208 228 255
208 228 255
208 228 255
208 228 255
208 228 255
208 228 255
208 228 255
208 228 255
208 228 255
208 228 255
208 228 255
208 228 255
208 228 255
208 228 255
208 228 255
208 228 255
208 228 255
208 228 255
209 228 255
209 228 255
209 229 255
209 229 255
209 229 255
209 229 255
209 229 255
209 229 255
209 229 255
209 229 255
209 229 255
209 229 255
209 229 255
209 229 255
209 229 255
209 229 255
209 229 255
209 229 255
209 229 255
209 229 255
209 229 255
209 229 255
209 229 255
210 229 255
210 229 255
210 229 255
210 229 255
210 229 255
210 229 255
210 229 255
210 229 255
210 229 255
210 229 255
210 229 255
210 229 255
210 229 255
210 229 255
210 229 255
210 229 255
210 229 255
210 229 255
210 229 255
210 229 255
210 229 255
210 229 255
210 229 255
210 229 255
210 229 255
210 229 255
210 229 255
210 229 255
210 229 255
210 229 255
210 229 255
210 229 255
210 229 255
210 229 255
210 229 255
209 229 255
209 229 255
209 229 255
209 229 255
209 229 255
209 229 255
209 229 255
209 229 255
209 229 255
209 229 255
209 229 255
209 229 255
209 229 255
209 229 255
209 229 255
209 229 255
209 229 255
209 229 255
209 229 255
209 228 255
209 228 255
208 228 255
208 228 255
208 228 255
208 228 255
208 228 255
208 228 255
208 228 255
208 228 255
208 228 255
208 228 255
208 228 255
208 228 255
208 228 255
208 228 255
208 228 255
208 228 255
208 228 255
208 228 255
208 228 255
208 228 255
207 228 255
207 228 255
207 228 255
207 228 255
207 228 255
207 228 255
207 228 255
207 228 255
207 228 255
207 228 255
207 228 255
207 228 255
207 228 255
207 227 255
207 227 255
207 227 255
207 227 255
206 227 255
206 227 255
206 227 255
206 227 255
206 227 255
206 227 255
206 227 255
206 227 255
206 227 255
206 227 255
206 227 255
206 227 255
206 227 255
206 227 255
206 227 255
206 227 255
206 227 255
205 227 255
205 227 255
205 227 255
205 227 255
205 227 255
205 227 255
205 227 255
205 227 255
205 227 255
205 227 255
205 226 255
205 226 255
205 226 255
205 226 255
205 226 255
205 226 255
205 226 255
204 226 255
204 226 255
204 226 255
204 226 255
204 226 255
204 226 255
204 226 255
204 226 255
204 226 255
204 226 255
204 226 255
204 226 255
204 226 255
204 226 255
204 226 255
204 226 255
204 226 255
203 226 255
203 226 255
203 226 255
203 226 255
203 226 255
203 226 255
203 226 255
203 225 255
203 225 255
203 225 255
203 225 255
203 225 255
203 225 255
203 225 255
203 225 255
203 225 255
203 225 255
203 225 255
202 225 255
202 225 255
202 225 255
202 225 255
202 225 255
202 225 255
202 225 255
202 225 255
202 225 255
202 225 255
202 225 255
202 225 255
202 225 255
202 225 255
202 225 255
202 225 255
202 225 255
202 225 255
202 225 255
202 225 255
202 225 255
202 225 255
201 225 255
201 225 255
201 225 255
201 225 255
201 225 255
201 225 255
201 225 255
201 225 255
201 225 255
201 225 255
201 225 255
201 224 255
201 224 255
201 224 255
201 224 255
201 224 255
201 224 255
201 224 255
201 224 255
201 224 255
201 224 255
201 224 255
201 224 255
201 224 255
201 224 255
201 224 255
201 224 255
201 224 255
201 224 255
201 224 255
201 224 255
201 224 255
201 224 255
201 224 255
201 224 255
201 224 255
201 224 255
201 224 255
201 224 255
201 224 255
201 224 255
201 224 255
201 224 255
201 224 255
201 224 255
201 224 255
201 224 255
201 224 255
201 224 255
201 224 255
201 224 255
201 225 255
201 225 255
201 225 255
201 225 255
201 225 255
201 225 255
201 225 255
201 225 255
201 225 255
201 225 255
202 225 255
202 225 255
202 225 255
202 225 255
202 225 255
202 225 255
202 225 255
202 225 255
202 225 255
202 225 255
202 225 255
202 225 255
202 225 255
202 225 255
202 225 255
202 225 255
202 225 255
202 225 255
202 225 255
202 225 255
202 225 255
202 225 255
202 225 255
202 225 255
203 225 255
203 225 255
203 225 255
203 225 255
203 225 255
203 225 255
203 225 255
203 225 255
203 225 255
203 226 255
203 226 255
203 226 255
203 226 255
203 226 255
203 226 255
203 226 255
203 226 255
204 226 255
204 226 255
204 226 255
204 226 255
204 226 255
204 226 255
204 226 255
204 226 255
204 226 255
204 226 255
204 226 255
204 226 255
204 226 255
204 226 255
204 226 255
204 226 255
204 226 255
205 226 255
205 226 255
205 226 255
205 226 255
205 226 255
205 226 255
205 226 255
205 227 255
205 227 255
205 227 255
205 227 255
205 227 255
205 227 255
205 227 255
205 227 255
205 227 255
206 227 255
206 227 255
206 227 255
206 227 255
206 227 255
206 227 255
206 227 255
206 227 255
206 227 255
206 227 255
206 227 255
206 227 255
206 227 255
206 227 255
206 227 255
206 227 255
206 227 255
206 227 255
207 227 255
207 227 255
207 227 255
207 227 255
207 228 255
207 228 255
207 228 255
207 228 255
207 228 255
207 228 255
207 228 255
207 228 255
207 228 255
207 228 255
207 228 255
207 228 255
207 228 255
208 228 255
208 228 255
208 228 255
208 228 255
208 228 255
208 228 255
208 228 255
208 228 255
208 228 255
208 228 255
208 228 255
208 228 255
208 228 255
208 228 255
208 228 255
208 228 255
208 228 255
208 228 255
208 228 255
208 228 255
209 228 255
209 229 255
209 229 255
209 229 255
209 229 255
209 229 255
209 229 255
209 229 255
209 229 255
209 229 255
209 229 255
209 229 255
209 229 255
209 229 255
209 229 255
209 229 255
209 229 255
209 229 255
209 229 255
209 229 255
209 229 255
209 229 255
210 229 255
210 229 255
210 229 255
210 229 255
210 229 255
210 229 255
210 229 255
210 229 255
210 229 255
210 229 255
210 229 255
210 229 255
210 229 255
210 229 255
210 229 255
210 229 255
210 229 255
210 229 255
210 229 255
210 230 255
210 229 255
210 229 255
210 229 255
210 229 255
210 229 255
210 229 255
210 229 255
210 229 255
210 229 255
210 229 255
210 229 255
210 229 255
210 229 255
210 229 255
210 229 255
210 229 255
210 229 255
210 229 255
210 229 255
210 229 255
210 229 255
209 229 255
209 229 255
209 229 255
209 229 255
209 229 255
209 229 255
209 229 255
209 229 255
209 229 255
209 229 255
209 229 255
209 229 255
209 229 255
209 229 255
209 229 255
209 229 255
209 229 255
209 229 255
209 229 255
209 229 255
209 229 255
209 228 255
208 228 255
208 228 255
208 228 255
208 228 255
208 228 255
208 228 255
208 228 255
208 228 255
208 228 255
208 228 255
208 228 255
208 228 255
208 228 255
208 228 255
208 228 255
208 228 255
208 228 255
208 228 255
208 228 255
208 228 255
207 228 255
207 228 255
207 228 255
207 228 255
207 228 255
207 228 255
207 228 255
207 228 255
207 228 255
207 228 255
207 228 255
207 228 255
207 228 255
207 228 255
207 227 255
207 227 255
207 227 255
207 227 255
206 227 255
206 227 255
206 227 255
206 227 255
206 227 255
206 227 255
206 227 255
206 227 255
206 227 255
206 227 255
206 227 255
206 227 255
206 227 255
206 227 255
206 227 255
206 227 255
206 227 255
205 227 255
205 227 255
205 227 255
205 227 255
205 227 255
205 227 255
205 227 255
205 227 255
205 227 255
205 226 255
205 226 255
205 226 255
205 226 255
205 226 255
205 226 255
205 226 255
204 226 255
204 226 255
204 226 255
204 226 255
204 226 255
204 226 255
204 226 255
204 226 255
204 226 255
204 226 255
204 226 255
204 226 255
204 226 255
204 226 255
204 226 255
204 226 255
204 226 255
203 226 255
203 226 255
203 226 255
203 226 255
203 226 255
203 226 255
203 226 255
203 226 255
203 225 255
203 225 255
203 225 255
203 225 255
203 225 255
203 225 255
203 225 255
203 225 255
203 225 255
203 225 255
203 225 255
202 225 255
202 225 255
202 225 255
202 225 255
202 225 255
202 225 255
202 225 255
202 225 255
202 225 255
202 225 255
202 225 255
202 225 255
202 225 255
202 225 255
202 225 255
202 225 255
202 225 255
202 225 255
202 225 255
202 225 255
202 225 255
202 225 255
202 225 255
202 225 255
202 225 255
201 225 255
201 225 255
201 225 255
201 225 255
201 225 255
201 225 255
201 225 255
201 225 255
201 225 255
201 225 255
201 225 255
201 225 255
201 225 255
201 225 255
201 225 255
201 224 255
201 225 255
201 225 255
201 225 255
201 224 255
201 225 255
201 225 255
201 224 255
201 224 255
201 224 255
201 224 255
201 225 255
201 224 255
201 225 255
201 225 255
201 224 255
201 225 255
201 225 255
201 225 255
201 225 255
201 225 255
201 225 255
201 225 255
201 225 255
201 225 255
201 225 255
201 225 255
201 225 255
201 225 255
201 225 255
201 225 255
201 225 255
202 225 255
202 225 255
202 225 255
202 225 255
202 225 255
202 225 255
202 225 255
202 225 255
202 225 255
202 225 255
202 225 255
202 225 255
202 225 255
202 225 255
202 225 255
202 225 255
202 225 255
202 225 255
202 225 255
202 225 255
202 225 255
202 225 255
202 225 255
202 225 255
202 225 255
203 225 255
203 225 255
203 225 255
203 225 255
203 225 255
203 225 255
203 225 255
203 225 255
203 225 255
203 225 255
203 225 255
203 225 255
203 226 255
203 226 255
203 226 255
203 226 255
203 226 255
203 226 255
203 226 255
203 226 255
204 226 255
204 226 255
204 226 255
204 226 255
204 226 255
204 226 255
204 226 255
204 226 255
204 226 255
204 226 255
204 226 255
204 226 255
204 226 255
204 226 255
204 226 255
204 226 255
204 226 255
205 226 255
205 226 255
205 226 255
205 226 255
205 226 255
205 226 255
205 227 255
205 227 255
205 227 255
205 227 255
205 227 255
205 227 255
205 227 255
205 227 255
205 227 255
205 227 255
205 227 255
206 227 255
206 227 255
206 227 255
206 227 255
206 227 255
206 227 255
206 227 255
206 227 255
206 227 255
206 227 255
206 227 255
206 227 255
206 227 255
206 227 255
206 227 255
206 227 255
206 227 255
207 227 255
207 227 255
207 227 255
207 228 255
207 228 255
207 228 255
207 228 255
207 228 255
207 228 255
207 228 255
207 228 255
207 228 255
207 228 255
207 228 255
207 228 255
207 228 255
207 228 255
208 228 255
208 228 255
208 228 255
208 228 255
208 228 255
208 228 255
208 228 255
208 228 255
208 228 255
208 228 255
208 228 255
208 228 255
208 228 255
208 228 255
208 228 255
208 228 255
208 228 255
208 228 255
208 228 255
209 228 255
209 228 255
209 229 255
209 229 255
209 229 255
209 229 255
209 229 255
209 229 255
209 229 255
209 229 255
209 229 255
209 229 255
209 229 255
209 229 255
209 229 255
209 229 255
209 229 255
209 229 255
209 229 255
209 229 255
209 229 255
209 229 255
210 229 255
210 229 255
210 229 255
210 229 255
210 229 255
210 229 255
210 229 255
210 229 255
210 229 255
210 229 255
210 229 255
210 229 255
210 229 255
210 229 255
210 229 255
210 229 255
210 229 255
210 229 255
210 229 255
210 229 255
210 229 255
210 230 255
210 230 255
211 230 255
211 230 255
210 230 255
210 230 255
210 229 255
210 230 255
210 229 255
210 229 255
210 229 255
210 229 255
210 229 255
210 229 255
210 229 255
210 229 255
210 229 255
210 229 255
210 229 255
210 229 255
210 229 255
210 229 255
210 229 255
210 229 255
210 229 255
210 229 255
210 229 255
210 229 255
210 229 255
209 229 255
209 229 255
209 229 255
209 229 255
209 229 255
209 229 255
209 229 255
209 229 255
209 229 255
209 229 255
209 229 255
209 229 255
209 229 255
209 229 255
209 229 255
209 229 255
209 229 255
209 229 255
209 229 255
209 229 255
209 228 255
208 228 255
208 228 255
208 228 255
208 228 255
208 228 255
208 228 255
208 228 255
208 228 255
208 228 255
208 228 255
208 228 255
208 228 255
208 228 255
208 228 255
208 228 255
208 228 255
208 228 255
208 228 255
208 228 255
208 228 255
207 228 255
207 228 255
207 228 255
207 228 255
207 228 255
207 228 255
207 228 255
207 228 255
207 228 255
207 228 255
207 228 255
207 228 255
207 228 255
207 227 255
207 227 255
207 227 255
207 227 255
206 227 255
206 227 255
206 227 255
206 227 255
206 227 255
206 227 255
206 227 255
206 227 255
206 227 255
206 227 255
206 227 255
206 227 255
206 227 255
206 227 255
206 227 255
206 227 255
206 227 255
205 227 255
205 227 255
205 227 255
205 227 255
205 227 255
205 227 255
205 227 255
205 227 255
205 227 255
205 227 255
205 226 255
205 226 255
205 226 255
205 226 255
205 226 255
205 226 255
205 226 255
204 226 255
204 226 255
204 226 255
204 226 255
204 226 255
204 226 255
204 226 255
204 226 255
204 226 255
204 226 255
204 226 255
204 226 255
204 226 255
204 226 255
204 226 255
204 226 255
204 226 255
204 226 255
203 226 255
203 226 255
203 226 255
203 226 255
203 226 255
203 226 255
203 226 255
203 225 255
203 225 255
203 225 255
203 225 255
203 225 255
203 225 255
203 225 255
203 225 255
203 225 255
203 225 255
203 225 255
203 225 255
202 225 255
202 225 255
202 225 255
202 225 255
202 225 255
202 225 255
202 225 255
202 225 255
202 225 255
202 225 255
202 225 255
202 225 255
202 225 255
202 225 255
202 225 255
202 225 255
202 225 255
202 225 255
202 225 255
202 225 255
202 225 255
202 225 255
202 225 255
202 225 255
202 225 255
202 225 255
202 225 255
202 225 255
202 225 255
202 225 255
202 225 255
202 225 255
201 225 255
201 225 255
201 225 255
201 225 255
201 225 255
201 225 255
201 225 255
201 225 255
201 225 255
201 225 255
201 225 255
201 225 255
201 225 255
201 225 255
201 225 255
201 225 255
201 225 255
201 225 255
201 225 255
201 225 255
201 225 255
201 225 255
201 225 255
201 225 255
201 225 255
202 225 255
202 225 255
202 225 255
202 225 255
202 225 255
202 225 255
202 225 255
202 225 255
202 225 255
202 225 255
202 225 255
202 225 255
202 225 255
202 225 255
202 225 255
202 225 255
202 225 255
202 225 255
202 225 255
202 225 255
202 225 255
202 225 255
202 225 255
202 225 255
202 225 255
202 225 255
202 225 255
202 225 255
202 225 255
202 225 255
202 225 255
203 225 255
203 225 255
203 225 255
203 225 255
203 225 255
203 225 255
203 225 255
203 225 255
203 225 255
203 225 255
203 226 255
203 226 255
203 226 255
203 226 255
203 226 255
203 226 255
203 226 255
203 226 255
203 226 255
203 226 255
204 226 255
204 226 255
204 226 255
204 226 255
204 226 255
204 226 255
204 226 255
204 226 255
204 226 255
204 226 255
204 226 255
204 226 255
204 226 255
204 226 255
204 226 255
204 226 255
204 226 255
204 226 255
205 226 255
205 226 255
205 226 255
205 226 255
205 226 255
205 226 255
205 226 255
205 227 255
205 227 255
205 227 255
205 227 255
205 227 255
205 227 255
205 227 255
205 227 255
205 227 255
206 227 255
206 227 255
206 227 255
206 227 255
206 227 255
206 227 255
206 227 255
206 227 255
206 227 255
206 227 255
206 227 255
206 227 255
206 227 255
206 227 255
206 227 255
206 227 255
206 227 255
207 227 255
207 227 255
207 227 255
207 227 255
207 227 255
207 228 255
207 228 255
207 228 255
207 228 255
207 228 255
207 228 255
207 228 255
207 228 255
207 228 255
207 228 255
207 228 255
207 228 255
207 228 255
208 228 255
208 228 255
208 228 255
208 228 255
208 228 255
208 228 255
208 228 255
208 228 255
208 228 255
208 228 255
208 228 255
208 228 255
208 228 255
208 228 255
208 228 255
208 228 255
208 228 255
208 228 255
208 228 255
209 228 255
209 229 255
209 229 255
209 229 255
209 229 255
209 229 255
209 229 255
209 229 255
209 229 255
209 229 255
209 229 255
209 229 255
209 229 255
209 229 255
209 229 255
209 229 255
209 229 255
209 229 255
209 229 255
209 229 255
209 229 255
210 229 255
210 229 255
210 229 255
210 229 255
210 229 255
210 229 255
210 229 255
210 229 255
210 229 255
210 229 255
210 229 255
210 229 255
210 229 255
210 229 255
210 229 255
210 229 255
210 229 255
210 229 255
210 229 255
210 229 255
210 229 255
210 230 255
210 230 255
210 230 255
211 230 255
211 230 255
211 230 255
211 230 255
211 230 255
211 230 255
211 230 255
211 230 255
211 230 255
210 230 255
210 230 255
210 230 255
210 229 255
210 229 255
210 229 255
210 229 255
210 229 255
210 229 255
210 229 255
210 229 255
210 229 255
210 229 255
210 229 255
210 229 255
210 229 255
210 229 255
210 229 255
210 229 255
210 229 255
210 229 255
210 229 255
210 229 255
210 229 255
210 229 255
209 229 255
209 229 255
209 229 255
209 229 255
209 229 255
209 229 255
209 229 255
209 229 255
209 229 255
209 229 255
209 229 255
209 229 255
209 229 255
209 229 255
209 229 255
209 229 255
209 229 255
209 229 255
209 229 255
209 228 255
208 228 255
208 228 255
208 228 255
208 228 255
208 228 255
208 228 255
208 228 255
208 228 255
208 228 255
208 228 255
208 228 255
208 228 255
208 228 255
208 228 255
208 228 255
208 228 255
208 228 255
208 228 255
208 228 255
207 228 255
207 228 255
207 228 255
207 228 255
207 228 255
207 228 255
207 228 255
207 228 255
207 228 255
207 228 255
207 228 255
207 228 255
207 228 255
207 228 255
207 227 255
207 227 255
207 227 255
207 227 255
206 227 255
206 227 255
206 227 255
206 227 255
206 227 255
206 227 255
206 227 255
206 227 255
206 227 255
206 227 255
206 227 255
206 227 255
206 227 255
206 227 255
206 227 255
206 227 255
206 227 255
205 227 255
205 227 255
205 227 255
205 227 255
205 227 255
205 227 255
205 227 255
205 227 255
205 227 255
205 227 255
205 227 255
205 226 255
205 226 255
205 226 255
205 226 255
205 226 255
205 226 255
205 226 255
204 226 255
204 226 255
204 226 255
204 226 255
204 226 255
204 226 255
204 226 255
204 226 255
204 226 255
204 226 255
204 226 255
204 226 255
204 226 255
204 226 255
204 226 255
204 226 255
204 226 255
203 226 255
203 226 255
203 226 255
203 226 255
203 226 255
203 226 255
203 226 255
203 226 255
203 225 255
203 225 255
203 225 255
203 225 255
203 225 255
203 225 255
203 225 255
203 225 255
203 225 255
203 225 255
203 225 255
203 225 255
203 225 255
202 225 255
202 225 255
202 225 255
202 225 255
202 225 255
202 225 255
202 225 255
202 225 255
202 225 255
202 225 255
202 225 255
202 225 255
202 225 255
202 225 255
202 225 255
202 225 255
202 225 255
202 225 255
202 225 255
202 225 255
202 225 255
202 225 255
202 225 255
202 225 255
202 225 255
202 225 255
202 225 255
202 225 255
202 225 255
202 225 255
202 225 255
202 225 255
202 225 255
202 225 255
202 225 255
202 225 255
202 225 255
202 225 255
202 225 255
202 225 255
202 225 255
202 225 255
202 225 255
202 225 255
202 225 255
202 225 255
202 225 255
202 225 255
202 225 255
202 225 255
202 225 255
202 225 255
202 225 255
202 225 255
202 225 255
202 225 255
202 225 255
202 225 255
202 225 255
202 225 255
202 225 255
202 225 255
202 225 255
202 225 255
202 225 255
202 225 255
202 225 255
202 225 255
202 225 255
202 225 255
202 225 255
202 225 255
202 225 255
202 225 255
202 225 255
202 225 255
202 225 255
202 225 255
203 225 255
203 225 255
203 225 255
203 225 255
203 225 255
203 225 255
203 225 255
203 225 255
203 225 255
203 225 255
203 225 255
203 225 255
203 226 255
203 226 255
203 226 255
203 226 255
203 226 255
203 226 255
203 226 255
203 226 255
203 226 255
204 226 255
204 226 255
204 226 255
204 226 255
204 226 255
204 226 255
204 226 255
204 226 255
204 226 255
204 226 255
204 226 255
204 226 255
204 226 255
204 226 255
204 226 255
204 226 255
204 226 255
204 226 255
205 226 255
205 226 255
205 226 255
205 226 255
205 226 255
205 226 255
205 227 255
205 227 255
205 227 255
205 227 255
205 227 255
205 227 255
205 227 255
205 227 255
205 227 255
205 227 255
206 227 255
206 227 255
206 227 255
206 227 255
206 227 255
206 227 255
206 227 255
206 227 255
206 227 255
206 227 255
206 227 255
206 227 255
206 227 255
206 227 255
206 227 255
206 227 255
206 227 255
207 227 255
207 227 255
207 227 255
207 227 255
207 227 255
207 228 255
207 228 255
207 228 255
207 228 255
207 228 255
207 228 255
207 228 255
207 228 255
207 228 255
207 228 255
207 228 255
207 228 255
207 228 255
208 228 255
208 228 255
208 228 255
208 228 255
208 228 255
208 228 255
208 228 255
208 228 255
208 228 255
208 228 255
208 228 255
208 228 255
208 228 255
208 228 255
208 228 255
208 228 255
208 228 255
208 228 255
208 228 255
209 228 255
209 228 255
209 229 255
209 229 255
209 229 255
209 229 255
209 229 255
209 229 255
209 229 255
209 229 255
209 229 255
209 229 255
209 229 255
209 229 255
209 229 255
209 229 255
209 229 255
209 229 255
209 229 255
209 229 255
209 229 255
210 229 255
210 229 255
210 229 255
210 229 255
210 229 255
210 229 255
210 229 255
210 229 255
210 229 255
210 229 255
210 229 255
210 229 255
210 229 255
210 229 255
210 229 255
210 229 255
210 229 255
210 229 255
210 229 255
210 229 255
210 229 255
210 229 255
210 230 255
210 230 255
210 230 255
211 230 255
211 230 255
211 230 255
211 230 255
211 230 255
211 230 255
211 230 255
211 230 255
211 230 255
211 230 255
211 230 255
211 230 255
211 230 255
211 230 255
211 230 255
211 230 255
211 230 255
210 230 255
210 230 255
210 229 255
210 229 255
210 229 255
210 229 255
210 229 255
210 229 255
210 229 255
210 229 255
210 229 255
210 229 255
210 229 255
210 229 255
210 229 255
210 229 255
210 229 255
210 229 255
210 229 255
210 229 255
210 229 255
210 229 255
210 229 255
209 229 255
209 229 255
209 229 255
209 229 255
209 229 255
209 229 255
202 222 248
202 221 248
202 222 248
202 221 248
204 224 250
199 219 245
199 219 245
204 224 250
191 210 237
199 218 245
201 221 248
196 216 242
196 216 242
196 216 242
204 223 250
204 223 250
199 218 245
199 218 245
206 226 253
208 228 255
206 226 253
206 226 253
208 228 255
208 228 255
208 228 255
208 228 255
208 228 255
208 228 255
208 228 255
208 228 255
208 228 255
208 228 255
208 228 255
208 228 255
207 228 255
207 228 255
207 228 255
207 228 255
207 228 255
207 228 255
207 228 255
207 228 255
207 228 255
207 228 255
207 228 255
207 228 255
207 228 255
207 228 255
207 227 255
207 227 255
207 227 255
207 227 255
206 227 255
206 227 255
206 227 255
206 227 255
206 227 255
206 227 255
206 227 255
206 227 255
206 227 255
206 227 255
206 227 255
206 227 255
206 227 255
206 227 255
206 227 255
206 227 255
206 227 255
205 227 255
205 227 255
205 227 255
205 227 255
205 227 255
205 227 255
205 227 255
205 227 255
205 227 255
205 227 255
205 227 255
205 226 255
205 226 255
205 226 255
205 226 255
205 226 255
205 226 255
204 226 255
204 226 255
204 226 255
204 226 255
204 226 255
204 226 255
204 226 255
204 226 255
204 226 255
204 226 255
204 226 255
204 226 255
204 226 255
204 226 255
204 226 255
204 226 255
204 226 255
204 226 255
203 226 255
203 226 255
203 226 255
203 226 255
203 226 255
203 226 255
203 226 255
203 226 255
203 226 255
203 225 255
203 225 255
203 225 255
203 225 255
203 225 255
203 225 255
203 225 255
203 225 255
203 225 255
203 225 255
203 225 255
203 225 255
203 225 255
203 225 255
202 225 255
202 225 255
202 225 255
202 225 255
202 225 255
202 225 255
202 225 255
202 225 255
202 225 255
202 225 255
202 225 255
202 225 255
202 225 255
202 225 255
202 225 255
202 225 255
202 225 255
202 225 255
202 225 255
202 225 255
202 225 255
202 225 255
202 225 255
202 225 255
202 225 255
202 225 255
202 225 255
202 225 255
202 225 255
202 225 255
202 225 255
202 225 255
202 225 255
202 225 255
202 225 255
202 225 255
202 225 255
202 225 255
202 225 255
202 225 255
202 225 255
202 225 255
202 225 255
202 225 255
202 225 255
202 225 255
202 225 255
202 225 255
202 225 255
202 225 255
202 225 255
202 225 255
202 225 255
202 225 255
202 225 255
202 225 255
202 225 255
202 225 255
202 225 255
202 225 255
202 225 255
202 225 255
202 225 255
202 225 255
202 225 255
202 225 255
203 225 255
203 225 255
203 225 255
203 225 255
203 225 255
203 225 255
203 225 255
203 225 255
203 225 255
203 225 255
203 225 255
203 225 255
203 225 255
203 225 255
203 226 255
203 226 255
203 226 255
203 226 255
203 226 255
203 226 255
203 226 255
203 226 255
203 226 255
204 226 255
204 226 255
204 226 255
204 226 255
204 226 255
204 226 255
204 226 255
204 226 255
204 226 255
204 226 255
204 226 255
204 226 255
204 226 255
204 226 255
204 226 255
204 226 255
204 226 255
204 226 255
205 226 255
205 226 255
205 226 255
205 226 255
205 226 255
205 226 255
205 226 255
205 227 255
205 227 255
205 227 255
205 227 255
205 227 255
205 227 255
205 227 255
205 227 255
205 227 255
205 227 255
206 227 255
206 227 255
206 227 255
206 227 255
206 227 255
206 227 255
206 227 255
206 227 255
206 227 255
206 227 255
206 227 255
206 227 255
206 227 255
206 227 255
206 227 255
206 227 255
206 227 255
207 227 255
207 227 255
207 227 255
207 227 255
207 228 255
207 228 255
207 228 255
207 228 255
207 228 255
207 228 255
207 228 255
207 228 255
207 228 255
207 228 255
207 228 255
207 228 255
207 228 255
207 228 255
208 228 255
208 228 255
208 228 255
208 228 255
208 228 255
208 228 255
208 228 255
208 228 255
208 228 255
208 228 255
208 228 255
208 228 255
208 228 255
206 224 245
204 219 234
208 228 255
206 224 245
206 224 245
194 198 184
201 214 223
203 219 234
196 204 198
201 214 223
199 209 211
193 198 184
193 198 184
195 199 184
204 219 234
202 214 223
199 209 211
207 224 245
202 214 223
199 209 211
205 219 234
207 224 245
207 224 245
209 229 255
209 229 255
209 229 255
209 229 255
210 229 255
210 229 255
210 229 255
210 229 255
210 229 255
210 229 255
210 229 255
210 229 255
210 229 255
210 229 255
210 229 255
210 229 255
210 229 255
210 229 255
210 229 255
210 229 255
210 229 255
210 229 255
210 229 255
210 229 255
210 229 255
210 230 255
210 230 255
211 230 255
211 230 255
211 230 255
211 230 255
211 230 255
211 230 255
211 230 255
211 230 255
211 230 255
211 230 255
211 230 255
211 230 255
211 230 255
211 230 255
211 230 255
211 230 255
211 230 255
211 230 255
211 230 255
211 230 255
211 230 255
211 230 255
211 230 255
211 230 255
211 230 255
210 230 255
210 230 255
210 229 255
210 229 255
210 229 255
210 229 255
210 229 255
210 229 255
210 229 255
210 229 255
210 229 255
210 229 255
210 229 255
210 229 255
210 229 255
210 229 255
200 219 245
198 217 242
200 219 245
197 216 242
195 214 240
191 211 237
191 210 237
185 205 231
181 201 228
181 201 228
181 201 228
181 201 228
180 201 228
180 201 228
179 200 228
179 200 228
179 200 228
179 200 228
178 200 228
179 200 228
179 200 228
178 200 228
178 200 228
178 200 228
178 200 228
178 200 228
178 200 228
178 200 228
179 200 228
178 200 228
180 201 228
179 200 228
183 204 231
183 204 231
183 203 231
192 212 240
187 207 234
198 218 245
203 223 250
206 226 253
208 228 255
208 228 255
208 228 255
208 228 255
208 228 255
208 228 255
208 228 255
208 228 255
207 228 255
207 228 255
207 228 255
207 228 255
207 228 255
207 228 255
207 228 255
207 228 255
207 228 255
207 228 255
207 228 255
207 228 255
207 228 255
207 227 255
207 227 255
207 227 255
207 227 255
206 227 255
206 227 255
206 227 255
206 227 255
206 227 255
206 227 255
206 227 255
206 227 255
206 227 255
206 227 255
206 227 255
206 227 255
206 227 255
206 227 255
206 227 255
206 227 255
206 227 255
206 227 255
205 227 255
205 227 255
205 227 255
205 227 255
205 227 255
205 227 255
205 227 255
205 227 255
205 227 255
205 227 255
205 226 255
205 226 255
205 226 255
205 226 255
205 226 255
205 226 255
205 226 255
204 226 255
204 226 255
204 226 255
204 226 255
204 226 255
204 226 255
204 226 255
204 226 255
204 226 255
204 226 255
204 226 255
204 226 255
204 226 255
204 226 255
204 226 255
204 226 255
204 226 255
204 226 255
204 226 255
203 226 255
203 226 255
203 226 255
203 226 255
203 226 255
203 226 255
203 226 255
203 226 255
203 226 255
203 225 255
203 225 255
203 225 255
203 225 255
203 225 255
203 225 255
203 225 255
203 225 255
203 225 255
203 225 255
203 225 255
203 225 255
203 225 255
203 225 255
203 225 255
202 225 255
202 225 255
202 225 255
202 225 255
202 225 255
202 225 255
202 225 255
202 225 255
202 225 255
202 225 255
202 225 255
202 225 255
202 225 255
202 225 255
202 225 255
202 225 255
202 225 255
202 225 255
202 225 255
202 225 255
202 225 255
202 225 255
202 225 255
202 225 255
202 225 255
202 225 255
202 225 255
202 225 255
202 225 255
202 225 255
202 225 255
202 225 255
202 225 255
202 225 255
202 225 255
202 225 255
202 225 255
202 225 255
202 225 255
202 225 255
202 225 255
202 225 255
202 225 255
202 225 255
202 225 255
202 225 255
202 225 255
202 225 255
202 225 255
202 225 255
202 225 255
202 225 255
202 225 255
203 225 255
203 225 255
203 225 255
203 225 255
203 225 255
203 225 255
203 225 255
203 225 255
203 225 255
203 225 255
203 225 255
203 225 255
203 225 255
203 225 255
203 225 255
203 225 255
203 226 255
203 226 255
203 226 255
203 226 255
203 226 255
203 226 255
203 226 255
203 226 255
203 226 255
204 226 255
204 226 255
204 226 255
204 226 255
204 226 255
204 226 255
204 226 255
204 226 255
204 226 255
204 226 255
204 226 255
204 226 255
204 226 255
204 226 255
204 226 255
204 226 255
204 226 255
204 226 255
205 226 255
205 226 255
205 226 255
205 226 255
205 226 255
205 226 255
205 226 255
205 226 255
205 227 255
205 227 255
205 227 255
205 227 255
205 227 255
205 227 255
205 227 255
205 227 255
205 227 255
205 227 255
205 227 255
206 227 255
206 227 255
206 227 255
206 227 255
206 227 255
206 227 255
206 227 255
206 227 255
206 227 255
206 227 255
206 227 255
206 227 255
206 227 255
206 227 255
206 227 255
206 227 255
206 227 255
207 227 255
207 227 255
207 227 255
207 228 255
207 228 255
207 228 255
207 228 255
207 228 255
207 228 255
207 228 255
207 228 255
207 228 255
207 228 255
207 228 255
207 228 255
207 228 255
207 228 255
208 228 255
208 228 255
208 228 255
208 228 255
208 228 255
208 228 255
208 228 255
208 228 255
203 219 234
200 213 223
195 203 198
195 203 198
203 219 234
186 186 153
186 186 153
180 174 114
178 173 114
181 174 114
179 173 114
178 173 114
179 173 114
179 173 114
178 173 114
178 173 114
178 173 114
179 173 114
179 173 114
179 173 114
178 173 114
179 173 114
179 173 114
179 173 114
180 174 114
180 174 114
180 174 114
181 174 114
180 174 114
181 174 114
182 175 114
182 175 114
182 175 114
186 181 135
186 181 135
194 199 184
192 193 169
197 204 198
205 220 234
203 215 223
210 229 255
210 229 255
210 229 255
210 229 255
210 229 255
210 229 255
210 229 255
210 229 255
210 229 255
210 229 255
210 229 255
210 229 255
210 229 255
210 230 255
210 230 255
210 230 255
211 230 255
211 230 255
211 230 255
211 230 255
211 230 255
211 230 255
211 230 255
211 230 255
211 230 255
211 230 255
211 230 255
211 230 255
211 230 255
211 230 255
211 230 255
211 230 255
211 230 255
211 230 255
211 230 255
211 230 255
211 230 255
211 230 255
211 230 255
211 230 255
211 230 255
211 230 255
211 230 255
211 230 255
211 230 255
211 230 255
211 230 255
211 230 255
210 230 255
210 230 255
210 230 255
210 229 255
210 229 255
210 229 255
203 222 248
200 219 245
195 214 240
191 211 237
191 211 237
183 202 228
183 202 228
181 201 228
181 202 228
180 201 228
179 200 228
179 200 228
179 200 228
178 200 228
178 200 228
177 199 228
177 199 228
177 199 228
177 199 228
177 199 228
176 199 228
176 199 228
175 198 228
176 198 228
176 198 228
175 198 228
175 198 228
175 198 228
175 198 228
175 198 228
175 198 228
175 198 228
175 198 228
174 198 228
175 198 228
175 198 228
175 198 228
175 198 228
175 198 228
176 198 228
176 199 228
176 199 228
177 199 228
176 199 228
177 199 228
178 200 228
179 200 228
182 203 231
194 215 242
189 209 237
195 215 242
203 223 250
203 223 250
208 228 255
208 228 255
208 228 255
208 228 255
208 228 255
207 228 255
207 228 255
207 228 255
207 228 255
207 228 255
207 228 255
207 228 255
207 228 255
207 228 255
207 228 255
207 228 255
207 228 255
207 227 255
207 227 255
207 227 255
207 227 255
207 227 255
206 227 255
206 227 255
206 227 255
206 227 255
206 227 255
206 227 255
206 227 255
206 227 255
206 227 255
206 227 255
206 227 255
206 227 255
206 227 255
206 227 255
206 227 255
206 227 255
206 227 255
205 227 255
205 227 255
205 227 255
205 227 255
205 227 255
205 227 255
205 227 255
205 227 255
205 227 255
205 227 255
205 226 255
205 226 255
205 226 255
205 226 255
205 226 255
205 226 255
205 226 255
205 226 255
204 226 255
204 226 255
204 226 255
204 226 255
204 226 255
204 226 255
204 226 255
204 226 255
204 226 255
204 226 255
204 226 255
204 226 255
204 226 255
204 226 255
204 226 255
204 226 255
204 226 255
204 226 255
204 226 255
203 226 255
203 226 255
203 226 255
203 226 255
203 226 255
203 226 255
203 226 255
203 226 255
203 226 255
203 226 255
203 226 255
203 225 255
203 225 255
203 225 255
203 225 255
203 225 255
203 225 255
203 225 255
203 225 255
203 225 255
203 225 255
203 225 255
203 225 255
203 225 255
203 225 255
203 225 255
203 225 255
203 225 255
203 225 255
203 225 255
202 225 255
202 225 255
202 225 255
202 225 255
202 225 255
202 225 255
202 225 255
202 225 255
202 225 255
202 225 255
202 225 255
202 225 255
202 225 255
202 225 255
202 225 255
202 225 255
202 225 255
202 225 255
202 225 255
202 225 255
202 225 255
202 225 255
202 225 255
202 225 255
202 225 255
202 225 255
202 225 255
202 225 255
202 225 255
202 225 255
202 225 255
202 225 255
202 225 255
202 225 255
203 225 255
203 225 255
203 225 255
203 225 255
203 225 255
203 225 255
203 225 255
203 225 255
203 225 255
203 225 255
203 225 255
203 225 255
203 225 255
203 225 255
203 225 255
203 225 255
203 225 255
203 225 255
203 225 255
203 226 255
203 226 255
203 226 255
203 226 255
203 226 255
203 226 255
203 226 255
203 226 255
203 226 255
203 226 255
204 226 255
204 226 255
204 226 255
204 226 255
204 226 255
204 226 255
204 226 255
204 226 255
204 226 255
204 226 255
204 226 255
204 226 255
204 226 255
204 226 255
204 226 255
204 226 255
204 226 255
204 226 255
204 226 255
204 226 255
205 226 255
205 226 255
205 226 255
205 226 255
205 226 255
205 226 255
205 226 255
205 227 255
205 227 255
205 227 255
205 227 255
205 227 255
205 227 255
205 227 255
205 227 255
205 227 255
205 227 255
205 227 255
206 227 255
206 227 255
206 227 255
206 227 255
206 227 255
206 227 255
206 227 255
206 227 255
206 227 255
206 227 255
206 227 255
206 227 255
206 227 255
206 227 255
206 227 255
206 227 255
207 227 255
207 227 255
207 227 255
207 227 255
207 227 255
207 228 255
207 228 255
207 228 255
207 228 255
207 228 255
207 228 255
207 228 255
207 228 255
207 228 255
207 228 255
207 228 255
207 228 255
207 228 255
207 228 255
208 228 255
208 228 255
208 228 255
208 228 255
203 219 234
195 203 198
196 203 198
195 203 198
179 174 114
179 173 114
178 173 114
178 173 114
177 173 114
177 173 114
177 172 114
176 172 114
175 172 114
175 172 114
175 171 114
175 171 114
175 171 114
175 171 114
174 171 114
175 171 114
175 172 114
174 171 114
174 171 114
175 171 114
175 172 114
175 171 114
175 172 114
175 172 114
176 172 114
175 172 114
176 172 114
176 172 114
176 172 114
177 172 114
177 172 114
177 172 114
177 172 114
177 173 114
178 173 114
178 173 114
179 173 114
179 173 114
179 173 114
180 174 114
181 174 114
181 175 114
182 175 114
183 175 114
186 181 135
192 193 169
198 205 198
193 194 169
203 215 223
208 225 245
210 229 255
210 229 255
210 230 255
210 230 255
210 230 255
211 230 255
211 230 255
211 230 255
211 230 255
211 230 255
211 230 255
211 230 255
211 230 255
211 230 255
211 230 255
211 230 255
211 230 255
211 230 255
211 230 255
211 230 255
211 230 255
211 230 255
211 230 255
211 230 255
211 230 255
211 230 255
211 230 255
211 230 255
211 230 255
211 230 255
211 230 255
211 230 255
211 230 255
211 230 255
211 230 255
211 230 255
211 230 255
211 230 255
211 230 255
211 230 255
211 230 255
208 227 253
201 220 245
193 212 237
195 214 240
184 203 228
183 203 228
182 202 228
182 202 228
180 201 228
181 201 228
180 201 228
179 200 228
178 200 228
178 200 228
178 199 228
178 200 228
177 199 228
177 199 228
176 199 228
176 199 228
176 198 228
175 198 228
175 198 228
175 198 228
174 198 228
174 198 228
174 198 228
174 197 228
174 197 228
173 197 228
173 197 228
173 197 228
173 197 228
173 197 228
173 197 228
173 197 228
173 197 228
172 197 228
172 197 228
172 197 228
172 197 228
172 197 228
172 197 228
173 197 228
172 197 228
172 197 228
172 197 228
173 197 228
173 197 228
173 197 228
173 197 228
174 198 228
174 198 228
175 198 228
175 198 228
176 198 228
176 199 228
177 199 228
179 200 228
182 203 231
192 212 240
200 220 248
198 218 245
208 228 255
208 228 255
208 228 255
207 228 255
207 228 255
207 228 255
207 228 255
207 228 255
207 228 255
207 228 255
207 228 255
207 228 255
207 228 255
207 228 255
207 228 255
207 228 255
207 228 255
207 227 255
207 227 255
207 227 255
207 227 255
206 227 255
206 227 255
206 227 255
206 227 255
206 227 255
206 227 255
206 227 255
206 227 255
206 227 255
206 227 255
206 227 255
206 227 255
206 227 255
206 227 255
206 227 255
206 227 255
206 227 255
206 227 255
205 227 255
205 227 255
205 227 255
205 227 255
205 227 255
205 227 255
205 227 255
205 227 255
205 227 255
205 227 255
205 226 255
205 226 255
205 226 255
205 226 255
205 226 255
205 226 255
205 226 255
205 226 255
204 226 255
204 226 255
204 226 255
204 226 255
204 226 255
204 226 255
204 226 255
204 226 255
204 226 255
204 226 255
204 226 255
204 226 255
204 226 255
204 226 255
204 226 255
204 226 255
204 226 255
204 226 255
204 226 255
204 226 255
204 226 255
203 226 255
203 226 255
203 226 255
203 226 255
203 226 255
203 226 255
203 226 255
203 226 255
203 226 255
203 226 255
203 226 255
203 226 255
203 225 255
203 225 255
203 225 255
203 225 255
203 225 255
203 225 255
203 225 255
203 225 255
203 225 255
203 225 255
203 225 255
203 225 255
203 225 255
203 225 255
203 225 255
203 225 255
203 225 255
203 225 255
203 225 255
203 225 255
203 225 255
203 225 255
203 225 255
203 225 255
203 225 255
203 225 255
203 225 255
203 225 255
203 225 255
203 225 255
203 225 255
203 225 255
203 225 255
203 225 255
203 225 255
203 225 255
203 225 255
203 225 255
203 225 255
203 225 255
203 225 255
203 225 255
203 225 255
203 225 255
203 225 255
203 225 255
203 225 255
203 225 255
203 225 255
203 225 255
203 225 255
203 225 255
203 225 255
203 225 255
203 225 255
203 225 255
203 225 255
203 225 255
203 225 255
203 226 255
203 226 255
203 226 255
203 226 255
203 226 255
203 226 255
203 226 255
203 226 255
203 226 255
203 226 255
203 226 255
204 226 255
204 226 255
204 226 255
204 226 255
204 226 255
204 226 255
204 226 255
204 226 255
204 226 255
204 226 255
204 226 255
204 226 255
204 226 255
204 226 255
204 226 255
204 226 255
204 226 255
204 226 255
204 226 255
204 226 255
204 226 255
205 226 255
205 226 255
205 226 255
205 226 255
205 226 255
205 226 255
205 226 255
205 226 255
205 227 255
205 227 255
205 227 255
205 227 255
205 227 255
205 227 255
205 227 255
205 227 255
205 227 255
205 227 255
206 227 255
206 227 255
206 227 255
206 227 255
206 227 255
206 227 255
206 227 255
206 227 255
206 227 255
206 227 255
206 227 255
206 227 255
206 227 255
206 227 255
206 227 255
206 227 255
206 227 255
207 227 255
207 227 255
207 227 255
207 227 255
207 228 255
207 228 255
207 228 255
207 228 255
207 228 255
207 228 255
207 228 255
207 228 255
207 228 255
207 228 255
207 228 255
207 228 255
207 228 255
207 228 255
208 228 255
208 228 255
208 228 255
201 214 223
208 228 255
198 208 211
183 180 135
188 191 169
178 173 114
177 172 114
175 172 114
176 172 114
175 172 114
175 172 114
174 171 114
174 171 114
173 171 114
173 171 114
173 170 114
173 170 114
173 170 114
173 170 114
172 170 114
173 170 114
173 170 114
172 170 114
172 170 114
172 170 114
172 170 114
172 170 114
173 170 114
173 170 114
173 170 114
173 170 114
173 171 114
173 171 114
173 171 114
173 171 114
174 171 114
174 171 114
174 171 114
174 171 114
174 171 114
175 171 114
175 172 114
175 172 114
176 172 114
176 172 114
176 172 114
176 172 114
177 172 114
177 173 114
177 173 114
178 173 114
179 173 114
180 174 114
180 174 114
180 174 114
181 174 114
182 175 114
183 175 114
183 175 114
188 182 135
198 204 198
198 205 198
201 210 211
206 220 234
211 230 255
211 230 255
211 230 255
211 230 255
211 230 255
211 230 255
211 230 255
211 230 255
211 230 255
211 230 255
211 230 255
211 230 255
211 230 255
211 230 255
211 230 255
211 230 255
211 230 255
211 230 255
211 230 255
211 230 255
211 230 255
211 230 255
211 230 255
211 230 255
211 230 255
211 230 255
211 230 255
211 230 255
211 230 255
211 230 255
211 230 255
211 230 255
206 225 250
206 225 250
193 212 237
188 206 231
184 203 228
183 202 228
182 202 228
181 202 228
181 201 228
180 201 228
180 201 228
179 200 228
178 200 228
178 200 228
178 200 228
177 199 228
177 199 228
176 199 228
176 199 228
176 199 228
175 198 228
175 198 228
175 198 228
174 198 228
174 197 228
174 197 228
173 197 228
173 197 228
173 197 228
172 197 228
172 197 228
172 197 228
172 197 228
172 197 228
172 196 228
171 196 228
171 196 228
171 196 228
171 196 228
171 196 228
171 196 228
171 196 228
170 196 228
170 196 228
171 196 228
170 196 228
170 196 228
170 196 228
170 196 228
170 196 228
171 196 228
171 196 228
171 196 228
170 196 228
171 196 228
171 196 228
171 196 228
172 196 228
172 197 228
172 197 228
173 197 228
173 197 228
173 197 228
174 198 228
175 198 228
176 199 228
177 199 228
179 200 228
178 200 228
186 206 234
198 218 245
205 225 253
208 228 255
208 228 255
208 228 255
207 228 255
207 228 255
207 228 255
207 228 255
207 228 255
207 228 255
207 228 255
207 228 255
207 228 255
207 228 255
207 228 255
207 228 255
207 228 255
207 227 255
207 227 255
207 227 255
207 227 255
207 227 255
206 227 255
206 227 255
206 227 255
206 227 255
206 227 255
206 227 255
206 227 255
206 227 255
206 227 255
206 227 255
206 227 255
206 227 255
206 227 255
206 227 255
206 227 255
206 227 255
206 227 255
205 227 255
205 227 255
205 227 255
205 227 255
205 227 255
205 227 255
205 227 255
205 227 255
205 227 255
205 227 255
205 227 255
205 226 255
205 226 255
205 226 255
205 226 255
205 226 255
205 226 255
205 226 255
205 226 255
204 226 255
204 226 255
204 226 255
204 226 255
204 226 255
204 226 255
204 226 255
204 226 255
204 226 255
204 226 255
204 226 255
204 226 255
204 226 255
204 226 255
204 226 255
204 226 255
204 226 255
204 226 255
204 226 255
204 226 255
204 226 255
204 226 255
204 226 255
203 226 255
203 226 255
203 226 255
203 226 255
203 226 255
203 226 255
203 226 255
203 226 255
203 226 255
203 226 255
203 226 255
203 226 255
203 226 255
203 226 255
203 226 255
203 225 255
203 225 255
203 225 255
203 225 255
203 225 255
203 225 255
203 225 255
203 225 255
203 225 255
203 225 255
203 225 255
203 225 255
203 225 255
203 225 255
203 225 255
203 225 255
203 225 255
203 225 255
203 225 255
203 225 255
203 225 255
203 225 255
203 225 255
203 225 255
203 225 255
203 225 255
203 225 255
203 225 255
203 225 255
203 225 255
203 225 255
203 225 255
203 225 255
203 225 255
203 225 255
203 225 255
203 225 255
203 225 255
203 226 255
203 226 255
203 226 255
203 226 255
203 226 255
203 226 255
203 226 255
203 226 255
203 226 255
203 226 255
203 226 255
203 226 255
203 226 255
203 226 255
203 226 255
203 226 255
204 226 255
204 226 255
204 226 255
204 226 255
204 226 255
204 226 255
204 226 255
204 226 255
204 226 255
204 226 255
204 226 255
204 226 255
204 226 255
204 226 255
204 226 255
204 226 255
204 226 255
204 226 255
204 226 255
204 226 255
204 226 255
204 226 255
205 226 255
205 226 255
205 226 255
205 226 255
205 226 255
205 226 255
205 226 255
205 226 255
205 227 255
205 227 255
205 227 255
205 227 255
205 227 255
205 227 255
205 227 255
205 227 255
205 227 255
205 227 255
205 227 255
206 227 255
206 227 255
206 227 255
206 227 255
206 227 255
206 227 255
206 227 255
206 227 255
206 227 255
206 227 255
206 227 255
206 227 255
206 227 255
206 227 255
206 227 255
206 227 255
206 227 255
207 227 255
207 227 255
207 227 255
207 227 255
207 228 255
207 228 255
207 228 255
207 228 255
207 228 255
207 228 255
207 228 255
207 228 255
207 228 255
207 228 255
207 228 255
207 228 255
207 228 255
207 228 255
207 228 255
208 228 255
208 228 255
208 228 255
200 213 223
192 198 184
182 179 135
178 173 114
177 172 114
176 172 114
175 171 114
174 171 114
174 171 114
173 170 114
172 170 114
172 170 114
172 170 114
171 170 114
172 170 114
171 170 114
171 170 114
170 169 114
170 169 114
170 169 114
170 169 114
171 170 114
170 169 114
170 169 114
170 169 114
170 169 114
170 169 114
171 170 114
171 170 114
170 169 114
171 170 114
171 170 114
171 170 114
171 170 114
171 170 114
171 170 114
171 170 114
172 170 114
172 170 114
172 170 114
172 170 114
173 170 114
173 170 114
173 171 114
173 171 114
174 171 114
174 171 114
174 171 114
175 171 114
175 171 114
175 172 114
175 172 114
176 172 114
176 172 114
177 172 114
177 172 114
178 173 114
178 173 114
178 173 114
179 173 114
179 174 114
180 174 114
180 174 114
181 174 114
182 175 114
183 175 114
184 176 114
191 188 153
199 205 198
206 220 234
204 215 223
211 230 255
211 230 255
211 230 255
211 230 255
211 230 255
211 230 255
211 230 255
211 230 255
211 230 255
211 230 255
211 230 255
211 230 255
211 230 255
211 230 255
212 230 255
212 230 255
212 230 255
212 230 255
211 230 255
211 230 255
211 230 255
211 230 255
211 230 255
211 230 255
209 228 253
201 220 245
194 212 237
187 206 231
184 203 228
183 202 228
182 202 228
182 202 228
180 201 228
180 201 228
179 200 228
179 200 228
179 200 228
178 200 228
178 200 228
177 199 228
177 199 228
177 199 228
176 199 228
176 199 228
175 198 228
175 198 228
175 198 228
174 198 228
174 198 228
174 197 228
173 197 228
173 197 228
173 197 228
173 197 228
172 197 228
172 196 228
172 196 228
171 196 228
171 196 228
171 196 228
171 196 228
170 196 228
170 196 228
170 196 228
170 195 228
170 195 228
170 195 228
170 195 228
169 195 228
169 195 228
169 195 228
169 195 228
169 195 228
169 195 228
169 195 228
169 195 228
169 195 228
169 195 228
169 195 228
169 195 228
169 195 228
169 195 228
169 195 228
169 195 228
169 195 228
169 195 228
170 195 228
170 195 228
170 195 228
170 196 228
170 196 228
171 196 228
171 196 228
172 197 228
172 197 228
174 197 228
174 197 228
175 198 228
177 199 228
178 200 228
178 200 228
186 206 234
200 220 248
205 226 253
208 228 255
208 228 255
208 228 255
207 228 255
207 228 255
207 228 255
207 228 255
207 228 255
207 228 255
207 228 255
207 228 255
207 228 255
207 228 255
207 228 255
207 228 255
207 228 255
207 227 255
207 227 255
207 227 255
207 227 255
206 227 255
206 227 255
206 227 255
206 227 255
206 227 255
206 227 255
206 227 255
206 227 255
206 227 255
206 227 255
206 227 255
206 227 255
206 227 255
206 227 255
206 227 255
206 227 255
206 227 255
206 227 255
205 227 255
205 227 255
205 227 255
205 227 255
205 227 255
205 227 255
205 227 255
205 227 255
205 227 255
205 227 255
205 227 255
205 226 255
205 226 255
205 226 255
205 226 255
205 226 255
205 226 255
205 226 255
205 226 255
204 226 255
204 226 255
204 226 255
204 226 255
204 226 255
204 226 255
204 226 255
204 226 255
204 226 255
204 226 255
204 226 255
204 226 255
204 226 255
204 226 255
204 226 255
204 226 255
204 226 255
204 226 255
204 226 255
204 226 255
204 226 255
204 226 255
204 226 255
204 226 255
204 226 255
203 226 255
203 226 255
203 226 255
203 226 255
203 226 255
203 226 255
203 226 255
203 226 255
203 226 255
203 226 255
203 226 255
203 226 255
203 226 255
203 226 255
203 226 255
203 226 255
203 226 255
203 226 255
203 226 255
203 225 255
203 226 255
203 226 255
203 225 255
203 226 255
203 226 255
203 226 255
203 226 255
203 226 255
203 226 255
203 226 255
203 226 255
203 226 255
203 226 255
203 226 255
203 226 255
203 226 255
203 226 255
203 226 255
203 226 255
203 226 255
203 226 255
203 226 255
203 226 255
203 226 255
203 226 255
203 226 255
203 226 255
203 226 255
203 226 255
203 226 255
203 226 255
203 226 255
203 226 255
203 226 255
203 226 255
204 226 255
204 226 255
204 226 255
204 226 255
204 226 255
204 226 255
204 226 255
204 226 255
204 226 255
204 226 255
204 226 255
204 226 255
204 226 255
204 226 255
204 226 255
204 226 255
204 226 255
204 226 255
204 226 255
204 226 255
204 226 255
204 226 255
204 226 255
204 226 255
204 226 255
204 226 255
205 226 255
205 226 255
205 226 255
205 226 255
205 226 255
205 226 255
205 226 255
205 226 255
205 227 255
205 227 255
205 227 255
205 227 255
205 227 255
205 227 255
205 227 255
205 227 255
205 227 255
205 227 255
206 227 255
206 227 255
206 227 255
206 227 255
206 227 255
206 227 255
206 227 255
206 227 255
206 227 255
206 227 255
206 227 255
206 227 255
206 227 255
206 227 255
206 227 255
206 227 255
206 227 255
206 227 255
206 227 255
207 227 255
207 227 255
207 227 255
207 227 255
207 227 255
207 228 255
207 228 255
207 228 255
207 228 255
207 228 255
207 228 255
207 228 255
207 228 255
207 228 255
207 228 255
207 228 255
207 228 255
207 228 255
208 228 255
208 228 255
205 223 245
201 214 223
188 192 169
183 180 135
176 172 114
176 172 114
175 171 114
174 171 114
174 171 114
172 170 114
172 170 114
171 170 114
171 170 114
171 170 114
170 169 114
170 169 114
170 169 114
169 169 114
170 169 114
169 169 114
169 169 114
169 169 114
169 169 114
169 169 114
169 169 114
169 169 114
169 169 114
169 169 114
169 169 114
169 169 114
169 169 114
169 169 114
169 169 114
169 169 114
169 169 114
169 169 114
169 169 114
170 169 114
170 169 114
170 169 114
170 169 114
170 169 114
170 169 114
171 170 114
171 170 114
171 170 114
172 170 114
172 170 114
172 170 114
172 170 114
172 170 114
173 170 114
173 171 114
173 171 114
173 171 114
174 171 114
174 171 114
175 171 114
175 171 114
175 172 114
176 172 114
176 172 114
176 172 114
177 172 114
177 172 114
178 173 114
178 173 114
178 173 114
179 173 114
180 174 114
180 174 114
181 174 114
181 175 114
182 175 114
183 175 114
184 176 114
185 176 114
201 210 211
206 220 234
209 225 245
211 230 255
211 230 255
211 230 255
211 230 255
211 230 255
211 230 255
212 230 255
212 230 255
212 230 255
212 230 255
212 230 255
212 230 255
212 230 255
212 230 255
212 230 255
212 230 255
212 230 255
212 230 255
194 212 237
194 212 237
186 204 228
184 203 228
183 202 228
182 202 228
181 202 228
181 201 228
180 201 228
180 201 228
179 200 228
178 200 228
178 200 228
178 200 228
177 199 228
177 199 228
177 199 228
176 199 228
176 198 228
175 198 228
175 198 228
175 198 228
174 198 228
174 197 228
174 197 228
173 197 228
173 197 228
173 197 228
172 197 228
172 197 228
172 196 228
171 196 228
171 196 228
171 196 228
171 196 228
170 196 228
170 196 228
170 196 228
170 195 228
169 195 228
169 195 228
169 195 228
169 195 228
169 195 228
169 195 228
168 195 228
168 195 228
168 195 228
168 194 228
168 194 228
168 194 228
168 194 228
168 194 228
168 194 228
167 194 228
167 194 228
167 194 228
167 194 228
167 194 228
167 194 228
167 194 228
167 194 228
167 194 228
168 194 228
168 194 228
168 195 228
168 194 228
168 195 228
168 195 228
169 195 228
169 195 228
170 195 228
170 195 228
171 196 228
171 196 228
171 196 228
172 196 228
172 197 228
174 198 228
174 198 228
176 199 228
179 200 228
191 212 240
195 215 242
205 226 253
208 228 255
208 228 255
208 228 255
207 228 255
207 228 255
207 228 255
207 228 255
207 228 255
207 228 255
207 228 255
207 228 255
207 228 255
207 228 255
207 228 255
207 228 255
207 228 255
207 227 255
207 227 255
207 227 255
207 227 255
207 227 255
206 227 255
206 227 255
206 227 255
206 227 255
206 227 255
206 227 255
206 227 255
206 227 255
206 227 255
206 227 255
206 227 255
206 227 255
206 227 255
206 227 255
206 227 255
206 227 255
206 227 255
206 227 255
205 227 255
205 227 255
205 227 255
205 227 255
205 227 255
205 227 255
205 227 255
205 227 255
205 227 255
205 227 255
205 227 255
205 227 255
205 226 255
205 226 255
205 226 255
205 226 255
205 226 255
205 226 255
205 226 255
205 226 255
205 226 255
204 226 255
204 226 255
204 226 255
204 226 255
204 226 255
204 226 255
204 226 255
204 226 255
204 226 255
204 226 255
204 226 255
204 226 255
204 226 255
204 226 255
204 226 255
204 226 255
204 226 255
204 226 255
204 226 255
204 226 255
204 226 255
204 226 255
204 226 255
204 226 255
204 226 255
204 226 255
204 226 255
204 226 255
204 226 255
204 226 255
203 226 255
203 226 255
203 226 255
203 226 255
203 226 255
203 226 255
203 226 255
203 226 255
203 226 255
203 226 255
203 226 255
203 226 255
203 226 255
203 226 255
203 226 255
203 226 255
203 226 255
203 226 255
203 226 255
203 226 255
203 226 255
203 226 255
203 226 255
203 226 255
203 226 255
203 226 255
203 226 255
203 226 255
203 226 255
203 226 255
203 226 255
203 226 255
203 226 255
203 226 255
203 226 255
203 226 255
204 226 255
204 226 255
204 226 255
204 226 255
204 226 255
204 226 255
204 226 255
204 226 255
204 226 255
204 226 255
204 226 255
204 226 255
204 226 255
204 226 255
204 226 255
204 226 255
204 226 255
204 226 255
204 226 255
204 226 255
204 226 255
204 226 255
204 226 255
204 226 255
204 226 255
204 226 255
204 226 255
204 226 255
204 226 255
205 226 255
205 226 255
205 226 255
205 226 255
205 226 255
205 226 255
205 226 255
205 226 255
205 227 255
205 227 255
205 227 255
205 227 255
205 227 255
205 227 255
205 227 255
205 227 255
205 227 255
205 227 255
205 227 255
205 227 255
206 227 255
206 227 255
206 227 255
206 227 255
206 227 255
206 227 255
206 227 255
206 227 255
206 227 255
206 227 255
206 227 255
206 227 255
206 227 255
206 227 255
206 227 255
206 227 255
206 227 255
206 227 255
206 227 255
207 227 255
207 227 255
207 227 255
207 227 255
207 228 255
207 228 255
207 228 255
207 228 255
207 228 255
207 228 255
207 228 255
207 228 255
207 228 255
207 228 255
207 228 255
207 228 255
207 228 255
208 228 255
208 228 255
208 228 255
205 223 245
190 192 169
194 203 198
178 173 114
176 172 114
175 171 114
174 171 114
173 171 114
172 170 114
171 170 114
171 170 114
170 169 114
169 169 114
170 169 114
169 169 114
169 169 114
168 168 114
168 168 114
168 168 114
168 168 114
168 168 114
167 168 114
168 168 114
167 168 114
167 168 114
167 168 114
167 168 114
167 168 114
168 168 114
168 168 114
167 168 114
168 168 114
168 168 114
168 168 114
168 168 114
168 168 114
168 168 114
168 168 114
168 169 114
168 169 114
169 169 114
169 169 114
169 169 114
169 169 114
169 169 114
170 169 114
170 169 114
170 169 114
170 169 114
170 169 114
171 170 114
171 170 114
171 170 114
171 170 114
172 170 114
172 170 114
172 170 114
173 170 114
173 170 114
173 171 114
173 171 114
174 171 114
174 171 114
175 171 114
175 171 114
175 172 114
176 172 114
176 172 114
176 172 114
177 172 114
177 172 114
178 173 114
178 173 114
178 173 114
179 173 114
179 174 114
180 174 114
181 174 114
181 174 114
183 175 114
183 175 114
184 176 114
185 176 114
192 189 153
207 220 234
209 225 245
212 230 255
212 230 255
212 230 255
212 230 255
212 230 255
212 230 255
212 230 255
212 230 255
212 230 255
212 230 255
212 230 255
212 230 255
207 225 250
185 204 228
185 203 228
184 203 228
183 202 228
182 202 228
182 202 228
181 201 228
180 201 228
180 201 228
179 200 228
179 200 228
178 200 228
178 200 228
177 199 228
177 199 228
177 199 228
176 199 228
176 198 228
175 198 228
175 198 228
175 198 228
174 198 228
174 198 228
174 197 228
173 197 228
173 197 228
173 197 228
172 197 228
172 197 228
172 196 228
172 196 228
171 196 228
171 196 228
171 196 228
170 196 228
170 196 228
170 195 228
170 195 228
170 195 228
169 195 228
169 195 228
169 195 228
169 195 228
168 195 228
168 195 228
168 194 228
168 194 228
168 194 228
167 194 228
167 194 228
167 194 228
167 194 228
167 194 228
167 194 228
167 194 228
167 194 228
167 194 228
166 194 228
166 194 228
166 194 228
166 194 228
166 193 228
166 194 228
166 194 228
166 193 228
166 194 228
166 194 228
166 194 228
166 194 228
167 194 228
167 194 228
167 194 228
167 194 228
168 194 228
168 194 228
168 194 228
169 195 228
169 195 228
169 195 228
170 195 228
171 196 228
171 196 228
172 196 228
173 197 228
174 198 228
175 198 228
177 199 228
191 212 240
195 215 242
203 223 250
208 228 255
208 228 255
208 228 255
208 228 255
207 228 255
207 228 255
207 228 255
207 228 255
207 228 255
207 228 255
207 228 255
207 228 255
207 228 255
207 228 255
207 228 255
207 228 255
207 228 255
207 227 255
207 227 255
207 227 255
207 227 255
207 227 255
206 227 255
206 227 255
206 227 255
206 227 255
206 227 255
206 227 255
206 227 255
206 227 255
206 227 255
206 227 255
206 227 255
206 227 255
206 227 255
206 227 255
206 227 255
206 227 255
206 227 255
206 227 255
206 227 255
205 227 255
205 227 255
205 227 255
205 227 255
205 227 255
205 227 255
205 227 255
205 227 255
205 227 255
205 227 255
205 227 255
205 226 255
205 226 255
205 226 255
205 226 255
205 226 255
205 226 255
205 226 255
205 226 255
205 226 255
205 226 255
204 226 255
204 226 255
204 226 255
204 226 255
204 226 255
204 226 255
204 226 255
204 226 255
204 226 255
204 226 255
204 226 255
204 226 255
204 226 255
204 226 255
204 226 255
204 226 255
204 226 255
204 226 255
204 226 255
204 226 255
204 226 255
204 226 255
204 226 255
204 226 255
204 226 255
204 226 255
204 226 255
204 226 255
204 226 255
204 226 255
204 226 255
204 226 255
204 226 255
204 226 255
204 226 255
204 226 255
204 226 255
204 226 255
204 226 255
204 226 255
204 226 255
204 226 255
204 226 255
204 226 255
204 226 255
204 226 255
204 226 255
204 226 255
204 226 255
204 226 255
204 226 255
204 226 255
204 226 255
204 226 255
204 226 255
204 226 255
204 226 255
204 226 255
204 226 255
204 226 255
204 226 255
204 226 255
204 226 255
204 226 255
204 226 255
204 226 255
204 226 255
204 226 255
204 226 255
204 226 255
204 226 255
204 226 255
204 226 255
204 226 255
204 226 255
204 226 255
204 226 255
204 226 255
204 226 255
204 226 255
204 226 255
204 226 255
204 226 255
204 226 255
205 226 255
205 226 255
205 226 255
205 226 255
205 226 255
205 226 255
205 226 255
205 226 255
205 226 255
205 227 255
205 227 255
205 227 255
205 227 255
205 227 255
205 227 255
205 227 255
205 227 255
205 227 255
205 227 255
205 227 255
205 227 255
205 227 255
206 227 255
206 227 255
206 227 255
206 227 255
206 227 255
206 227 255
206 227 255
206 227 255
206 227 255
206 227 255
206 227 255
206 227 255
206 227 255
206 227 255
206 227 255
206 227 255
206 227 255
206 227 255
207 227 255
207 227 255
207 227 255
207 227 255
207 228 255
207 228 255
207 228 255
207 228 255
207 228 255
207 228 255
207 228 255
207 228 255
207 228 255
207 228 255
207 228 255
207 228 255
207 228 255
207 228 255
208 228 255
208 228 255
208 228 255
208 228 255
203 219 234
195 203 198
184 185 153
177 172 114
175 172 114
174 171 114
174 171 114
172 170 114
171 170 114
170 169 114
170 169 114
170 169 114
170 169 114
168 168 114
168 168 114
168 168 114
167 168 114
167 168 114
167 168 114
167 168 114
167 168 114
167 168 114
167 168 114
166 168 114
166 168 114
166 168 114
166 168 114
166 168 114
166 168 114
166 168 114
166 168 114
167 168 114
167 168 114
167 168 114
167 168 114
167 168 114
167 168 114
167 168 114
167 168 114
167 168 114
167 168 114
167 168 114
168 168 114
168 168 114
168 168 114
168 168 114
168 168 114
169 169 114
169 169 114
169 169 114
169 169 114
169 169 114
170 169 114
170 169 114
170 169 114
170 169 114
171 170 114
171 170 114
171 170 114
172 170 114
172 170 114
172 170 114
172 170 114
173 170 114
173 171 114
173 171 114
174 171 114
174 171 114
174 171 114
175 171 114
175 172 114
175 172 114
176 172 114
176 172 114
176 172 114
177 172 114
177 173 114
178 173 114
178 173 114
179 173 114
179 173 114
180 174 114
180 174 114
181 174 114
181 174 114
183 175 114
183 175 114
184 176 114
185 176 114
188 183 135
192 189 153
205 216 223
212 230 255
212 230 255
212 230 255
212 230 255
212 230 255
207 226 250
200 218 242
192 210 234
185 203 228
184 203 228
184 203 228
182 202 228
182 202 228
181 201 228
181 201 228
180 201 228
180 201 228
179 200 228
178 200 228
178 200 228
178 200 228
177 199 228
177 199 228
176 199 228
176 199 228
176 198 228
175 198 228
175 198 228
175 198 228
174 198 228
174 198 228
173 197 228
173 197 228
173 197 228
173 197 228
172 197 228
172 197 228
172 196 228
171 196 228
171 196 228
171 196 228
171 196 228
170 196 228
170 196 228
170 195 228
170 195 228
169 195 228
169 195 228
169 195 228
169 195 228
168 195 228
168 195 228
168 194 228
168 194 228
168 194 228
167 194 228
167 194 228
167 194 228
167 194 228
167 194 228
166 194 228
166 194 228
166 193 228
166 193 228
166 193 228
166 193 228
166 193 228
166 193 228
166 193 228
165 193 228
165 193 228
165 193 228
165 193 228
165 193 228
165 193 228
165 193 228
165 193 228
165 193 228
165 193 228
165 193 228
166 193 228
166 193 228
166 193 228
166 194 228
166 193 228
167 194 228
167 194 228
167 194 228
167 194 228
168 194 228
168 195 228
169 195 228
169 195 228
170 196 228
170 196 228
171 196 228
173 197 228
174 198 228
175 198 228
177 199 228
181 203 231
191 212 240
193 213 240
208 228 255
208 228 255
208 228 255
208 228 255
208 228 255
207 228 255
207 228 255
207 228 255
207 228 255
207 228 255
207 228 255
207 228 255
207 228 255
207 228 255
207 228 255
207 228 255
207 228 255
207 228 255
207 228 255
207 227 255
207 227 255
207 227 255
207 227 255
206 227 255
206 227 255
206 227 255
206 227 255
206 227 255
206 227 255
206 227 255
206 227 255
206 227 255
206 227 255
206 227 255
206 227 255
206 227 255
206 227 255
206 227 255
206 227 255
206 227 255
206 227 255
206 227 255
205 227 255
206 227 255
205 227 255
205 227 255
205 227 255
205 227 255
205 227 255
205 227 255
205 227 255
205 227 255
205 227 255
205 227 255
205 226 255
205 226 255
205 226 255
205 226 255
205 226 255
205 226 255
205 226 255
205 226 255
205 226 255
205 226 255
205 226 255
205 226 255
204 226 255
204 226 255
204 226 255
204 226 255
204 226 255
204 226 255
204 226 255
204 226 255
204 226 255
204 226 255
204 226 255
204 226 255
204 226 255
204 226 255
204 226 255
204 226 255
204 226 255
204 226 255
204 226 255
204 226 255
204 226 255
204 226 255
204 226 255
204 226 255
204 226 255
204 226 255
204 226 255
204 226 255
204 226 255
204 226 255
204 226 255
204 226 255
204 226 255
204 226 255
204 226 255
204 226 255
204 226 255
204 226 255
204 226 255
204 226 255
204 226 255
204 226 255
204 226 255
204 226 255
204 226 255
204 226 255
204 226 255
204 226 255
204 226 255
204 226 255
204 226 255
204 226 255
204 226 255
204 226 255
204 226 255
204 226 255
204 226 255
204 226 255
204 226 255
204 226 255
204 226 255
204 226 255
204 226 255
204 226 255
204 226 255
204 226 255
204 226 255
204 226 255
204 226 255
204 226 255
204 226 255
205 226 255
205 226 255
205 226 255
205 226 255
205 226 255
205 226 255
205 226 255
205 226 255
205 226 255
205 227 255
205 227 255
205 227 255
205 227 255
205 227 255
205 227 255
205 227 255
205 227 255
205 227 255
205 227 255
205 227 255
205 227 255
205 227 255
205 227 255
206 227 255
206 227 255
206 227 255
206 227 255
206 227 255
206 227 255
206 227 255
206 227 255
206 227 255
206 227 255
206 227 255
206 227 255
206 227 255
206 227 255
206 227 255
206 227 255
206 227 255
206 227 255
206 227 255
207 227 255
207 227 255
207 227 255
207 227 255
207 228 255
207 228 255
207 228 255
207 228 255
207 228 255
207 228 255
207 228 255
207 228 255
207 228 255
207 228 255
207 228 255
207 228 255
207 228 255
207 228 255
208 228 255
208 228 255
208 228 255
208 228 255
208 228 255
205 223 245
186 186 153
179 173 114
177 172 114
175 171 114
174 171 114
172 170 114
172 170 114
171 170 114
170 169 114
169 169 114
169 169 114
168 168 114
168 168 114
168 168 114
167 168 114
167 168 114
167 168 114
166 167 114
166 167 114
166 167 114
166 167 114
166 167 114
165 167 114
165 167 114
165 167 114
165 167 114
165 167 114
165 167 114
165 167 114
165 167 114
165 167 114
165 167 114
166 167 114
166 167 114
166 167 114
166 167 114
166 167 114
166 167 114
166 168 114
166 168 114
166 168 114
166 168 114
167 168 114
167 168 114
167 168 114
167 168 114
167 168 114
168 168 114
168 168 114
168 168 114
168 168 114
168 169 114
169 169 114
169 169 114
169 169 114
169 169 114
170 169 114
170 169 114
170 169 114
170 169 114
171 170 114
171 170 114
171 170 114
171 170 114
172 170 114
172 170 114
172 170 114
173 170 114
173 171 114
173 171 114
174 171 114
174 171 114
174 171 114
175 171 114
175 171 114
175 172 114
176 172 114
176 172 114
176 172 114
177 172 114
177 172 114
178 173 114
178 173 114
179 173 114
179 173 114
179 174 114
180 174 114
181 174 114
181 174 114
182 175 114
182 175 114
183 175 114
184 176 114
185 176 114
189 183 135
200 205 198
210 226 245
212 230 255
189 207 231
186 204 228
184 203 228
184 203 228
183 202 228
182 202 228
182 202 228
181 201 228
181 201 228
180 201 228
179 201 228
179 200 228
179 200 228
178 200 228
178 199 228
177 199 228
177 199 228
177 199 228
176 199 228
176 199 228
175 198 228
175 198 228
175 198 228
174 198 228
174 198 228
174 197 228
173 197 228
173 197 228
173 197 228
172 197 228
172 197 228
172 196 228
171 196 228
171 196 228
171 196 228
171 196 228
170 196 228
170 196 228
170 195 228
170 195 228
169 195 228
169 195 228
169 195 228
169 195 228
168 195 228
168 194 228
168 194 228
168 194 228
167 194 228
167 194 228
167 194 228
167 194 228
167 194 228
166 194 228
166 194 228
166 193 228
166 193 228
166 193 228
166 193 228
165 193 228
165 193 228
165 193 228
165 193 228
165 193 228
165 193 228
165 193 228
165 193 228
165 193 228
165 193 228
165 193 228
165 193 228
165 193 228
164 193 228
164 193 228
164 193 228
164 193 228
165 193 228
165 193 228
165 193 228
165 193 228
165 193 228
165 193 228
165 193 228
166 193 228
166 193 228
166 194 228
167 194 228
167 194 228
167 194 228
168 194 228
168 195 228
169 195 228
170 196 228
171 196 228
171 196 228
173 197 228
174 197 228
176 199 228
177 199 228
179 200 228
195 215 242
208 228 255
208 228 255
208 228 255
208 228 255
208 228 255
208 228 255
208 228 255
207 228 255
207 228 255
207 228 255
207 228 255
207 228 255
207 228 255
207 228 255
207 228 255
207 228 255
207 228 255
207 228 255
207 228 255
207 228 255
207 228 255
207 227 255
207 227 255
207 227 255
207 227 255
207 227 255
206 227 255
206 227 255
206 227 255
206 227 255
206 227 255
206 227 255
206 227 255
206 227 255
206 227 255
206 227 255
206 227 255
206 227 255
206 227 255
206 227 255
206 227 255
206 227 255
206 227 255
206 227 255
206 227 255
205 227 255
205 227 255
205 227 255
205 227 255
205 227 255
205 227 255
205 227 255
205 227 255
205 227 255
205 227 255
205 227 255
205 227 255
205 227 255
205 227 255
205 226 255
205 226 255
205 226 255
205 226 255
205 226 255
205 226 255
205 226 255
205 226 255
205 226 255
205 226 255
205 226 255
205 226 255
204 226 255
204 226 255
204 226 255
204 226 255
204 226 255
204 226 255
204 226 255
204 226 255
204 226 255
204 226 255
204 226 255
204 226 255
204 226 255
204 226 255
204 226 255
204 226 255
204 226 255
204 226 255
204 226 255
204 226 255
204 226 255
204 226 255
204 226 255
204 226 255
204 226 255
204 226 255
204 226 255
204 226 255
204 226 255
204 226 255
204 226 255
204 226 255
204 226 255
204 226 255
204 226 255
204 226 255
204 226 255
204 226 255
204 226 255
204 226 255
204 226 255
204 226 255
204 226 255
204 226 255
204 226 255
204 226 255
204 226 255
204 226 255
204 226 255
204 226 255
204 226 255
204 226 255
204 226 255
204 226 255
204 226 255
205 226 255
204 226 255
205 226 255
205 226 255
205 226 255
205 226 255
205 226 255
205 226 255
205 226 255
205 226 255
205 226 255
205 226 255
205 226 255
205 227 255
205 227 255
205 227 255
205 227 255
205 227 255
205 227 255
205 227 255
205 227 255
205 227 255
205 227 255
205 227 255
205 227 255
205 227 255
205 227 255
206 227 255
206 227 255
206 227 255
206 227 255
206 227 255
206 227 255
206 227 255
206 227 255
206 227 255
206 227 255
206 227 255
206 227 255
206 227 255
206 227 255
206 227 255
206 227 255
206 227 255
206 227 255
206 227 255
206 227 255
207 227 255
207 227 255
207 227 255
207 227 255
207 227 255
207 228 255
207 228 255
207 228 255
207 228 255
207 228 255
207 228 255
207 228 255
207 228 255
207 228 255
207 228 255
207 228 255
207 228 255
208 228 255
208 228 255
208 228 255
208 228 255
208 228 255
208 228 255
208 228 255
203 219 234
195 203 198
189 192 169
177 172 114
176 172 114
174 171 114
173 170 114
171 170 114
170 169 114
170 169 114
169 169 114
168 169 114
168 168 114
167 168 114
167 168 114
166 168 114
166 168 114
166 167 114
166 167 114
165 167 114
165 167 114
165 167 114
165 167 114
165 167 114
165 167 114
165 167 114
165 167 114
165 167 114
165 167 114
164 167 114
164 167 114
164 167 114
164 167 114
165 167 114
165 167 114
165 167 114
165 167 114
165 167 114
165 167 114
165 167 114
165 167 114
165 167 114
166 167 114
166 167 114
166 167 114
166 167 114
166 167 114
166 168 114
166 168 114
167 168 114
167 168 114
167 168 114
167 168 114
167 168 114
168 168 114
168 168 114
168 168 114
168 168 114
169 169 114
169 169 114
169 169 114
169 169 114
170 169 114
170 169 114
170 169 114
170 169 114
171 170 114
171 170 114
171 170 114
171 170 114
172 170 114
172 170 114
172 170 114
173 170 114
173 171 114
173 171 114
174 171 114
174 171 114
174 171 114
175 171 114
175 172 114
175 172 114
176 172 114
176 172 114
176 172 114
177 172 114
177 173 114
178 173 114
178 173 114
179 173 114
179 173 114
180 174 114
180 174 114
180 174 114
181 174 114
182 175 114
182 175 114
183 175 114
184 176 114
185 176 114
188 183 135
195 195 169
184 203 228
184 203 228
183 202 228
182 202 228
182 202 228
181 201 228
181 201 228
180 201 228
179 201 228
179 200 228
178 200 228
178 200 228
178 200 228
177 199 228
177 199 228
177 199 228
176 199 228
176 199 228
175 198 228
175 198 228
175 198 228
174 198 228
174 198 228
174 197 228
174 197 228
173 197 228
173 197 228
172 197 228
172 197 228
172 197 228
172 196 228
171 196 228
171 196 228
171 196 228
171 196 228
170 196 228
170 195 228
170 195 228
169 195 228
169 195 228
169 195 228
169 195 228
168 195 228
168 195 228
168 194 228
168 194 228
168 194 228
167 194 228
167 194 228
167 194 228
167 194 228
166 194 228
166 194 228
166 193 228
166 193 228
166 193 228
166 193 228
165 193 228
165 193 228
165 193 228
165 193 228
165 193 228
165 193 228
165 193 228
164 193 228
164 193 228
164 192 228
164 192 228
164 192 228
164 192 228
164 192 228
164 192 228
164 192 228
164 192 228
164 192 228
164 192 228
164 192 228
164 192 228
164 192 228
164 192 228
164 192 228
164 192 228
164 193 228
164 193 228
165 193 228
165 193 228
165 193 228
165 193 228
166 193 228
166 193 228
166 194 228
167 194 228
167 194 228
168 195 228
169 195 228
170 195 228
170 196 228
171 196 228
173 197 228
175 198 228
177 199 228
178 200 228
195 215 242
198 218 245
208 228 255
208 228 255
208 228 255
208 228 255
208 228 255
208 228 255
208 228 255
208 228 255
207 228 255
207 228 255
207 228 255
207 228 255
207 228 255
207 228 255
207 228 255
207 228 255
207 228 255
207 228 255
207 228 255
207 228 255
207 228 255
207 228 255
207 227 255
207 227 255
207 227 255
207 227 255
207 227 255
207 227 255
206 227 255
206 227 255
206 227 255
206 227 255
206 227 255
206 227 255
206 227 255
206 227 255
206 227 255
206 227 255
206 227 255
206 227 255
206 227 255
206 227 255
206 227 255
206 227 255
206 227 255
206 227 255
206 227 255
206 227 255
205 227 255
205 227 255
205 227 255
205 227 255
205 227 255
205 227 255
205 227 255
205 227 255
205 227 255
205 227 255
205 227 255
205 227 255
205 227 255
205 227 255
205 227 255
205 227 255
205 226 255
205 226 255
205 226 255
205 226 255
205 226 255
205 226 255
205 226 255
205 226 255
205 226 255
205 226 255
205 226 255
205 226 255
205 226 255
205 226 255
204 226 255
205 226 255
204 226 255
204 226 255
204 226 255
204 226 255
204 226 255
204 226 255
204 226 255
204 226 255
204 226 255
204 226 255
204 226 255
204 226 255
204 226 255
204 226 255
204 226 255
204 226 255
204 226 255
204 226 255
204 226 255
204 226 255
204 226 255
204 226 255
204 226 255
204 226 255
204 226 255
204 226 255
204 226 255
204 226 255
204 226 255
204 226 255
204 226 255
204 226 255
204 226 255
205 226 255
204 226 255
205 226 255
205 226 255
205 226 255
205 226 255
205 226 255
205 226 255
205 226 255
205 226 255
205 226 255
205 226 255
205 226 255
205 226 255
205 226 255
205 226 255
205 227 255
205 227 255
205 227 255
205 227 255
205 227 255
205 227 255
205 227 255
205 227 255
205 227 255
205 227 255
205 227 255
205 227 255
205 227 255
205 227 255
205 227 255
206 227 255
206 227 255
206 227 255
206 227 255
206 227 255
206 227 255
206 227 255
206 227 255
206 227 255
206 227 255
206 227 255
206 227 255
206 227 255
206 227 255
206 227 255
206 227 255
206 227 255
206 227 255
206 227 255
206 227 255
206 227 255
207 227 255
207 227 255
207 227 255
207 227 255
207 227 255
207 228 255
207 228 255
207 228 255
207 228 255
207 228 255
207 228 255
207 228 255
207 228 255
207 228 255
207 228 255
207 228 255
207 228 255
207 228 255
207 228 255
208 228 255
208 228 255
208 228 255
208 228 255
208 228 255
208 228 255
208 228 255
208 228 255
203 218 234
192 198 184
182 179 135
176 172 114
174 171 114
173 171 114
171 170 114
171 170 114
170 169 114
169 169 114
168 168 114
167 168 114
167 168 114
167 168 114
166 168 114
166 167 114
166 167 114
165 167 114
165 167 114
165 167 114
165 167 114
164 167 114
164 167 114
164 167 114
164 167 114
164 167 114
164 166 114
164 166 114
164 166 114
164 166 114
164 166 114
164 166 114
164 166 114
164 166 114
164 167 114
164 167 114
164 167 114
164 167 114
164 167 114
164 167 114
165 167 114
165 167 114
165 167 114
165 167 114
165 167 114
165 167 114
165 167 114
166 167 114
166 167 114
166 167 114
166 167 114
166 168 114
166 168 114
167 168 114
167 168 114
167 168 114
167 168 114
168 168 114
168 168 114
168 168 114
168 168 114
168 169 114
169 169 114
169 169 114
169 169 114
169 169 114
170 169 114
170 169 114
170 169 114
170 169 114
171 170 114
171 170 114
171 170 114
172 170 114
172 170 114
172 170 114
173 170 114
173 171 114
173 171 114
173 171 114
174 171 114
174 171 114
175 171 114
175 171 114
175 172 114
175 172 114
176 172 114
176 172 114
177 172 114
177 172 114
177 173 114
178 173 114
178 173 114
179 173 114
179 173 114
180 174 114
180 174 114
181 174 114
181 174 114
182 175 114
182 175 114
183 175 114
183 175 114
184 176 114
183 202 228
182 202 228
182 202 228
181 201 228
180 201 228
180 201 228
180 201 228
179 200 228
179 200 228
178 200 228
178 200 228
178 200 228
177 199 228
177 199 228
177 199 228
176 199 228
176 199 228
175 198 228
175 198 228
175 198 228
174 198 228
174 198 228
174 197 228
173 197 228
173 197 228
173 197 228
173 197 228
172 197 228
172 196 228
172 196 228
171 196 228
171 196 228
171 196 228
171 196 228
170 196 228
170 195 228
170 195 228
169 195 228
169 195 228
169 195 228
169 195 228
168 195 228
168 195 228
168 194 228
168 194 228
167 194 228
167 194 228
167 194 228
167 194 228
167 194 228
166 194 228
166 194 228
166 193 228
166 193 228
166 193 228
165 193 228
165 193 228
165 193 228
165 193 228
165 193 228
165 193 228
164 193 228
164 193 228
164 192 228
164 192 228
164 192 228
164 192 228
164 192 228
164 192 228
163 192 228
163 192 228
163 192 228
163 192 228
163 192 228
163 192 228
163 192 228
163 192 228
163 192 228
163 192 228
163 192 228
163 192 228
163 192 228
164 192 228
164 192 228
164 192 228
164 192 228
164 192 228
164 193 228
165 193 228
165 193 228
165 193 228
165 193 228
166 193 228
166 194 228
167 194 228
168 194 228
168 195 228
169 195 228
170 195 228
171 196 228
172 196 228
174 197 228
175 198 228
179 200 228
182 203 231
203 223 250
204 223 250
208 228 255
208 228 255
208 228 255
208 228 255
208 228 255
208 228 255
208 228 255
208 228 255
208 228 255
207 228 255
207 228 255
207 228 255
207 228 255
207 228 255
207 228 255
207 228 255
207 228 255
207 228 255
207 228 255
207 228 255
207 228 255
207 228 255
207 228 255
207 228 255
207 227 255
207 227 255
207 227 255
207 227 255
206 227 255
206 227 255
206 227 255
206 227 255
206 227 255
206 227 255
206 227 255
206 227 255
206 227 255
206 227 255
206 227 255
206 227 255
206 227 255
206 227 255
206 227 255
206 227 255
206 227 255
206 227 255
206 227 255
206 227 255
206 227 255
206 227 255
206 227 255
205 227 255
205 227 255
205 227 255
205 227 255
205 227 255
205 227 255
205 227 255
205 227 255
205 227 255
205 227 255
205 227 255
205 227 255
205 227 255
205 227 255
205 227 255
205 227 255
205 227 255
205 226 255
205 226 255
205 226 255
205 226 255
205 226 255
205 226 255
205 226 255
205 226 255
205 226 255
205 226 255
205 226 255
205 226 255
205 226 255
205 226 255
205 226 255
205 226 255
205 226 255
205 226 255
205 226 255
205 226 255
205 226 255
205 226 255
205 226 255
205 226 255
205 226 255
205 226 255
205 226 255
205 226 255
205 226 255
205 226 255
205 226 255
205 226 255
205 226 255
205 226 255
205 226 255
205 226 255
205 226 255
205 226 255
205 226 255
205 226 255
205 226 255
205 226 255
205 226 255
205 226 255
205 226 255
205 226 255
205 226 255
205 226 255
205 227 255
205 227 255
205 227 255
205 227 255
205 227 255
205 227 255
205 227 255
205 227 255
205 227 255
205 227 255
205 227 255
205 227 255
205 227 255
205 227 255
205 227 255
205 227 255
205 227 255
205 227 255
205 227 255
206 227 255
206 227 255
206 227 255
206 227 255
206 227 255
206 227 255
206 227 255
206 227 255
206 227 255
206 227 255
206 227 255
206 227 255
206 227 255
206 227 255
206 227 255
206 227 255
206 227 255
206 227 255
206 227 255
206 227 255
206 227 255
206 227 255
207 227 255
207 227 255
207 227 255
207 227 255
207 228 255
207 228 255
207 228 255
207 228 255
207 228 255
207 228 255
207 228 255
207 228 255
207 228 255
207 228 255
207 228 255
207 228 255
207 228 255
207 228 255
207 228 255
207 228 255
208 228 255
208 228 255
208 228 255
208 228 255
208 228 255
208 228 255
208 228 255
208 228 255
208 228 255
208 228 255
200 214 223
190 197 184
178 173 114
175 171 114
173 171 114
172 170 114
171 170 114
170 169 114
169 169 114
168 168 114
168 168 114
167 168 114
167 168 114
166 167 114
165 167 114
165 167 114
165 167 114
165 167 114
164 167 114
164 167 114
164 166 114
164 166 114
164 166 114
164 166 114
163 166 114
163 166 114
163 166 114
163 166 114
163 166 114
163 166 114
163 166 114
163 166 114
163 166 114
163 166 114
163 166 114
163 166 114
163 166 114
164 166 114
164 166 114
164 166 114
164 166 114
164 167 114
164 167 114
164 167 114
164 167 114
165 167 114
165 167 114
165 167 114
165 167 114
165 167 114
165 167 114
166 167 114
166 167 114
166 167 114
166 167 114
166 168 114
167 168 114
167 168 114
167 168 114
167 168 114
167 168 114
168 168 114
168 168 114
168 168 114
168 169 114
169 169 114
169 169 114
169 169 114
169 169 114
170 169 114
170 169 114
170 169 114
170 169 114
171 170 114
171 170 114
171 170 114
172 170 114
172 170 114
172 170 114
173 170 114
173 171 114
173 171 114
173 171 114
174 171 114
174 171 114
174 171 114
175 171 114
175 172 114
175 172 114
176 172 114
176 172 114
177 172 114
177 172 114
177 173 114
178 173 114
178 173 114
178 173 114
179 173 114
179 174 114
180 174 114
180 174 114
181 174 114
181 174 114
182 175 114
182 175 114
183 175 114
182 202 228
181 202 228
181 201 228
180 201 228
180 201 228
180 201 228
179 200 228
179 200 228
178 200 228
178 200 228
178 199 228
177 199 228
177 199 228
176 199 228
176 199 228
176 198 228
175 198 228
175 198 228
175 198 228
174 198 228
174 198 228
174 197 228
173 197 228
173 197 228
173 197 228
172 197 228
172 197 228
172 197 228
172 196 228
171 196 228
171 196 228
171 196 228
171 196 228
170 196 228
170 196 228
170 195 228
169 195 228
169 195 228
169 195 228
169 195 228
168 195 228
168 195 228
168 194 228
168 194 228
167 194 228
167 194 228
167 194 228
167 194 228
167 194 228
166 194 228
166 194 228
166 193 228
166 193 228
166 193 228
165 193 228
165 193 228
165 193 228
165 193 228
165 193 228
164 193 228
164 193 228
164 192 228
164 192 228
164 192 228
164 192 228
164 192 228
163 192 228
163 192 228
163 192 228
163 192 228
163 192 228
163 192 228
163 192 228
163 192 228
163 192 228
163 192 228
163 192 228
163 192 228
163 192 228
163 192 228
163 192 228
163 192 228
163 192 228
163 192 228
163 192 228
163 192 228
163 192 228
163 192 228
164 192 228
164 192 228
164 193 228
165 193 228
165 193 228
165 193 228
165 193 228
166 193 228
167 194 228
167 194 228
168 194 228
168 195 228
170 195 228
170 196 228
171 196 228
173 197 228
175 198 228
176 199 228
183 204 231
200 221 248
208 228 255
208 228 255
208 228 255
208 228 255
208 228 255
208 228 255
208 228 255
208 228 255
208 228 255
208 228 255
208 228 255
208 228 255
208 228 255
207 228 255
207 228 255
207 228 255
207 228 255
207 228 255
207 228 255
207 228 255
207 228 255
207 228 255
207 228 255
207 228 255
207 228 255
207 228 255
207 228 255
207 228 255
207 227 255
207 227 255
207 227 255
207 227 255
207 227 255
206 227 255
206 227 255
206 227 255
206 227 255
206 227 255
206 227 255
206 227 255
206 227 255
206 227 255
206 227 255
206 227 255
206 227 255
206 227 255
206 227 255
206 227 255
206 227 255
206 227 255
206 227 255
206 227 255
206 227 255
206 227 255
206 227 255
206 227 255
205 227 255
206 227 255
205 227 255
205 227 255
205 227 255
205 227 255
205 227 255
205 227 255
205 227 255
205 227 255
205 227 255
205 227 255
205 227 255
205 227 255
205 227 255
205 227 255
205 227 255
205 227 255
205 227 255
205 227 255
205 227 255
205 227 255
205 227 255
205 227 255
205 226 255
205 227 255
205 227 255
205 226 255
205 227 255
205 226 255
205 226 255
205 227 255
205 226 255
205 226 255
205 226 255
205 226 255
205 226 255
205 226 255
205 226 255
205 226 255
205 226 255
205 226 255
205 226 255
205 226 255
205 226 255
205 226 255
205 227 255
205 227 255
205 227 255
205 227 255
205 227 255
205 227 255
205 227 255
205 227 255
205 227 255
205 227 255
205 227 255
205 227 255
205 227 255
205 227 255
205 227 255
205 227 255
205 227 255
205 227 255
205 227 255
205 227 255
205 227 255
205 227 255
205 227 255
205 227 255
205 227 255
206 227 255
206 227 255
206 227 255
206 227 255
206 227 255
206 227 255
206 227 255
206 227 255
206 227 255
206 227 255
206 227 255
206 227 255
206 227 255
206 227 255
206 227 255
206 227 255
206 227 255
206 227 255
206 227 255
206 227 255
206 227 255
206 227 255
206 227 255
206 227 255
207 227 255
207 227 255
207 227 255
207 227 255
207 227 255
207 228 255
207 228 255
207 228 255
207 228 255
207 228 255
207 228 255
207 228 255
207 228 255
207 228 255
207 228 255
207 228 255
207 228 255
207 228 255
207 228 255
207 228 255
208 228 255
208 228 255
208 228 255
208 228 255
208 228 255
208 228 255
208 228 255
208 228 255
208 228 255
208 228 255
208 228 255
208 228 255
208 228 255
198 208 211
189 192 169
178 173 114
174 171 114
173 171 114
171 170 114
170 169 114
169 169 114
168 169 114
167 168 114
167 168 114
166 168 114
166 168 114
165 167 114
165 167 114
165 167 114
165 167 114
164 167 114
164 166 114
164 166 114
163 166 114
163 166 114
163 166 114
163 166 114
163 166 114
163 166 114
163 166 114
163 166 114
163 166 114
163 166 114
163 166 114
163 166 114
163 166 114
163 166 114
163 166 114
163 166 114
163 166 114
163 166 114
163 166 114
163 166 114
163 166 114
163 166 114
164 166 114
164 166 114
164 166 114
164 167 114
164 167 114
164 167 114
164 167 114
165 167 114
165 167 114
165 167 114
165 167 114
165 167 114
166 167 114
166 167 114
166 167 114
166 168 114
166 168 114
167 168 114
167 168 114
167 168 114
167 168 114
167 168 114
168 168 114
168 168 114
168 168 114
168 169 114
169 169 114
169 169 114
169 169 114
170 169 114
170 169 114
170 169 114
170 169 114
171 169 114
171 170 114
171 170 114
171 170 114
172 170 114
172 170 114
172 170 114
172 170 114
173 171 114
173 171 114
173 171 114
174 171 114
174 171 114
174 171 114
175 171 114
175 172 114
175 172 114
176 172 114
176 172 114
176 172 114
177 172 114
177 173 114
177 173 114
178 173 114
178 173 114
179 173 114
179 173 114
180 174 114
180 174 114
180 174 114
181 174 114
181 175 114
182 175 114
181 201 228
181 201 228
180 201 228
180 201 228
179 201 228
179 200 228
179 200 228
178 200 228
178 200 228
177 199 228
177 199 228
177 199 228
176 199 228
176 199 228
176 199 228
175 198 228
175 198 228
175 198 228
174 198 228
174 198 228
174 197 228
174 197 228
173 197 228
173 197 228
173 197 228
172 197 228
172 197 228
172 196 228
172 196 228
171 196 228
171 196 228
171 196 228
170 196 228
170 196 228
170 195 228
170 195 228
169 195 228
169 195 228
169 195 228
169 195 228
168 195 228
168 195 228
168 194 228
168 194 228
167 194 228
167 194 228
167 194 228
167 194 228
166 194 228
166 194 228
166 193 228
166 193 228
166 193 228
165 193 228
165 193 228
165 193 228
165 193 228
165 193 228
164 193 228
164 193 228
164 192 228
164 192 228
164 192 228
164 192 228
163 192 228
163 192 228
163 192 228
163 192 228
163 192 228
163 192 228
163 192 228
163 192 228
163 192 228
163 192 228
162 192 228
162 192 228
162 192 228
162 192 228
162 192 228
162 191 228
162 191 228
162 192 228
162 192 228
162 192 228
162 192 228
163 192 228
163 192 228
163 192 228
163 192 228
163 192 228
163 192 228
164 192 228
164 192 228
164 192 228
164 193 228
165 193 228
165 193 228
166 193 228
166 194 228
167 194 228
168 194 228
168 195 228
169 195 228
170 195 228
171 196 228
173 197 228
174 198 228
176 199 228
183 204 231
194 215 242
206 226 253
208 228 255
208 228 255
208 228 255
208 228 255
208 228 255
208 228 255
208 228 255
208 228 255
208 228 255
208 228 255
208 228 255
208 228 255
208 228 255
208 228 255
207 228 255
207 228 255
207 228 255
207 228 255
207 228 255
207 228 255
207 228 255
207 228 255
207 228 255
207 228 255
207 228 255
207 228 255
207 228 255
207 228 255
207 228 255
207 227 255
207 228 255
207 227 255
207 227 255
207 227 255
207 227 255
206 227 255
206 227 255
206 227 255
206 227 255
206 227 255
206 227 255
206 227 255
206 227 255
206 227 255
206 227 255
206 227 255
206 227 255
206 227 255
206 227 255
206 227 255
206 227 255
206 227 255
206 227 255
206 227 255
206 227 255
206 227 255
206 227 255
206 227 255
206 227 255
206 227 255
206 227 255
206 227 255
205 227 255
205 227 255
205 227 255
205 227 255
205 227 255
205 227 255
205 227 255
205 227 255
205 227 255
205 227 255
205 227 255
205 227 255
205 227 255
205 227 255
205 227 255
205 227 255
205 227 255
205 227 255
205 227 255
205 227 255
205 227 255
205 227 255
205 227 255
205 227 255
205 227 255
195 217 249
205 227 255
205 227 255
205 227 255
205 227 255
205 227 255
205 227 255
205 227 255
205 227 255
205 227 255
205 227 255
205 227 255
205 227 255
205 227 255
205 227 255
205 227 255
205 227 255
205 227 255
205 227 255
205 227 255
205 227 255
205 227 255
205 227 255
205 227 255
205 227 255
205 227 255
205 227 255
205 227 255
205 227 255
206 227 255
206 227 255
206 227 255
206 227 255
206 227 255
206 227 255
206 227 255
206 227 255
206 227 255
206 227 255
206 227 255
206 227 255
206 227 255
206 227 255
206 227 255
206 227 255
206 227 255
206 227 255
206 227 255
206 227 255
206 227 255
206 227 255
206 227 255
206 227 255
206 227 255
206 227 255
207 227 255
207 227 255
207 227 255
207 227 255
207 227 255
207 227 255
207 228 255
207 228 255
207 228 255
207 228 255
207 228 255
207 228 255
207 228 255
207 228 255
207 228 255
207 228 255
207 228 255
207 228 255
207 228 255
207 228 255
207 228 255
207 228 255
208 228 255
208 228 255
208 228 255
208 228 255
208 228 255
208 228 255
208 228 255
208 228 255
208 228 255
208 228 255
208 228 255
208 228 255
208 228 255
208 228 255
206 224 245
195 203 198
179 173 114
177 172 114
174 171 114
173 170 114
171 170 114
170 169 114
169 169 114
168 168 114
168 168 114
167 168 114
166 168 114
166 167 114
165 167 114
165 167 114
165 167 114
164 167 114
164 166 114
163 166 114
163 166 114
163 166 114
163 166 114
163 166 114
163 166 114
163 166 114
163 166 114
162 166 114
162 166 114
162 166 114
162 166 114
162 166 114
162 166 114
162 166 114
162 166 114
162 166 114
162 166 114
163 166 114
163 166 114
163 166 114
163 166 114
163 166 114
163 166 114
163 166 114
163 166 114
163 166 114
164 166 114
164 166 114
164 166 114
164 167 114
164 167 114
164 167 114
165 167 114
165 167 114
165 167 114
165 167 114
165 167 114
165 167 114
166 167 114
166 167 114
166 167 114
166 168 114
167 168 114
167 168 114
167 168 114
167 168 114
167 168 114
168 168 114
168 168 114
168 168 114
168 168 114
169 169 114
169 169 114
169 169 114
169 169 114
170 169 114
170 169 114
170 169 114
170 169 114
171 170 114
171 170 114
171 170 114
171 170 114
172 170 114
172 170 114
172 170 114
173 170 114
173 171 114
173 171 114
174 171 114
174 171 114
174 171 114
174 171 114
175 171 114
175 172 114
175 172 114
176 172 114
176 172 114
176 172 114
177 172 114
177 172 114
177 173 114
178 173 114
178 173 114
179 173 114
179 173 114
179 174 114
180 174 114
180 174 114
181 174 114
181 174 114
181 201 228
180 201 228
180 201 228
179 200 228
179 200 228
179 200 228
178 200 228
178 200 228
178 199 228
177 199 228
177 199 228
177 199 228
176 199 228
176 199 228
176 198 228
175 198 228
175 198 228
175 198 228
174 198 228
174 198 228
174 197 228
173 197 228
173 197 228
173 197 228
173 197 228
172 197 228
172 197 228
172 196 228
171 196 228
171 196 228
171 196 228
171 196 228
170 196 228
170 196 228
170 195 228
170 195 228
169 195 228
169 195 228
169 195 228
169 195 228
168 195 228
168 195 228
168 194 228
168 194 228
167 194 228
167 194 228
167 194 228
167 194 228
166 194 228
166 194 228
166 193 228
166 193 228
166 193 228
165 193 228
165 193 228
165 193 228
165 193 228
165 193 228
164 193 228
164 193 228
164 192 228
164 192 228
164 192 228
164 192 228
163 192 228
163 192 228
163 192 228
163 192 228
163 192 228
163 192 228
163 192 228
163 192 228
162 192 228
162 192 228
162 191 228
162 191 228
162 191 228
162 191 228
162 191 228
162 191 228
162 191 228
162 191 228
162 191 228
162 191 228
162 191 228
162 191 228
162 191 228
162 192 228
162 192 228
162 192 228
163 192 228
163 192 228
163 192 228
163 192 228
163 192 228
164 192 228
164 193 228
165 193 228
165 193 228
166 193 228
166 193 228
167 194 228
167 194 228
168 195 228
169 195 228
170 195 228
172 196 228
172 197 228
174 197 228
177 199 228
186 207 234
193 213 240
208 228 255
208 228 255
208 228 255
208 228 255
208 228 255
208 228 255
208 228 255
208 228 255
208 228 255
208 228 255
208 228 255
208 228 255
208 228 255
208 228 255
208 228 255
208 228 255
208 228 255
208 228 255
207 228 255
207 228 255
207 228 255
207 228 255
207 228 255
207 228 255
207 228 255
207 228 255
207 228 255
207 228 255
207 228 255
207 228 255
207 228 255
207 228 255
207 228 255
207 227 255
207 228 255
207 227 255
207 227 255
207 227 255
207 227 255
206 227 255
206 227 255
206 227 255
206 227 255
206 227 255
206 227 255
206 227 255
206 227 255
206 227 255
206 227 255
206 227 255
206 227 255
206 227 255
206 227 255
206 227 255
206 227 255
206 227 255
206 227 255
206 227 255
206 227 255
206 227 255
206 227 255
206 227 255
206 227 255
206 227 255
206 227 255
206 227 255
206 227 255
206 227 255
206 227 255
206 227 255
206 227 255
206 227 255
206 227 255
205 227 255
205 227 255
205 227 255
205 227 255
205 227 255
186 208 242
164 187 228
139 164 214
139 163 214
107 134 196
63 100 171
86 116 181
62 99 181
64 101 181
61 97 161
63 100 181
59 96 151
60 97 171
88 119 181
65 101 181
86 117 181
123 149 206
163 186 228
123 148 198
186 208 242
205 227 255
205 227 255
205 227 255
205 227 255
206 227 255
206 227 255
206 227 255
206 227 255
206 227 255
206 227 255
206 227 255
206 227 255
206 227 255
206 227 255
206 227 255
206 227 255
206 227 255
206 227 255
206 227 255
206 227 255
206 227 255
206 227 255
206 227 255
206 227 255
206 227 255
206 227 255
206 227 255
206 227 255
206 227 255
206 227 255
206 227 255
206 227 255
206 227 255
206 227 255
206 227 255
206 227 255
206 227 255
206 227 255
207 227 255
207 227 255
207 227 255
207 227 255
207 227 255
207 228 255
207 228 255
207 228 255
207 228 255
207 228 255
207 228 255
207 228 255
207 228 255
207 228 255
207 228 255
207 228 255
207 228 255
207 228 255
207 228 255
207 228 255
207 228 255
207 228 255
208 228 255
208 228 255
208 228 255
208 228 255
208 228 255
208 228 255
208 228 255
208 228 255
208 228 255
208 228 255
208 228 255
208 228 255
208 228 255
208 228 255
208 228 255
208 228 255
208 228 255
208 228 255
195 203 198
180 174 114
176 172 114
174 171 114
173 170 114
171 170 114
170 169 114
169 169 114
168 168 114
168 168 114
167 168 114
166 167 114
165 167 114
165 167 114
164 167 114
164 167 114
164 166 114
163 166 114
163 166 114
163 166 114
163 166 114
163 166 114
162 166 114
162 166 114
162 166 114
162 166 114
162 166 114
162 166 114
162 166 114
162 166 114
162 166 114
162 166 114
162 166 114
162 166 114
162 166 114
162 166 114
162 166 114
162 166 114
162 166 114
162 166 114
163 166 114
163 166 114
163 166 114
163 166 114
163 166 114
163 166 114
163 166 114
163 166 114
164 166 114
164 166 114
164 166 114
164 167 114
164 167 114
164 167 114
165 167 114
165 167 114
165 167 114
165 167 114
165 167 114
166 167 114
166 167 114
166 167 114
166 168 114
166 168 114
167 168 114
167 168 114
167 168 114
167 168 114
168 168 114
168 168 114
168 168 114
168 168 114
169 169 114
169 169 114
169 169 114
169 169 114
170 169 114
170 169 114
170 169 114
170 169 114
171 170 114
171 170 114
171 170 114
171 170 114
172 170 114
172 170 114
172 170 114
172 170 114
173 171 114
173 171 114
173 171 114
174 171 114
174 171 114
174 171 114
175 171 114
175 171 114
175 172 114
176 172 114
176 172 114
176 172 114
176 172 114
177 172 114
177 173 114
178 173 114
178 173 114
178 173 114
179 173 114
179 173 114
179 174 114
180 174 114
180 174 114
181 174 114
180 201 228
180 201 228
179 201 228
179 200 228
179 200 228
178 200 228
178 200 228
178 200 228
177 199 228
177 199 228
177 199 228
176 199 228
176 199 228
176 198 228
175 198 228
175 198 228
175 198 228
174 198 228
174 198 228
174 198 228
174 197 228
173 197 228
173 197 228
173 197 228
172 197 228
172 197 228
172 196 228
172 196 228
171 196 228
171 196 228
171 196 228
171 196 228
170 196 228
170 196 228
170 195 228
170 195 228
169 195 228
169 195 228
169 195 228
169 195 228
168 195 228
168 195 228
168 194 228
168 194 228
167 194 228
167 194 228
167 194 228
167 194 228
166 194 228
166 194 228
166 193 228
166 193 228
166 193 228
165 193 228
165 193 228
165 193 228
165 193 228
165 193 228
164 193 228
164 193 228
164 192 228
164 192 228
164 192 228
164 192 228
163 192 228
163 192 228
163 192 228
163 192 228
163 192 228
163 192 228
163 192 228
162 192 228
162 192 228
162 191 228
162 191 228
162 191 228
162 191 228
162 191 228
162 191 228
162 191 228
162 191 228
162 191 228
162 191 228
162 191 228
162 191 228
162 191 228
162 191 228
162 191 228
162 191 228
162 191 228
162 191 228
162 192 228
162 192 228
163 192 228
163 192 228
163 192 228
163 192 228
164 192 228
164 192 228
164 193 228
165 193 228
165 193 228
166 193 228
167 194 228
167 194 228
168 194 228
169 195 228
170 196 228
171 196 228
172 197 228
174 198 228
176 199 228
183 204 231
188 208 234
209 228 255
208 228 255
208 228 255
208 228 255
208 228 255
208 228 255
208 228 255
208 228 255
208 228 255
208 228 255
208 228 255
208 228 255
208 228 255
208 228 255
208 228 255
208 228 255
208 228 255
208 228 255
208 228 255
208 228 255
208 228 255
207 228 255
207 228 255
207 228 255
207 228 255
207 228 255
207 228 255
207 228 255
207 228 255
207 228 255
207 228 255
207 228 255
207 228 255
207 228 255
207 228 255
207 228 255
207 228 255
207 228 255
207 227 255
207 227 255
207 227 255
207 227 255
207 227 255
207 227 255
206 227 255
206 227 255
206 227 255
206 227 255
206 227 255
206 227 255
206 227 255
206 227 255
206 227 255
206 227 255
206 227 255
206 227 255
206 227 255
206 227 255
206 227 255
206 227 255
206 227 255
206 227 255
206 227 255
206 227 255
206 227 255
206 227 255
206 227 255
206 227 255
206 227 255
206 227 255
206 227 255
206 227 255
196 217 249
164 187 228
88 119 189
63 100 181
61 99 181
60 97 161
62 99 181
62 99 181
61 98 171
61 98 161
62 99 181
61 98 171
61 97 161
64 100 171
59 95 171
63 100 181
61 98 171
59 96 161
59 97 171
62 99 181
61 98 181
62 99 171
60 97 171
62 99 181
87 117 189
139 163 214
124 149 206
164 187 228
196 218 249
206 227 255
206 227 255
206 227 255
206 227 255
206 227 255
206 227 255
206 227 255
206 227 255
206 227 255
206 227 255
206 227 255
206 227 255
206 227 255
206 227 255
206 227 255
206 227 255
206 227 255
206 227 255
206 227 255
206 227 255
206 227 255
206 227 255
206 227 255
206 227 255
206 227 255
206 227 255
206 227 255
207 227 255
207 227 255
207 227 255
207 227 255
207 227 255
207 228 255
207 228 255
207 228 255
207 228 255
207 228 255
207 228 255
207 228 255
207 228 255
207 228 255
207 228 255
207 228 255
207 228 255
207 228 255
207 228 255
207 228 255
207 228 255
207 228 255
207 228 255
208 228 255
208 228 255
208 228 255
208 228 255
208 228 255
208 228 255
208 228 255
208 228 255
208 228 255
208 228 255
208 228 255
208 228 255
208 228 255
208 228 255
208 228 255
208 228 255
208 228 255
208 228 255
208 228 255
208 228 255
208 228 255
201 214 223
183 180 135
177 172 114
175 171 114
172 170 114
171 170 114
170 169 114
169 169 114
168 168 114
167 168 114
167 168 114
166 167 114
165 167 114
165 167 114
165 167 114
164 167 114
164 166 114
163 166 114
163 166 114
163 166 114
163 166 114
163 166 114
162 166 114
162 166 114
162 166 114
162 166 114
162 166 114
162 166 114
162 166 114
162 166 114
162 166 114
162 166 114
162 166 114
162 166 114
162 166 114
162 166 114
162 166 114
162 166 114
162 166 114
162 166 114
162 166 114
162 166 114
162 166 114
163 166 114
163 166 114
163 166 114
163 166 114
163 166 114
163 166 114
163 166 114
164 166 114
164 166 114
164 167 114
164 167 114
164 167 114
164 167 114
165 167 114
165 167 114
165 167 114
165 167 114
165 167 114
166 167 114
166 167 114
166 167 114
166 168 114
166 168 114
167 168 114
167 168 114
167 168 114
167 168 114
168 168 114
168 168 114
168 168 114
168 168 114
169 169 114
169 169 114
169 169 114
169 169 114
170 169 114
170 169 114
170 169 114
170 169 114
171 169 114
171 170 114
171 170 114
171 170 114
172 170 114
172 170 114
172 170 114
172 170 114
173 170 114
173 171 114
173 171 114
174 171 114
174 171 114
174 171 114
174 171 114
175 171 114
175 172 114
175 172 114
176 172 114
176 172 114
176 172 114
177 172 114
177 172 114
177 173 114
178 173 114
178 173 114
178 173 114
179 173 114
179 173 114
179 174 114
180 174 114
180 174 114
180 201 228
180 201 228
179 200 228
179 200 228
179 200 228
178 200 228
178 200 228
177 199 228
177 199 228
177 199 228
176 199 228
176 199 228
176 199 228
176 198 228
175 198 228
175 198 228
175 198 228
174 198 228
174 198 228
174 198 228
174 197 228
173 197 228
173 197 228
173 197 228
172 197 228
172 197 228
172 197 228
172 196 228
171 196 228
171 196 228
171 196 228
171 196 228
170 196 228
170 196 228
170 195 228
170 195 228
169 195 228
169 195 228
169 195 228
169 195 228
168 195 228
168 195 228
168 194 228
168 194 228
167 194 228
167 194 228
167 194 228
167 194 228
167 194 228
166 194 228
166 193 228
166 193 228
166 193 228
166 193 228
165 193 228
165 193 228
165 193 228
165 193 228
164 193 228
164 193 228
164 192 228
164 192 228
164 192 228
164 192 228
163 192 228
163 192 228
163 192 228
163 192 228
163 192 228
163 192 228
163 192 228
162 192 228
162 192 228
162 191 228
162 191 228
162 191 228
162 191 228
162 191 228
162 191 228
162 191 228
162 191 228
162 191 228
162 191 228
162 191 228
162 191 228
162 191 228
162 191 228
162 191 228
162 191 228
162 191 228
162 191 228
162 191 228
162 191 228
162 191 228
162 192 228
163 192 228
163 192 228
163 192 228
163 192 228
164 192 228
164 192 228
165 193 228
165 193 228
165 193 228
166 193 228
167 194 228
167 194 228
168 195 228
169 195 228
170 196 228
172 196 228
173 197 228
175 198 228
176 199 228
187 207 234
199 218 245
209 229 255
209 229 255
209 228 255
209 228 255
208 228 255
208 228 255
208 228 255
208 228 255
208 228 255
208 228 255
208 228 255
208 228 255
208 228 255
208 228 255
208 228 255
208 228 255
208 228 255
208 228 255
208 228 255
208 228 255
208 228 255
208 228 255
208 228 255
208 228 255
207 228 255
207 228 255
207 228 255
207 228 255
207 228 255
207 228 255
207 228 255
207 228 255
207 228 255
207 228 255
207 228 255
207 228 255
207 228 255
207 228 255
207 228 255
207 228 255
207 228 255
207 228 255
207 228 255
207 228 255
207 227 255
207 227 255
207 227 255
207 227 255
207 227 255
207 227 255
206 227 255
206 227 255
206 227 255
206 227 255
206 227 255
206 227 255
206 227 255
206 227 255
206 227 255
206 227 255
206 227 255
206 227 255
206 227 255
206 227 255
206 227 255
206 227 255
186 208 242
176 198 236
125 150 206
61 98 171
63 100 181
62 99 181
63 100 181
62 99 179
60 97 161
62 99 171
63 99 171
63 100 181
65 101 181
62 99 181
63 100 181
61 98 171
62 98 161
62 99 181
63 100 181
62 99 181
62 99 181
61 98 171
63 99 171
62 99 181
62 100 181
63 100 171
62 97 161
63 100 181
62 98 161
62 100 181
64 101 181
62 99 181
61 98 181
87 117 181
164 186 221
196 218 249
206 227 255
206 227 255
206 227 255
206 227 255
206 227 255
206 227 255
206 227 255
206 227 255
206 227 255
206 227 255
206 227 255
206 227 255
206 227 255
206 227 255
206 227 255
206 227 255
207 227 255
207 227 255
207 227 255
207 227 255
207 227 255
207 227 255
207 227 255
207 227 255
207 228 255
207 228 255
207 228 255
207 228 255
207 228 255
207 228 255
207 228 255
207 228 255
207 228 255
207 228 255
207 228 255
207 228 255
207 228 255
207 228 255
207 228 255
207 228 255
207 228 255
208 228 255
208 228 255
208 228 255
208 228 255
208 228 255
208 228 255
208 228 255
208 228 255
208 228 255
208 228 255
208 228 255
208 228 255
208 228 255
208 228 255
208 228 255
208 228 255
208 228 255
208 228 255
208 228 255
208 228 255
208 228 255
208 228 255
209 228 255
209 229 255
209 229 255
204 219 234
187 187 153
178 173 114
175 171 114
173 171 114
171 170 114
170 169 114
169 169 114
168 168 114
167 168 114
167 168 114
166 167 114
165 167 114
165 167 114
164 167 114
164 167 114
164 166 114
163 166 114
163 166 114
163 166 114
163 166 114
162 166 114
162 166 114
162 166 114
162 166 114
162 166 114
162 166 114
162 166 114
162 166 114
162 165 114
162 165 114
162 165 114
162 165 114
162 165 114
162 165 114
162 166 114
162 166 114
162 166 114
162 166 114
162 166 114
162 166 114
162 166 114
162 166 114
162 166 114
162 166 114
163 166 114
163 166 114
163 166 114
163 166 114
163 166 114
163 166 114
163 166 114
164 166 114
164 166 114
164 167 114
164 167 114
164 167 114
165 167 114
165 167 114
165 167 114
165 167 114
165 167 114
166 167 114
166 167 114
166 167 114
166 168 114
166 168 114
167 168 114
167 168 114
167 168 114
167 168 114
167 168 114
168 168 114
168 168 114
168 168 114
168 169 114
169 169 114
169 169 114
169 169 114
169 169 114
170 169 114
170 169 114
170 169 114
170 169 114
171 170 114
171 170 114
171 170 114
171 170 114
172 170 114
172 170 114
172 170 114
172 170 114
173 170 114
173 171 114
173 171 114
174 171 114
174 171 114
174 171 114
174 171 114
175 171 114
175 171 114
175 172 114
176 172 114
176 172 114
176 172 114
177 172 114
177 172 114
177 173 114
177 173 114
178 173 114
178 173 114
178 173 114
179 173 114
179 173 114
180 174 114
180 174 114
180 201 228
179 200 228
179 200 228
179 200 228
178 200 228
178 200 228
178 200 228
177 199 228
177 199 228
177 199 228
176 199 228
176 199 228
176 199 228
176 198 228
175 198 228
175 198 228
175 198 228
174 198 228
174 198 228
174 197 228
174 197 228
173 197 228
173 197 228
173 197 228
172 197 228
172 197 228
172 197 228
172 196 228
171 196 228
171 196 228
171 196 228
171 196 228
170 196 228
170 196 228
170 195 228
170 195 228
169 195 228
169 195 228
169 195 228
169 195 228
169 195 228
168 195 228
168 194 228
168 194 228
168 194 228
167 194 228
167 194 228
167 194 228
167 194 228
166 194 228
166 194 228
166 193 228
166 193 228
166 193 228
165 193 228
165 193 228
165 193 228
165 193 228
165 193 228
165 193 228
164 193 228
164 192 228
164 192 228
164 192 228
164 192 228
163 192 228
163 192 228
163 192 228
163 192 228
163 192 228
163 192 228
163 192 228
162 192 228
162 192 228
162 191 228
162 191 228
162 191 228
162 191 228
162 191 228
162 191 228
162 191 228
162 191 228
162 191 228
161 191 228
161 191 228
161 191 228
161 191 228
161 191 228
161 191 228
162 191 228
162 191 228
162 191 228
162 191 228
162 191 228
162 191 228
162 191 228
162 192 228
163 192 228
163 192 228
163 192 228
163 192 228
164 192 228
164 192 228
164 193 228
165 193 228
166 193 228
166 193 228
167 194 228
167 194 228
168 195 228
170 195 228
171 196 228
172 196 228
174 198 228
176 198 228
178 200 228
190 210 237
204 224 250
209 229 255
209 229 255
209 229 255
209 229 255
209 229 255
209 228 255
208 228 255
208 228 255
208 228 255
208 228 255
208 228 255
208 228 255
208 228 255
208 228 255
208 228 255
208 228 255
208 228 255
208 228 255
208 228 255
208 228 255
208 228 255
208 228 255
208 228 255
208 228 255
208 228 255
208 228 255
208 228 255
208 228 255
208 228 255
207 228 255
207 228 255
207 228 255
207 228 255
207 228 255
207 228 255
207 228 255
207 228 255
207 228 255
207 228 255
207 228 255
207 228 255
207 228 255
207 228 255
207 228 255
207 228 255
207 228 255
207 228 255
207 228 255
207 228 255
207 227 255
207 227 255
207 227 255
207 227 255
207 227 255
207 227 255
207 227 255
207 227 255
206 227 255
206 227 255
206 227 255
206 227 255
206 227 255
197 218 249
139 162 214
61 98 181
63 100 171
63 99 161
62 99 181
62 99 181
64 101 181
59 96 161
62 98 171
63 100 181
62 99 181
60 97 171
63 100 181
63 99 171
63 99 171
63 100 171
62 100 181
59 95 171
60 96 171
65 102 181
64 100 171
63 100 181
61 97 161
61 98 171
64 101 181
63 100 181
61 98 171
61 99 181
62 99 181
60 96 151
62 99 181
60 98 181
62 99 181
62 99 181
62 100 181
59 96 161
65 102 181
107 134 189
206 227 255
206 227 255
206 227 255
206 227 255
206 227 255
206 227 255
207 227 255
207 227 255
207 227 255
207 227 255
207 227 255
207 227 255
207 227 255
207 228 255
207 227 255
207 228 255
207 228 255
207 228 255
207 228 255
207 228 255
207 228 255
207 228 255
207 228 255
207 228 255
207 228 255
207 228 255
207 228 255
207 228 255
207 228 255
207 228 255
207 228 255
207 228 255
207 228 255
207 228 255
207 228 255
208 228 255
208 228 255
208 228 255
208 228 255
208 228 255
208 228 255
208 228 255
208 228 255
208 228 255
208 228 255
208 228 255
208 228 255
208 228 255
208 228 255
208 228 255
208 228 255
208 228 255
208 228 255
208 228 255
208 228 255
208 228 255
208 228 255
209 228 255
209 229 255
209 229 255
209 229 255
209 229 255
209 229 255
209 229 255
187 186 153
178 173 114
175 172 114
174 171 114
172 170 114
171 170 114
169 169 114
169 169 114
168 168 114
167 168 114
166 168 114
166 167 114
165 167 114
164 167 114
164 167 114
164 166 114
163 166 114
163 166 114
163 166 114
163 166 114
162 166 114
162 166 114
162 166 114
162 166 114
162 166 114
162 166 114
162 165 114
162 165 114
161 165 114
161 165 114
161 165 114
161 165 114
161 165 114
161 165 114
162 165 114
162 165 114
162 165 114
162 166 114
162 166 114
162 166 114
162 166 114
162 166 114
162 166 114
162 166 114
162 166 114
163 166 114
163 166 114
163 166 114
163 166 114
163 166 114
163 166 114
163 166 114
164 166 114
164 166 114
164 167 114
164 167 114
164 167 114
164 167 114
165 167 114
165 167 114
165 167 114
165 167 114
165 167 114
166 167 114
166 167 114
166 167 114
166 168 114
167 168 114
167 168 114
167 168 114
167 168 114
167 168 114
168 168 114
168 168 114
168 168 114
168 168 114
169 169 114
169 169 114
169 169 114
169 169 114
169 169 114
170 169 114
170 169 114
170 169 114
170 169 114
171 170 114
171 170 114
171 170 114
171 170 114
172 170 114
172 170 114
172 170 114
172 170 114
173 170 114
173 171 114
173 171 114
174 171 114
174 171 114
174 171 114
174 171 114
175 171 114
175 172 114
175 172 114
176 172 114
176 172 114
176 172 114
176 172 114
177 172 114
177 172 114
177 173 114
178 173 114
178 173 114
178 173 114
179 173 114
179 173 114
179 174 114
180 174 114
180 201 228
179 200 228
179 200 228
179 200 228
178 200 228
178 200 228
178 200 228
177 199 228
177 199 228
177 199 228
176 199 228
176 199 228
176 199 228
176 198 228
175 198 228
175 198 228
175 198 228
174 198 228
174 198 228
174 198 228
174 197 228
173 197 228
173 197 228
173 197 228
173 197 228
172 197 228
172 197 228
172 196 228
172 196 228
171 196 228
171 196 228
171 196 228
171 196 228
170 196 228
170 196 228
170 195 228
170 195 228
169 195 228
169 195 228
169 195 228
169 195 228
169 195 228
168 195 228
168 194 228
168 194 228
168 194 228
167 194 228
167 194 228
167 194 228
167 194 228
166 194 228
166 194 228
166 193 228
166 193 228
166 193 228
165 193 228
165 193 228
165 193 228
165 193 228
165 193 228
164 193 228
164 193 228
164 192 228
164 192 228
164 192 228
164 192 228
163 192 228
163 192 228
163 192 228
163 192 228
163 192 228
163 192 228
163 192 228
162 192 228
162 192 228
162 191 228
162 191 228
162 191 228
162 191 228
162 191 228
162 191 228
162 191 228
162 191 228
162 191 228
161 191 228
161 191 228
161 191 228
161 191 228
161 191 228
161 191 228
161 191 228
162 191 228
162 191 228
162 191 228
162 191 228
162 191 228
162 191 228
162 191 228
162 192 228
163 192 228
163 192 228
163 192 228
164 192 228
164 192 228
164 193 228
165 193 228
165 193 228
166 193 228
166 194 228
167 194 228
168 194 228
169 195 228
170 195 228
172 196 228
173 197 228
174 198 228
177 199 228
179 200 228
191 210 237
209 229 255
209 229 255
209 229 255
209 229 255
209 229 255
209 229 255
209 229 255
209 229 255
209 229 255
209 228 255
209 228 255
208 228 255
208 228 255
208 228 255
208 228 255
208 228 255
208 228 255
208 228 255
208 228 255
208 228 255
208 228 255
208 228 255
208 228 255
208 228 255
208 228 255
208 228 255
208 228 255
208 228 255
208 228 255
208 228 255
208 228 255
208 228 255
208 228 255
208 228 255
207 228 255
207 228 255
207 228 255
207 228 255
207 228 255
207 228 255
207 228 255
207 228 255
207 228 255
207 228 255
207 228 255
207 228 255
207 228 255
207 228 255
207 228 255
207 228 255
207 228 255
207 228 255
207 228 255
207 228 255
207 228 255
207 228 255
207 228 255
207 227 255
207 227 255
197 218 249
107 134 198
61 99 181
62 99 171
60 97 161
63 100 181
62 99 171
61 98 171
60 97 179
64 101 181
61 98 171
61 98 171
62 98 161
63 100 181
60 97 171
60 96 171
61 98 181
58 95 161
62 98 169
62 98 161
64 101 181
63 100 181
63 99 171
61 98 171
62 99 181
63 100 181
61 98 171
62 98 161
64 101 181
64 101 171
62 99 181
58 94 151
62 99 171
61 98 171
66 102 181
61 99 181
62 98 161
61 98 181
61 98 181
64 101 181
62 99 171
60 97 171
124 150 206
177 198 236
207 227 255
207 227 255
207 228 255
207 228 255
207 228 255
207 228 255
207 228 255
207 228 255
207 228 255
207 228 255
207 228 255
207 228 255
207 228 255
207 228 255
207 228 255
207 228 255
207 228 255
207 228 255
207 228 255
207 228 255
207 228 255
207 228 255
207 228 255
207 228 255
207 228 255
208 228 255
208 228 255
208 228 255
208 228 255
208 228 255
208 228 255
208 228 255
208 228 255
208 228 255
208 228 255
208 228 255
208 228 255
208 228 255
208 228 255
208 228 255
208 228 255
208 228 255
208 228 255
208 228 255
208 228 255
208 228 255
208 228 255
208 228 255
209 228 255
209 228 255
209 229 255
209 229 255
209 229 255
209 229 255
209 229 255
209 229 255
209 229 255
209 229 255
207 224 245
195 203 198
179 173 114
176 172 114
174 171 114
173 171 114
171 170 114
170 169 114
169 169 114
168 168 114
167 168 114
166 167 114
166 167 114
165 167 114
165 167 114
164 167 114
164 166 114
163 166 114
163 166 114
163 166 114
163 166 114
162 166 114
162 166 114
162 166 114
162 166 114
162 166 114
162 166 114
162 165 114
162 165 114
161 165 114
161 165 114
161 165 114
161 165 114
161 165 114
161 165 114
161 165 114
162 165 114
162 165 114
162 165 114
162 166 114
162 166 114
162 166 114
162 166 114
162 166 114
162 166 114
162 166 114
162 166 114
163 166 114
163 166 114
163 166 114
163 166 114
163 166 114
163 166 114
163 166 114
164 166 114
164 166 114
164 167 114
164 167 114
164 167 114
164 167 114
165 167 114
165 167 114
165 167 114
165 167 114
165 167 114
166 167 114
166 167 114
166 167 114
166 168 114
166 168 114
167 168 114
167 168 114
167 168 114
167 168 114
168 168 114
168 168 114
168 168 114
168 168 114
168 169 114
169 169 114
169 169 114
169 169 114
169 169 114
170 169 114
170 169 114
170 169 114
170 169 114
171 170 114
171 170 114
171 170 114
171 170 114
172 170 114
172 170 114
172 170 114
172 170 114
173 170 114
173 171 114
173 171 114
173 171 114
174 171 114
174 171 114
174 171 114
174 171 114
175 171 114
175 172 114
175 172 114
176 172 114
176 172 114
176 172 114
176 172 114
177 172 114
177 172 114
177 173 114
178 173 114
178 173 114
178 173 114
178 173 114
179 173 114
179 173 114
179 174 114
179 200 228
179 200 228
179 200 228
179 200 228
178 200 228
178 200 228
178 199 228
177 199 228
177 199 228
177 199 228
176 199 228
176 199 228
176 199 228
176 198 228
175 198 228
175 198 228
175 198 228
175 198 228
174 198 228
174 198 228
174 197 228
174 197 228
173 197 228
173 197 228
173 197 228
172 197 228
172 197 228
172 197 228
172 196 228
172 196 228
171 196 228
171 196 228
171 196 228
171 196 228
170 196 228
170 196 228
170 195 228
170 195 228
169 195 228
169 195 228
169 195 228
169 195 228
168 195 228
168 195 228
168 194 228
168 194 228
168 194 228
167 194 228
167 194 228
167 194 228
167 194 228
167 194 228
166 194 228
166 193 228
166 193 228
166 193 228
165 193 228
165 193 228
165 193 228
165 193 228
165 193 228
165 193 228
164 193 228
164 192 228
164 192 228
164 192 228
164 192 228
164 192 228
163 192 228
163 192 228
163 192 228
163 192 228
163 192 228
163 192 228
162 192 228
162 192 228
162 191 228
162 191 228
162 191 228
162 191 228
162 191 228
162 191 228
162 191 228
162 191 228
162 191 228
161 191 228
161 191 228
161 191 228
161 191 228
161 191 228
161 191 228
161 191 228
162 191 228
162 191 228
162 191 228
162 191 228
162 191 228
162 191 228
162 191 228
162 192 228
163 192 228
163 192 228
163 192 228
163 192 228
164 192 228
164 192 228
164 193 228
165 193 228
166 193 228
166 193 228
167 194 228
168 194 228
168 195 228
169 195 228
170 196 228
172 196 228
173 197 228
175 198 228
178 200 228
190 210 237
202 221 248
209 229 255
209 229 255
209 229 255
209 229 255
209 229 255
209 229 255
209 229 255
209 229 255
209 229 255
209 229 255
209 229 255
209 229 255
209 228 255
209 228 255
208 228 255
208 228 255
208 228 255
208 228 255
208 228 255
208 228 255
208 228 255
208 228 255
208 228 255
208 228 255
208 228 255
208 228 255
208 228 255
208 228 255
208 228 255
208 228 255
208 228 255
208 228 255
208 228 255
208 228 255
208 228 255
208 228 255
208 228 255
208 228 255
207 228 255
207 228 255
207 228 255
207 228 255
207 228 255
207 228 255
207 228 255
207 228 255
207 228 255
207 228 255
207 228 255
207 228 255
207 228 255
207 228 255
207 228 255
207 228 255
207 228 255
165 187 227
108 135 198
63 100 181
58 95 169
62 99 181
61 97 161
62 98 171
62 99 171
61 98 179
65 101 181
66 102 181
60 96 161
64 101 181
59 94 161
62 100 181
61 97 151
65 101 181
59 95 161
62 99 171
64 100 171
61 97 161
62 98 161
62 98 161
61 97 151
64 101 181
63 100 171
62 99 181
62 99 171
63 99 161
61 97 161
62 99 171
64 100 181
62 99 181
62 99 181
63 99 171
63 99 171
62 98 161
60 96 151
61 97 163
64 101 181
64 99 173
61 99 181
62 96 153
61 98 181
61 99 181
60 98 181
106 133 191
125 150 206
207 228 255
207 228 255
207 228 255
207 228 255
207 228 255
207 228 255
207 228 255
207 228 255
207 228 255
207 228 255
207 228 255
207 228 255
207 228 255
207 228 255
207 228 255
208 228 255
208 228 255
208 228 255
208 228 255
208 228 255
208 228 255
208 228 255
208 228 255
208 228 255
208 228 255
208 228 255
208 228 255
208 228 255
208 228 255
208 228 255
208 228 255
208 228 255
208 228 255
208 228 255
208 228 255
208 228 255
208 228 255
208 228 255
208 228 255
208 228 255
208 228 255
208 228 255
209 229 255
209 229 255
209 229 255
209 229 255
209 229 255
209 229 255
209 229 255
209 229 255
209 229 255
209 229 255
209 229 255
209 229 255
209 229 255
207 224 245
184 180 135
178 173 114
175 172 114
173 171 114
171 170 114
170 169 114
169 169 114
168 169 114
167 168 114
167 168 114
166 168 114
166 167 114
165 167 114
164 167 114
164 167 114
164 166 114
163 166 114
163 166 114
163 166 114
163 166 114
162 166 114
162 166 114
162 166 114
162 166 114
162 166 114
162 166 114
162 165 114
162 165 114
161 165 114
161 165 114
161 165 114
161 165 114
161 165 114
161 165 114
162 165 114
162 165 114
162 165 114
162 166 114
162 166 114
162 166 114
162 166 114
162 166 114
162 166 114
162 166 114
162 166 114
163 166 114
163 166 114
163 166 114
163 166 114
163 166 114
163 166 114
163 166 114
163 166 114
164 166 114
164 166 114
164 167 114
164 167 114
164 167 114
165 167 114
165 167 114
165 167 114
165 167 114
165 167 114
165 167 114
166 167 114
166 167 114
166 167 114
166 168 114
167 168 114
167 168 114
167 168 114
167 168 114
167 168 114
168 168 114
168 168 114
168 168 114
168 168 114
168 169 114
169 169 114
169 169 114
169 169 114
169 169 114
170 169 114
170 169 114
170 169 114
170 169 114
170 169 114
171 170 114
171 170 114
171 170 114
171 170 114
172 170 114
172 170 114
172 170 114
172 170 114
173 170 114
173 171 114
173 171 114
173 171 114
174 171 114
174 171 114
174 171 114
175 171 114
175 171 114
175 172 114
175 172 114
176 172 114
176 172 114
176 172 114
176 172 114
177 172 114
177 172 114
177 173 114
178 173 114
178 173 114
178 173 114
179 173 114
179 173 114
179 173 114
179 174 114
179 200 228
179 200 228
179 200 228
178 200 228
178 200 228
178 200 228
178 200 228
177 199 228
177 199 228
177 199 228
176 199 228
176 199 228
176 199 228
176 199 228
175 198 228
175 198 228
175 198 228
175 198 228
174 198 228
174 198 228
174 198 228
174 197 228
173 197 228
173 197 228
173 197 228
173 197 228
172 197 228
172 197 228
172 196 228
172 196 228
171 196 228
171 196 228
171 196 228
171 196 228
171 196 228
170 196 228
170 196 228
170 195 228
170 195 228
169 195 228
169 195 228
169 195 228
169 195 228
168 195 228
168 195 228
168 194 228
168 194 228
168 194 228
167 194 228
167 194 228
167 194 228
167 194 228
167 194 228
166 194 228
166 193 228
166 193 228
166 193 228
166 193 228
165 193 228
165 193 228
165 193 228
165 193 228
165 193 228
164 193 228
164 193 228
164 192 228
164 192 228
164 192 228
164 192 228
163 192 228
163 192 228
163 192 228
163 192 228
163 192 228
163 192 228
163 192 228
162 192 228
162 192 228
162 191 228
162 191 228
162 191 228
162 191 228
162 191 228
162 191 228
162 191 228
162 191 228
162 191 228
162 191 228
162 191 228
161 191 228
162 191 228
162 191 228
162 191 228
162 191 228
162 191 228
162 191 228
162 191 228
162 191 228
162 191 228
162 191 228
162 192 228
163 192 228
163 192 228
163 192 228
163 192 228
164 192 228
164 192 228
164 193 228
165 193 228
165 193 228
166 193 228
167 194 228
167 194 228
168 195 228
169 195 228
170 195 228
171 196 228
172 197 228
174 198 228
177 199 228
180 201 228
188 208 234
209 229 255
209 229 255
209 229 255
209 229 255
209 229 255
209 229 255
209 229 255
209 229 255
209 229 255
209 229 255
209 229 255
209 229 255
209 229 255
209 229 255
209 229 255
209 229 255
209 229 255
209 229 255
208 228 255
209 228 255
208 228 255
208 228 255
208 228 255
208 228 255
208 228 255
208 228 255
208 228 255
208 228 255
208 228 255
208 228 255
208 228 255
208 228 255
208 228 255
208 228 255
208 228 255
208 228 255
208 228 255
208 228 255
208 228 255
208 228 255
208 228 255
208 228 255
208 228 255
208 228 255
208 228 255
208 228 255
208 228 255
207 228 255
207 228 255
207 228 255
207 228 255
207 228 255
177 198 234
108 135 198
64 100 181
63 99 171
62 99 181
62 98 171
62 98 171
63 100 181
62 99 181
66 102 181
64 101 181
63 99 161
62 98 169
63 100 181
60 96 151
62 99 181
60 97 171
62 98 171
61 98 181
59 94 151
61 96 159
61 99 181
64 100 171
62 99 171
60 97 181
62 98 161
61 98 161
63 99 171
63 99 161
61 97 161
62 99 171
60 96 140
61 98 161
63 100 171
64 100 181
62 99 171
61 97 173
61 99 181
60 96 161
64 100 181
61 98 171
62 99 171
60 97 171
60 96 161
65 101 181
59 94 153
61 97 161
64 101 181
64 100 171
63 100 181
109 136 198
177 198 236
207 228 255
207 228 255
207 228 255
207 228 255
207 228 255
208 228 255
207 228 255
208 228 255
208 228 255
208 228 255
208 228 255
208 228 255
208 228 255
208 228 255
208 228 255
208 228 255
208 228 255
208 228 255
208 228 255
208 228 255
208 228 255
208 228 255
208 228 255
208 228 255
208 228 255
208 228 255
208 228 255
208 228 255
208 228 255
208 228 255
208 228 255
208 228 255
208 228 255
209 228 255
209 229 255
209 229 255
209 229 255
209 229 255
209 229 255
209 229 255
209 229 255
209 229 255
209 229 255
209 229 255
209 229 255
209 229 255
209 229 255
209 229 255
209 229 255
209 229 255
209 229 255
209 229 255
191 193 169
180 174 114
176 172 114
174 171 114
172 170 114
171 170 114
170 169 114
169 169 114
168 168 114
167 168 114
166 168 114
166 167 114
165 167 114
165 167 114
164 167 114
164 167 114
164 166 114
163 166 114
163 166 114
163 166 114
163 166 114
162 166 114
162 166 114
162 166 114
162 166 114
162 166 114
162 166 114
162 166 114
162 165 114
162 165 114
162 165 114
162 165 114
162 165 114
162 165 114
162 165 114
162 165 114
162 166 114
162 166 114
162 166 114
162 166 114
162 166 114
162 166 114
162 166 114
162 166 114
162 166 114
162 166 114
163 166 114
163 166 114
163 166 114
163 166 114
163 166 114
163 166 114
163 166 114
164 166 114
164 166 114
164 167 114
164 167 114
164 167 114
164 167 114
165 167 114
165 167 114
165 167 114
165 167 114
165 167 114
166 167 114
166 167 114
166 167 114
166 168 114
166 168 114
167 168 114
167 168 114
167 168 114
167 168 114
167 168 114
168 168 114
168 168 114
168 168 114
168 168 114
169 169 114
169 169 114
169 169 114
169 169 114
169 169 114
170 169 114
170 169 114
170 169 114
170 169 114
171 169 114
171 170 114
171 170 114
171 170 114
171 170 114
172 170 114
172 170 114
172 170 114
172 170 114
173 170 114
173 171 114
173 171 114
173 171 114
174 171 114
174 171 114
174 171 114
174 171 114
175 171 114
175 171 114
175 172 114
175 172 114
176 172 114
176 172 114
176 172 114
176 172 114
177 172 114
177 172 114
177 173 114
178 173 114
178 173 114
178 173 114
179 173 114
179 173 114
179 173 114
179 174 114
179 200 228
179 200 228
179 200 228
179 200 228
178 200 228
178 200 228
178 200 228
177 199 228
177 199 228
177 199 228
177 199 228
176 199 228
176 199 228
176 199 228
176 198 228
175 198 228
175 198 228
175 198 228
175 198 228
174 198 228
174 198 228
174 198 228
174 197 228
173 197 228
173 197 228
173 197 228
173 197 228
172 197 228
172 197 228
172 197 228
172 196 228
172 196 228
171 196 228
171 196 228
171 196 228
171 196 228
170 196 228
170 196 228
170 195 228
170 195 228
169 195 228
169 195 228
169 195 228
169 195 228
169 195 228
168 195 228
168 195 228
168 194 228
168 194 228
168 194 228
167 194 228
167 194 228
167 194 228
167 194 228
166 194 228
166 194 228
166 193 228
166 193 228
166 193 228
166 193 228
165 193 228
165 193 228
165 193 228
165 193 228
165 193 228
165 193 228
164 192 228
164 192 228
164 192 228
164 192 228
164 192 228
163 192 228
163 192 228
163 192 228
163 192 228
163 192 228
163 192 228
163 192 228
163 192 228
162 192 228
162 192 228
162 191 228
162 191 228
162 191 228
162 191 228
162 191 228
162 191 228
162 191 228
162 191 228
162 191 228
162 191 228
162 191 228
162 191 228
162 191 228
162 191 228
162 191 228
162 191 228
162 191 228
162 191 228
162 191 228
162 192 228
162 192 228
163 192 228
163 192 228
163 192 228
163 192 228
164 192 228
164 192 228
164 193 228
165 193 228
165 193 228
166 193 228
166 194 228
167 194 228
168 194 228
169 195 228
170 195 228
171 196 228
172 197 228
174 197 228
176 199 228
178 200 228
187 207 234
202 221 248
209 229 255
209 229 255
209 229 255
209 229 255
209 229 255
209 229 255
209 229 255
209 229 255
209 229 255
209 229 255
209 229 255
209 229 255
209 229 255
209 229 255
209 229 255
209 229 255
209 229 255
209 229 255
209 229 255
209 229 255
209 229 255
209 229 255
209 228 255
209 228 255
208 228 255
208 228 255
208 228 255
208 228 255
208 228 255
208 228 255
208 228 255
208 228 255
208 228 255
208 228 255
208 228 255
208 228 255
208 228 255
208 228 255
208 228 255
208 228 255
208 228 255
208 228 255
208 228 255
208 228 255
208 228 255
208 228 255
208 228 255
208 228 255
198 219 249
107 134 196
61 98 171
62 99 179
63 100 181
62 99 181
62 99 181
61 98 171
61 97 161
64 100 171
62 99 181
63 99 171
60 96 151
60 96 151
63 100 171
62 98 161
66 102 181
64 101 181
64 100 181
62 99 181
62 99 181
60 97 169
59 96 161
60 97 171
63 98 161
63 99 161
62 99 181
59 96 151
61 97 151
62 97 171
65 101 181
61 97 161
62 98 161
64 100 181
60 96 151
61 97 161
61 97 161
63 100 171
63 99 161
65 101 171
61 97 151
63 100 181
62 97 151
65 101 171
58 92 140
63 98 151
63 100 181
58 95 161
59 96 151
60 96 151
59 95 163
62 99 181
62 97 171
62 98 173
109 135 189
198 219 249
208 228 255
208 228 255
208 228 255
208 228 255
208 228 255
208 228 255
208 228 255
208 228 255
208 228 255
208 228 255
208 228 255
208 228 255
208 228 255
208 228 255
208 228 255
208 228 255
208 228 255
208 228 255
208 228 255
208 228 255
208 228 255
208 228 255
208 228 255
208 228 255
209 228 255
209 228 255
209 229 255
209 229 255
209 229 255
209 229 255
209 229 255
209 229 255
209 229 255
209 229 255
209 229 255
209 229 255
209 229 255
209 229 255
209 229 255
209 229 255
209 229 255
209 229 255
209 229 255
209 229 255
209 229 255
209 229 255
209 229 255
210 229 255
207 224 245
183 180 135
178 173 114
176 172 114
173 171 114
172 170 114
171 170 114
170 169 114
169 169 114
168 168 114
167 168 114
166 168 114
166 167 114
165 167 114
165 167 114
164 167 114
164 167 114
164 166 114
163 166 114
163 166 114
163 166 114
163 166 114
162 166 114
162 166 114
162 166 114
162 166 114
162 166 114
162 166 114
162 166 114
162 166 114
162 166 114
162 166 114
162 166 114
162 166 114
162 166 114
162 166 114
162 166 114
162 166 114
162 166 114
162 166 114
162 166 114
162 166 114
162 166 114
162 166 114
162 166 114
163 166 114
163 166 114
163 166 114
163 166 114
163 166 114
163 166 114
163 166 114
163 166 114
164 166 114
164 166 114
164 166 114
164 167 114
164 167 114
164 167 114
165 167 114
165 167 114
165 167 114
165 167 114
165 167 114
166 167 114
166 167 114
166 167 114
166 167 114
166 168 114
166 168 114
167 168 114
167 168 114
167 168 114
167 168 114
167 168 114
168 168 114
168 168 114
168 168 114
168 168 114
169 169 114
169 169 114
169 169 114
169 169 114
169 169 114
170 169 114
170 169 114
170 169 114
170 169 114
171 170 114
171 170 114
171 170 114
171 170 114
171 170 114
172 170 114
172 170 114
172 170 114
172 170 114
173 170 114
173 171 114
173 171 114
173 171 114
174 171 114
174 171 114
174 171 114
174 171 114
175 171 114
175 171 114
175 172 114
175 172 114
176 172 114
176 172 114
176 172 114
176 172 114
177 172 114
177 172 114
177 173 114
177 173 114
178 173 114
178 173 114
178 173 114
179 173 114
179 173 114
179 173 114
179 174 114
179 200 228
179 200 228
179 200 228
179 200 228
178 200 228
178 200 228
178 200 228
178 199 228
177 199 228
177 199 228
177 199 228
177 199 228
176 199 228
176 199 228
176 199 228
176 198 228
175 198 228
175 198 228
175 198 228
175 198 228
174 198 228
174 198 228
174 198 228
174 197 228
173 197 228
173 197 228
173 197 228
173 197 228
173 197 228
172 197 228
172 197 228
172 196 228
172 196 228
171 196 228
171 196 228
171 196 228
171 196 228
170 196 228
170 196 228
170 195 228
170 195 228
170 195 228
169 195 228
169 195 228
169 195 228
169 195 228
169 195 228
168 195 228
168 194 228
168 194 228
168 194 228
168 194 228
167 194 228
167 194 228
167 194 228
167 194 228
166 194 228
166 194 228
166 193 228
166 193 228
166 193 228
165 193 228
165 193 228
165 193 228
165 193 228
165 193 228
165 193 228
164 193 228
164 193 228
164 192 228
164 192 228
164 192 228
164 192 228
164 192 228
163 192 228
163 192 228
163 192 228
163 192 228
163 192 228
163 192 228
163 192 228
163 192 228
162 192 228
162 192 228
162 191 228
162 191 228
162 191 228
162 191 228
162 191 228
162 191 228
162 191 228
162 191 228
162 191 228
162 191 228
162 191 228
162 191 228
162 191 228
162 191 228
162 191 228
162 191 228
162 192 228
162 192 228
163 192 228
163 192 228
163 192 228
163 192 228
163 192 228
164 192 228
164 192 228
164 193 228
165 193 228
165 193 228
166 193 228
166 194 228
167 194 228
168 194 228
168 195 228
169 195 228
170 196 228
172 197 228
173 197 228
175 198 228
177 199 228
180 201 228
199 219 245
210 229 255
210 229 255
210 229 255
210 229 255
210 229 255
209 229 255
209 229 255
209 229 255
209 229 255
209 229 255
209 229 255
209 229 255
209 229 255
209 229 255
209 229 255
209 229 255
209 229 255
209 229 255
209 229 255
209 229 255
209 229 255
209 229 255
209 229 255
209 229 255
209 229 255
209 229 255
209 229 255
209 229 255
209 228 255
209 228 255
208 228 255
208 228 255
208 228 255
208 228 255
208 228 255
208 228 255
208 228 255
208 228 255
208 228 255
208 228 255
208 228 255
208 228 255
208 228 255
208 228 255
208 228 255
208 228 255
108 135 196
60 97 169
62 99 171
62 99 179
59 96 161
63 100 179
63 100 171
65 101 171
60 95 159
63 99 161
60 97 161
63 99 169
62 98 171
60 95 149
61 95 161
61 97 161
61 97 161
62 99 181
61 99 181
59 95 151
63 100 181
61 97 161
64 100 171
63 99 171
61 97 161
61 98 171
61 97 161
61 97 161
63 99 161
63 100 181
61 98 181
61 98 171
62 99 181
60 95 161
60 96 161
64 101 181
62 98 171
64 101 181
60 97 171
62 98 171
60 97 161
62 97 151
62 99 171
63 99 171
62 98 161
60 95 163
64 101 181
62 98 173
61 98 161
62 97 171
60 95 153
61 96 163
61 96 153
61 95 155
63 98 173
62 99 181
87 115 173
188 209 242
208 228 255
208 228 255
208 228 255
208 228 255
208 228 255
208 228 255
208 228 255
208 228 255
208 228 255
208 228 255
208 228 255
208 228 255
208 228 255
208 228 255
208 228 255
208 228 255
208 228 255
209 228 255
209 229 255
209 229 255
209 229 255
209 229 255
209 229 255
209 229 255
209 229 255
209 229 255
209 229 255
209 229 255
209 229 255
209 229 255
209 229 255
209 229 255
209 229 255
209 229 255
209 229 255
209 229 255
209 229 255
209 229 255
209 229 255
209 229 255
209 229 255
209 229 255
210 229 255
210 229 255
210 229 255
210 229 255
207 224 245
180 174 114
177 172 114
175 171 114
173 171 114
172 170 114
171 170 114
170 169 114
169 169 114
168 168 114
167 168 114
166 168 114
166 167 114
165 167 114
165 167 114
164 167 114
164 167 114
164 166 114
163 166 114
163 166 114
163 166 114
163 166 114
163 166 114
162 166 114
162 166 114
162 166 114
162 166 114
162 166 114
162 166 114
162 166 114
162 166 114
162 166 114
162 166 114
162 166 114
162 166 114
162 166 114
162 166 114
162 166 114
162 166 114
162 166 114
162 166 114
162 166 114
162 166 114
162 166 114
163 166 114
163 166 114
163 166 114
163 166 114
163 166 114
163 166 114
163 166 114
164 166 114
164 166 114
164 166 114
164 167 114
164 167 114
164 167 114
164 167 114
165 167 114
165 167 114
165 167 114
165 167 114
165 167 114
165 167 114
166 167 114
166 167 114
166 167 114
166 168 114
166 168 114
167 168 114
167 168 114
167 168 114
167 168 114
167 168 114
168 168 114
168 168 114
168 168 114
168 168 114
168 169 114
169 169 114
169 169 114
169 169 114
169 169 114
170 169 114
170 169 114
170 169 114
170 169 114
170 169 114
171 170 114
171 170 114
171 170 114
171 170 114
172 170 114
172 170 114
172 170 114
172 170 114
172 170 114
173 170 114
173 171 114
173 171 114
173 171 114
174 171 114
174 171 114
174 171 114
174 171 114
175 171 114
175 171 114
175 172 114
175 172 114
175 172 114
176 172 114
176 172 114
176 172 114
177 172 114
177 172 114
177 172 114
177 173 114
177 173 114
178 173 114
178 173 114
178 173 114
179 173 114
179 173 114
179 173 114
179 174 114
180 201 228
179 200 228
179 200 228
179 200 228
179 200 228
178 200 228
178 200 228
178 200 228
178 199 228
177 199 228
177 199 228
177 199 228
177 199 228
176 199 228
176 199 228
176 199 228
176 198 228
175 198 228
175 198 228
175 198 228
175 198 228
174 198 228
174 198 228
174 198 228
174 197 228
173 197 228
173 197 228
173 197 228
173 197 228
173 197 228
172 197 228
172 197 228
172 196 228
172 196 228
171 196 228
171 196 228
171 196 228
171 196 228
171 196 228
170 196 228
170 196 228
170 195 228
170 195 228
170 195 228
169 195 228
169 195 228
169 195 228
169 195 228
168 195 228
168 195 228
168 194 228
168 194 228
168 194 228
167 194 228
167 194 228
167 194 228
167 194 228
167 194 228
167 194 228
166 194 228
166 193 228
166 193 228
166 193 228
166 193 228
165 193 228
165 193 228
165 193 228
165 193 228
165 193 228
165 193 228
164 193 228
164 192 228
164 192 228
164 192 228
164 192 228
164 192 228
163 192 228
163 192 228
163 192 228
163 192 228
163 192 228
163 192 228
163 192 228
163 192 228
163 192 228
162 192 228
162 192 228
162 192 228
162 192 228
162 191 228
162 191 228
162 191 228
162 191 228
162 191 228
162 191 228
162 191 228
162 191 228
162 191 228
162 191 228
162 192 228
162 192 228
163 192 228
163 192 228
163 192 228
163 192 228
163 192 228
163 192 228
164 192 228
164 192 228
164 193 228
165 193 228
165 193 228
165 193 228
166 193 228
166 194 228
167 194 228
168 194 228
169 195 228
170 195 228
170 196 228
172 196 228
173 197 228
175 198 228
177 199 228
180 201 228
186 205 231
210 229 255
210 229 255
210 229 255
210 229 255
210 229 255
210 229 255
210 229 255
210 229 255
210 229 255
209 229 255
209 229 255
209 229 255
209 229 255
209 229 255
209 229 255
209 229 255
209 229 255
209 229 255
209 229 255
209 229 255
209 229 255
209 229 255
209 229 255
209 229 255
209 229 255
209 229 255
209 229 255
209 229 255
209 229 255
209 229 255
209 229 255
209 229 255
209 229 255
209 228 255
209 229 255
209 228 255
208 228 255
208 228 255
208 228 255
208 228 255
208 228 255
208 228 255
208 228 255
188 208 236
153 176 221
62 99 181
60 97 169
63 98 159
62 98 161
61 98 179
61 98 171
62 99 181
60 95 137
62 99 181
62 98 171
62 98 169
60 97 161
63 99 169
58 95 151
64 100 171
64 100 171
60 95 151
60 97 171
61 98 181
64 100 181
64 100 161
59 96 161
59 95 140
64 101 181
63 99 161
63 99 161
61 99 181
62 99 171
62 98 171
59 95 140
61 97 161
63 98 151
62 99 171
60 96 151
61 96 140
63 99 171
63 99 171
60 96 151
60 95 151
64 100 181
62 98 161
60 97 171
61 96 163
61 96 161
60 97 181
59 96 161
62 96 155
62 99 181
63 100 181
63 99 171
63 98 161
64 101 181
63 98 163
61 98 171
62 98 161
62 96 165
63 100 171
61 97 173
107 133 171
188 208 237
208 228 255
208 228 255
208 228 255
208 228 255
208 228 255
208 228 255
208 228 255
209 228 255
209 228 255
209 228 255
209 229 255
209 229 255
209 229 255
209 229 255
209 229 255
209 229 255
209 229 255
209 229 255
209 229 255
209 229 255
209 229 255
209 229 255
209 229 255
209 229 255
209 229 255
209 229 255
209 229 255
209 229 255
209 229 255
209 229 255
209 229 255
209 229 255
209 229 255
209 229 255
210 229 255
210 229 255
210 229 255
210 229 255
210 229 255
210 229 255
210 229 255
210 229 255
210 229 255
197 204 198
179 173 114
177 172 114
175 171 114
173 170 114
172 170 114
170 169 114
169 169 114
169 169 114
168 168 114
167 168 114
166 168 114
166 167 114
165 167 114
165 167 114
165 167 114
164 167 114
164 167 114
164 166 114
163 166 114
163 166 114
163 166 114
163 166 114
163 166 114
163 166 114
162 166 114
162 166 114
162 166 114
162 166 114
162 166 114
162 166 114
162 166 114
162 166 114
162 166 114
162 166 114
162 166 114
162 166 114
162 166 114
162 166 114
162 166 114
162 166 114
163 166 114
163 166 114
163 166 114
163 166 114
163 166 114
163 166 114
163 166 114
163 166 114
163 166 114
164 166 114
164 166 114
164 166 114
164 167 114
164 167 114
164 167 114
165 167 114
165 167 114
165 167 114
165 167 114
165 167 114
165 167 114
166 167 114
166 167 114
166 167 114
166 167 114
166 168 114
166 168 114
167 168 114
167 168 114
167 168 114
167 168 114
167 168 114
168 168 114
168 168 114
168 168 114
168 168 114
168 169 114
169 169 114
169 169 114
169 169 114
169 169 114
169 169 114
170 169 114
170 169 114
170 169 114
170 169 114
171 170 114
171 170 114
171 170 114
171 170 114
171 170 114
172 170 114
172 170 114
172 170 114
172 170 114
173 170 114
173 171 114
173 171 114
173 171 114
173 171 114
174 171 114
174 171 114
174 171 114
174 171 114
175 171 114
175 171 114
175 172 114
175 172 114
176 172 114
176 172 114
176 172 114
176 172 114
176 172 114
177 172 114
177 172 114
177 173 114
178 173 114
178 173 114
178 173 114
178 173 114
178 173 114
179 173 114
179 173 114
179 173 114
180 174 114
180 201 228
179 200 228
179 200 228
179 200 228
179 200 228
178 200 228
178 200 228
178 200 228
178 200 228
178 199 228
177 199 228
177 199 228
177 199 228
176 199 228
176 199 228
176 199 228
176 199 228
176 198 228
175 198 228
175 198 228
175 198 228
175 198 228
174 198 228
174 198 228
174 198 228
174 197 228
174 197 228
173 197 228
173 197 228
173 197 228
173 197 228
172 197 228
172 197 228
172 197 228
172 196 228
172 196 228
171 196 228
171 196 228
171 196 228
171 196 228
170 196 228
170 196 228
170 196 228
170 195 228
170 195 228
170 195 228
169 195 228
169 195 228
169 195 228
169 195 228
169 195 228
168 195 228
168 194 228
168 194 228
168 194 228
167 194 228
167 194 228
167 194 228
167 194 228
167 194 228
167 194 228
166 194 228
166 194 228
166 193 228
166 193 228
166 193 228
165 193 228
165 193 228
165 193 228
165 193 228
165 193 228
165 193 228
164 193 228
164 193 228
164 192 228
164 192 228
164 192 228
164 192 228
164 192 228
164 192 228
163 192 228
163 192 228
163 192 228
163 192 228
163 192 228
163 192 228
163 192 228
163 192 228
163 192 228
163 192 228
163 192 228
162 192 228
162 192 228
162 192 228
162 192 228
162 192 228
162 192 228
162 192 228
162 192 228
163 192 228
163 192 228
163 192 228
163 192 228
163 192 228
163 192 228
163 192 228
163 192 228
164 192 228
164 192 228
164 192 228
164 193 228
165 193 228
165 193 228
166 193 228
166 193 228
167 194 228
167 194 228
168 194 228
168 195 228
169 195 228
171 196 228
172 196 228
172 197 228
174 198 228
176 199 228
179 200 228
194 213 240
210 229 255
210 229 255
210 229 255
210 229 255
210 229 255
210 229 255
210 229 255
210 229 255
210 229 255
210 229 255
210 229 255
210 229 255
210 229 255
210 229 255
209 229 255
210 229 255
209 229 255
209 229 255
209 229 255
209 229 255
209 229 255
209 229 255
209 229 255
209 229 255
209 229 255
209 229 255
209 229 255
209 229 255
209 229 255
209 229 255
209 229 255
209 229 255
209 229 255
209 229 255
209 229 255
209 229 255
209 229 255
209 229 255
209 229 255
209 229 255
209 229 255
166 188 228
88 117 171
64 101 181
63 100 181
62 97 151
63 99 171
61 98 181
63 98 169
63 99 179
59 94 159
64 100 171
62 98 179
59 95 151
63 100 181
63 100 179
60 98 181
62 99 181
61 96 151
60 97 161
63 100 181
63 99 161
60 96 151
64 100 171
63 99 171
61 97 151
63 100 181
63 99 171
60 97 161
60 96 151
59 97 181
60 97 171
59 94 171
58 95 151
64 98 140
64 100 171
63 99 171
62 98 161
59 96 161
59 94 161
63 100 171
62 99 171
64 101 181
60 97 161
64 101 181
61 97 151
62 99 171
62 98 161
62 98 161
62 98 161
65 101 181
60 95 142
60 97 161
62 99 181
62 95 155
64 99 163
65 100 173
65 101 181
61 98 161
61 96 171
62 99 171
62 96 165
63 99 171
89 118 182
178 199 236
209 229 255
209 229 255
209 229 255
209 229 255
209 229 255
209 229 255
209 229 255
209 229 255
209 229 255
209 229 255
209 229 255
209 229 255
209 229 255
209 229 255
209 229 255
209 229 255
209 229 255
209 229 255
209 229 255
209 229 255
209 229 255
209 229 255
209 229 255
209 229 255
209 229 255
210 229 255
210 229 255
210 229 255
210 229 255
210 229 255
210 229 255
210 229 255
210 229 255
210 229 255
210 229 255
210 229 255
210 229 255
210 229 255
210 229 255
210 229 255
205 220 234
189 187 153
178 173 114
176 172 114
174 171 114
173 171 114
171 170 114
171 170 114
169 169 114
169 169 114
168 168 114
167 168 114
167 168 114
166 167 114
166 167 114
165 167 114
165 167 114
164 167 114
164 167 114
164 166 114
164 166 114
163 166 114
163 166 114
163 166 114
163 166 114
163 166 114
163 166 114
163 166 114
163 166 114
162 166 114
162 166 114
162 166 114
162 166 114
162 166 114
162 166 114
162 166 114
163 166 114
163 166 114
163 166 114
163 166 114
163 166 114
163 166 114
163 166 114
163 166 114
163 166 114
163 166 114
163 166 114
163 166 114
164 166 114
164 166 114
164 166 114
164 167 114
164 167 114
164 167 114
164 167 114
165 167 114
165 167 114
165 167 114
165 167 114
165 167 114
165 167 114
165 167 114
166 167 114
166 167 114
166 167 114
166 168 114
166 168 114
167 168 114
167 168 114
167 168 114
167 168 114
167 168 114
167 168 114
168 168 114
168 168 114
168 168 114
168 168 114
168 169 114
169 169 114
169 169 114
169 169 114
169 169 114
169 169 114
170 169 114
170 169 114
170 169 114
170 169 114
171 169 114
171 170 114
171 170 114
171 170 114
171 170 114
172 170 114
172 170 114
172 170 114
172 170 114
172 170 114
173 170 114
173 171 114
173 171 114
173 171 114
174 171 114
174 171 114
174 171 114
174 171 114
174 171 114
175 171 114
175 171 114
175 172 114
175 172 114
176 172 114
176 172 114
176 172 114
176 172 114
177 172 114
177 172 114
177 172 114
177 173 114
177 173 114
178 173 114
178 173 114
178 173 114
178 173 114
179 173 114
179 173 114
179 173 114
179 174 114
180 174 114
180 201 228
180 201 228
179 200 228
179 200 228
179 200 228
179 200 228
178 200 228
178 200 228
178 200 228
178 200 228
178 199 228
177 199 228
177 199 228
177 199 228
177 199 228
176 199 228
176 199 228
176 199 228
176 198 228
175 198 228
175 198 228
175 198 228
175 198 228
175 198 228
174 198 228
174 198 228
174 198 228
174 197 228
173 197 228
173 197 228
173 197 228
173 197 228
173 197 228
172 197 228
172 197 228
172 197 228
172 196 228
172 196 228
171 196 228
171 196 228
171 196 228
171 196 228
170 196 228
170 196 228
170 196 228
170 195 228
170 195 228
170 195 228
169 195 228
169 195 228
169 195 228
169 195 228
169 195 228
168 195 228
168 195 228
168 194 228
168 194 228
168 194 228
167 194 228
167 194 228
167 194 228
167 194 228
167 194 228
167 194 228
166 194 228
166 193 228
166 193 228
166 193 228
166 193 228
165 193 228
165 193 228
165 193 228
165 193 228
165 193 228
165 193 228
165 193 228
164 193 228
164 192 228
164 192 228
164 192 228
164 192 228
164 192 228
164 192 228
164 192 228
163 192 228
163 192 228
163 192 228
163 192 228
163 192 228
163 192 228
163 192 228
163 192 228
163 192 228
163 192 228
163 192 228
163 192 228
163 192 228
163 192 228
163 192 228
163 192 228
163 192 228
163 192 228
163 192 228
163 192 228
163 192 228
163 192 228
164 192 228
164 192 228
164 192 228
164 192 228
164 193 228
165 193 228
165 193 228
165 193 228
166 193 228
166 194 228
167 194 228
167 194 228
168 194 228
169 195 228
169 195 228
171 196 228
172 196 228
173 197 228
174 198 228
176 199 228
178 200 228
187 207 234
205 224 250
210 229 255
210 229 255
210 229 255
210 229 255
210 229 255
210 229 255
210 229 255
210 229 255
210 229 255
210 229 255
210 229 255
210 229 255
210 229 255
210 229 255
210 229 255
210 229 255
210 229 255
210 229 255
210 229 255
210 229 255
209 229 255
209 229 255
209 229 255
209 229 255
209 229 255
209 229 255
209 229 255
209 229 255
209 229 255
209 229 255
209 229 255
209 229 255
209 229 255
209 229 255
209 229 255
209 229 255
209 229 255
209 229 255
166 188 228
61 97 177
62 99 179
64 100 179
62 97 167
64 101 171
63 99 161
61 97 161
63 99 179
57 91 127
62 98 171
65 101 171
60 97 161
62 99 171
63 100 181
58 94 171
61 97 159
63 99 161
62 98 171
62 99 181
64 99 161
62 98 171
61 97 161
60 96 161
61 97 161
66 101 171
59 95 151
61 96 151
60 96 151
64 100 171
62 99 181
60 95 153
64 101 181
62 99 171
64 100 171
63 100 181
62 98 161
65 102 181
61 97 140
60 95 161
63 99 161
63 100 171
60 97 171
65 101 181
62 98 161
60 97 161
64 99 173
63 100 181
61 96 140
59 96 161
58 93 153
60 97 161
62 98 161
63 99 171
62 97 163
64 101 181
62 98 173
58 95 151
61 97 173
63 97 161
62 98 171
59 91 147
62 99 181
62 99 171
62 97 173
178 199 228
209 229 255
209 229 255
209 229 255
209 229 255
209 229 255
209 229 255
209 229 255
209 229 255
209 229 255
209 229 255
209 229 255
209 229 255
209 229 255
209 229 255
209 229 255
209 229 255
209 229 255
209 229 255
210 229 255
210 229 255
210 229 255
210 229 255
210 229 255
210 229 255
210 229 255
210 229 255
210 229 255
210 229 255
210 229 255
210 229 255
210 229 255
210 229 255
210 229 255
210 229 255
210 229 255
210 229 255
210 229 255
210 229 255
200 209 211
185 181 135
179 173 114
176 172 114
174 171 114
173 170 114
172 170 114
170 169 114
170 169 114
169 169 114
168 168 114
167 168 114
167 168 114
166 168 114
166 167 114
165 167 114
165 167 114
165 167 114
164 167 114
164 167 114
164 167 114
164 166 114
164 166 114
163 166 114
163 166 114
163 166 114
163 166 114
163 166 114
163 166 114
163 166 114
163 166 114
163 166 114
163 166 114
163 166 114
163 166 114
163 166 114
163 166 114
163 166 114
163 166 114
163 166 114
163 166 114
163 166 114
163 166 114
163 166 114
163 166 114
163 166 114
164 166 114
164 166 114
164 167 114
164 166 114
164 167 114
164 167 114
164 167 114
164 167 114
165 167 114
165 167 114
165 167 114
165 167 114
165 167 114
165 167 114
166 167 114
166 167 114
166 167 114
166 168 114
166 168 114
167 168 114
167 168 114
167 168 114
167 168 114
167 168 114
167 168 114
168 168 114
168 168 114
168 168 114
168 168 114
168 168 114
169 169 114
169 169 114
169 169 114
169 169 114
169 169 114
170 169 114
170 169 114
170 169 114
170 169 114
170 169 114
171 169 114
171 170 114
171 170 114
171 170 114
171 170 114
172 170 114
172 170 114
172 170 114
172 170 114
172 170 114
173 170 114
173 171 114
173 171 114
173 171 114
173 171 114
174 171 114
174 171 114
174 171 114
174 171 114
175 171 114
175 171 114
175 172 114
175 172 114
175 172 114
176 172 114
176 172 114
176 172 114
176 172 114
177 172 114
177 172 114
177 172 114
177 173 114
177 173 114
178 173 114
178 173 114
178 173 114
178 173 114
179 173 114
179 173 114
179 173 114
179 174 114
180 174 114
180 174 114
180 201 228
180 201 228
180 201 228
179 200 228
179 200 228
179 200 228
179 200 228
178 200 228
178 200 228
178 200 228
178 200 228
177 199 228
177 199 228
177 199 228
177 199 228
177 199 228
177 199 228
176 199 228
176 199 228
176 199 228
175 198 228
175 198 228
175 198 228
175 198 228
175 198 228
175 198 228
174 198 228
174 198 228
174 198 228
174 197 228
173 197 228
173 197 228
173 197 228
173 197 228
173 197 228
172 197 228
172 197 228
172 197 228
172 196 228
172 196 228
171 196 228
171 196 228
171 196 228
171 196 228
171 196 228
170 196 228
170 196 228
170 196 228
170 195 228
170 195 228
169 195 228
169 195 228
169 195 228
169 195 228
169 195 228
168 195 228
168 195 228
168 194 228
168 194 228
168 194 228
168 194 228
167 194 228
167 194 228
167 194 228
167 194 228
167 194 228
167 194 228
166 194 228
166 193 228
166 193 228
166 193 228
166 193 228
166 193 228
165 193 228
165 193 228
165 193 228
165 193 228
165 193 228
165 193 228
164 193 228
164 193 228
164 193 228
164 192 228
164 192 228
164 192 228
164 192 228
164 192 228
164 192 228
164 192 228
164 192 228
163 192 228
163 192 228
163 192 228
163 192 228
163 192 228
163 192 228
163 192 228
163 192 228
163 192 228
163 192 228
163 192 228
163 192 228
163 192 228
163 192 228
164 192 228
164 192 228
164 192 228
164 192 228
164 192 228
164 193 228
165 193 228
165 193 228
165 193 228
165 193 228
166 193 228
166 194 228
167 194 228
167 194 228
168 194 228
168 195 228
169 195 228
170 195 228
171 196 228
172 196 228
173 197 228
174 198 228
176 198 228
178 200 228
182 202 228
195 214 240
210 230 255
210 230 255
210 230 255
210 229 255
210 229 255
210 229 255
210 229 255
210 229 255
210 229 255
210 229 255
210 229 255
210 229 255
210 229 255
210 229 255
210 229 255
210 229 255
210 229 255
210 229 255
210 229 255
210 229 255
210 229 255
210 229 255
210 229 255
210 229 255
210 229 255
210 229 255
209 229 255
209 229 255
209 229 255
209 229 255
209 229 255
209 229 255
209 229 255
209 229 255
209 229 255
199 219 249
108 134 194
60 97 179
62 98 169
60 96 151
63 99 179
65 101 181
62 99 179
61 97 177
60 96 151
60 97 161
62 99 171
63 100 171
57 93 127
63 99 171
61 98 171
61 98 161
62 99 171
61 97 161
63 100 181
62 99 171
62 97 161
64 101 181
59 96 151
62 99 171
60 97 161
63 100 181
63 100 171
64 100 171
63 100 181
66 102 181
61 97 161
61 98 161
62 99 171
64 99 151
60 95 140
61 97 161
62 97 159
58 95 161
64 100 171
60 96 159
63 100 171
60 96 151
62 99 171
65 102 181
63 98 161
62 99 171
64 101 181
60 97 171
66 102 181
62 99 171
60 95 153
65 101 171
63 100 181
63 100 181
61 97 171
62 98 171
64 100 161
61 98 161
63 100 181
60 95 153
62 98 173
62 96 165
63 99 161
60 93 147
59 94 161
60 94 155
59 94 163
140 163 206
189 209 242
209 229 255
209 229 255
209 229 255
209 229 255
209 229 255
209 229 255
209 229 255
210 229 255
210 229 255
210 229 255
210 229 255
210 229 255
210 229 255
210 229 255
210 229 255
210 229 255
210 229 255
210 229 255
210 229 255
210 229 255
210 229 255
210 229 255
210 229 255
210 229 255
210 229 255
210 229 255
210 229 255
210 229 255
210 229 255
210 229 255
210 229 255
210 229 255
210 230 255
210 230 255
210 230 255
208 225 245
181 174 114
178 173 114
176 172 114
174 171 114
173 171 114
172 170 114
171 170 114
170 169 114
169 169 114
168 168 114
168 168 114
167 168 114
167 168 114
166 167 114
166 167 114
165 167 114
165 167 114
165 167 114
164 167 114
164 167 114
164 167 114
164 167 114
164 166 114
164 166 114
163 166 114
163 166 114
163 166 114
163 166 114
163 166 114
163 166 114
163 166 114
163 166 114
163 166 114
163 166 114
163 166 114
163 166 114
163 166 114
163 166 114
163 166 114
164 166 114
164 166 114
164 166 114
164 166 114
164 166 114
164 166 114
164 167 114
164 167 114
164 167 114
164 167 114
165 167 114
165 167 114
165 167 114
165 167 114
165 167 114
165 167 114
165 167 114
166 167 114
166 167 114
166 167 114
166 167 114
166 167 114
166 168 114
166 168 114
167 168 114
167 168 114
167 168 114
167 168 114
167 168 114
167 168 114
168 168 114
168 168 114
168 168 114
168 168 114
169 169 114
169 169 114
169 169 114
169 169 114
169 169 114
169 169 114
170 169 114
170 169 114
170 169 114
170 169 114
170 169 114
171 169 114
171 170 114
171 170 114
171 170 114
171 170 114
172 170 114
172 170 114
172 170 114
172 170 114
172 170 114
173 170 114
173 171 114
173 171 114
173 171 114
173 171 114
174 171 114
174 171 114
174 171 114
174 171 114
174 171 114
175 171 114
175 171 114
175 172 114
175 172 114
176 172 114
176 172 114
176 172 114
176 172 114
176 172 114
177 172 114
177 172 114
177 172 114
177 173 114
178 173 114
178 173 114
178 173 114
178 173 114
178 173 114
179 173 114
179 173 114
179 173 114
179 173 114
180 174 114
180 174 114
180 174 114
180 201 228
180 201 228
180 201 228
180 201 228
179 200 228
179 200 228
179 200 228
179 200 228
178 200 228
178 200 228
178 200 228
178 200 228
178 199 228
177 199 228
177 199 228
177 199 228
177 199 228
177 199 228
176 199 228
176 199 228
176 199 228
176 198 228
175 198 228
175 198 228
175 198 228
175 198 228
175 198 228
175 198 228
174 198 228
174 198 228
174 198 228
174 197 228
174 197 228
173 197 228
173 197 228
173 197 228
173 197 228
172 197 228
172 197 228
172 197 228
172 196 228
172 196 228
171 196 228
171 196 228
171 196 228
171 196 228
171 196 228
171 196 228
170 196 228
170 196 228
170 195 228
170 195 228
170 195 228
169 195 228
169 195 228
169 195 228
169 195 228
169 195 228
168 195 228
168 195 228
168 194 228
168 194 228
168 194 228
167 194 228
167 194 228
167 194 228
167 194 228
167 194 228
167 194 228
167 194 228
166 194 228
166 194 228
166 193 228
166 193 228
166 193 228
166 193 228
165 193 228
165 193 228
165 193 228
165 193 228
165 193 228
165 193 228
165 193 228
165 193 228
164 193 228
164 193 228
164 193 228
164 192 228
164 192 228
164 192 228
164 192 228
164 192 228
164 192 228
164 192 228
164 192 228
164 192 228
164 192 228
164 192 228
164 192 228
164 192 228
164 192 228
164 192 228
164 192 228
164 192 228
164 192 228
164 192 228
164 192 228
164 192 228
164 193 228
165 193 228
165 193 228
165 193 228
165 193 228
165 193 228
166 193 228
166 193 228
166 194 228
167 194 228
167 194 228
168 194 228
168 195 228
169 195 228
170 195 228
171 196 228
172 196 228
173 197 228
174 198 228
176 199 228
178 200 228
180 201 228
195 214 240
211 230 255
211 230 255
211 230 255
211 230 255
211 230 255
210 230 255
210 230 255
210 230 255
210 230 255
210 230 255
210 229 255
210 229 255
210 229 255
210 229 255
210 229 255
210 229 255
210 229 255
210 229 255
210 229 255
210 229 255
210 229 255
210 229 255
210 229 255
210 229 255
210 229 255
210 229 255
210 229 255
210 229 255
210 229 255
210 229 255
210 229 255
210 229 255
210 229 255
200 220 249
62 98 159
61 98 179
61 98 169
61 97 161
64 99 161
61 97 159
63 99 171
63 100 181
59 95 140
61 98 171
61 98 161
61 97 169
64 100 171
63 98 140
62 98 161
60 97 169
62 99 181
62 98 161
57 91 137
63 99 171
64 100 171
59 95 161
64 100 171
63 98 151
61 97 161
64 100 171
62 97 151
60 96 140
60 97 171
65 101 181
60 96 151
65 101 181
62 98 171
61 98 171
60 95 151
62 98 161
63 99 161
60 96 151
61 98 161
64 99 161
60 96 151
60 97 161
65 101 171
63 100 171
60 94 130
63 99 171
61 98 171
62 98 161
61 98 171
60 96 151
61 95 142
63 100 171
61 98 161
62 97 163
62 99 171
63 100 181
59 93 144
60 95 127
61 97 161
62 98 151
59 95 140
64 100 171
61 97 161
63 99 171
62 96 165
63 100 181
64 100 181
62 96 165
63 98 163
141 164 214
210 229 255
210 229 255
210 229 255
210 229 255
210 229 255
210 229 255
210 229 255
210 229 255
210 229 255
210 229 255
210 229 255
210 229 255
210 229 255
210 229 255
210 229 255
210 229 255
210 229 255
210 229 255
210 229 255
210 229 255
210 229 255
210 229 255
210 229 255
210 229 255
210 229 255
210 230 255
210 230 255
210 230 255
210 230 255
211 230 255
211 230 255
211 230 255
211 230 255
211 230 255
201 210 211
181 174 114
178 173 114
176 172 114
174 171 114
173 170 114
172 170 114
171 170 114
170 169 114
169 169 114
168 169 114
168 168 114
167 168 114
167 168 114
167 168 114
166 167 114
166 167 114
165 167 114
165 167 114
165 167 114
165 167 114
165 167 114
164 167 114
164 167 114
164 167 114
164 167 114
164 166 114
164 166 114
164 166 114
164 166 114
164 166 114
164 166 114
164 166 114
164 166 114
164 166 114
164 166 114
164 166 114
164 166 114
164 166 114
164 166 114
164 166 114
164 167 114
164 167 114
164 167 114
164 167 114
164 167 114
164 167 114
165 167 114
165 167 114
165 167 114
165 167 114
165 167 114
165 167 114
165 167 114
165 167 114
166 167 114
166 167 114
166 167 114
166 167 114
166 168 114
166 168 114
167 168 114
167 168 114
167 168 114
167 168 114
167 168 114
167 168 114
168 168 114
168 168 114
168 168 114
168 168 114
168 168 114
168 169 114
169 169 114
169 169 114
169 169 114
169 169 114
169 169 114
169 169 114
170 169 114
170 169 114
170 169 114
170 169 114
170 169 114
171 170 114
171 170 114
171 170 114
171 170 114
172 170 114
172 170 114
172 170 114
172 170 114
172 170 114
172 170 114
173 170 114
173 171 114
173 171 114
173 171 114
173 171 114
174 171 114
174 171 114
174 171 114
174 171 114
175 171 114
175 171 114
175 171 114
175 172 114
175 172 114
175 172 114
176 172 114
176 172 114
176 172 114
176 172 114
177 172 114
177 172 114
177 172 114
177 173 114
177 173 114
178 173 114
178 173 114
178 173 114
178 173 114
179 173 114
179 173 114
179 173 114
179 173 114
179 174 114
180 174 114
180 174 114
180 174 114
180 174 114
180 201 228
180 201 228
180 201 228
180 201 228
180 201 228
179 200 228
179 200 228
179 200 228
179 200 228
179 200 228
178 200 228
178 200 228
178 200 228
178 200 228
178 199 228
177 199 228
177 199 228
177 199 228
177 199 228
176 199 228
176 199 228
176 199 228
176 199 228
176 199 228
176 198 228
175 198 228
175 198 228
175 198 228
175 198 228
174 198 228
174 198 228
174 198 228
174 198 228
174 197 228
173 197 228
173 197 228
173 197 228
173 197 228
173 197 228
173 197 228
172 197 228
172 197 228
172 197 228
172 196 228
172 196 228
171 196 228
171 196 228
171 196 228
171 196 228
171 196 228
170 196 228
170 196 228
170 196 228
170 195 228
170 195 228
169 195 228
169 195 228
169 195 228
169 195 228
169 195 228
169 195 228
168 195 228
168 195 228
168 195 228
168 194 228
168 194 228
168 194 228
167 194 228
167 194 228
167 194 228
167 194 228
167 194 228
167 194 228
166 194 228
166 194 228
166 194 228
166 193 228
166 193 228
166 193 228
166 193 228
166 193 228
165 193 228
165 193 228
165 193 228
165 193 228
165 193 228
165 193 228
165 193 228
164 193 228
164 193 228
164 193 228
164 193 228
164 193 228
164 193 228
164 193 228
164 192 228
164 192 228
164 192 228
164 192 228
164 192 228
164 192 228
164 192 228
164 192 228
164 192 228
164 193 228
164 193 228
164 193 228
164 193 228
165 193 228
165 193 228
165 193 228
165 193 228
165 193 228
166 193 228
166 193 228
166 194 228
166 194 228
167 194 228
167 194 228
168 194 228
168 195 228
169 195 228
170 195 228
170 196 228
171 196 228
172 196 228
173 197 228
174 198 228
176 199 228
178 199 228
181 201 228
190 209 234
211 230 255
211 230 255
211 230 255
211 230 255
211 230 255
211 230 255
211 230 255
211 230 255
211 230 255
211 230 255
211 230 255
211 230 255
210 230 255
210 230 255
210 230 255
210 229 255
210 229 255
210 229 255
210 229 255
210 229 255
210 229 255
210 229 255
210 229 255
210 229 255
210 229 255
210 229 255
210 229 255
210 229 255
210 229 255
210 229 255
210 229 255
200 220 249
140 163 206
60 97 179
61 97 167
62 99 181
64 100 181
60 97 169
63 100 181
62 99 171
62 98 159
60 96 151
58 92 140
62 99 179
59 96 167
64 100 161
63 100 171
64 100 171
59 95 159
61 97 151
61 97 151
62 98 171
63 99 161
61 97 151
61 97 161
63 100 181
61 97 159
62 98 161
60 97 161
62 98 161
62 98 161
64 101 181
62 98 151
61 96 161
61 97 161
63 99 161
62 99 171
61 97 151
61 97 151
60 97 171
66 102 171
60 95 161
59 95 140
60 94 142
61 97 151
62 99 171
61 99 181
60 95 153
63 100 181
63 99 171
62 98 161
59 96 161
64 100 171
64 99 163
63 99 161
62 98 151
61 95 151
62 99 181
63 100 181
61 96 163
57 89 144
64 101 181
61 96 163
59 93 114
61 96 163
59 91 130
64 100 171
61 97 161
60 96 151
63 98 173
60 96 163
60 96 163
64 100 181
107 131 177
210 229 255
210 229 255
210 229 255
210 229 255
210 229 255
210 229 255
210 229 255
210 229 255
210 229 255
210 229 255
210 229 255
210 229 255
210 229 255
210 229 255
210 229 255
210 229 255
210 230 255
210 230 255
210 230 255
211 230 255
211 230 255
211 230 255
211 230 255
211 230 255
211 230 255
211 230 255
211 230 255
211 230 255
211 230 255
211 230 255
211 230 255
211 230 255
203 215 223
182 175 114
178 173 114
176 172 114
175 171 114
173 171 114
172 170 114
171 170 114
170 169 114
170 169 114
169 169 114
168 168 114
168 168 114
167 168 114
167 168 114
166 168 114
166 168 114
166 167 114
166 167 114
165 167 114
165 167 114
165 167 114
165 167 114
165 167 114
165 167 114
164 167 114
164 167 114
164 167 114
164 167 114
164 167 114
164 167 114
164 167 114
164 167 114
164 167 114
164 167 114
164 167 114
164 167 114
164 167 114
164 167 114
164 167 114
164 167 114
164 167 114
165 167 114
165 167 114
165 167 114
165 167 114
165 167 114
165 167 114
165 167 114
165 167 114
165 167 114
166 167 114
166 167 114
166 167 114
166 167 114
166 167 114
166 168 114
166 168 114
167 168 114
167 168 114
167 168 114
167 168 114
167 168 114
167 168 114
167 168 114
168 168 114
168 168 114
168 168 114
168 168 114
168 168 114
168 169 114
169 169 114
169 169 114
169 169 114
169 169 114
169 169 114
170 169 114
170 169 114
170 169 114
170 169 114
170 169 114
170 169 114
171 169 114
171 170 114
171 170 114
171 170 114
171 170 114
172 170 114
172 170 114
172 170 114
172 170 114
172 170 114
173 170 114
173 170 114
173 171 114
173 171 114
173 171 114
174 171 114
174 171 114
174 171 114
174 171 114
174 171 114
175 171 114
175 171 114
175 171 114
175 172 114
175 172 114
175 172 114
176 172 114
176 172 114
176 172 114
176 172 114
176 172 114
177 172 114
177 172 114
177 172 114
177 173 114
178 173 114
178 173 114
178 173 114
178 173 114
178 173 114
179 173 114
179 173 114
179 173 114
179 173 114
179 174 114
180 174 114
180 174 114
180 174 114
180 174 114
181 174 114
181 201 228
181 201 228
180 201 228
180 201 228
180 201 228
180 201 228
180 201 228
179 200 228
179 200 228
179 200 228
179 200 228
179 200 228
178 200 228
178 200 228
178 200 228
178 200 228
178 199 228
177 199 228
177 199 228
177 199 228
177 199 228
176 199 228
176 199 228
176 199 228
176 199 228
176 198 228
176 198 228
175 198 228
175 198 228
175 198 228
175 198 228
175 198 228
174 198 228
174 198 228
174 198 228
174 198 228
174 197 228
173 197 228
173 197 228
173 197 228
173 197 228
173 197 228
172 197 228
172 197 228
172 197 228
172 196 228
172 196 228
172 196 228
171 196 228
171 196 228
171 196 228
171 196 228
171 196 228
170 196 228
170 196 228
170 196 228
170 195 228
170 195 228
170 195 228
169 195 228
169 195 228
169 195 228
169 195 228
169 195 228
169 195 228
168 195 228
168 195 228
168 194 228
168 194 228
168 194 228
168 194 228
167 194 228
167 194 228
167 194 228
167 194 228
167 194 228
167 194 228
167 194 228
166 194 228
166 194 228
166 193 228
166 193 228
166 193 228
166 193 228
166 193 228
166 193 228
165 193 228
165 193 228
165 193 228
165 193 228
165 193 228
165 193 228
165 193 228
165 193 228
165 193 228
165 193 228
165 193 228
165 193 228
165 193 228
165 193 228
165 193 228
165 193 228
165 193 228
165 193 228
165 193 228
165 193 228
165 193 228
165 193 228
165 193 228
165 193 228
165 193 228
165 193 228
166 193 228
166 193 228
166 193 228
166 194 228
167 194 228
167 194 228
167 194 228
168 194 228
168 195 228
169 195 228
169 195 228
170 196 228
171 196 228
172 196 228
173 197 228
173 197 228
175 198 228
177 199 228
179 200 228
181 201 228
196 214 240
211 230 255
211 230 255
211 230 255
211 230 255
211 230 255
211 230 255
211 230 255
211 230 255
211 230 255
211 230 255
211 230 255
211 230 255
211 230 255
211 230 255
211 230 255
211 230 255
211 230 255
211 230 255
211 230 255
211 230 255
210 230 255
210 230 255
210 230 255
210 229 255
210 229 255
210 229 255
210 229 255
210 229 255
210 229 255
200 220 249
88 118 186
61 98 171
62 96 155
64 100 179
61 99 181
62 97 151
61 98 171
61 97 169
58 95 161
61 98 179
63 99 179
61 98 171
61 98 171
62 96 137
59 95 159
61 97 169
62 99 171
60 97 169
63 99 169
60 96 151
61 98 171
64 100 171
62 97 140
62 97 149
63 100 171
61 98 171
61 97 161
60 96 151
58 94 151
60 96 171
62 98 161
64 100 161
62 98 161
63 98 151
61 97 161
59 96 151
63 99 161
62 98 161
62 98 151
64 100 171
64 100 171
59 95 140
61 97 161
61 98 161
59 95 140
62 97 151
62 98 161
59 96 161
63 99 151
63 100 181
62 98 161
65 100 161
61 98 161
61 97 151
63 95 161
61 96 140
60 96 151
62 99 171
62 99 181
62 97 151
62 98 173
61 97 171
63 99 171
64 100 171
61 97 151
60 94 165
63 98 173
64 99 173
62 99 181
62 99 181
63 96 155
59 94 171
63 98 173
107 131 182
200 219 244
210 229 255
210 229 255
210 229 255
210 229 255
210 229 255
210 229 255
210 230 255
210 230 255
210 230 255
211 230 255
211 230 255
211 230 255
211 230 255
211 230 255
211 230 255
211 230 255
211 230 255
211 230 255
211 230 255
211 230 255
211 230 255
211 230 255
211 230 255
211 230 255
211 230 255
211 230 255
211 230 255
211 230 255
211 230 255
190 188 153
181 174 114
178 173 114
177 172 114
175 171 114
174 171 114
172 170 114
172 170 114
171 170 114
170 169 114
169 169 114
169 169 114
168 168 114
168 168 114
167 168 114
167 168 114
167 168 114
166 168 114
166 167 114
166 167 114
166 167 114
165 167 114
165 167 114
165 167 114
165 167 114
165 167 114
165 167 114
165 167 114
165 167 114
165 167 114
165 167 114
165 167 114
165 167 114
165 167 114
165 167 114
165 167 114
165 167 114
165 167 114
165 167 114
165 167 114
165 167 114
165 167 114
165 167 114
165 167 114
165 167 114
165 167 114
166 167 114
166 167 114
166 167 114
166 167 114
166 167 114
166 167 114
166 167 114
166 168 114
166 168 114
167 168 114
167 168 114
167 168 114
167 168 114
167 168 114
167 168 114
167 168 114
168 168 114
168 168 114
168 168 114
168 168 114
168 168 114
168 169 114
168 169 114
169 169 114
169 169 114
169 169 114
169 169 114
169 169 114
170 169 114
170 169 114
170 169 114
170 169 114
170 169 114
170 169 114
171 169 114
171 170 114
171 170 114
171 170 114
171 170 114
171 170 114
172 170 114
172 170 114
172 170 114
172 170 114
172 170 114
173 170 114
173 171 114
173 171 114
173 171 114
173 171 114
174 171 114
174 171 114
174 171 114
174 171 114
174 171 114
175 171 114
175 171 114
175 172 114
175 172 114
175 172 114
176 172 114
176 172 114
176 172 114
176 172 114
176 172 114
177 172 114
177 172 114
177 172 114
177 172 114
177 173 114
178 173 114
178 173 114
178 173 114
178 173 114
178 173 114
179 173 114
179 173 114
179 173 114
179 173 114
179 174 114
180 174 114
180 174 114
180 174 114
180 174 114
180 174 114
181 174 114
181 174 114
181 201 228
181 201 228
181 201 228
180 201 228
180 201 228
180 201 228
180 201 228
180 201 228
179 201 228
179 200 228
179 200 228
179 200 228
179 200 228
179 200 228
178 200 228
178 200 228
178 200 228
178 200 228
178 199 228
177 199 228
177 199 228
177 199 228
177 199 228
177 199 228
176 199 228
176 199 228
176 199 228
176 199 228
176 198 228
175 198 228
175 198 228
175 198 228
175 198 228
175 198 228
175 198 228
174 198 228
174 198 228
174 198 228
174 197 228
174 197 228
173 197 228
173 197 228
173 197 228
173 197 228
173 197 228
173 197 228
172 197 228
172 197 228
172 197 228
172 196 228
172 196 228
171 196 228
171 196 228
171 196 228
171 196 228
171 196 228
171 196 228
170 196 228
170 196 228
170 195 228
170 195 228
170 195 228
169 195 228
169 195 228
169 195 228
169 195 228
169 195 228
169 195 228
169 195 228
168 195 228
168 195 228
168 194 228
168 194 228
168 194 228
167 194 228
167 194 228
167 194 228
167 194 228
167 194 228
167 194 228
167 194 228
167 194 228
166 194 228
166 194 228
166 194 228
166 194 228
166 193 228
166 193 228
166 193 228
166 193 228
166 193 228
166 193 228
165 193 228
166 193 228
165 193 228
165 193 228
165 193 228
165 193 228
165 193 228
165 193 228
165 193 228
165 193 228
165 193 228
165 193 228
165 193 228
165 193 228
165 193 228
165 193 228
165 193 228
166 193 228
166 193 228
166 193 228
166 193 228
166 194 228
166 194 228
167 194 228
167 194 228
167 194 228
167 194 228
168 194 228
168 195 228
169 195 228
169 195 228
170 195 228
170 196 228
171 196 228
172 197 228
173 197 228
174 198 228
175 198 228
177 199 228
179 200 228
181 201 228
196 215 240
211 230 255
211 230 255
211 230 255
211 230 255
211 230 255
211 230 255
211 230 255
211 230 255
211 230 255
211 230 255
211 230 255
211 230 255
211 230 255
211 230 255
211 230 255
211 230 255
211 230 255
211 230 255
211 230 255
211 230 255
211 230 255
211 230 255
211 230 255
211 230 255
211 230 255
211 230 255
211 230 255
211 230 255
108 134 196
59 95 167
61 98 181
60 97 171
62 98 161
62 98 159
62 97 167
62 99 171
59 96 151
60 96 151
61 97 161
62 98 161
63 98 169
63 99 171
61 97 151
61 97 159
59 95 149
64 99 161
64 100 171
63 100 181
60 96 151
63 100 181
58 94 127
60 96 161
62 99 171
61 97 161
61 96 151
62 98 161
62 98 161
62 99 171
62 98 161
61 95 151
63 98 151
64 101 181
63 99 161
61 97 151
63 99 171
59 92 127
64 101 181
61 97 151
63 99 171
65 101 171
64 100 171
62 99 171
60 95 140
62 98 161
63 100 181
60 94 151
61 95 142
63 98 163
60 93 153
62 96 153
62 99 181
64 101 181
59 93 151
64 100 171
65 101 171
62 99 171
62 98 151
62 96 155
62 99 171
60 97 161
63 100 181
62 97 171
65 101 171
61 97 161
64 100 181
61 98 161
60 96 163
60 95 142
62 99 171
57 89 122
62 98 171
61 98 171
59 94 165
140 161 201
211 230 255
211 230 255
211 230 255
211 230 255
211 230 255
211 230 255
211 230 255
211 230 255
211 230 255
211 230 255
211 230 255
211 230 255
211 230 255
211 230 255
211 230 255
211 230 255
211 230 255
211 230 255
211 230 255
211 230 255
211 230 255
211 230 255
211 230 255
211 230 255
211 230 255
211 230 255
211 230 255
211 230 255
198 205 198
181 174 114
179 173 114
177 172 114
175 172 114
174 171 114
173 171 114
172 170 114
171 170 114
171 169 114
170 169 114
169 169 114
169 169 114
168 168 114
168 168 114
167 168 114
167 168 114
167 168 114
167 168 114
166 168 114
166 168 114
166 167 114
166 167 114
166 167 114
166 167 114
165 167 114
165 167 114
165 167 114
165 167 114
165 167 114
165 167 114
165 167 114
165 167 114
165 167 114
165 167 114
165 167 114
165 167 114
165 167 114
165 167 114
165 167 114
165 167 114
166 167 114
165 167 114
166 167 114
166 167 114
166 167 114
166 167 114
166 167 114
166 168 114
166 168 114
166 168 114
167 168 114
167 168 114
167 168 114
167 168 114
167 168 114
167 168 114
167 168 114
168 168 114
168 168 114
168 168 114
168 168 114
168 168 114
168 168 114
168 168 114
168 169 114
169 169 114
169 169 114
169 169 114
169 169 114
169 169 114
169 169 114
170 169 114
170 169 114
170 169 114
170 169 114
170 169 114
171 169 114
171 170 114
171 170 114
171 170 114
171 170 114
172 170 114
172 170 114
172 170 114
172 170 114
172 170 114
172 170 114
173 170 114
173 171 114
173 171 114
173 171 114
173 171 114
173 171 114
174 171 114
174 171 114
174 171 114
174 171 114
174 171 114
174 171 114
175 171 114
175 171 114
175 172 114
175 172 114
175 172 114
176 172 114
176 172 114
176 172 114
176 172 114
176 172 114
177 172 114
177 172 114
177 172 114
177 172 114
177 173 114
178 173 114
178 173 114
178 173 114
178 173 114
178 173 114
179 173 114
179 173 114
179 173 114
179 173 114
179 173 114
179 174 114
180 174 114
180 174 114
180 174 114
180 174 114
180 174 114
181 174 114
181 174 114
181 174 114
181 202 228
181 201 228
181 201 228
181 201 228
181 201 228
180 201 228
180 201 228
180 201 228
180 201 228
180 201 228
179 200 228
179 200 228
179 200 228
179 200 228
179 200 228
179 200 228
178 200 228
178 200 228
178 200 228
178 200 228
178 199 228
177 199 228
177 199 228
177 199 228
177 199 228
177 199 228
176 199 228
176 199 228
176 199 228
176 199 228
176 199 228
176 198 228
175 198 228
175 198 228
175 198 228
175 198 228
175 198 228
174 198 228
174 198 228
174 198 228
174 198 228
174 197 228
174 197 228
173 197 228
173 197 228
173 197 228
173 197 228
173 197 228
172 197 228
172 197 228
172 197 228
172 197 228
172 196 228
171 196 228
171 196 228
171 196 228
171 196 228
171 196 228
171 196 228
171 196 228
170 196 228
170 196 228
170 196 228
170 195 228
170 195 228
170 195 228
170 195 228
169 195 228
169 195 228
169 195 228
169 195 228
169 195 228
169 195 228
168 195 228
168 195 228
168 195 228
168 194 228
168 194 228
168 194 228
168 194 228
167 194 228
167 194 228
167 194 228
167 194 228
167 194 228
167 194 228
167 194 228
167 194 228
166 194 228
166 194 228
166 194 228
166 194 228
166 193 228
166 193 228
166 193 228
166 193 228
166 193 228
166 193 228
166 193 228
166 193 228
166 193 228
166 193 228
166 193 228
166 193 228
166 193 228
166 193 228
166 193 228
166 193 228
166 193 228
166 193 228
166 193 228
166 194 228
166 194 228
167 194 228
167 194 228
167 194 228
167 194 228
167 194 228
168 194 228
168 194 228
168 195 228
169 195 228
169 195 228
170 195 228
170 196 228
171 196 228
172 196 228
173 197 228
174 197 228
174 198 228
176 198 228
177 199 228
179 200 228
182 202 228
199 217 242
212 230 255
212 230 255
212 230 255
212 230 255
211 230 255
211 230 255
211 230 255
211 230 255
211 230 255
211 230 255
211 230 255
211 230 255
211 230 255
211 230 255
211 230 255
211 230 255
211 230 255
211 230 255
211 230 255
211 230 255
211 230 255
211 230 255
211 230 255
211 230 255
211 230 255
211 230 255
108 132 191
59 93 154
61 96 165
61 98 161
59 96 161
63 99 161
63 99 179
60 96 161
61 97 161
59 94 161
59 96 161
60 96 159
61 98 171
60 96 161
59 95 149
62 98 169
63 99 169
63 99 179
63 99 161
58 94 161
60 95 127
61 97 161
61 97 161
62 98 169
62 98 169
62 98 169
62 98 161
62 97 151
61 98 161
62 98 161
64 100 171
60 94 151
59 95 140
60 95 149
63 99 171
61 98 169
60 94 140
60 96 151
61 97 161
64 99 161
61 97 161
61 97 151
61 97 151
63 98 151
65 101 181
61 96 161
62 98 171
60 97 171
63 99 171
64 100 161
61 99 181
62 98 161
62 97 151
62 98 151
64 100 181
61 94 142
62 97 163
63 99 171
64 100 171
62 97 163
60 97 161
63 98 163
63 100 171
62 96 151
57 90 127
62 98 151
64 99 173
58 93 114
61 97 161
63 99 171
60 96 173
64 100 171
60 93 153
61 97 151
62 97 163
62 99 171
64 99 173
142 164 206
211 230 255
211 230 255
211 230 255
211 230 255
211 230 255
211 230 255
211 230 255
211 230 255
211 230 255
211 230 255
211 230 255
211 230 255
211 230 255
211 230 255
211 230 255
211 230 255
211 230 255
211 230 255
211 230 255
211 230 255
211 230 255
211 230 255
211 230 255
212 230 255
212 230 255
212 230 255
194 194 169
182 175 114
179 173 114
178 173 114
175 172 114
175 171 114
174 171 114
173 170 114
172 170 114
171 170 114
170 169 114
170 169 114
169 169 114
169 169 114
168 169 114
168 168 114
168 168 114
168 168 114
167 168 114
167 168 114
167 168 114
167 168 114
166 168 114
166 168 114
166 167 114
166 167 114
166 167 114
166 167 114
166 167 114
166 167 114
166 167 114
166 167 114
166 167 114
166 167 114
166 167 114
166 167 114
166 167 114
166 167 114
166 167 114
166 167 114
166 167 114
166 167 114
166 167 114
166 168 114
166 168 114
166 168 114
166 168 114
167 168 114
167 168 114
167 168 114
167 168 114
167 168 114
167 168 114
167 168 114
167 168 114
168 168 114
168 168 114
168 168 114
168 168 114
168 168 114
168 168 114
168 169 114
169 169 114
169 169 114
169 169 114
169 169 114
169 169 114
169 169 114
169 169 114
170 169 114
170 169 114
170 169 114
170 169 114
170 169 114
170 169 114
171 170 114
171 170 114
171 170 114
171 170 114
171 170 114
171 170 114
172 170 114
172 170 114
172 170 114
172 170 114
172 170 114
173 170 114
173 170 114
173 171 114
173 171 114
173 171 114
173 171 114
174 171 114
174 171 114
174 171 114
174 171 114
174 171 114
174 171 114
175 171 114
175 171 114
175 171 114
175 172 114
175 172 114
176 172 114
176 172 114
176 172 114
176 172 114
176 172 114
176 172 114
177 172 114
177 172 114
177 172 114
177 173 114
177 173 114
178 173 114
178 173 114
178 173 114
178 173 114
178 173 114
179 173 114
179 173 114
179 173 114
179 173 114
179 174 114
179 174 114
180 174 114
180 174 114
180 174 114
180 174 114
180 174 114
181 174 114
181 174 114
181 174 114
181 174 114
181 174 114
182 202 228
182 202 228
181 202 228
181 201 228
181 201 228
181 201 228
181 201 228
180 201 228
180 201 228
180 201 228
180 201 228
180 201 228
180 201 228
179 200 228
179 200 228
179 200 228
179 200 228
179 200 228
178 200 228
178 200 228
178 200 228
178 200 228
178 200 228
178 199 228
177 199 228
177 199 228
177 199 228
177 199 228
177 199 228
176 199 228
176 199 228
176 199 228
176 199 228
176 199 228
176 198 228
175 198 228
175 198 228
175 198 228
175 198 228
175 198 228
174 198 228
174 198 228
174 198 228
174 198 228
174 197 228
174 197 228
173 197 228
173 197 228
173 197 228
173 197 228
173 197 228
173 197 228
172 197 228
172 197 228
172 197 228
172 196 228
172 196 228
172 196 228
171 196 228
171 196 228
171 196 228
171 196 228
171 196 228
171 196 228
170 196 228
170 196 228
170 196 228
170 195 228
170 195 228
170 195 228
169 195 228
169 195 228
169 195 228
169 195 228
169 195 228
169 195 228
169 195 228
169 195 228
168 195 228
168 195 228
168 195 228
168 194 228
168 194 228
168 194 228
168 194 228
168 194 228
167 194 228
167 194 228
167 194 228
167 194 228
167 194 228
167 194 228
167 194 228
167 194 228
167 194 228
167 194 228
167 194 228
166 194 228
166 194 228
166 194 228
166 194 228
166 194 228
166 194 228
166 194 228
166 194 228
166 194 228
166 194 228
167 194 228
166 194 228
167 194 228
167 194 228
167 194 228
167 194 228
167 194 228
167 194 228
167 194 228
168 194 228
168 194 228
168 195 228
168 195 228
169 195 228
169 195 228
169 195 228
170 195 228
170 196 228
171 196 228
172 196 228
172 197 228
173 197 228
174 198 228
175 198 228
176 199 228
178 200 228
180 201 228
181 202 228
197 215 240
212 230 255
212 230 255
212 230 255
212 230 255
212 230 255
212 230 255
212 230 255
212 230 255
212 230 255
212 230 255
212 230 255
212 230 255
211 230 255
211 230 255
211 230 255
211 230 255
211 230 255
211 230 255
211 230 255
211 230 255
211 230 255
211 230 255
211 230 255
211 230 255
141 163 204
63 99 171
62 98 159
64 100 171
63 98 159
61 97 167
62 97 157
61 98 171
59 94 151
65 101 181
57 91 111
61 97 151
64 100 161
65 101 171
64 100 171
59 96 161
61 97 169
60 97 169
60 96 151
61 96 140
62 98 161
61 96 151
63 99 161
60 95 161
61 98 171
59 95 140
63 99 171
61 97 159
62 98 171
61 97 151
63 100 181
63 99 161
62 97 151
60 96 151
63 99 171
62 98 161
61 96 140
59 96 161
61 97 151
63 99 171
62 99 171
58 91 140
59 94 127
64 100 171
59 95 140
62 98 161
62 98 161
58 94 127
61 95 151
60 96 151
64 100 161
59 93 130
58 95 151
64 99 151
64 100 171
61 96 153
62 98 161
63 99 171
60 96 151
61 97 151
64 100 161
61 97 151
63 99 161
62 98 161
60 95 140
57 92 151
65 100 173
61 95 142
56 90 114
62 98 173
63 100 181
62 98 171
59 93 163
62 97 171
64 99 173
61 93 147
62 98 161
60 94 165
59 90 133
127 151 206
211 230 255
211 230 255
211 230 255
211 230 255
211 230 255
211 230 255
211 230 255
211 230 255
211 230 255
211 230 255
211 230 255
211 230 255
211 230 255
212 230 255
212 230 255
212 230 255
212 230 255
212 230 255
212 230 255
212 230 255
212 230 255
212 230 255
212 230 255
212 230 255
202 210 211
183 175 114
179 174 114
178 173 114
177 172 114
175 171 114
174 171 114
173 171 114
172 170 114
172 170 114
171 170 114
170 169 114
170 169 114
170 169 114
169 169 114
169 169 114
168 168 114
168 168 114
168 168 114
168 168 114
167 168 114
167 168 114
167 168 114
167 168 114
167 168 114
167 168 114
167 168 114
167 168 114
166 168 114
167 168 114
166 168 114
166 168 114
166 168 114
166 168 114
166 168 114
166 168 114
166 168 114
166 168 114
167 168 114
167 168 114
167 168 114
167 168 114
167 168 114
167 168 114
167 168 114
167 168 114
167 168 114
167 168 114
167 168 114
167 168 114
167 168 114
168 168 114
168 168 114
168 168 114
168 168 114
168 168 114
168 168 114
168 169 114
168 169 114
169 169 114
169 169 114
169 169 114
169 169 114
169 169 114
169 169 114
170 169 114
170 169 114
170 169 114
170 169 114
170 169 114
170 169 114
170 169 114
171 169 114
171 170 114
171 170 114
171 170 114
171 170 114
171 170 114
172 170 114
172 170 114
172 170 114
172 170 114
172 170 114
172 170 114
173 170 114
173 170 114
173 171 114
173 171 114
173 171 114
173 171 114
174 171 114
174 171 114
174 171 114
174 171 114
174 171 114
175 171 114
175 171 114
175 171 114
175 172 114
175 172 114
175 172 114
175 172 114
176 172 114
176 172 114
176 172 114
176 172 114
176 172 114
177 172 114
177 172 114
177 172 114
177 173 114
177 173 114
177 173 114
178 173 114
178 173 114
178 173 114
178 173 114
178 173 114
179 173 114
179 173 114
179 173 114
179 173 114
179 173 114
179 174 114
180 174 114
180 174 114
180 174 114
180 174 114
180 174 114
181 174 114
181 174 114
181 174 114
181 174 114
181 174 114
182 175 114
182 175 114
182 202 228
182 202 228
182 202 228
182 202 228
181 202 228
181 201 228
181 201 228
181 201 228
181 201 228
181 201 228
180 201 228
180 201 228
180 201 228
180 201 228
180 201 228
179 200 228
179 200 228
179 200 228
179 200 228
179 200 228
179 200 228
178 200 228
178 200 228
178 200 228
178 200 228
178 200 228
178 199 228
177 199 228
177 199 228
177 199 228
177 199 228
177 199 228
176 199 228
176 199 228
176 199 228
176 199 228
176 199 228
176 198 228
175 198 228
175 198 228
175 198 228
175 198 228
175 198 228
174 198 228
174 198 228
174 198 228
174 198 228
174 198 228
174 197 228
174 197 228
173 197 228
173 197 228
173 197 228
173 197 228
173 197 228
173 197 228
172 197 228
172 197 228
172 197 228
172 197 228
172 196 228
172 196 228
171 196 228
171 196 228
171 196 228
171 196 228
171 196 228
171 196 228
170 196 228
170 196 228
170 196 228
170 196 228
170 195 228
170 195 228
170 195 228
169 195 228
169 195 228
169 195 228
169 195 228
169 195 228
169 195 228
169 195 228
169 195 228
168 195 228
168 195 228
168 195 228
168 195 228
168 194 228
168 194 228
168 194 228
168 194 228
168 194 228
167 194 228
167 194 228
167 194 228
167 194 228
167 194 228
167 194 228
167 194 228
167 194 228
167 194 228
167 194 228
167 194 228
167 194 228
167 194 228
167 194 228
167 194 228
167 194 228
167 194 228
167 194 228
167 194 228
167 194 228
167 194 228
168 194 228
168 194 228
168 194 228
168 194 228
168 195 228
168 195 228
169 195 228
169 195 228
169 195 228
170 195 228
170 196 228
171 196 228
171 196 228
171 196 228
172 197 228
173 197 228
174 197 228
175 198 228
176 199 228
177 199 228
178 200 228
180 201 228
183 202 228
200 218 242
212 230 255
212 230 255
212 230 255
212 230 255
212 230 255
212 230 255
212 230 255
212 230 255
212 230 255
212 230 255
212 230 255
212 230 255
212 230 255
212 230 255
212 230 255
212 230 255
212 230 255
212 230 255
212 230 255
212 230 255
211 230 255
212 230 255
141 163 204
64 100 181
62 98 177
62 98 169
60 96 159
62 98 167
59 95 140
60 95 161
63 99 179
62 98 161
63 98 159
62 97 159
60 96 159
62 97 149
62 98 179
61 97 161
59 93 151
63 100 171
62 98 161
61 96 159
62 97 151
62 98 161
62 98 161
61 99 181
58 93 127
64 100 171
60 96 161
62 98 151
59 94 137
59 95 140
63 99 171
62 99 171
62 98 151
58 94 140
64 99 151
55 88 127
61 97 151
62 98 161
64 99 161
60 96 140
61 98 171
57 92 151
63 99 161
60 97 161
61 98 161
61 97 161
56 89 151
58 93 127
63 99 171
62 98 161
61 98 171
61 96 140
58 95 161
62 97 151
63 99 171
59 94 151
61 96 151
60 96 151
61 97 161
61 98 171
65 99 163
62 98 161
63 96 163
66 101 171
62 97 151
57 91 140
61 97 161
63 99 171
61 95 151
63 98 163
60 95 163
64 98 163
62 98 161
63 99 161
60 96 163
63 99 171
62 98 161
63 99 161
62 98 173
63 95 157
61 96 163
141 162 201
211 230 255
211 230 255
212 230 255
212 230 255
212 230 255
212 230 255
212 230 255
212 230 255
212 230 255
212 230 255
212 230 255
212 230 255
212 230 255
212 230 255
212 230 255
212 230 255
212 230 255
212 230 255
212 230 255
212 230 255
212 230 255
212 230 255
200 206 198
184 176 114
181 174 114
178 173 114
177 172 114
176 172 114
175 171 114
174 171 114
173 171 114
172 170 114
172 170 114
171 170 114
170 169 114
170 169 114
170 169 114
169 169 114
169 169 114
169 169 114
169 169 114
168 168 114
168 168 114
168 168 114
168 168 114
168 168 114
168 168 114
167 168 114
167 168 114
167 168 114
167 168 114
167 168 114
167 168 114
167 168 114
167 168 114
167 168 114
167 168 114
167 168 114
167 168 114
167 168 114
167 168 114
167 168 114
167 168 114
167 168 114
167 168 114
167 168 114
168 168 114
168 168 114
168 168 114
168 168 114
168 168 114
168 168 114
168 168 114
168 168 114
168 169 114
169 169 114
169 169 114
169 169 114
169 169 114
169 169 114
169 169 114
169 169 114
169 169 114
169 169 114
170 169 114
170 169 114
170 169 114
170 169 114
170 169 114
170 169 114
170 169 114
171 170 114
171 170 114
171 170 114
171 170 114
171 170 114
171 170 114
172 170 114
172 170 114
172 170 114
172 170 114
172 170 114
172 170 114
173 170 114
173 170 114
173 171 114
173 171 114
173 171 114
173 171 114
174 171 114
174 171 114
174 171 114
174 171 114
174 171 114
174 171 114
175 171 114
175 171 114
175 172 114
175 172 114
175 172 114
175 172 114
176 172 114
176 172 114
176 172 114
176 172 114
176 172 114
176 172 114
177 172 114
177 172 114
177 172 114
177 173 114
177 173 114
178 173 114
178 173 114
178 173 114
178 173 114
178 173 114
178 173 114
178 173 114
179 173 114
179 173 114
179 173 114
179 173 114
179 174 114
180 174 114
180 174 114
180 174 114
180 174 114
180 174 114
180 174 114
181 174 114
181 174 114
181 174 114
181 174 114
181 174 114
182 175 114
182 175 114
182 175 114
182 175 114
182 202 228
182 202 228
182 202 228
182 202 228
182 202 228
182 202 228
181 202 228
181 201 228
181 201 228
181 201 228
181 201 228
181 201 228
180 201 228
180 201 228
180 201 228
180 201 228
180 201 228
180 201 228
179 200 228
179 200 228
179 200 228
179 200 228
179 200 228
179 200 228
178 200 228
178 200 228
178 200 228
178 200 228
178 200 228
178 199 228
177 199 228
177 199 228
177 199 228
177 199 228
177 199 228
177 199 228
176 199 228
176 199 228
176 199 228
176 199 228
176 198 228
176 198 228
175 198 228
175 198 228
175 198 228
175 198 228
175 198 228
175 198 228
174 198 228
174 198 228
174 198 228
174 198 228
174 197 228
174 197 228
173 197 228
173 197 228
173 197 228
173 197 228
173 197 228
173 197 228
172 197 228
172 197 228
172 197 228
172 197 228
172 196 228
172 196 228
171 196 228
172 196 228
171 196 228
171 196 228
171 196 228
171 196 228
171 196 228
171 196 228
170 196 228
170 196 228
170 196 228
170 196 228
170 195 228
170 195 228
170 195 228
169 195 228
169 195 228
169 195 228
169 195 228
169 195 228
169 195 228
169 195 228
169 195 228
169 195 228
168 195 228
168 195 228
168 195 228
168 195 228
168 195 228
168 194 228
168 194 228
168 194 228
168 194 228
168 194 228
168 194 228
168 194 228
168 194 228
168 194 228
168 194 228
168 194 228
168 194 228
168 194 228
168 194 228
168 194 228
168 194 228
168 194 228
168 194 228
168 195 228
168 195 228
168 195 228
169 195 228
169 195 228
169 195 228
169 195 228
169 195 228
170 195 228
170 195 228
170 196 228
171 196 228
171 196 228
172 196 228
172 197 228
173 197 228
174 197 228
175 198 228
175 198 228
176 199 228
177 199 228
179 200 228
181 201 228
184 203 228
205 223 248
212 231 255
212 231 255
212 231 255
212 231 255
212 230 255
212 230 255
212 230 255
212 230 255
212 230 255
212 230 255
212 230 255
212 230 255
212 230 255
212 230 255
212 230 255
212 230 255
212 230 255
212 230 255
212 230 255
212 230 255
190 208 236
60 96 167
58 94 165
58 94 163
61 96 157
56 89 120
60 94 162
61 96 157
61 96 161
61 95 140
61 98 171
61 97 151
61 98 181
61 97 161
63 99 171
63 100 171
63 99 171
60 96 161
60 96 151
58 93 114
62 99 171
59 95 149
62 96 140
63 99 171
63 99 171
62 97 151
62 97 151
61 98 161
65 101 171
63 99 171
59 95 140
66 101 161
61 97 151
63 98 151
61 97 151
59 96 161
64 100 171
57 93 127
63 100 181
64 99 151
62 98 161
59 94 140
59 94 161
61 97 151
61 97 151
64 99 161
64 100 161
61 97 161
64 99 161
60 96 140
64 100 161
60 93 127
60 95 140
62 98 161
62 99 171
62 97 151
62 98 161
62 97 161
61 97 161
61 95 142
60 96 140
63 99 161
61 97 161
61 96 142
61 95 142
58 93 155
60 95 142
62 98 173
62 97 153
60 96 161
58 93 155
63 100 181
64 97 155
61 97 163
60 97 161
64 100 181
61 95 140
59 96 171
60 92 144
60 94 155
58 90 145
60 94 155
63 96 163
191 210 237
212 230 255
212 230 255
212 230 255
212 230 255
212 230 255
212 230 255
212 230 255
212 230 255
212 230 255
212 230 255
212 230 255
212 230 255
212 230 255
212 230 255
212 230 255
212 231 255
212 231 255
212 231 255
212 231 255
212 231 255
210 226 245
187 182 135
181 174 114
179 174 114
178 173 114
176 172 114
175 172 114
174 171 114
174 171 114
173 171 114
172 170 114
172 170 114
171 170 114
171 170 114
170 169 114
170 169 114
170 169 114
169 169 114
169 169 114
169 169 114
169 169 114
169 169 114
168 169 114
168 168 114
168 168 114
168 168 114
168 168 114
168 168 114
168 168 114
168 168 114
168 168 114
168 168 114
168 168 114
168 168 114
168 168 114
168 168 114
168 168 114
168 168 114
168 168 114
168 168 114
168 168 114
168 168 114
168 168 114
168 168 114
168 169 114
168 168 114
168 168 114
168 168 114
168 169 114
169 169 114
169 169 114
169 169 114
169 169 114
169 169 114
169 169 114
169 169 114
169 169 114
170 169 114
170 169 114
170 169 114
170 169 114
170 169 114
170 169 114
170 169 114
171 170 114
171 170 114
171 170 114
171 170 114
171 170 114
171 170 114
171 170 114
172 170 114
172 170 114
172 170 114
172 170 114
172 170 114
172 170 114
172 170 114
173 170 114
173 170 114
173 171 114
173 171 114
173 171 114
173 171 114
174 171 114
174 171 114
174 171 114
174 171 114
174 171 114
174 171 114
174 171 114
175 171 114
175 171 114
175 172 114
175 172 114
175 172 114
176 172 114
176 172 114
176 172 114
176 172 114
176 172 114
176 172 114
177 172 114
177 172 114
177 172 114
177 172 114
177 172 114
177 173 114
177 173 114
178 173 114
178 173 114
178 173 114
178 173 114
178 173 114
179 173 114
179 173 114
179 173 114
179 173 114
179 173 114
179 174 114
179 174 114
180 174 114
180 174 114
180 174 114
180 174 114
180 174 114
181 174 114
181 174 114
181 174 114
181 174 114
181 174 114
181 174 114
182 175 114
182 175 114
182 175 114
182 175 114
182 175 114
182 175 114
183 202 228
183 202 228
182 202 228
182 202 228
182 202 228
182 202 228
182 202 228
182 202 228
181 202 228
181 202 228
181 201 228
181 201 228
181 201 228
181 201 228
181 201 228
180 201 228
180 201 228
180 201 228
180 201 228
180 201 228
180 201 228
179 200 228
179 200 228
179 200 228
179 200 228
179 200 228
179 200 228
178 200 228
178 200 228
178 200 228
178 200 228
178 200 228
177 199 228
177 199 228
177 199 228
177 199 228
177 199 228
177 199 228
177 199 228
176 199 228
176 199 228
176 199 228
176 199 228
176 199 228
176 198 228
175 198 228
175 198 228
175 198 228
175 198 228
175 198 228
175 198 228
175 198 228
175 198 228
174 198 228
174 198 228
174 198 228
174 197 228
174 197 228
173 197 228
173 197 228
173 197 228
173 197 228
173 197 228
173 197 228
173 197 228
172 197 228
172 197 228
172 197 228
172 197 228
172 196 228
172 196 228
172 196 228
171 196 228
171 196 228
171 196 228
171 196 228
171 196 228
171 196 228
171 196 228
170 196 228
170 196 228
170 196 228
170 196 228
170 195 228
170 195 228
170 195 228
170 195 228
170 195 228
169 195 228
169 195 228
169 195 228
169 195 228
169 195 228
169 195 228
169 195 228
169 195 228
169 195 228
169 195 228
169 195 228
168 195 228
168 195 228
168 195 228
168 195 228
168 195 228
168 195 228
168 195 228
168 195 228
168 195 228
168 195 228
168 195 228
168 195 228
169 195 228
169 195 228
169 195 228
169 195 228
169 195 228
169 195 228
169 195 228
169 195 228
170 195 228
170 195 228
170 196 228
170 196 228
171 196 228
171 196 228
172 196 228
172 197 228
172 197 228
173 197 228
174 197 228
174 198 228
175 198 228
176 199 228
177 199 228
178 200 228
180 201 228
182 202 228
191 209 234
210 228 253
213 231 255
213 231 255
212 231 255
212 231 255
212 231 255
212 231 255
212 231 255
212 231 255
212 231 255
212 231 255
212 231 255
212 231 255
212 231 255
212 230 255
212 230 255
212 230 255
212 230 255
212 230 255
212 230 255
58 93 171
64 101 179
61 96 157
63 99 161
62 98 171
60 96 165
57 93 127
59 94 149
60 96 159
63 99 169
64 100 171
62 97 159
60 95 161
63 98 159
64 100 171
60 96 151
62 97 151
63 99 169
60 95 137
62 97 151
61 97 169
63 99 161
59 95 151
59 94 161
58 93 159
59 95 161
66 101 179
61 96 140
64 100 161
63 98 159
63 100 171
63 99 171
60 96 151
62 98 161
63 99 161
64 100 171
60 96 161
57 90 114
63 99 151
57 94 140
66 102 171
61 97 161
61 96 140
62 98 151
63 99 161
64 99 161
62 98 161
62 98 151
61 96 140
63 99 171
61 95 127
62 99 171
59 94 127
63 100 171
63 97 151
62 98 171
60 97 161
62 98 161
63 96 142
63 98 151
57 92 161
62 99 171
61 97 151
58 90 117
60 91 120
65 101 171
59 93 130
61 97 151
61 97 161
62 99 171
61 96 142
60 97 161
62 97 163
61 95 151
61 95 155
63 98 173
61 94 153
63 100 181
60 94 140
57 90 145
60 94 155
58 91 143
55 87 130
108 130 172
212 230 255
212 230 255
212 230 255
212 230 255
212 230 255
212 231 255
212 231 255
212 231 255
212 231 255
212 231 255
212 231 255
212 231 255
212 231 255
212 231 255
212 231 255
212 231 255
213 231 255
213 231 255
213 231 255
213 231 255
191 188 153
182 175 114
180 174 114
178 173 114
177 172 114
176 172 114
175 172 114
174 171 114
174 171 114
173 171 114
172 170 114
172 170 114
172 170 114
171 170 114
171 170 114
170 169 114
170 169 114
170 169 114
170 169 114
169 169 114
169 169 114
169 169 114
169 169 114
169 169 114
169 169 114
169 169 114
168 169 114
169 169 114
169 169 114
168 169 114
168 169 114
169 169 114
168 168 114
168 169 114
169 169 114
169 169 114
169 169 114
169 169 114
169 169 114
169 169 114
169 169 114
169 169 114
169 169 114
169 169 114
169 169 114
169 169 114
169 169 114
169 169 114
169 169 114
169 169 114
170 169 114
170 169 114
170 169 114
170 169 114
170 169 114
170 169 114
170 169 114
170 169 114
170 169 114
170 169 114
171 170 114
171 170 114
171 170 114
171 170 114
171 170 114
171 170 114
171 170 114
172 170 114
172 170 114
172 170 114
172 170 114
172 170 114
172 170 114
173 170 114
173 170 114
173 171 114
173 171 114
173 171 114
173 171 114
174 171 114
174 171 114
174 171 114
174 171 114
174 171 114
174 171 114
174 171 114
175 171 114
175 171 114
175 171 114
175 172 114
175 172 114
175 172 114
175 172 114
176 172 114
176 172 114
176 172 114
176 172 114
176 172 114
176 172 114
177 172 114
177 172 114
177 172 114
177 172 114
177 173 114
178 173 114
178 173 114
178 173 114
178 173 114
178 173 114
178 173 114
178 173 114
179 173 114
179 173 114
179 173 114
179 173 114
179 173 114
179 174 114
180 174 114
180 174 114
180 174 114
180 174 114
180 174 114
180 174 114
181 174 114
181 174 114
181 174 114
181 174 114
181 174 114
181 174 114
181 175 114
182 175 114
182 175 114
182 175 114
182 175 114
182 175 114
183 175 114
183 175 114
183 175 114
183 203 228
183 202 228
183 202 228
183 202 228
183 202 228
182 202 228
182 202 228
182 202 228
182 202 228
182 202 228
182 202 228
182 202 228
181 202 228
181 201 228
181 201 228
181 201 228
181 201 228
181 201 228
180 201 228
180 201 228
180 201 228
180 201 228
180 201 228
180 201 228
179 200 228
179 200 228
179 200 228
179 200 228
179 200 228
179 200 228
178 200 228
178 200 228
178 200 228
178 200 228
178 200 228
178 200 228
178 199 228
177 199 228
177 199 228
177 199 228
177 199 228
177 199 228
177 199 228
177 199 228
176 199 228
176 199 228
176 199 228
176 199 228
176 198 228
175 198 228
175 198 228
175 198 228
175 198 228
175 198 228
175 198 228
175 198 228
174 198 228
174 198 228
174 198 228
174 198 228
174 198 228
174 197 228
174 197 228
173 197 228
173 197 228
173 197 228
173 197 228
173 197 228
173 197 228
173 197 228
172 197 228
172 197 228
172 197 228
172 196 228
172 197 228
172 196 228
172 196 228
171 196 228
171 196 228
171 196 228
171 196 228
171 196 228
171 196 228
171 196 228
171 196 228
171 196 228
170 196 228
170 196 228
170 196 228
170 196 228
170 196 228
170 195 228
170 195 228
170 195 228
170 195 228
170 195 228
170 195 228
170 195 228
169 195 228
169 195 228
169 195 228
169 195 228
169 195 228
169 195 228
169 195 228
169 195 228
169 195 228
169 195 228
169 195 228
169 195 228
169 195 228
169 195 228
169 195 228
169 195 228
170 195 228
170 195 228
170 195 228
170 195 228
170 196 228
170 196 228
170 196 228
171 196 228
171 196 228
171 196 228
171 196 228
172 197 228
172 197 228
173 197 228
173 197 228
174 197 228
174 198 228
175 198 228
176 199 228
177 199 228
178 200 228
179 200 228
180 201 228
183 203 228
188 207 231
213 231 255
213 231 255
213 231 255
213 231 255
213 231 255
213 231 255
213 231 255
213 231 255
213 231 255
213 231 255
213 231 255
213 231 255
213 231 255
213 231 255
212 231 255
212 231 255
212 231 255
212 231 255
168 188 226
63 100 181
62 98 169
59 95 147
60 96 159
60 96 169
61 97 161
62 97 159
62 97 159
59 95 157
61 97 169
64 100 179
62 99 179
63 99 171
61 95 149
59 94 149
60 95 137
62 97 151
64 100 161
62 99 171
58 94 161
63 100 181
61 95 161
62 98 171
63 99 171
60 96 151
60 96 151
65 101 171
58 94 137
63 99 171
61 98 171
63 99 161
63 98 159
61 98 169
61 97 151
59 96 151
61 96 171
61 96 153
60 96 161
61 97 161
63 100 181
64 100 161
59 95 140
64 100 171
64 101 181
61 96 151
62 97 140
60 95 140
64 100 181
63 99 171
63 100 171
64 99 161
55 89 127
62 97 161
61 96 151
60 95 127
62 98 161
59 95 151
60 96 161
61 95 142
63 99 161
64 100 181
59 94 163
64 98 140
60 94 140
61 98 171
62 98 161
61 95 142
62 96 165
63 100 171
60 95 153
62 96 151
61 97 173
64 100 161
59 94 151
61 93 144
60 94 142
60 95 153
62 98 171
62 99 181
61 97 151
63 98 173
60 94 155
61 96 153
60 93 155
142 164 214
212 231 255
212 231 255
212 231 255
212 231 255
212 231 255
212 231 255
213 231 255
213 231 255
213 231 255
213 231 255
213 231 255
213 231 255
213 231 255
213 231 255
213 231 255
213 231 255
213 231 255
211 226 245
192 189 153
183 175 114
181 174 114
179 173 114
178 173 114
177 172 114
176 172 114
175 172 114
174 171 114
174 171 114
173 171 114
173 170 114
172 170 114
172 170 114
171 170 114
171 170 114
171 170 114
171 170 114
170 169 114
170 169 114
170 169 114
170 169 114
170 169 114
170 169 114
170 169 114
169 169 114
169 169 114
169 169 114
169 169 114
169 169 114
169 169 114
169 169 114
169 169 114
169 169 114
169 169 114
169 169 114
169 169 114
169 169 114
169 169 114
169 169 114
169 169 114
169 169 114
170 169 114
170 169 114
170 169 114
170 169 114
170 169 114
170 169 114
170 169 114
170 169 114
170 169 114
170 169 114
170 169 114
171 170 114
171 170 114
171 170 114
171 170 114
171 170 114
171 170 114
171 170 114
171 170 114
172 170 114
172 170 114
172 170 114
172 170 114
172 170 114
172 170 114
172 170 114
172 170 114
173 170 114
173 170 114
173 171 114
173 171 114
173 171 114
173 171 114
173 171 114
174 171 114
174 171 114
174 171 114
174 171 114
174 171 114
174 171 114
175 171 114
175 171 114
175 171 114
175 171 114
175 172 114
175 172 114
175 172 114
176 172 114
176 172 114
176 172 114
176 172 114
176 172 114
176 172 114
177 172 114
177 172 114
177 172 114
177 172 114
177 172 114
177 173 114
177 173 114
177 173 114
178 173 114
178 173 114
178 173 114
178 173 114
178 173 114
178 173 114
179 173 114
179 173 114
179 173 114
179 173 114
179 173 114
179 174 114
180 174 114
180 174 114
180 174 114
180 174 114
180 174 114
180 174 114
180 174 114
181 174 114
181 174 114
181 174 114
181 174 114
181 174 114
182 175 114
182 175 114
182 175 114
182 175 114
182 175 114
182 175 114
182 175 114
183 175 114
183 175 114
183 175 114
183 175 114
183 175 114
184 203 228
183 203 228
183 203 228
183 203 228
183 202 228
183 202 228
183 202 228
183 202 228
182 202 228
182 202 228
182 202 228
182 202 228
182 202 228
182 202 228
182 202 228
181 202 228
181 201 228
181 201 228
181 201 228
181 201 228
180 201 228
180 201 228
180 201 228
180 201 228
180 201 228
180 201 228
180 201 228
179 200 228
179 200 228
179 200 228
179 200 228
179 200 228
179 200 228
179 200 228
178 200 228
178 200 228
178 200 228
178 200 228
178 200 228
178 200 228
178 199 228
177 199 228
177 199 228
177 199 228
177 199 228
177 199 228
177 199 228
176 199 228
176 199 228
176 199 228
176 199 228
176 199 228
176 199 228
176 198 228
176 198 228
175 198 228
175 198 228
175 198 228
175 198 228
175 198 228
175 198 228
175 198 228
174 198 228
174 198 228
174 198 228
174 197 228
174 197 228
174 197 228
173 197 228
173 197 228
173 197 228
173 197 228
173 197 228
173 197 228
173 197 228
173 197 228
172 197 228
172 197 228
172 197 228
172 197 228
172 197 228
172 196 228
172 196 228
172 196 228
171 196 228
172 196 228
171 196 228
171 196 228
171 196 228
171 196 228
171 196 228
171 196 228
171 196 228
171 196 228
171 196 228
171 196 228
170 196 228
170 196 228
170 196 228
170 196 228
170 196 228
170 196 228
170 195 228
170 195 228
170 196 228
170 196 228
170 195 228
170 195 228
170 195 228
170 196 228
170 196 228
170 196 228
170 196 228
170 196 228
170 196 228
170 196 228
171 196 228
171 196 228
171 196 228
171 196 228
171 196 228
171 196 228
171 196 228
172 196 228
172 197 228
172 197 228
173 197 228
173 197 228
174 197 228
174 198 228
175 198 228
175 198 228
176 199 228
177 199 228
177 199 228
178 200 228
180 201 228
182 202 228
184 203 228
198 215 240
213 231 255
213 231 255
213 231 255
213 231 255
213 231 255
213 231 255
213 231 255
213 231 255
213 231 255
213 231 255
213 231 255
213 231 255
213 231 255
213 231 255
213 231 255
213 231 255
192 210 236
60 95 169
59 94 149
59 96 161
57 91 167
61 97 159
61 97 177
59 95 167
62 98 161
64 100 179
63 99 171
58 92 127
62 97 159
60 94 149
60 95 149
63 98 159
60 95 149
63 98 161
60 96 149
61 97 151
61 97 161
61 97 151
61 97 169
58 93 127
63 100 171
61 97 151
60 96 161
57 93 140
61 97 171
63 99 161
67 103 181
63 99 171
61 98 171
61 96 140
64 99 161
62 96 151
61 96 140
61 97 161
64 100 161
60 96 140
62 98 159
64 100 171
59 94 127
60 95 140
61 96 151
61 96 149
58 94 140
59 95 140
60 96 151
62 97 153
63 97 163
62 98 161
60 96 161
61 97 161
62 97 151
59 94 161
62 98 161
61 96 153
62 96 151
62 97 163
62 98 171
63 100 171
61 97 161
60 95 127
61 98 161
61 97 151
62 98 173
60 96 140
62 98 171
64 100 161
60 95 142
61 96 140
61 97 151
64 100 171
63 98 163
61 97 140
61 96 163
63 97 153
57 91 127
58 90 145
54 82 90
56 88 130
63 100 171
60 94 130
60 94 155
59 90 147
58 92 144
203 221 249
213 231 255
213 231 255
213 231 255
213 231 255
213 231 255
213 231 255
213 231 255
213 231 255
213 231 255
213 231 255
213 231 255
213 231 255
213 231 255
213 231 255
213 231 255
213 231 255
198 201 184
184 176 114
182 175 114
180 174 114
179 173 114
178 173 114
177 172 114
176 172 114
175 172 114
175 171 114
174 171 114
173 171 114
173 171 114
173 170 114
172 170 114
172 170 114
172 170 114
171 170 114
171 170 114
171 170 114
171 170 114
171 170 114
171 169 114
170 169 114
170 169 114
170 169 114
170 169 114
170 169 114
170 169 114
170 169 114
170 169 114
170 169 114
170 169 114
170 169 114
170 169 114
170 169 114
170 169 114
170 169 114
170 169 114
170 169 114
170 169 114
170 169 114
170 169 114
170 169 114
170 169 114
171 170 114
171 170 114
171 170 114
171 170 114
171 170 114
171 170 114
171 170 114
171 170 114
171 170 114
171 170 114
171 170 114
172 170 114
172 170 114
172 170 114
172 170 114
172 170 114
172 170 114
172 170 114
173 170 114
173 170 114
173 170 114
173 171 114
173 171 114
173 171 114
173 171 114
173 171 114
174 171 114
174 171 114
174 171 114
174 171 114
174 171 114
174 171 114
174 171 114
174 171 114
175 171 114
175 171 114
175 172 114
175 172 114
175 172 114
175 172 114
176 172 114
176 172 114
176 172 114
176 172 114
176 172 114
176 172 114
176 172 114
177 172 114
177 172 114
177 172 114
177 172 114
177 173 114
177 173 114
178 173 114
177 173 114
178 173 114
178 173 114
178 173 114
178 173 114
178 173 114
178 173 114
179 173 114
179 173 114
179 173 114
179 173 114
179 173 114
179 174 114
179 174 114
180 174 114
180 174 114
180 174 114
180 174 114
180 174 114
180 174 114
181 174 114
181 174 114
181 174 114
181 174 114
181 174 114
181 174 114
181 175 114
182 175 114
182 175 114
182 175 114
182 175 114
182 175 114
182 175 114
183 175 114
183 175 114
183 175 114
183 175 114
183 175 114
183 175 114
183 175 114
184 176 114
184 203 228
184 203 228
184 203 228
184 203 228
184 203 228
183 203 228
183 202 228
183 202 228
183 202 228
183 202 228
183 202 228
182 202 228
182 202 228
182 202 228
182 202 228
182 202 228
182 202 228
182 202 228
181 202 228
181 201 228
181 201 228
181 201 228
181 201 228
181 201 228
180 201 228
180 201 228
180 201 228
180 201 228
180 201 228
180 201 228
180 201 228
180 201 228
179 200 228
179 200 228
179 200 228
179 200 228
179 200 228
179 200 228
178 200 228
178 200 228
178 200 228
178 200 228
178 200 228
178 200 228
178 200 228
178 199 228
177 199 228
177 199 228
177 199 228
177 199 228
177 199 228
177 199 228
176 199 228
176 199 228
176 199 228
176 199 228
176 199 228
176 199 228
176 198 228
175 198 228
175 198 228
175 198 228
175 198 228
175 198 228
175 198 228
175 198 228
174 198 228
175 198 228
174 198 228
174 198 228
174 198 228
174 198 228
174 197 228
174 197 228
173 197 228
173 197 228
173 197 228
173 197 228
173 197 228
173 197 228
173 197 228
173 197 228
172 197 228
173 197 228
172 197 228
172 197 228
172 197 228
172 197 228
172 197 228
172 196 228
172 196 228
172 196 228
171 196 228
171 196 228
171 196 228
171 196 228
171 196 228
171 196 228
171 196 228
171 196 228
171 196 228
171 196 228
171 196 228
171 196 228
171 196 228
171 196 228
171 196 228
171 196 228
171 196 228
171 196 228
171 196 228
171 196 228
171 196 228
171 196 228
171 196 228
171 196 228
171 196 228
171 196 228
171 196 228
172 196 228
172 196 228
172 196 228
172 197 228
172 197 228
173 197 228
173 197 228
173 197 228
174 197 228
174 198 228
174 198 228
175 198 228
175 198 228
176 199 228
177 199 228
177 199 228
179 200 228
179 200 228
181 201 228
183 202 228
185 204 228
211 229 253
213 231 255
213 231 255
213 231 255
213 231 255
213 231 255
213 231 255
213 231 255
213 231 255
213 231 255
213 231 255
213 231 255
213 231 255
213 231 255
213 231 255
213 231 255
86 113 181
58 94 171
57 92 149
61 96 161
61 97 161
59 94 140
58 93 155
63 99 171
61 96 157
63 99 179
61 96 157
58 93 140
61 96 151
60 94 149
59 94 127
61 97 161
62 98 177
60 95 149
61 96 140
60 97 161
61 97 161
62 98 171
59 93 114
63 99 171
60 95 140
60 96 159
61 97 171
61 97 151
63 99 161
61 97 151
60 96 151
60 96 149
60 96 151
63 98 151
60 95 114
62 99 171
61 96 140
58 94 140
64 99 161
62 98 161
64 99 161
60 94 127
60 93 127
63 98 151
62 99 181
63 100 171
63 100 181
64 100 171
61 96 151
61 97 140
60 97 161
60 96 151
62 98 161
63 99 161
59 94 151
63 98 151
65 101 171
62 98 151
61 96 171
61 97 140
62 97 163
61 96 163
62 98 161
65 101 171
64 100 171
61 96 151
59 94 151
62 98 161
63 99 171
59 94 161
62 96 155
64 100 161
61 96 153
62 98 171
60 97 161
63 98 163
61 94 161
61 91 137
58 92 151
60 91 122
59 92 142
58 91 127
63 94 147
59 93 153
60 94 144
63 96 155
57 89 133
88 116 171
213 231 255
213 231 255
213 231 255
213 231 255
213 231 255
213 231 255
213 231 255
213 231 255
213 231 255
213 231 255
213 231 255
213 231 255
213 231 255
213 231 255
213 231 255
206 216 223
186 177 114
183 175 114
181 174 114
180 174 114
179 173 114
178 173 114
177 172 114
176 172 114
175 172 114
175 171 114
174 171 114
174 171 114
173 171 114
173 171 114
173 171 114
173 170 114
172 170 114
172 170 114
172 170 114
172 170 114
172 170 114
171 170 114
171 170 114
171 170 114
171 170 114
171 170 114
171 170 114
171 170 114
171 170 114
171 170 114
171 170 114
171 170 114
171 170 114
171 170 114
171 170 114
171 170 114
171 170 114
171 170 114
171 170 114
171 170 114
171 170 114
171 170 114
171 170 114
171 170 114
171 170 114
171 170 114
171 170 114
171 170 114
172 170 114
172 170 114
172 170 114
172 170 114
172 170 114
172 170 114
172 170 114
172 170 114
173 170 114
172 170 114
173 170 114
173 170 114
173 170 114
173 171 114
173 171 114
173 171 114
173 171 114
173 171 114
174 171 114
174 171 114
174 171 114
174 171 114
174 171 114
174 171 114
174 171 114
174 171 114
175 171 114
175 171 114
175 172 114
175 172 114
175 172 114
175 172 114
175 172 114
176 172 114
176 172 114
176 172 114
176 172 114
176 172 114
176 172 114
177 172 114
177 172 114
177 172 114
177 172 114
177 172 114
177 172 114
177 173 114
177 173 114
178 173 114
178 173 114
178 173 114
178 173 114
178 173 114
178 173 114
179 173 114
179 173 114
179 173 114
179 173 114
179 173 114
179 173 114
179 174 114
180 174 114
180 174 114
180 174 114
180 174 114
180 174 114
180 174 114
180 174 114
181 174 114
181 174 114
181 174 114
181 174 114
181 174 114
181 174 114
181 174 114
182 175 114
182 175 114
182 175 114
182 175 114
182 175 114
182 175 114
182 175 114
183 175 114
183 175 114
183 175 114
183 175 114
183 175 114
183 175 114
184 175 114
184 175 114
184 176 114
184 176 114
184 176 114
185 203 228
184 203 228
184 203 228
184 203 228
184 203 228
184 203 228
184 203 228
183 203 228
183 203 228
183 202 228
183 202 228
183 202 228
183 202 228
183 202 228
182 202 228
182 202 228
182 202 228
182 202 228
182 202 228
182 202 228
182 202 228
181 202 228
181 202 228
181 201 228
181 201 228
181 201 228
181 201 228
181 201 228
181 201 228
180 201 228
180 201 228
180 201 228
180 201 228
180 201 228
180 201 228
180 201 228
179 200 228
179 200 228
179 200 228
179 200 228
179 200 228
179 200 228
179 200 228
178 200 228
178 200 228
178 200 228
178 200 228
178 200 228
178 200 228
178 199 228
177 199 228
177 199 228
177 199 228
177 199 228
177 199 228
177 199 228
177 199 228
176 199 228
176 199 228
176 199 228
176 199 228
176 199 228
176 199 228
176 198 228
176 198 228
176 198 228
175 198 228
175 198 228
175 198 228
175 198 228
175 198 228
175 198 228
175 198 228
174 198 228
174 198 228
174 198 228
174 198 228
174 198 228
174 198 228
174 197 228
174 197 228
174 197 228
173 197 228
173 197 228
173 197 228
173 197 228
173 197 228
173 197 228
173 197 228
173 197 228
173 197 228
173 197 228
172 197 228
172 197 228
172 197 228
172 197 228
172 197 228
172 197 228
172 197 228
172 196 228
172 196 228
172 196 228
172 196 228
172 196 228
172 196 228
172 196 228
172 196 228
172 196 228
172 196 228
172 196 228
172 196 228
172 196 228
171 196 228
172 196 228
172 196 228
172 196 228
172 196 228
172 197 228
172 197 228
172 197 228
172 197 228
173 197 228
173 197 228
173 197 228
173 197 228
173 197 228
174 197 228
174 198 228
174 198 228
175 198 228
175 198 228
176 198 228
176 199 228
177 199 228
178 200 228
178 200 228
179 200 228
180 201 228
182 202 228
184 203 228
187 204 228
214 231 255
214 231 255
214 231 255
214 231 255
214 231 255
213 231 255
213 231 255
213 231 255
213 231 255
213 231 255
213 231 255
213 231 255
213 231 255
213 231 255
157 177 214
62 97 165
60 95 163
62 98 169
60 95 149
60 96 169
62 97 161
60 95 149
60 95 137
56 90 125
60 95 147
63 100 171
62 98 161
64 100 179
61 97 159
59 96 151
61 97 161
61 96 140
61 98 161
62 98 159
64 100 181
60 93 127
62 99 171
62 97 149
61 96 151
61 96 161
61 97 159
62 98 179
61 95 140
63 98 151
57 93 140
62 98 161
61 97 151
61 97 151
59 96 161
61 96 140
61 98 161
63 99 161
62 98 161
64 100 161
64 100 161
61 97 151
64 100 171
60 94 140
63 100 181
63 99 161
61 96 151
60 95 140
61 97 140
61 97 161
60 93 127
61 97 140
62 97 140
60 95 140
59 92 140
60 96 171
65 101 181
61 97 151
64 99 173
61 98 171
60 95 151
62 96 151
63 99 161
62 97 153
63 99 161
61 98 161
61 94 153
61 97 161
63 99 171
55 91 151
62 97 163
63 98 163
60 95 153
58 92 130
53 85 114
58 92 153
63 97 153
57 90 130
58 90 144
57 88 120
57 91 140
60 94 141
61 95 155
62 93 147
62 94 144
62 97 163
62 95 155
58 89 108
53 85 152
142 162 193
213 231 255
213 231 255
213 231 255
213 231 255
213 231 255
213 231 255
213 231 255
214 231 255
214 231 255
214 231 255
214 231 255
214 231 255
214 231 255
214 231 255
186 177 114
184 175 114
182 175 114
181 174 114
180 174 114
178 173 114
178 173 114
177 172 114
176 172 114
176 172 114
175 172 114
175 171 114
174 171 114
174 171 114
174 171 114
173 171 114
173 171 114
173 171 114
173 170 114
173 170 114
172 170 114
172 170 114
172 170 114
172 170 114
172 170 114
172 170 114
172 170 114
172 170 114
172 170 114
172 170 114
172 170 114
172 170 114
172 170 114
172 170 114
172 170 114
172 170 114
172 170 114
172 170 114
172 170 114
172 170 114
172 170 114
172 170 114
172 170 114
172 170 114
172 170 114
172 170 114
172 170 114
172 170 114
172 170 114
172 170 114
173 170 114
173 170 114
173 170 114
173 171 114
173 171 114
173 171 114
173 171 114
173 171 114
174 171 114
173 171 114
174 171 114
174 171 114
174 171 114
174 171 114
174 171 114
174 171 114
174 171 114
175 171 114
175 171 114
175 171 114
175 171 114
175 172 114
175 172 114
175 172 114
175 172 114
175 172 114
175 172 114
176 172 114
176 172 114
176 172 114
176 172 114
176 172 114
176 172 114
177 172 114
177 172 114
177 172 114
177 172 114
177 172 114
177 173 114
177 173 114
178 173 114
178 173 114
178 173 114
178 173 114
178 173 114
178 173 114
178 173 114
178 173 114
179 173 114
179 173 114
179 173 114
179 173 114
179 173 114
179 173 114
180 174 114
180 174 114
180 174 114
180 174 114
180 174 114
180 174 114
180 174 114
180 174 114
180 174 114
181 174 114
181 174 114
181 174 114
181 174 114
181 174 114
181 174 114
182 175 114
182 175 114
182 175 114
182 175 114
182 175 114
182 175 114
182 175 114
183 175 114
183 175 114
183 175 114
183 175 114
183 175 114
183 175 114
183 175 114
184 176 114
184 176 114
184 176 114
184 176 114
184 176 114
184 176 114
184 176 114
185 176 114
185 203 228
185 203 228
185 203 228
184 203 228
184 203 228
184 203 228
184 203 228
184 203 228
184 203 228
184 203 228
184 203 228
183 203 228
183 203 228
183 203 228
183 202 228
183 202 228
183 202 228
183 202 228
183 202 228
182 202 228
182 202 228
182 202 228
182 202 228
182 202 228
182 202 228
182 202 228
181 202 228
181 201 228
181 201 228
181 201 228
181 201 228
181 201 228
181 201 228
181 201 228
180 201 228
180 201 228
180 201 228
180 201 228
180 201 228
180 201 228
180 201 228
179 200 228
179 200 228
179 200 228
179 200 228
179 200 228
179 200 228
179 200 228
178 200 228
178 200 228
178 200 228
178 200 228
178 200 228
178 200 228
178 199 228
178 199 228
178 199 228
177 199 228
177 199 228
177 199 228
177 199 228
177 199 228
177 199 228
177 199 228
176 199 228
176 199 228
176 199 228
176 199 228
176 199 228
176 198 228
176 199 228
175 198 228
175 198 228
175 198 228
175 198 228
175 198 228
175 198 228
175 198 228
175 198 228
174 198 228
174 198 228
174 198 228
174 198 228
174 198 228
174 198 228
174 198 228
174 197 228
174 197 228
174 197 228
173 197 228
174 197 228
173 197 228
173 197 228
173 197 228
173 197 228
173 197 228
173 197 228
173 197 228
173 197 228
173 197 228
173 197 228
173 197 228
173 197 228
173 197 228
173 197 228
172 197 228
173 197 228
172 197 228
172 197 228
173 197 228
173 197 228
173 197 228
172 197 228
173 197 228
172 197 228
173 197 228
173 197 228
173 197 228
173 197 228
173 197 228
173 197 228
173 197 228
174 197 228
174 197 228
174 197 228
174 198 228
174 198 228
175 198 228
175 198 228
175 198 228
176 198 228
176 199 228
177 199 228
177 199 228
178 200 228
179 200 228
179 200 228
180 201 228
181 202 228
183 202 228
185 203 228
199 216 240
214 231 255
214 231 255
214 231 255
214 231 255
214 231 255
214 231 255
214 231 255
214 231 255
214 231 255
214 231 255
214 231 255
214 231 255
182 201 234
55 90 155
62 99 179
60 96 167
60 95 137
61 96 149
60 95 165
58 92 157
61 98 179
58 93 140
57 91 135
59 96 161
63 99 169
63 98 167
61 95 137
60 96 159
59 93 149
61 97 161
58 91 127
60 96 159
63 99 161
61 97 161
64 100 171
61 99 181
63 99 171
62 98 169
61 97 161
61 98 171
61 97 151
60 94 137
60 94 151
64 100 161
58 92 140
60 96 140
62 97 151
60 95 140
60 96 149
57 92 140
63 98 151
59 93 140
60 95 140
60 95 127
65 101 171
61 97 161
63 98 151
60 96 151
60 96 140
62 98 161
61 97 151
61 98 181
61 97 140
62 98 151
57 91 127
59 94 127
60 95 151
63 99 171
57 91 99
59 92 117
61 97 161
58 92 117
63 98 151
60 96 151
61 96 140
61 98 161
64 100 181
60 97 161
62 98 151
60 93 142
61 97 161
61 94 142
61 97 151
60 94 140
58 92 114
61 98 181
64 99 161
60 96 151
61 97 151
61 94 144
64 98 151
63 98 151
62 97 161
58 91 117
60 93 133
63 98 163
60 93 133
58 92 133
60 92 144
60 93 144
59 94 153
57 89 143
88 116 171
182 200 230
214 231 255
214 231 255
214 231 255
214 231 255
214 231 255
214 231 255
214 231 255
214 231 255
214 231 255
214 231 255
214 231 255
214 231 255
209 222 234
185 176 114
183 175 114
181 174 114
180 174 114
179 174 114
179 173 114
178 173 114
177 172 114
176 172 114
176 172 114
176 172 114
175 172 114
175 171 114
174 171 114
174 171 114
174 171 114
174 171 114
174 171 114
174 171 114
173 171 114
173 171 114
173 171 114
173 170 114
173 170 114
173 170 114
173 170 114
173 170 114
173 170 114
173 170 114
173 170 114
172 170 114
172 170 114
172 170 114
173 170 114
172 170 114
172 170 114
173 170 114
173 170 114
173 170 114
173 170 114
173 170 114
173 170 114
173 171 114
173 170 114
173 171 114
173 171 114
173 171 114
173 171 114
173 171 114
173 171 114
173 171 114
173 171 114
174 171 114
174 171 114
174 171 114
174 171 114
174 171 114
174 171 114
174 171 114
174 171 114
175 171 114
175 171 114
175 171 114
175 171 114
175 171 114
175 171 114
175 172 114
175 172 114
175 172 114
176 172 114
176 172 114
176 172 114
176 172 114
176 172 114
176 172 114
176 172 114
176 172 114
177 172 114
177 172 114
177 172 114
177 172 114
177 172 114
177 173 114
177 173 114
177 173 114
178 173 114
178 173 114
178 173 114
178 173 114
178 173 114
178 173 114
178 173 114
178 173 114
179 173 114
179 173 114
179 173 114
179 173 114
179 173 114
179 174 114
179 174 114
179 174 114
180 174 114
180 174 114
180 174 114
180 174 114
180 174 114
180 174 114
181 174 114
181 174 114
181 174 114
181 174 114
181 174 114
181 174 114
181 174 114
181 174 114
182 175 114
182 175 114
182 175 114
182 175 114
182 175 114
182 175 114
182 175 114
182 175 114
183 175 114
183 175 114
183 175 114
183 175 114
183 175 114
183 175 114
183 175 114
184 175 114
184 176 114
184 176 114
184 176 114
184 176 114
184 176 114
184 176 114
185 176 114
185 176 114
185 176 114
185 176 114
185 204 228
185 204 228
185 204 228
185 203 228
185 203 228
185 203 228
185 203 228
184 203 228
184 203 228
184 203 228
184 203 228
184 203 228
184 203 228
184 203 228
184 203 228
183 203 228
183 203 228
183 202 228
183 202 228
183 202 228
183 202 228
183 202 228
183 202 228
182 202 228
182 202 228
182 202 228
182 202 228
182 202 228
182 202 228
182 202 228
182 202 228
181 202 228
181 202 228
181 201 228
181 201 228
181 201 228
181 201 228
181 201 228
180 201 228
180 201 228
180 201 228
180 201 228
180 201 228
180 201 228
180 201 228
180 201 228
179 200 228
179 200 228
179 200 228
179 200 228
179 200 228
179 200 228
179 200 228
179 200 228
178 200 228
178 200 228
178 200 228
178 200 228
178 200 228
178 200 228
178 200 228
177 199 228
177 199 228
177 199 228
177 199 228
177 199 228
177 199 228
177 199 228
177 199 228
177 199 228
176 199 228
176 199 228
176 199 228
176 199 228
176 199 228
176 199 228
176 199 228
176 198 228
176 199 228
175 198 228
175 198 228
175 198 228
175 198 228
175 198 228
175 198 228
175 198 228
175 198 228
174 198 228
175 198 228
174 198 228
174 198 228
174 198 228
174 198 228
174 198 228
174 198 228
174 198 228
174 197 228
174 198 228
174 197 228
173 197 228
174 197 228
173 197 228
174 197 228
173 197 228
173 197 228
173 197 228
173 197 228
173 197 228
173 197 228
173 197 228
173 197 228
173 197 228
173 197 228
173 197 228
173 197 228
174 197 228
174 197 228
173 197 228
174 198 228
174 197 228
174 198 228
174 198 228
174 198 228
174 198 228
175 198 228
175 198 228
175 198 228
175 198 228
175 198 228
176 199 228
176 199 228
177 199 228
177 199 228
177 199 228
178 200 228
179 200 228
180 201 228
180 201 228
181 202 228
183 202 228
184 203 228
187 205 228
209 227 250
214 232 255
214 232 255
214 232 255
214 232 255
214 232 255
214 231 255
214 231 255
214 231 255
214 231 255
214 231 255
214 231 255
60 95 159
57 92 171
62 97 167
60 96 167
63 99 169
62 98 169
62 98 167
59 95 151
62 97 157
61 96 140
60 96 167
61 97 151
57 91 149
59 96 169
60 96 161
60 96 149
62 98 161
63 99 179
61 97 159
65 101 161
60 96 151
61 98 169
60 97 161
61 97 151
62 98 171
56 90 137
63 99 171
62 97 159
63 99 161
64 99 161
55 89 127
62 98 151
61 97 159
63 98 161
55 88 140
57 92 161
61 98 171
63 98 151
63 99 161
58 94 140
64 100 161
61 98 171
60 96 140
62 98 151
63 99 171
59 95 140
63 99 161
62 98 161
64 100 161
61 97 151
59 95 127
63 99 161
60 96 140
61 97 151
60 97 171
61 95 114
65 101 171
60 94 140
62 97 151
62 98 151
61 96 151
60 97 161
60 92 127
63 98 151
61 98 171
63 97 127
62 97 153
62 97 153
63 99 161
61 96 127
60 95 127
60 95 140
63 99 171
57 92 114
58 93 127
62 99 171
62 97 163
61 97 173
63 98 163
62 97 153
62 98 161
58 93 151
59 91 153
63 95 153
61 96 142
63 99 161
62 98 161
59 93 152
61 93 135
60 92 144
58 90 133
127 149 182
214 231 255
214 231 255
214 231 255
214 231 255
214 232 255
214 231 255
214 232 255
214 232 255
214 232 255
214 232 255
214 232 255
214 232 255
190 183 135
184 176 114
183 175 114
181 174 114
180 174 114
179 174 114
179 173 114
178 173 114
178 173 114
177 172 114
177 172 114
176 172 114
176 172 114
175 172 114
175 172 114
175 172 114
175 171 114
175 171 114
174 171 114
174 171 114
174 171 114
174 171 114
174 171 114
174 171 114
173 171 114
174 171 114
174 171 114
173 171 114
173 171 114
173 171 114
173 171 114
173 171 114
173 171 114
173 171 114
173 171 114
173 171 114
173 171 114
173 171 114
173 171 114
174 171 114
173 171 114
174 171 114
174 171 114
174 171 114
174 171 114
174 171 114
174 171 114
174 171 114
174 171 114
174 171 114
174 171 114
174 171 114
174 171 114
174 171 114
175 171 114
175 171 114
175 171 114
175 172 114
175 172 114
175 172 114
175 172 114
175 172 114
176 172 114
176 172 114
176 172 114
176 172 114
176 172 114
176 172 114
176 172 114
176 172 114
176 172 114
176 172 114
177 172 114
177 172 114
177 172 114
177 172 114
177 172 114
177 172 114
177 173 114
177 173 114
178 173 114
178 173 114
178 173 114
178 173 114
178 173 114
178 173 114
178 173 114
178 173 114
179 173 114
179 173 114
179 173 114
179 173 114
179 173 114
179 173 114
179 174 114
180 174 114
179 174 114
180 174 114
180 174 114
180 174 114
180 174 114
180 174 114
180 174 114
180 174 114
180 174 114
181 174 114
181 174 114
181 174 114
181 174 114
181 174 114
181 174 114
181 175 114
182 175 114
182 175 114
182 175 114
182 175 114
182 175 114
182 175 114
182 175 114
183 175 114
183 175 114
183 175 114
183 175 114
183 175 114
183 175 114
183 175 114
183 175 114
184 175 114
184 176 114
184 176 114
184 176 114
184 176 114
184 176 114
184 176 114
184 176 114
185 176 114
185 176 114
185 176 114
185 176 114
185 176 114
185 176 114
185 176 114
186 204 228
186 204 228
186 204 228
185 204 228
185 204 228
185 204 228
185 204 228
185 204 228
185 203 228
185 203 228
185 203 228
184 203 228
184 203 228
184 203 228
184 203 228
184 203 228
184 203 228
184 203 228
184 203 228
183 203 228
183 203 228
183 203 228
183 203 228
183 202 228
183 202 228
183 202 228
183 202 228
182 202 228
182 202 228
182 202 228
182 202 228
182 202 228
182 202 228
182 202 228
182 202 228
182 202 228
181 202 228
181 201 228
181 201 228
181 201 228
181 201 228
181 201 228
181 201 228
181 201 228
180 201 228
180 201 228
180 201 228
180 201 228
180 201 228
180 201 228
180 201 228
180 201 228
179 200 228
179 200 228
179 200 228
179 200 228
179 200 228
179 200 228
179 200 228
179 200 228
178 200 228
178 200 228
178 200 228
178 200 228
178 200 228
178 200 228
178 200 228
178 199 228
178 200 228
178 199 228
177 199 228
177 199 228
177 199 228
177 199 228
177 199 228
177 199 228
177 199 228
176 199 228
176 199 228
176 199 228
176 199 228
176 199 228
176 199 228
176 199 228
176 199 228
176 199 228
176 199 228
175 198 228
175 198 228
175 198 228
175 198 228
175 198 228
175 198 228
175 198 228
175 198 228
175 198 228
175 198 228
175 198 228
175 198 228
175 198 228
175 198 228
175 198 228
174 198 228
174 198 228
174 198 228
174 198 228
174 198 228
174 198 228
174 198 228
174 198 228
174 198 228
174 198 228
174 198 228
174 198 228
174 198 228
174 198 228
174 198 228
174 198 228
175 198 228
175 198 228
175 198 228
175 198 228
175 198 228
175 198 228
175 198 228
176 198 228
176 199 228
176 199 228
176 199 228
176 199 228
177 199 228
177 199 228
178 200 228
178 200 228
178 200 228
179 200 228
180 201 228
181 201 228
181 201 228
182 202 228
184 203 228
186 204 228
199 216 240
214 232 255
214 232 255
214 232 255
214 232 255
214 232 255
214 232 255
214 232 255
214 232 255
214 232 255
214 232 255
170 189 226
62 98 171
57 91 152
62 97 173
58 93 149
57 92 149
60 96 151
58 92 159
58 94 157
59 95 157
61 97 151
58 92 111
59 93 133
58 92 122
60 97 171
62 97 159
62 96 155
64 100 171
62 98 161
63 98 159
59 95 149
62 98 161
59 93 127
60 97 161
59 93 151
59 94 149
58 91 140
63 98 151
62 97 171
63 98 159
59 93 149
61 97 159
58 94 127
60 93 140
60 94 114
64 100 171
64 100 171
62 96 151
60 96 151
62 98 161
62 98 171
63 99 171
58 93 140
63 99 171
62 98 151
59 93 151
61 97 151
59 93 151
60 95 127
64 100 171
61 98 161
60 96 151
64 101 181
60 95 161
65 101 171
59 94 127
62 97 140
62 98 151
61 96 140
61 95 140
61 96 161
62 98 151
65 101 181
60 95 153
62 98 161
61 96 127
61 97 161
62 98 161
54 87 140
60 95 151
60 95 142
61 96 161
62 96 165
58 94 151
62 98 161
57 87 92
61 98 171
57 88 105
63 99 161
62 97 173
59 94 142
60 95 153
58 89 131
62 94 147
60 95 153
59 92 142
60 92 140
59 89 144
63 98 153
53 82 88
63 100 181
52 78 113
57 86 138
204 221 242
214 232 255
214 232 255
214 232 255
214 232 255
214 232 255
214 232 255
214 232 255
214 232 255
214 232 255
214 232 255
194 190 153
186 177 114
184 175 114
183 175 114
181 174 114
181 174 114
180 174 114
179 173 114
178 173 114
178 173 114
178 173 114
177 172 114
177 172 114
176 172 114
176 172 114
176 172 114
176 172 114
175 172 114
175 172 114
175 172 114
175 171 114
175 171 114
175 171 114
175 171 114
174 171 114
174 171 114
175 171 114
174 171 114
174 171 114
174 171 114
174 171 114
174 171 114
174 171 114
174 171 114
174 171 114
174 171 114
174 171 114
174 171 114
174 171 114
174 171 114
174 171 114
175 171 114
175 171 114
175 171 114
175 171 114
175 171 114
175 171 114
175 171 114
175 171 114
175 172 114
175 172 114
175 172 114
175 172 114
175 172 114
175 172 114
175 172 114
176 172 114
176 172 114
176 172 114
176 172 114
176 172 114
176 172 114
176 172 114
176 172 114
176 172 114
176 172 114
177 172 114
177 172 114
177 172 114
177 172 114
177 172 114
177 172 114
177 173 114
177 173 114
178 173 114
178 173 114
178 173 114
178 173 114
178 173 114
178 173 114
178 173 114
178 173 114
178 173 114
179 173 114
179 173 114
179 173 114
179 173 114
179 173 114
179 173 114
179 174 114
179 174 114
180 174 114
180 174 114
180 174 114
180 174 114
180 174 114
180 174 114
180 174 114
180 174 114
181 174 114
181 174 114
181 174 114
181 174 114
181 174 114
181 174 114
181 174 114
181 174 114
182 175 114
182 175 114
182 175 114
182 175 114
182 175 114
182 175 114
182 175 114
182 175 114
182 175 114
183 175 114
183 175 114
183 175 114
183 175 114
183 175 114
183 175 114
183 175 114
183 175 114
184 176 114
184 176 114
184 176 114
184 176 114
184 176 114
184 176 114
184 176 114
184 176 114
185 176 114
185 176 114
185 176 114
185 176 114
185 176 114
185 176 114
185 176 114
185 176 114
186 176 114
186 177 114
186 177 114
186 204 228
186 204 228
186 204 228
186 204 228
186 204 228
186 204 228
186 204 228
186 204 228
185 204 228
185 204 228
185 204 228
185 204 228
185 203 228
185 203 228
185 203 228
185 203 228
184 203 228
184 203 228
184 203 228
184 203 228
184 203 228
184 203 228
184 203 228
184 203 228
183 203 228
183 203 228
183 203 228
183 203 228
183 202 228
183 202 228
183 202 228
183 202 228
183 202 228
183 202 228
182 202 228
182 202 228
182 202 228
182 202 228
182 202 228
182 202 228
182 202 228
181 202 228
181 202 228
181 201 228
181 201 228
181 201 228
181 201 228
181 201 228
181 201 228
181 201 228
180 201 228
180 201 228
180 201 228
180 201 228
180 201 228
180 201 228
180 201 228
180 201 228
179 200 228
179 200 228
179 200 228
179 200 228
179 200 228
179 200 228
179 200 228
179 200 228
179 200 228
178 200 228
178 200 228
178 200 228
178 200 228
178 200 228
178 200 228
178 200 228
178 200 228
178 200 228
178 200 228
177 199 228
177 199 228
177 199 228
177 199 228
177 199 228
177 199 228
177 199 228
177 199 228
176 199 228
177 199 228
177 199 228
176 199 228
176 199 228
176 199 228
176 199 228
176 199 228
176 199 228
176 199 228
176 198 228
176 198 228
176 199 228
176 198 228
176 198 228
175 198 228
176 198 228
175 198 228
175 198 228
175 198 228
175 198 228
175 198 228
175 198 228
175 198 228
175 198 228
175 198 228
175 198 228
175 198 228
175 198 228
175 198 228
175 198 228
175 198 228
175 198 228
175 198 228
175 198 228
176 199 228
176 198 228
176 199 228
176 199 228
176 199 228
176 199 228
176 199 228
177 199 228
177 199 228
177 199 228
177 199 228
178 200 228
178 200 228
179 200 228
179 200 228
179 201 228
180 201 228
181 201 228
181 202 228
182 202 228
184 203 228
185 203 228
187 205 228
208 224 248
215 232 255
215 232 255
215 232 255
215 232 255
215 232 255
215 232 255
215 232 255
215 232 255
215 232 255
89 116 169
60 94 155
60 95 165
59 94 149
62 98 161
58 93 144
60 96 161
59 93 149
60 94 161
62 98 159
59 94 147
58 93 125
63 98 159
55 89 137
60 93 149
58 94 140
59 93 147
57 91 125
60 97 161
61 98 161
60 94 140
62 97 157
60 94 159
62 98 161
61 98 161
63 98 161
62 98 161
62 98 151
62 98 161
59 93 114
61 96 161
64 100 161
61 98 169
59 95 151
62 98 161
64 100 171
62 98 161
61 96 140
60 96 151
63 99 171
60 95 127
60 95 140
61 97 151
62 97 151
65 102 181
61 96 127
56 90 114
62 98 161
59 94 127
59 95 140
61 97 161
57 92 151
57 91 114
56 90 127
63 98 140
63 99 171
60 95 140
61 98 171
64 99 151
59 93 161
63 99 161
61 97 151
61 96 140
59 95 140
61 96 153
62 97 151
62 96 153
61 98 161
63 98 163
59 93 140
61 97 151
63 99 171
56 86 122
63 97 153
60 94 142
62 98 151
58 93 114
61 95 130
59 95 151
58 93 114
59 94 127
62 95 153
60 93 144
64 99 161
58 91 127
61 95 142
62 98 171
64 99 161
61 95 163
58 89 120
58 92 130
61 93 155
57 87 134
157 175 201
215 232 255
215 232 255
215 232 255
215 232 255
215 232 255
215 232 255
215 232 255
215 232 255
215 232 255
205 212 211
187 177 114
185 176 114
184 176 114
183 175 114
181 174 114
181 174 114
180 174 114
179 174 114
179 173 114
179 173 114
178 173 114
178 173 114
177 173 114
177 172 114
177 172 114
177 172 114
176 172 114
176 172 114
176 172 114
176 172 114
176 172 114
176 172 114
176 172 114
176 172 114
175 172 114
175 172 114
175 172 114
175 172 114
175 172 114
175 172 114
175 172 114
175 172 114
175 172 114
175 172 114
175 172 114
175 172 114
175 172 114
175 172 114
175 172 114
176 172 114
175 172 114
176 172 114
175 172 114
175 172 114
176 172 114
176 172 114
176 172 114
176 172 114
176 172 114
176 172 114
176 172 114
176 172 114
176 172 114
176 172 114
176 172 114
177 172 114
177 172 114
177 172 114
177 172 114
177 172 114
177 172 114
177 173 114
177 173 114
177 173 114
177 173 114
177 173 114
178 173 114
178 173 114
178 173 114
178 173 114
178 173 114
178 173 114
178 173 114
178 173 114
178 173 114
178 173 114
179 173 114
179 173 114
179 173 114
179 173 114
179 173 114
179 173 114
179 173 114
179 174 114
179 174 114
180 174 114
180 174 114
180 174 114
180 174 114
180 174 114
180 174 114
180 174 114
180 174 114
181 174 114
181 174 114
181 174 114
181 174 114
181 174 114
181 174 114
181 174 114
182 175 114
182 175 114
182 175 114
182 175 114
182 175 114
182 175 114
182 175 114
182 175 114
182 175 114
182 175 114
183 175 114
183 175 114
183 175 114
183 175 114
183 175 114
183 175 114
183 175 114
183 175 114
184 175 114
184 176 114
184 176 114
184 176 114
184 176 114
184 176 114
184 176 114
184 176 114
184 176 114
185 176 114
185 176 114
185 176 114
185 176 114
185 176 114
185 176 114
185 176 114
185 176 114
185 176 114
186 176 114
186 177 114
186 177 114
186 177 114
186 177 114
186 177 114
186 177 114
187 204 228
187 204 228
187 204 228
187 204 228
186 204 228
186 204 228
186 204 228
186 204 228
186 204 228
186 204 228
186 204 228
186 204 228
185 204 228
185 204 228
185 204 228
185 204 228
185 204 228
185 203 228
185 203 228
185 203 228
185 203 228
184 203 228
184 203 228
184 203 228
184 203 228
184 203 228
184 203 228
184 203 228
184 203 228
184 203 228
183 203 228
183 203 228
183 203 228
183 202 228
183 202 228
183 202 228
183 202 228
183 202 228
183 202 228
182 202 228
182 202 228
182 202 228
182 202 228
182 202 228
182 202 228
182 202 228
182 202 228
182 202 228
181 202 228
181 202 228
181 201 228
181 201 228
181 201 228
181 201 228
181 201 228
181 201 228
181 201 228
181 201 228
180 201 228
180 201 228
180 201 228
180 201 228
180 201 228
180 201 228
180 201 228
180 201 228
179 201 228
179 200 228
179 200 228
179 200 228
179 200 228
179 200 228
179 200 228
179 200 228
179 200 228
178 200 228
178 200 228
178 200 228
178 200 228
178 200 228
178 200 228
178 200 228
178 200 228
178 200 228
177 199 228
178 200 228
177 199 228
177 199 228
177 199 228
177 199 228
177 199 228
177 199 228
177 199 228
177 199 228
177 199 228
177 199 228
177 199 228
176 199 228
177 199 228
177 199 228
176 199 228
176 199 228
176 199 228
176 199 228
176 199 228
176 199 228
176 199 228
176 199 228
176 199 228
176 199 228
176 199 228
176 199 228
176 199 228
176 199 228
176 199 228
176 199 228
176 199 228
176 199 228
176 199 228
176 199 228
176 199 228
177 199 228
177 199 228
177 199 228
177 199 228
177 199 228
177 199 228
177 199 228
178 199 228
169 191 223
131 154 198
108 132 184
131 154 196
162 183 217
179 201 228
180 201 228
180 201 228
181 201 228
182 202 228
183 202 228
183 203 228
185 203 228
186 204 228
192 209 231
215 232 255
215 232 255
215 232 255
215 232 255
215 232 255
215 232 255
215 232 255
215 232 255
205 222 249
58 93 163
59 92 155
62 97 167
57 91 150
59 93 149
60 95 155
63 99 169
53 87 137
60 95 140
61 96 155
60 95 165
61 96 140
58 93 140
65 101 179
55 88 114
60 94 135
62 98 177
58 92 127
60 96 161
64 100 161
59 95 151
63 99 177
62 98 161
60 95 140
59 94 127
57 92 151
62 97 140
54 88 127
58 91 114
58 94 140
60 96 151
62 97 140
59 95 140
61 97 161
63 98 151
60 95 151
63 98 151
61 95 127
63 100 171
63 99 161
62 96 140
61 96 140
57 91 127
59 95 140
59 94 114
61 95 151
63 99 161
60 94 127
60 96 151
62 98 161
63 99 171
56 90 127
61 97 151
61 96 140
63 99 171
62 97 151
63 98 151
61 96 127
60 94 142
59 94 127
63 99 161
62 97 151
58 92 127
62 97 163
65 102 181
62 96 142
61 96 153
60 95 151
59 95 140
57 91 140
62 99 171
60 93 140
63 97 142
61 97 151
62 97 151
63 96 155
62 96 142
58 91 114
59 93 130
62 98 151
59 97 171
61 94 144
59 91 144
58 91 133
60 94 153
57 90 117
58 87 108
60 92 142
60 93 142
60 93 157
59 89 135
58 93 142
62 96 163
58 89 147
205 221 244
215 232 255
215 232 255
215 232 255
215 232 255
215 232 255
215 232 255
215 232 255
215 232 255
189 178 114
186 177 114
185 176 114
183 175 114
183 175 114
182 175 114
181 174 114
180 174 114
180 174 114
163 159 108
171 166 111
152 150 103
108 113 86
132 134 99
120 124 95
141 141 99
177 173 114
177 173 114
177 172 114
177 172 114
177 172 114
177 172 114
176 172 114
176 172 114
176 172 114
176 172 114
176 172 114
176 172 114
176 172 114
176 172 114
176 172 114
176 172 114
176 172 114
176 172 114
176 172 114
176 172 114
176 172 114
176 172 114
176 172 114
176 172 114
176 172 114
176 172 114
176 172 114
176 172 114
177 172 114
176 172 114
177 172 114
176 172 114
177 172 114
177 172 114
177 172 114
177 172 114
177 173 114
177 173 114
177 173 114
177 173 114
177 173 114
178 173 114
178 173 114
177 173 114
178 173 114
178 173 114
178 173 114
178 173 114
178 173 114
178 173 114
178 173 114
178 173 114
178 173 114
179 173 114
179 173 114
179 173 114
179 173 114
179 173 114
179 173 114
179 173 114
179 174 114
179 174 114
180 174 114
180 174 114
180 174 114
180 174 114
180 174 114
180 174 114
180 174 114
180 174 114
180 174 114
180 174 114
181 174 114
181 174 114
181 174 114
181 174 114
181 174 114
181 174 114
181 174 114
181 175 114
182 175 114
182 175 114
182 175 114
182 175 114
182 175 114
182 175 114
182 175 114
182 175 114
182 175 114
183 175 114
183 175 114
183 175 114
183 175 114
183 175 114
183 175 114
183 175 114
183 175 114
183 175 114
184 176 114
184 176 114
184 176 114
184 176 114
184 176 114
184 176 114
184 176 114
184 176 114
184 176 114
185 176 114
185 176 114
185 176 114
185 176 114
185 176 114
185 176 114
185 176 114
185 176 114
185 176 114
186 176 114
186 177 114
186 177 114
186 177 114
186 177 114
186 177 114
186 177 114
186 177 114
186 177 114
187 177 114
187 177 114
187 177 114
187 205 228
187 205 228
187 205 228
187 205 228
187 205 228
187 204 228
187 204 228
187 204 228
186 204 228
186 204 228
186 204 228
186 204 228
186 204 228
186 204 228
186 204 228
186 204 228
186 204 228
185 204 228
185 204 228
185 204 228
185 204 228
185 203 228
185 203 228
185 203 228
185 203 228
185 203 228
184 203 228
184 203 228
184 203 228
184 203 228
184 203 228
184 203 228
184 203 228
184 203 228
184 203 228
184 203 228
183 203 228
183 203 228
183 203 228
183 202 228
183 202 228
183 202 228
183 202 228
183 202 228
183 202 228
183 202 228
182 202 228
182 202 228
182 202 228
182 202 228
182 202 228
182 202 228
182 202 228
182 202 228
181 202 228
181 202 228
181 201 228
181 201 228
181 201 228
181 201 228
181 201 228
181 201 228
181 201 228
181 201 228
181 201 228
180 201 228
180 201 228
180 201 228
180 201 228
180 201 228
180 201 228
180 201 228
180 201 228
180 201 228
180 201 228
179 201 228
179 200 228
179 200 228
179 200 228
179 200 228
179 200 228
179 200 228
179 200 228
179 200 228
179 200 228
179 200 228
178 200 228
178 200 228
178 200 228
178 200 228
178 200 228
178 200 228
178 200 228
178 200 228
178 200 228
178 199 228
178 199 228
178 199 228
177 199 228
177 199 228
177 199 228
177 199 228
177 199 228
177 199 228
177 199 228
177 199 228
177 199 228
177 199 228
177 199 228
177 199 228
177 199 228
177 199 228
177 199 228
177 199 228
177 199 228
177 199 228
177 199 228
177 199 228
177 199 228
177 199 228
177 199 228
177 199 228
178 199 228
178 200 228
178 200 228
178 200 228
120 144 191
54 88 161
54 85 141
51 83 154
52 85 156
53 86 156
53 84 153
53 85 148
57 89 160
122 144 187
154 175 209
181 201 228
182 202 228
183 202 228
184 203 228
185 203 228
186 204 228
188 205 228
201 217 240
215 232 255
215 232 255
215 232 255
215 232 255
215 232 255
215 232 255
215 232 255
194 212 242
55 88 163
62 98 169
63 99 167
59 93 144
60 97 169
60 96 161
58 93 144
63 99 171
60 96 167
58 92 99
63 97 149
62 97 161
60 95 155
60 94 155
60 95 137
63 98 157
57 92 157
57 92 125
59 94 127
56 89 99
62 98 159
63 99 171
61 96 140
61 96 151
58 93 151
58 92 149
59 93 137
60 96 151
62 98 169
62 98 161
64 100 171
57 91 99
55 90 80
65 100 151
64 100 179
62 97 151
61 97 161
61 96 149
60 96 140
59 93 137
62 98 161
58 94 127
62 97 151
61 97 151
62 98 151
64 99 161
61 97 151
61 97 161
61 98 161
62 97 140
64 100 171
63 99 171
59 94 127
59 95 140
61 97 151
62 97 151
59 94 142
63 97 142
58 93 127
59 95 140
61 98 161
62 99 171
62 98 151
61 96 161
59 93 151
58 92 130
63 100 171
61 97 161
62 97 161
61 98 161
57 91 127
60 95 140
59 92 130
61 97 161
60 94 155
63 97 153
63 98 173
65 101 171
61 97 151
62 96 153
60 92 153
64 101 181
62 96 161
60 92 142
60 94 153
56 88 130
59 94 165
63 97 151
57 89 120
59 89 133
58 91 142
63 98 151
59 93 154
57 89 144
109 131 182
215 232 255
215 232 255
215 232 255
215 232 255
215 232 255
215 232 255
215 232 255
203 207 198
188 178 114
186 177 114
185 176 114
184 176 114
183 175 114
182 175 114
182 175 114
172 167 111
132 131 93
56 76 77
55 75 73
54 73 68
52 68 61
53 72 74
52 71 69
56 76 77
56 76 77
132 134 99
178 173 114
178 173 114
178 173 114
177 173 114
177 173 114
177 173 114
177 172 114
177 172 114
177 173 114
177 172 114
177 172 114
177 172 114
177 172 114
177 172 114
177 172 114
177 172 114
177 173 114
177 172 114
177 173 114
177 172 114
177 173 114
177 173 114
177 172 114
177 173 114
177 173 114
177 173 114
178 173 114
177 173 114
178 173 114
178 173 114
178 173 114
178 173 114
178 173 114
178 173 114
178 173 114
178 173 114
178 173 114
178 173 114
178 173 114
178 173 114
178 173 114
179 173 114
179 173 114
179 173 114
179 173 114
179 173 114
179 173 114
179 173 114
179 173 114
179 173 114
179 173 114
179 174 114
179 174 114
180 174 114
180 174 114
180 174 114
180 174 114
180 174 114
180 174 114
180 174 114
180 174 114
180 174 114
180 174 114
181 174 114
181 174 114
181 174 114
181 174 114
181 174 114
181 174 114
181 174 114
181 174 114
181 175 114
182 175 114
182 175 114
182 175 114
182 175 114
182 175 114
182 175 114
182 175 114
182 175 114
183 175 114
183 175 114
183 175 114
183 175 114
183 175 114
183 175 114
183 175 114
183 175 114
183 175 114
184 175 114
184 176 114
184 175 114
184 176 114
184 176 114
184 176 114
184 176 114
184 176 114
184 176 114
184 176 114
184 176 114
185 176 114
185 176 114
185 176 114
185 176 114
185 176 114
185 176 114
185 176 114
185 176 114
186 176 114
186 176 114
186 177 114
186 177 114
186 177 114
186 177 114
186 177 114
186 177 114
186 177 114
186 177 114
187 177 114
187 177 114
187 177 114
187 177 114
187 177 114
187 177 114
187 177 114
187 177 114
188 205 228
188 205 228
188 205 228
187 205 228
187 205 228
187 205 228
187 205 228
187 205 228
187 205 228
187 205 228
187 204 228
187 204 228
187 204 228
186 204 228
186 204 228
186 204 228
186 204 228
186 204 228
186 204 228
186 204 228
186 204 228
186 204 228
186 204 228
185 204 228
185 204 228
185 204 228
185 204 228
185 204 228
185 203 228
185 203 228
185 203 228
185 203 228
185 203 228
185 203 228
184 203 228
184 203 228
184 203 228
184 203 228
184 203 228
184 203 228
184 203 228
184 203 228
184 203 228
184 203 228
183 203 228
183 203 228
183 202 228
183 202 228
183 202 228
183 202 228
183 202 228
183 202 228
182 202 228
182 202 228
182 202 228
182 202 228
182 202 228
182 202 228
182 202 228
182 202 228
182 202 228
182 202 228
182 202 228
181 202 228
181 201 228
181 201 228
181 202 228
181 201 228
181 201 228
181 201 228
181 201 228
181 201 228
181 201 228
181 201 228
180 201 228
180 201 228
180 201 228
180 201 228
180 201 228
180 201 228
180 201 228
180 201 228
180 201 228
180 201 228
179 201 228
179 200 228
179 200 228
179 200 228
179 200 228
179 200 228
179 200 228
179 200 228
179 200 228
179 200 228
179 200 228
179 200 228
179 200 228
179 200 228
179 200 228
178 200 228
178 200 228
178 200 228
178 200 228
178 200 228
178 200 228
178 200 228
178 200 228
178 200 228
178 200 228
178 200 228
178 200 228
178 200 228
178 200 228
178 200 228
178 200 228
178 200 228
178 200 228
178 200 228
178 200 228
178 200 228
178 200 228
178 200 228
178 200 228
170 192 223
142 164 204
54 86 158
53 87 161
55 88 160
53 86 158
52 83 146
54 86 151
51 83 153
51 85 151
56 88 158
49 78 144
51 80 146
54 86 156
78 105 161
174 194 223
183 202 228
184 203 228
185 203 228
186 204 228
187 205 228
198 214 237
213 230 253
216 232 255
216 232 255
216 232 255
216 232 255
215 232 255
205 222 249
53 85 140
58 92 157
59 93 153
58 92 144
61 98 179
60 94 125
60 95 157
63 99 177
59 95 149
59 93 151
63 97 149
60 96 159
62 98 179
63 98 159
62 97 140
64 99 161
62 97 167
59 93 151
59 95 151
58 94 140
62 98 169
58 92 111
63 98 140
62 98 167
63 99 171
58 94 159
61 97 151
65 100 161
60 96 151
62 99 171
62 99 171
61 97 151
61 95 127
62 98 151
62 98 171
60 95 151
60 95 140
64 100 171
61 97 151
61 95 149
62 98 161
61 96 140
62 97 151
62 97 151
65 102 181
59 93 127
59 94 114
62 98 161
64 100 171
60 95 140
62 98 151
59 92 114
63 99 161
61 96 151
61 95 127
65 100 161
60 96 151
61 98 171
60 95 140
63 99 161
62 98 161
66 102 171
59 93 140
61 97 151
60 95 127
60 94 140
60 96 161
63 99 171
65 100 161
61 97 151
59 95 140
61 94 130
61 98 161
62 97 163
62 96 151
58 92 127
62 98 161
63 99 171
59 93 117
63 97 153
60 96 151
58 91 127
55 89 130
64 98 153
58 91 140
51 76 108
61 96 151
63 98 151
59 95 151
62 95 155
57 91 130
58 89 131
60 94 130
60 92 144
60 96 163
57 89 145
215 232 255
215 232 255
215 232 255
216 232 255
216 232 255
216 232 255
216 232 255
190 178 114
187 177 114
186 177 114
185 176 114
184 176 114
183 175 114
165 160 108
92 96 71
53 71 70
55 75 77
54 72 70
50 66 61
53 72 70
53 71 65
55 73 70
53 71 65
56 77 80
55 76 76
58 78 80
54 75 76
120 124 95
179 173 114
178 173 114
178 173 114
178 173 114
178 173 114
178 173 114
178 173 114
178 173 114
178 173 114
178 173 114
178 173 114
178 173 114
178 173 114
178 173 114
178 173 114
178 173 114
178 173 114
178 173 114
178 173 114
178 173 114
178 173 114
178 173 114
178 173 114
178 173 114
179 173 114
179 173 114
178 173 114
179 173 114
179 173 114
179 173 114
179 173 114
179 173 114
179 173 114
179 173 114
179 173 114
179 173 114
179 173 114
179 174 114
179 174 114
180 174 114
180 174 114
180 174 114
180 174 114
180 174 114
180 174 114
180 174 114
180 174 114
180 174 114
180 174 114
180 174 114
180 174 114
181 174 114
181 174 114
181 174 114
181 174 114
181 174 114
181 174 114
181 174 114
181 174 114
181 174 114
181 175 114
181 175 114
182 175 114
182 175 114
182 175 114
182 175 114
182 175 114
182 175 114
182 175 114
182 175 114
182 175 114
182 175 114
182 175 114
183 175 114
183 175 114
183 175 114
183 175 114
183 175 114
183 175 114
183 175 114
183 175 114
184 175 114
184 176 114
184 176 114
184 176 114
184 176 114
184 176 114
184 176 114
184 176 114
184 176 114
184 176 114
185 176 114
185 176 114
185 176 114
185 176 114
185 176 114
185 176 114
185 176 114
185 176 114
185 176 114
185 176 114
185 176 114
186 176 114
186 176 114
186 177 114
186 177 114
186 177 114
186 177 114
186 177 114
186 177 114
186 177 114
187 177 114
187 177 114
187 177 114
187 177 114
187 177 114
187 177 114
187 177 114
187 177 114
187 177 114
188 177 114
188 177 114
188 177 114
188 178 114
188 205 228
188 205 228
188 205 228
188 205 228
188 205 228
188 205 228
188 205 228
188 205 228
188 205 228
187 205 228
187 205 228
187 205 228
187 205 228
187 205 228
187 205 228
187 205 228
187 204 228
187 204 228
187 204 228
187 204 228
186 204 228
186 204 228
186 204 228
186 204 228
186 204 228
186 204 228
186 204 228
186 204 228
186 204 228
185 204 228
185 204 228
185 204 228
185 204 228
185 204 228
185 204 228
185 204 228
185 203 228
185 203 228
185 203 228
185 203 228
184 203 228
184 203 228
184 203 228
184 203 228
184 203 228
184 203 228
184 203 228
184 203 228
184 203 228
184 203 228
183 203 228
184 203 228
183 203 228
183 203 228
183 203 228
183 202 228
183 202 228
183 202 228
183 202 228
183 202 228
183 202 228
183 202 228
182 202 228
182 202 228
182 202 228
182 202 228
182 202 228
182 202 228
182 202 228
182 202 228
182 202 228
182 202 228
182 202 228
181 202 228
181 201 228
181 201 228
181 201 228
181 201 228
181 201 228
181 201 228
181 201 228
181 201 228
181 201 228
180 201 228
180 201 228
180 201 228
180 201 228
180 201 228
180 201 228
180 201 228
180 201 228
180 201 228
180 201 228
180 201 228
180 201 228
180 201 228
180 201 228
180 201 228
179 200 228
179 200 228
179 200 228
179 200 228
179 200 228
179 200 228
179 200 228
179 200 228
179 200 228
179 200 228
179 200 228
179 200 228
179 200 228
179 200 228
179 200 228
179 200 228
179 200 228
179 200 228
179 200 228
179 200 228
179 200 228
179 200 228
179 200 228
179 200 228
179 200 228
143 165 198
56 88 151
56 88 153
56 87 142
52 84 135
52 84 155
48 79 141
52 83 144
53 86 150
53 85 155
51 83 144
52 84 148
54 86 158
50 81 144
42 70 135
77 104 165
146 167 204
184 203 228
185 203 228
186 204 228
187 205 228
189 206 228
211 228 250
216 233 255
216 233 255
216 232 255
216 232 255
216 233 255
171 189 220
55 88 137
61 95 163
59 94 155
57 91 133
59 92 149
58 94 157
60 96 140
60 96 151
65 101 179
59 92 114
57 92 153
59 94 125
60 95 137
59 94 127
57 92 157
61 96 165
63 99 161
61 94 149
62 96 137
57 92 151
59 94 135
60 94 151
59 94 140
60 95 157
62 97 151
56 90 127
60 96 140
61 96 149
60 95 127
58 92 140
61 96 151
56 89 140
62 97 140
59 94 127
60 96 151
60 93 140
62 99 171
58 92 127
61 97 151
60 94 127
62 97 140
62 98 161
61 97 161
64 100 171
64 100 171
58 93 114
64 100 161
60 95 140
62 98 151
66 102 181
62 98 161
58 90 117
62 98 161
60 95 140
62 97 140
59 95 140
58 91 114
59 94 151
59 93 127
60 95 127
60 96 151
61 95 127
60 96 140
63 98 153
63 98 153
64 99 173
62 98 151
58 91 114
60 95 127
61 97 161
59 91 127
60 96 151
62 97 140
64 99 161
62 96 142
62 96 142
62 98 161
60 94 142
59 92 142
62 96 151
63 99 171
64 97 144
60 94 130
61 95 142
59 90 133
59 92 142
62 97 163
63 100 181
64 99 161
55 85 130
56 89 102
62 99 171
56 86 122
59 91 133
64 99 163
54 80 96
194 209 230
216 232 255
216 232 255
216 233 255
216 232 255
216 233 255
197 191 153
189 178 114
187 177 114
186 177 114
185 176 114
184 176 114
145 142 96
53 73 74
53 69 66
51 68 65
54 73 73
53 71 70
51 68 61
49 67 66
53 72 69
54 72 70
52 71 65
55 74 74
55 76 76
55 74 74
53 72 70
56 74 64
57 78 80
171 167 111
179 173 114
179 173 114
179 173 114
179 173 114
179 173 114
179 173 114
179 173 114
179 173 114
179 173 114
179 173 114
179 173 114
179 173 114
179 173 114
179 173 114
179 173 114
179 173 114
179 173 114
179 173 114
179 173 114
179 173 114
179 173 114
180 174 114
179 173 114
179 174 114
180 174 114
180 174 114
180 174 114
180 174 114
180 174 114
180 174 114
180 174 114
180 174 114
180 174 114
180 174 114
180 174 114
180 174 114
180 174 114
180 174 114
180 174 114
181 174 114
181 174 114
181 174 114
181 174 114
181 174 114
181 174 114
181 174 114
181 174 114
181 174 114
181 174 114
181 175 114
182 175 114
182 175 114
182 175 114
182 175 114
182 175 114
182 175 114
182 175 114
182 175 114
182 175 114
182 175 114
183 175 114
183 175 114
183 175 114
183 175 114
183 175 114
183 175 114
183 175 114
183 175 114
183 175 114
183 175 114
183 175 114
184 176 114
184 176 114
184 176 114
184 176 114
184 176 114
184 176 114
184 176 114
184 176 114
184 176 114
184 176 114
184 176 114
185 176 114
185 176 114
185 176 114
185 176 114
185 176 114
185 176 114
185 176 114
185 176 114
185 176 114
185 176 114
186 176 114
186 176 114
186 177 114
186 177 114
186 177 114
186 177 114
186 177 114
186 177 114
186 177 114
186 177 114
186 177 114
187 177 114
187 177 114
187 177 114
187 177 114
187 177 114
187 177 114
187 177 114
187 177 114
187 177 114
187 177 114
187 177 114
188 177 114
188 177 114
188 178 114
188 178 114
188 178 114
188 178 114
188 178 114
188 178 114
189 206 228
189 206 228
189 206 228
189 205 228
188 205 228
188 205 228
188 205 228
188 205 228
188 205 228
188 205 228
188 205 228
188 205 228
188 205 228
188 205 228
188 205 228
187 205 228
187 205 228
187 205 228
187 205 228
187 205 228
187 205 228
187 204 228
187 205 228
187 204 228
187 204 228
187 204 228
187 204 228
186 204 228
186 204 228
186 204 228
186 204 228
186 204 228
186 204 228
186 204 228
186 204 228
186 204 228
185 204 228
185 204 228
185 204 228
185 204 228
185 204 228
185 204 228
185 203 228
185 203 228
185 203 228
185 203 228
185 203 228
184 203 228
184 203 228
184 203 228
184 203 228
184 203 228
184 203 228
184 203 228
184 203 228
184 203 228
184 203 228
184 203 228
184 203 228
183 203 228
183 203 228
183 203 228
183 203 228
183 202 228
183 202 228
183 202 228
183 202 228
183 202 228
183 202 228
183 202 228
182 202 228
182 202 228
182 202 228
182 202 228
182 202 228
182 202 228
182 202 228
182 202 228
182 202 228
182 202 228
182 202 228
182 202 228
182 202 228
181 202 228
181 202 228
181 201 228
181 201 228
181 201 228
181 201 228
181 201 228
181 201 228
181 201 228
181 201 228
181 201 228
181 201 228
181 201 228
180 201 228
180 201 228
180 201 228
180 201 228
180 201 228
180 201 228
180 201 228
180 201 228
180 201 228
180 201 228
180 201 228
180 201 228
180 201 228
180 201 228
180 201 228
180 201 228
180 201 228
180 201 228
180 201 228
180 201 228
180 201 228
180 201 228
180 201 228
180 201 228
180 201 228
163 184 211
54 86 135
56 87 142
56 88 151
55 86 135
56 87 156
56 89 160
55 88 151
47 77 136
53 84 131
54 87 158
51 82 144
48 78 130
53 85 156
52 83 151
46 75 135
48 78 141
51 82 151
50 80 150
147 166 202
185 204 228
186 204 228
187 205 228
188 205 228
193 209 231
216 233 255
216 233 255
216 233 255
216 233 255
216 233 255
142 160 193
60 93 167
59 93 144
58 93 163
61 96 149
57 90 147
56 89 125
61 97 167
54 86 125
59 94 127
64 100 171
56 91 143
57 91 127
61 96 149
63 98 149
58 93 114
61 96 149
58 93 149
60 95 161
62 97 151
61 97 151
61 97 159
60 94 140
62 97 151
64 99 161
64 99 161
61 95 161
61 95 149
63 98 140
61 95 161
60 96 151
60 93 127
62 98 161
63 99 161
62 98 151
61 96 151
62 98 171
62 98 161
64 100 181
62 98 161
60 95 151
65 101 171
63 99 161
55 89 114
61 96 140
65 101 171
62 97 161
60 94 140
60 95 140
56 88 99
64 101 181
60 92 127
59 95 140
60 93 140
59 94 161
61 97 140
63 99 171
58 92 140
63 98 171
61 96 140
60 96 151
60 96 140
58 91 153
64 100 161
56 89 127
63 96 142
60 97 161
58 94 127
60 95 127
60 92 117
57 92 114
58 91 140
63 99 161
60 95 127
60 94 130
55 86 102
63 99 161
59 93 140
62 95 153
63 98 153
62 94 155
58 94 127
63 100 181
62 99 181
62 98 151
61 95 153
61 96 153
65 101 171
59 94 140
57 90 130
60 94 153
60 91 137
56 86 134
58 87 120
54 81 117
58 92 142
60 90 137
109 127 151
216 233 255
216 233 255
216 233 255
216 233 255
216 233 255
193 185 135
189 178 114
187 177 114
186 177 114
185 176 114
135 133 95
53 73 74
50 66 61
48 63 54
51 68 65
45 59 51
54 72 70
48 66 65
56 76 77
50 67 65
51 70 69
54 71 68
54 70 61
53 74 73
53 72 58
57 78 80
55 77 80
54 75 77
78 91 84
180 174 114
180 174 114
180 174 114
180 174 114
180 174 114
180 174 114
180 174 114
180 174 114
180 174 114
180 174 114
180 174 114
180 174 114
180 174 114
180 174 114
180 174 114
180 174 114
180 174 114
180 174 114
180 174 114
180 174 114
180 174 114
180 174 114
181 174 114
181 174 114
180 174 114
181 174 114
181 174 114
181 174 114
181 174 114
181 174 114
181 174 114
181 174 114
181 174 114
181 174 114
181 174 114
181 174 114
181 174 114
181 174 114
182 175 114
181 175 114
182 175 114
182 175 114
182 175 114
182 175 114
182 175 114
182 175 114
182 175 114
182 175 114
182 175 114
182 175 114
182 175 114
183 175 114
183 175 114
183 175 114
183 175 114
183 175 114
183 175 114
183 175 114
183 175 114
183 175 114
183 175 114
183 175 114
183 175 114
183 175 114
184 176 114
184 176 114
184 176 114
184 176 114
184 176 114
184 176 114
184 176 114
184 176 114
184 176 114
185 176 114
184 176 114
185 176 114
185 176 114
185 176 114
185 176 114
185 176 114
185 176 114
185 176 114
185 176 114
185 176 114
185 176 114
186 176 114
186 176 114
186 176 114
186 177 114
186 177 114
186 177 114
186 177 114
186 177 114
186 177 114
186 177 114
186 177 114
186 177 114
187 177 114
187 177 114
187 177 114
187 177 114
187 177 114
187 177 114
187 177 114
187 177 114
187 177 114
187 177 114
187 177 114
188 177 114
188 177 114
188 177 114
188 178 114
188 178 114
188 178 114
188 178 114
188 178 114
188 178 114
188 178 114
189 178 114
189 178 114
189 178 114
189 178 114
189 206 228
189 206 228
189 206 228
189 206 228
189 206 228
189 206 228
189 206 228
189 206 228
189 205 228
189 205 228
188 205 228
188 205 228
188 205 228
188 205 228
188 205 228
188 205 228
188 205 228
188 205 228
188 205 228
188 205 228
188 205 228
188 205 228
187 205 228
187 205 228
187 205 228
187 205 228
187 205 228
187 205 228
187 205 228
187 205 228
187 205 228
187 204 228
187 204 228
187 204 228
186 204 228
186 204 228
186 204 228
186 204 228
186 204 228
186 204 228
186 204 228
186 204 228
186 204 228
186 204 228
186 204 228
186 204 228
185 204 228
185 204 228
185 204 228
185 204 228
185 203 228
185 204 228
185 203 228
185 203 228
185 203 228
185 203 228
185 203 228
185 203 228
184 203 228
184 203 228
184 203 228
184 203 228
184 203 228
184 203 228
184 203 228
184 203 228
184 203 228
184 203 228
184 203 228
183 203 228
183 203 228
183 203 228
183 203 228
183 202 228
183 203 228
183 202 228
183 202 228
183 202 228
183 202 228
183 202 228
183 202 228
182 202 228
182 202 228
182 202 228
182 202 228
182 202 228
182 202 228
182 202 228
182 202 228
182 202 228
182 202 228
182 202 228
182 202 228
182 202 228
182 202 228
182 202 228
181 202 228
181 202 228
181 202 228
181 202 228
181 202 228
181 201 228
181 201 228
181 201 228
181 201 228
181 201 228
181 201 228
181 201 228
181 201 228
181 201 228
181 201 228
181 201 228
181 201 228
181 201 228
181 201 228
181 201 228
181 201 228
181 201 228
181 201 228
181 201 228
181 201 228
76 103 158
53 86 144
56 89 160
53 85 148
55 87 151
56 88 151
57 89 153
55 86 146
48 77 135
53 86 150
52 82 151
54 85 146
49 80 142
52 83 152
52 83 144
52 84 146
54 86 155
50 81 151
43 70 134
54 86 156
147 166 202
187 204 228
187 205 228
188 205 228
191 207 228
214 230 253
216 233 255
216 233 255
216 233 255
216 233 255
87 113 169
59 93 149
58 92 157
58 93 157
61 96 149
59 96 161
61 97 159
60 95 165
59 94 144
57 91 157
61 94 147
57 92 125
58 93 149
58 94 140
59 95 140
62 97 159
62 98 161
61 96 165
60 95 140
63 98 159
62 98 161
61 96 140
61 96 151
63 99 169
61 95 127
60 96 167
61 96 161
60 95 155
62 97 140
56 89 99
63 99 169
61 96 149
60 96 151
64 99 151
60 95 140
60 95 161
61 97 171
61 96 140
58 93 114
64 100 171
61 97 151
62 98 151
64 100 161
65 101 171
59 94 140
63 99 161
60 97 161
58 92 151
63 97 153
59 94 127
63 99 151
62 97 151
61 96 140
63 99 161
62 98 161
62 97 151
61 98 171
60 95 127
62 97 140
60 95 161
61 96 140
61 98 171
58 92 127
59 91 130
59 93 140
63 98 151
58 90 114
60 94 114
58 93 151
62 98 151
59 93 127
57 91 153
62 98 151
60 96 163
63 99 161
64 99 151
62 96 142
63 97 151
59 93 142
59 92 130
63 99 161
61 95 161
59 92 130
57 91 140
59 92 140
63 98 163
57 87 117
61 96 140
62 95 142
58 90 120
61 95 140
57 88 88
60 88 122
57 91 142
60 93 144
56 87 130
56 88 154
51 79 121
216 233 255
216 233 255
216 233 255
216 233 255
210 218 223
191 179 114
188 178 114
187 177 114
186 177 114
136 134 90
52 72 74
51 68 65
48 64 60
53 70 66
44 58 50
50 66 61
42 60 63
49 62 52
48 62 56
54 70 61
49 64 49
57 76 73
53 71 65
56 76 77
51 69 69
51 68 60
55 75 72
54 74 67
55 75 73
95 104 84
164 160 108
181 174 114
181 174 114
181 174 114
181 174 114
181 174 114
181 174 114
181 174 114
181 174 114
181 174 114
181 174 114
181 174 114
181 174 114
181 174 114
181 174 114
181 174 114
181 174 114
181 174 114
181 174 114
181 174 114
181 174 114
181 174 114
181 174 114
182 175 114
182 175 114
182 175 114
182 175 114
182 175 114
182 175 114
182 175 114
182 175 114
182 175 114
182 175 114
182 175 114
182 175 114
182 175 114
182 175 114
182 175 114
182 175 114
183 175 114
183 175 114
183 175 114
183 175 114
183 175 114
183 175 114
183 175 114
183 175 114
183 175 114
183 175 114
183 175 114
183 175 114
183 175 114
184 176 114
184 176 114
184 176 114
184 176 114
184 176 114
184 176 114
184 176 114
184 176 114
184 176 114
184 176 114
184 176 114
184 176 114
185 176 114
185 176 114
185 176 114
185 176 114
185 176 114
185 176 114
185 176 114
185 176 114
185 176 114
185 176 114
185 176 114
185 176 114
186 176 114
186 177 114
186 177 114
186 177 114
186 177 114
186 177 114
186 177 114
186 177 114
186 177 114
186 177 114
186 177 114
187 177 114
187 177 114
187 177 114
187 177 114
187 177 114
187 177 114
187 177 114
187 177 114
187 177 114
187 177 114
187 177 114
188 177 114
187 177 114
188 177 114
188 177 114
188 177 114
188 178 114
188 178 114
188 178 114
188 178 114
188 178 114
188 178 114
188 178 114
188 178 114
189 178 114
189 178 114
189 178 114
189 178 114
189 178 114
189 178 114
189 178 114
189 178 114
189 178 114
189 178 114
190 206 228
190 206 228
190 206 228
190 206 228
189 206 228
189 206 228
189 206 228
189 206 228
189 206 228
189 206 228
189 206 228
189 206 228
189 206 228
189 206 228
189 206 228
189 205 228
189 205 228
188 205 228
188 205 228
188 205 228
188 205 228
188 205 228
188 205 228
188 205 228
188 205 228
188 205 228
188 205 228
188 205 228
188 205 228
188 205 228
188 205 228
187 205 228
187 205 228
187 205 228
187 205 228
187 205 228
187 205 228
187 205 228
187 204 228
187 204 228
187 204 228
187 204 228
187 204 228
186 204 228
186 204 228
186 204 228
186 204 228
186 204 228
186 204 228
186 204 228
186 204 228
186 204 228
186 204 228
186 204 228
185 204 228
185 204 228
185 204 228
185 204 228
185 204 228
185 204 228
185 204 228
185 203 228
185 204 228
185 203 228
185 203 228
185 203 228
185 203 228
185 203 228
184 203 228
184 203 228
184 203 228
184 203 228
184 203 228
184 203 228
184 203 228
184 203 228
184 203 228
184 203 228
184 203 228
184 203 228
183 203 228
184 203 228
183 203 228
183 203 228
183 203 228
183 202 228
183 202 228
183 202 228
183 202 228
183 202 228
183 202 228
183 202 228
183 202 228
183 202 228
183 202 228
182 202 228
183 202 228
182 202 228
183 202 228
182 202 228
182 202 228
182 202 228
182 202 228
182 202 228
182 202 228
182 202 228
182 202 228
182 202 228
182 202 228
182 202 228
182 202 228
182 202 228
182 202 228
182 202 228
182 202 228
182 202 228
182 202 228
182 202 228
182 202 228
182 202 228
95 119 153
55 87 144
55 88 160
54 86 148
58 89 142
52 82 135
55 88 160
57 90 153
54 85 139
53 85 142
53 83 144
48 77 139
49 77 125
50 80 144
50 81 142
46 75 131
50 81 144
51 81 148
44 72 136
44 71 132
50 80 150
54 85 155
169 187 216
188 205 228
189 205 228
190 206 228
207 223 245
217 233 255
217 233 255
217 233 255
142 160 186
57 93 155
59 95 147
58 93 144
63 96 144
56 89 122
60 94 144
60 95 157
57 92 114
55 89 137
55 88 125
62 97 151
57 90 149
63 99 177
60 95 140
60 95 151
60 94 157
63 99 161
58 93 151
63 99 161
56 91 127
61 96 140
58 94 151
61 96 127
61 96 140
61 97 151
59 92 147
59 94 114
59 94 127
64 101 181
61 97 151
59 94 127
63 99 169
59 94 114
64 100 171
61 95 127
60 94 140
63 97 140
62 96 127
57 93 151
59 94 151
63 99 161
62 97 151
60 95 127
61 96 140
65 102 181
64 100 171
60 96 151
60 95 140
62 98 161
59 92 117
63 97 151
59 94 151
61 94 127
61 97 151
58 92 140
61 97 151
62 97 140
61 94 127
61 96 140
62 97 140
62 98 151
63 99 161
61 95 127
60 95 127
65 101 171
58 92 117
59 93 151
62 96 140
56 90 127
59 95 140
63 99 161
56 90 99
63 97 151
62 94 140
63 98 163
60 95 127
60 95 140
57 89 114
60 93 133
61 97 161
62 96 142
59 95 140
57 91 102
61 94 155
60 95 127
61 97 151
61 95 140
57 88 120
58 89 144
60 90 133
58 91 117
58 90 140
60 95 161
57 89 140
56 88 130
56 86 144
51 79 108
61 93 155
182 196 214
217 233 255
217 233 255
217 233 255
212 223 234
190 179 114
189 178 114
188 177 114
148 142 93
51 70 64
45 56 41
48 60 46
46 63 61
55 73 70
39 53 47
54 73 74
50 68 65
48 61 51
46 63 63
48 65 63
51 66 54
52 71 73
54 72 64
54 71 60
53 72 69
49 65 54
55 73 63
57 77 77
56 73 70
56 76 76
109 114 89
182 175 114
182 175 114
182 175 114
182 175 114
182 175 114
182 175 114
182 175 114
182 175 114
182 175 114
182 175 114
182 175 114
182 175 114
182 175 114
182 175 114
182 175 114
182 175 114
182 175 114
182 175 114
182 175 114
182 175 114
182 175 114
182 175 114
182 175 114
183 175 114
183 175 114
183 175 114
183 175 114
183 175 114
183 175 114
183 175 114
183 175 114
183 175 114
183 175 114
183 175 114
183 175 114
183 175 114
183 175 114
183 175 114
183 175 114
183 175 114
183 175 114
184 176 114
184 176 114
184 176 114
184 176 114
184 176 114
184 176 114
184 176 114
184 176 114
184 176 114
184 176 114
184 176 114
185 176 114
185 176 114
185 176 114
185 176 114
185 176 114
185 176 114
185 176 114
185 176 114
185 176 114
185 176 114
185 176 114
185 176 114
185 176 114
186 176 114
186 176 114
186 176 114
186 177 114
186 177 114
186 177 114
186 177 114
186 177 114
186 177 114
186 177 114
186 177 114
186 177 114
187 177 114
187 177 114
187 177 114
187 177 114
187 177 114
187 177 114
187 177 114
187 177 114
187 177 114
187 177 114
187 177 114
187 177 114
187 177 114
187 177 114
188 177 114
188 177 114
188 177 114
188 178 114
188 178 114
188 178 114
188 178 114
188 178 114
188 178 114
188 178 114
188 178 114
188 178 114
189 178 114
189 178 114
189 178 114
189 178 114
189 178 114
189 178 114
189 178 114
189 178 114
189 178 114
189 178 114
189 178 114
190 178 114
189 178 114
190 178 114
190 178 114
190 178 114
190 179 114
190 206 228
190 206 228
190 206 228
190 206 228
190 206 228
190 206 228
190 206 228
190 206 228
190 206 228
190 206 228
190 206 228
190 206 228
189 206 228
189 206 228
189 206 228
189 206 228
189 206 228
189 206 228
189 206 228
189 206 228
189 206 228
189 206 228
189 206 228
189 206 228
188 205 228
188 205 228
188 205 228
188 205 228
188 205 228
188 205 228
188 205 228
188 205 228
188 205 228
188 205 228
188 205 228
188 205 228
188 205 228
188 205 228
188 205 228
187 205 228
187 205 228
187 205 228
187 205 228
187 205 228
187 205 228
187 205 228
187 205 228
187 205 228
187 204 228
187 204 228
187 204 228
187 204 228
187 204 228
186 204 228
186 204 228
186 204 228
186 204 228
186 204 228
186 204 228
186 204 228
186 204 228
186 204 228
186 204 228
186 204 228
186 204 228
185 204 228
186 204 228
185 204 228
185 204 228
185 204 228
185 204 228
185 204 228
185 204 228
185 203 228
185 204 228
185 203 228
185 203 228
185 203 228
185 203 228
184 203 228
185 203 228
184 203 228
184 203 228
184 203 228
184 203 228
184 203 228
184 203 228
184 203 228
184 203 228
184 203 228
184 203 228
184 203 228
184 203 228
184 203 228
184 203 228
184 203 228
184 203 228
184 203 228
183 203 228
183 203 228
183 203 228
183 203 228
183 203 228
183 203 228
183 202 228
183 203 228
183 202 228
183 203 228
183 202 228
183 202 228
183 202 228
183 202 228
183 202 228
183 202 228
183 202 228
183 202 228
183 202 228
183 202 228
183 202 228
156 176 211
55 88 144
52 84 133
56 88 151
50 80 121
55 87 144
50 81 141
53 84 133
52 83 137
54 86 151
54 85 112
55 88 160
55 87 151
50 79 137
52 84 148
50 79 133
48 79 142
38 62 115
40 66 122
45 73 129
49 79 141
36 60 118
45 72 131
47 77 146
188 205 228
189 206 228
190 206 228
194 210 231
217 233 255
217 233 255
217 233 255
142 160 200
57 89 133
58 92 135
61 97 159
60 95 147
57 91 130
60 93 122
54 87 130
60 94 149
60 96 159
59 94 135
61 96 165
61 96 157
57 91 114
61 97 159
58 93 114
62 97 140
57 91 153
61 95 137
61 96 127
61 97 167
59 94 114
60 96 151
62 98 171
59 95 149
59 93 127
62 98 171
60 91 127
62 97 149
60 95 140
62 98 161
58 93 140
60 96 140
56 91 127
63 99 161
60 96 151
59 93 151
61 96 140
60 95 140
61 95 127
60 94 114
63 99 169
61 96 161
63 98 151
58 93 114
62 97 151
62 98 161
58 92 99
64 101 181
62 97 151
56 90 114
62 98 151
58 93 151
61 97 151
64 99 151
59 95 127
60 95 114
63 99 161
65 100 161
62 98 151
60 95 127
58 93 114
61 97 151
63 99 161
63 99 171
62 98 161
60 95 127
60 96 140
64 100 171
63 99 171
62 98 161
62 97 151
62 98 161
60 95 140
64 100 171
57 92 140
53 83 80
64 100 171
66 102 171
61 97 151
60 94 130
60 93 133
61 94 144
64 100 171
63 98 151
57 92 140
60 92 135
60 96 151
62 97 153
54 85 130
62 96 161
54 83 84
58 93 151
57 86 136
60 91 147
57 86 135
59 91 133
56 82 111
57 89 144
143 162 190
217 233 255
217 233 255
217 233 255
194 185 135
190 179 114
189 178 114
149 144 97
51 68 65
50 64 52
43 58 54
50 64 51
48 65 61
43 56 50
49 65 56
52 65 52
53 72 70
51 66 62
51 69 58
48 62 51
48 65 62
53 73 73
55 74 69
54 73 64
54 72 65
55 73 68
53 73 74
55 75 67
52 72 67
54 74 72
58 78 80
123 126 95
183 175 114
183 175 114
183 175 114
183 175 114
183 175 114
183 175 114
183 175 114
183 175 114
183 175 114
183 175 114
183 175 114
183 175 114
183 175 114
183 175 114
183 175 114
183 175 114
183 175 114
183 175 114
183 175 114
183 175 114
183 175 114
183 175 114
183 175 114
184 176 114
184 176 114
184 176 114
184 176 114
184 176 114
184 176 114
184 176 114
184 176 114
184 176 114
184 176 114
184 176 114
184 176 114
184 176 114
184 176 114
185 176 114
184 176 114
185 176 114
185 176 114
185 176 114
185 176 114
185 176 114
185 176 114
185 176 114
185 176 114
185 176 114
185 176 114
185 176 114
185 176 114
185 176 114
185 176 114
186 176 114
186 177 114
186 177 114
186 176 114
186 177 114
186 177 114
186 177 114
186 177 114
186 177 114
186 177 114
186 177 114
186 177 114
186 177 114
187 177 114
187 177 114
187 177 114
187 177 114
187 177 114
187 177 114
187 177 114
187 177 114
187 177 114
187 177 114
187 177 114
187 177 114
187 177 114
187 177 114
188 177 114
188 177 114
188 177 114
188 177 114
188 177 114
188 178 114
188 178 114
188 178 114
188 178 114
188 178 114
188 178 114
188 178 114
188 178 114
189 178 114
189 178 114
189 178 114
189 178 114
189 178 114
189 178 114
189 178 114
189 178 114
189 178 114
189 178 114
189 178 114
189 178 114
189 178 114
189 178 114
190 178 114
190 178 114
190 178 114
190 178 114
190 178 114
190 179 114
190 179 114
190 179 114
190 179 114
190 179 114
190 179 114
190 179 114
191 207 228
191 207 228
191 207 228
191 207 228
191 207 228
190 207 228
190 206 228
190 206 228
190 206 228
190 206 228
190 206 228
190 206 228
190 206 228
190 206 228
190 206 228
190 206 228
190 206 228
190 206 228
190 206 228
190 206 228
189 206 228
189 206 228
189 206 228
189 206 228
189 206 228
189 206 228
189 206 228
189 206 228
189 206 228
189 206 228
189 206 228
189 206 228
189 206 228
189 206 228
188 205 228
188 205 228
188 205 228
188 205 228
188 205 228
188 205 228
188 205 228
188 205 228
188 205 228
188 205 228
188 205 228
188 205 228
188 205 228
188 205 228
188 205 228
188 205 228
187 205 228
187 205 228
187 205 228
187 205 228
187 205 228
187 205 228
187 205 228
187 205 228
187 205 228
187 205 228
187 205 228
187 204 228
187 204 228
187 204 228
187 204 228
186 204 228
186 204 228
186 204 228
186 204 228
186 204 228
186 204 228
186 204 228
186 204 228
186 204 228
186 204 228
186 204 228
186 204 228
186 204 228
186 204 228
185 204 228
185 204 228
185 204 228
185 204 228
185 204 228
185 204 228
185 204 228
185 204 228
185 203 228
185 203 228
185 203 228
185 203 228
185 203 228
185 203 228
185 203 228
185 203 228
185 203 228
185 203 228
185 203 228
185 203 228
185 203 228
184 203 228
184 203 228
184 203 228
184 203 228
184 203 228
184 203 228
184 203 228
184 203 228
184 203 228
184 203 228
184 203 228
184 203 228
184 203 228
184 203 228
184 203 228
184 203 228
184 203 228
184 203 228
175 194 217
56 88 144
55 88 153
55 88 153
53 84 151
58 91 161
53 84 142
49 79 114
50 80 142
52 84 141
52 83 139
53 84 129
52 82 137
45 75 122
50 80 135
52 83 137
52 83 137
50 81 137
49 79 142
50 79 138
42 67 124
39 65 118
44 69 130
42 70 115
46 75 142
139 158 190
180 197 223
190 206 228
192 207 228
210 226 248
217 233 255
217 233 255
56 92 163
56 89 147
61 96 159
58 92 151
58 93 163
60 94 157
63 98 157
63 97 151
57 91 130
56 89 114
53 84 114
57 91 120
61 97 159
56 90 147
60 95 149
63 99 161
60 96 140
61 96 149
61 96 140
63 98 151
63 99 161
64 99 161
62 98 161
64 99 167
61 95 167
64 100 171
59 93 140
58 91 125
57 91 127
58 93 114
62 97 149
60 96 171
64 100 171
57 93 127
64 100 161
65 100 161
63 99 161
64 100 171
60 95 127
59 94 151
63 99 161
57 92 99
64 100 161
62 97 151
62 98 161
55 88 114
61 96 140
63 98 161
63 98 151
62 98 151
63 99 151
60 95 127
58 92 127
59 94 127
63 99 171
62 97 140
62 98 151
63 99 171
61 96 140
58 93 114
64 101 171
59 92 140
60 96 151
55 88 127
61 97 161
61 98 161
64 100 171
62 98 161
60 95 161
62 98 161
62 97 151
61 96 140
57 88 105
60 94 127
58 93 127
63 98 151
63 97 151
62 97 153
63 98 151
62 98 151
62 96 153
58 94 127
62 95 163
58 90 140
60 95 127
56 87 117
55 85 105
58 89 102
59 94 127
57 87 133
60 93 127
62 96 165
61 96 163
58 89 120
58 91 133
57 89 140
62 99 181
60 96 163
61 91 137
106 124 145
217 233 255
217 233 255
213 224 234
191 179 114
190 179 114
189 178 114
94 96 67
44 57 50
47 61 55
48 64 61
48 64 54
52 68 60
51 70 70
49 64 57
50 66 56
45 60 59
42 58 48
51 69 66
52 68 57
52 66 44
50 64 56
51 67 65
52 67 49
54 73 68
50 65 60
53 72 69
53 71 68
58 78 80
54 71 64
54 76 76
77 90 76
157 153 105
184 176 114
184 176 114
184 176 114
184 176 114
184 176 114
184 176 114
184 176 114
184 176 114
184 176 114
184 176 114
184 176 114
184 176 114
184 176 114
184 176 114
184 176 114
184 176 114
184 176 114
184 176 114
184 176 114
185 176 114
184 176 114
184 176 114
185 176 114
185 176 114
185 176 114
185 176 114
185 176 114
185 176 114
185 176 114
185 176 114
185 176 114
185 176 114
185 176 114
185 176 114
185 176 114
185 176 114
186 176 114
185 176 114
186 176 114
186 177 114
186 176 114
186 176 114
186 177 114
186 176 114
186 177 114
186 177 114
186 177 114
186 177 114
186 177 114
186 177 114
186 177 114
186 177 114
186 177 114
186 177 114
186 177 114
187 177 114
187 177 114
187 177 114
187 177 114
187 177 114
187 177 114
187 177 114
187 177 114
187 177 114
187 177 114
187 177 114
187 177 114
187 177 114
187 177 114
188 177 114
188 177 114
188 177 114
188 177 114
188 178 114
188 178 114
188 178 114
188 178 114
188 178 114
188 178 114
188 178 114
188 178 114
188 178 114
189 178 114
189 178 114
189 178 114
189 178 114
189 178 114
189 178 114
189 178 114
189 178 114
189 178 114
189 178 114
189 178 114
189 178 114
189 178 114
189 178 114
189 178 114
190 178 114
190 178 114
190 178 114
190 178 114
190 178 114
190 178 114
190 179 114
190 179 114
190 179 114
190 179 114
190 179 114
190 179 114
190 179 114
190 179 114
190 179 114
191 179 114
191 179 114
191 179 114
191 179 114
191 179 114
191 179 114
191 207 228
191 207 228
191 207 228
191 207 228
191 207 228
191 207 228
191 207 228
191 207 228
191 207 228
191 207 228
191 207 228
191 207 228
191 207 228
190 207 228
191 207 228
190 206 228
190 206 228
190 206 228
190 206 228
190 206 228
190 206 228
190 206 228
190 206 228
190 206 228
190 206 228
190 206 228
190 206 228
190 206 228
190 206 228
190 206 228
189 206 228
189 206 228
189 206 228
189 206 228
189 206 228
189 206 228
189 206 228
189 206 228
189 206 228
189 206 228
189 206 228
189 206 228
189 206 228
189 206 228
189 206 228
189 205 228
188 205 228
188 205 228
188 205 228
188 205 228
188 205 228
188 205 228
188 205 228
188 205 228
188 205 228
188 205 228
188 205 228
188 205 228
188 205 228
188 205 228
188 205 228
188 205 228
187 205 228
187 205 228
187 205 228
187 205 228
187 205 228
187 205 228
187 205 228
187 205 228
187 205 228
187 205 228
187 205 228
187 205 228
187 205 228
187 204 228
187 204 228
187 204 228
186 204 228
186 204 228
186 204 228
186 204 228
186 204 228
186 204 228
186 204 228
186 204 228
186 204 228
186 204 228
186 204 228
186 204 228
186 204 228
186 204 228
186 204 228
186 204 228
186 204 228
186 204 228
185 204 228
186 204 228
185 204 228
185 204 228
185 204 228
185 204 228
185 204 228
185 204 228
185 204 228
185 204 228
185 204 228
185 204 228
185 204 228
185 204 228
185 204 228
185 204 228
185 204 228
185 204 228
185 204 228
185 204 228
185 204 228
185 204 228
110 130 153
57 89 151
53 85 135
52 83 144
51 83 152
54 85 133
52 84 133
53 84 150
52 84 139
50 80 144
56 88 151
52 84 148
45 73 114
49 80 125
50 78 133
51 81 141
51 80 127
48 78 128
51 81 135
44 70 120
50 82 141
42 68 120
37 61 121
46 75 141
50 78 137
35 58 99
151 169 198
190 206 228
192 207 228
206 221 242
218 233 255
207 223 248
54 86 113
61 97 159
57 90 135
54 87 136
59 92 125
58 92 135
56 89 117
63 98 161
57 90 108
60 96 157
61 96 155
59 94 114
58 92 111
59 93 125
60 96 161
62 96 147
57 91 127
57 92 125
61 95 137
61 96 140
62 97 140
60 94 127
61 96 151
61 96 167
60 94 122
60 93 127
61 97 151
60 95 125
59 93 140
63 99 161
52 84 80
64 100 161
61 96 140
60 94 159
61 97 151
62 96 159
59 93 140
58 91 114
54 86 114
63 98 151
59 93 114
60 95 137
58 92 140
61 97 161
60 94 140
61 96 140
63 99 161
58 92 140
61 96 161
58 91 140
60 96 140
63 98 159
60 92 130
63 98 151
57 91 127
59 95 140
60 93 127
63 99 171
61 96 127
59 93 127
59 91 99
61 97 151
61 96 151
63 99 161
60 95 127
62 96 142
60 95 127
59 93 117
60 94 130
60 94 142
60 93 161
59 95 151
61 97 140
57 90 114
62 95 142
57 91 114
63 98 171
59 93 127
61 94 144
64 99 171
56 87 88
58 91 102
64 100 171
60 94 140
61 97 151
62 96 151
63 96 153
61 94 163
56 87 142
59 93 130
59 93 140
55 87 120
55 84 108
59 91 130
64 98 161
56 90 128
61 94 153
63 99 171
58 88 135
54 80 105
197 213 237
218 233 255
201 198 169
191 179 114
190 179 114
109 108 74
37 49 42
39 50 37
44 57 45
39 52 46
42 54 43
47 58 40
46 61 60
42 56 49
45 62 46
45 58 45
46 61 48
49 63 50
55 72 70
54 70 61
55 72 68
54 74 77
54 71 69
53 71 63
56 74 68
56 76 67
53 69 60
54 71 65
56 76 72
54 75 72
57 77 72
136 134 93
185 176 114
185 176 114
185 176 114
185 176 114
185 176 114
185 176 114
185 176 114
185 176 114
185 176 114
185 176 114
185 176 114
185 176 114
185 176 114
185 176 114
185 176 114
185 176 114
185 176 114
185 176 114
185 176 114
186 176 114
186 176 114
185 176 114
186 176 114
186 177 114
186 176 114
186 177 114
186 177 114
186 177 114
186 177 114
186 177 114
186 177 114
186 177 114
186 177 114
186 177 114
186 177 114
186 177 114
186 177 114
186 177 114
186 177 114
186 177 114
187 177 114
187 177 114
187 177 114
187 177 114
187 177 114
187 177 114
187 177 114
187 177 114
187 177 114
187 177 114
187 177 114
187 177 114
187 177 114
187 177 114
187 177 114
187 177 114
187 177 114
188 177 114
188 177 114
188 177 114
188 177 114
188 178 114
188 178 114
188 178 114
188 178 114
188 178 114
188 178 114
188 178 114
188 178 114
188 178 114
189 178 114
189 178 114
189 178 114
189 178 114
189 178 114
189 178 114
189 178 114
189 178 114
189 178 114
189 178 114
189 178 114
189 178 114
189 178 114
189 178 114
189 178 114
189 178 114
189 178 114
189 178 114
190 178 114
190 178 114
190 178 114
190 178 114
190 178 114
190 178 114
190 179 114
190 179 114
190 179 114
190 179 114
190 179 114
190 179 114
190 179 114
190 179 114
190 179 114
190 179 114
191 179 114
191 179 114
191 179 114
191 179 114
191 179 114
191 179 114
191 179 114
191 179 114
191 179 114
191 179 114
191 179 114
191 179 114
191 179 114
191 179 114
192 207 228
192 207 228
192 207 228
192 207 228
192 207 228
192 207 228
192 207 228
192 207 228
191 207 228
191 207 228
191 207 228
191 207 228
191 207 228
191 207 228
191 207 228
191 207 228
191 207 228
191 207 228
191 207 228
191 207 228
191 207 228
191 207 228
191 207 228
191 207 228
190 207 228
190 207 228
190 206 228
190 206 228
190 206 228
190 206 228
190 206 228
190 206 228
190 206 228
190 206 228
190 206 228
190 206 228
190 206 228
190 206 228
190 206 228
190 206 228
190 206 228
190 206 228
190 206 228
189 206 228
189 206 228
189 206 228
189 206 228
189 206 228
189 206 228
189 206 228
189 206 228
189 206 228
189 206 228
189 206 228
189 206 228
189 206 228
189 206 228
189 205 228
189 205 228
189 205 228
188 205 228
188 205 228
188 205 228
188 205 228
188 205 228
188 205 228
188 205 228
188 205 228
188 205 228
188 205 228
188 205 228
188 205 228
188 205 228
188 205 228
188 205 228
187 205 228
188 205 228
187 205 228
188 205 228
187 205 228
187 205 228
187 205 228
187 205 228
187 205 228
187 205 228
187 205 228
187 205 228
187 205 228
187 205 228
187 205 228
187 204 228
187 204 228
187 204 228
187 204 228
187 204 228
187 204 228
186 204 228
187 204 228
187 204 228
186 204 228
186 204 228
187 204 228
186 204 228
186 204 228
186 204 228
186 204 228
186 204 228
186 204 228
186 204 228
186 204 228
186 204 228
186 204 228
186 204 228
186 204 228
186 204 228
186 204 228
186 204 228
177 195 217
77 102 123
55 87 151
56 88 153
51 80 125
48 78 115
54 85 137
47 77 109
53 85 148
54 84 142
52 82 146
56 87 142
50 80 131
44 74 121
49 76 115
47 77 129
48 77 142
50 80 148
49 79 135
44 72 130
45 73 129
50 80 141
41 68 133
47 77 137
50 81 146
47 77 144
44 72 137
70 87 137
191 207 228
192 207 228
193 208 228
218 234 255
184 199 224
53 82 124
51 82 149
56 90 142
60 95 147
63 99 151
57 90 127
64 99 159
57 91 142
53 86 120
62 97 149
62 96 149
62 98 151
62 98 161
60 96 140
58 90 125
63 100 181
59 94 125
62 97 149
62 99 179
61 96 149
60 94 135
55 88 127
61 96 140
58 93 125
61 95 127
62 98 167
62 98 171
59 93 151
63 98 159
61 96 140
61 95 151
61 96 140
65 101 171
62 98 161
61 97 161
61 96 140
61 96 127
60 95 127
59 92 137
60 96 140
61 97 140
59 94 127
63 98 151
62 98 151
59 94 127
64 100 171
60 95 127
58 93 114
60 95 140
58 93 114
63 98 151
63 99 161
60 94 114
60 95 127
59 93 99
55 88 127
61 96 140
61 97 151
64 99 151
62 97 151
58 92 127
60 96 140
60 93 142
57 90 114
65 101 171
61 96 127
57 91 99
59 93 140
63 100 181
61 96 151
61 94 127
61 96 161
57 91 127
62 97 151
62 97 151
61 94 142
60 94 153
55 84 80
57 90 117
62 98 151
61 92 133
59 88 130
61 98 161
62 97 153
61 96 140
57 88 127
61 98 161
60 92 130
62 95 144
57 89 143
61 96 151
63 95 157
62 94 144
62 96 153
61 93 155
62 95 151
55 80 124
55 86 142
53 83 90
48 74 89
157 171 187
218 234 255
198 192 153
192 179 114
182 171 111
35 46 36
32 43 36
44 58 51
47 62 56
47 60 51
44 59 49
43 53 39
41 57 57
47 63 54
45 61 60
51 70 64
49 65 49
53 70 61
52 71 68
49 65 60
52 70 63
53 68 59
54 71 66
52 67 58
50 67 54
53 73 68
52 70 58
53 71 63
54 74 62
51 70 67
54 74 63
79 91 80
178 169 111
186 177 114
186 177 114
186 177 114
186 177 114
186 177 114
186 177 114
186 177 114
186 177 114
186 177 114
186 177 114
186 177 114
186 177 114
186 177 114
186 177 114
186 177 114
186 177 114
186 177 114
186 177 114
187 177 114
187 177 114
187 177 114
187 177 114
187 177 114
187 177 114
187 177 114
187 177 114
187 177 114
187 177 114
187 177 114
187 177 114
187 177 114
187 177 114
187 177 114
187 177 114
187 177 114
187 177 114
187 177 114
187 177 114
188 177 114
187 177 114
188 177 114
188 177 114
188 177 114
188 177 114
188 178 114
188 177 114
188 177 114
188 177 114
188 178 114
188 178 114
188 178 114
188 178 114
188 178 114
188 178 114
188 178 114
189 178 114
188 178 114
188 178 114
188 178 114
189 178 114
189 178 114
189 178 114
189 178 114
189 178 114
189 178 114
189 178 114
189 178 114
189 178 114
189 178 114
189 178 114
189 178 114
189 178 114
189 178 114
189 178 114
190 178 114
190 178 114
190 178 114
190 178 114
190 178 114
190 178 114
190 178 114
190 179 114
190 179 114
190 179 114
190 179 114
190 179 114
190 179 114
190 179 114
190 179 114
190 179 114
190 179 114
191 179 114
191 179 114
191 179 114
191 179 114
191 179 114
191 179 114
191 179 114
191 179 114
191 179 114
191 179 114
191 179 114
191 179 114
191 179 114
191 179 114
191 179 114
191 179 114
191 179 114
192 179 114
191 179 114
191 179 114
192 179 114
192 179 114
192 179 114
192 179 114
192 179 114
192 179 114
192 208 228
192 208 228
192 208 228
192 208 228
192 208 228
192 207 228
192 207 228
192 207 228
192 207 228
192 207 228
192 207 228
192 207 228
192 207 228
192 207 228
192 207 228
192 207 228
192 207 228
192 207 228
192 207 228
191 207 228
191 207 228
191 207 228
191 207 228
191 207 228
191 207 228
191 207 228
191 207 228
191 207 228
191 207 228
191 207 228
191 207 228
191 207 228
191 207 228
191 207 228
191 207 228
191 207 228
191 207 228
191 207 228
191 207 228
190 206 228
190 206 228
190 206 228
190 206 228
190 206 228
190 206 228
190 206 228
190 206 228
190 206 228
190 206 228
190 206 228
190 206 228
190 206 228
190 206 228
190 206 228
190 206 228
190 206 228
189 206 228
190 206 228
189 206 228
189 206 228
189 206 228
189 206 228
189 206 228
189 206 228
189 206 228
189 206 228
189 206 228
189 206 228
189 206 228
189 206 228
189 205 228
189 206 228
189 206 228
189 205 228
189 205 228
189 205 228
189 205 228
188 205 228
188 205 228
188 205 228
188 205 228
188 205 228
188 205 228
188 205 228
188 205 228
188 205 228
188 205 228
188 205 228
188 205 228
188 205 228
188 205 228
188 205 228
188 205 228
188 205 228
188 205 228
188 205 228
187 205 228
188 205 228
188 205 228
188 205 228
187 205 228
187 205 228
187 205 228
187 205 228
187 205 228
187 205 228
187 205 228
187 205 228
187 205 228
187 205 228
187 205 228
187 205 228
187 205 228
187 205 228
187 205 228
187 205 228
187 205 228
138 157 184
55 87 135
54 87 144
54 86 125
50 82 112
53 85 131
57 89 153
56 88 151
54 85 153
51 83 123
52 83 112
49 78 126
47 75 130
50 80 127
50 79 107
45 72 110
48 77 140
47 77 125
48 77 127
43 71 136
49 79 121
50 79 138
48 78 138
45 73 133
46 76 141
48 77 136
43 69 130
37 61 122
136 150 176
192 207 228
194 208 228
216 231 253
160 178 211
53 85 132
54 86 122
56 88 133
60 95 149
60 95 147
56 89 130
58 92 153
57 90 144
55 88 147
60 95 159
61 94 127
59 94 137
60 94 159
57 91 147
60 95 140
61 95 149
61 95 147
58 93 137
59 93 135
57 90 125
59 94 159
60 94 125
57 91 114
55 87 137
60 95 127
61 96 140
61 96 137
61 96 127
64 100 171
55 87 127
62 98 151
59 94 125
64 100 161
62 97 140
59 93 127
61 97 151
59 95 140
63 99 161
59 94 127
63 98 151
60 95 127
62 98 161
60 95 127
60 96 151
62 97 151
61 96 161
62 96 151
60 94 140
61 95 140
62 97 140
61 96 151
60 95 127
60 95 151
61 97 151
60 96 140
62 98 161
59 94 161
59 95 140
64 101 171
62 98 161
63 98 151
61 96 142
58 90 140
63 97 140
60 96 151
60 95 140
60 93 140
61 96 140
63 99 173
61 96 140
56 87 127
57 90 102
62 96 142
59 93 140
60 94 155
63 99 171
63 98 151
62 94 133
62 96 142
60 94 140
61 94 144
62 96 151
62 98 161
61 90 122
57 90 130
60 95 142
59 93 140
61 94 130
58 87 120
60 95 151
61 94 144
55 83 92
56 89 140
58 90 117
59 90 130
51 82 128
56 89 161
59 91 130
56 86 129
55 85 131
126 141 155
218 234 255
193 180 114
192 180 114
125 120 78
42 54 43
33 42 33
30 40 29
47 61 55
37 50 48
45 57 50
45 60 53
47 63 54
44 57 49
44 59 55
47 61 56
46 60 55
50 66 60
46 59 49
47 62 45
52 70 58
50 65 55
55 71 65
50 66 61
53 73 62
51 69 64
52 69 60
52 70 69
56 76 73
53 72 63
54 74 72
53 74 73
126 126 89
187 177 114
187 177 114
187 177 114
187 177 114
187 177 114
187 177 114
187 177 114
187 177 114
187 177 114
187 177 114
187 177 114
187 177 114
187 177 114
188 177 114
188 177 114
187 177 114
188 177 114
188 177 114
188 177 114
188 177 114
188 177 114
188 177 114
188 177 114
188 178 114
188 178 114
188 177 114
188 178 114
188 178 114
188 178 114
188 178 114
188 178 114
188 178 114
188 178 114
188 178 114
188 178 114
188 178 114
188 178 114
188 178 114
188 178 114
189 178 114
189 178 114
189 178 114
189 178 114
189 178 114
189 178 114
189 178 114
189 178 114
189 178 114
189 178 114
189 178 114
189 178 114
189 178 114
189 178 114
189 178 114
189 178 114
189 178 114
189 178 114
190 178 114
189 178 114
190 178 114
189 178 114
190 178 114
190 178 114
190 178 114
190 178 114
190 178 114
190 178 114
190 178 114
190 179 114
190 179 114
190 179 114
190 179 114
190 179 114
190 179 114
190 179 114
190 179 114
190 179 114
191 179 114
190 179 114
190 179 114
191 179 114
191 179 114
191 179 114
191 179 114
191 179 114
191 179 114
191 179 114
191 179 114
191 179 114
191 179 114
191 179 114
191 179 114
191 179 114
191 179 114
191 179 114
191 179 114
191 179 114
191 179 114
192 179 114
191 179 114
192 179 114
192 179 114
192 179 114
192 179 114
192 179 114
192 179 114
192 179 114
192 180 114
192 180 114
192 180 114
192 180 114
192 180 114
192 180 114
192 180 114
192 180 114
192 180 114
192 180 114
193 208 228
193 208 228
193 208 228
193 208 228
193 208 228
193 208 228
193 208 228
193 208 228
193 208 228
193 208 228
193 208 228
192 208 228
192 208 228
192 208 228
192 208 228
192 208 228
192 208 228
192 207 228
192 207 228
192 207 228
192 207 228
192 207 228
192 207 228
192 207 228
192 207 228
192 207 228
192 207 228
192 207 228
192 207 228
192 207 228
192 207 228
192 207 228
191 207 228
191 207 228
192 207 228
191 207 228
191 207 228
191 207 228
191 207 228
191 207 228
191 207 228
191 207 228
191 207 228
191 207 228
191 207 228
191 207 228
191 207 228
191 207 228
191 207 228
191 207 228
191 207 228
191 207 228
191 207 228
190 206 228
190 207 228
190 206 228
190 206 228
190 206 228
190 206 228
190 206 228
190 206 228
190 206 228
190 206 228
190 206 228
190 206 228
190 206 228
190 206 228
190 206 228
190 206 228
190 206 228
190 206 228
190 206 228
190 206 228
189 206 228
189 206 228
189 206 228
189 206 228
189 206 228
189 206 228
189 206 228
189 206 228
189 206 228
189 206 228
189 206 228
189 206 228
189 206 228
189 206 228
189 206 228
189 206 228
189 206 228
189 206 228
189 205 228
189 206 228
189 205 228
189 206 228
189 205 228
189 206 228
189 206 228
189 205 228
189 205 228
188 205 228
188 205 228
188 205 228
188 205 228
189 205 228
188 205 228
188 205 228
188 205 228
188 205 228
188 205 228
188 205 228
188 205 228
188 205 228
188 205 228
188 205 228
188 205 228
188 205 228
113 134 169
56 88 144
55 87 151
54 86 155
58 90 161
54 86 142
51 82 114
54 85 150
51 82 129
53 84 123
54 85 141
52 81 123
50 80 125
52 82 129
53 84 125
47 75 128
46 75 123
49 79 116
49 79 139
34 58 102
37 61 118
42 68 126
48 79 144
40 66 120
34 55 102
40 65 125
47 77 145
38 62 118
71 89 137
192 208 228
193 208 228
212 227 248
51 82 143
57 91 125
50 80 116
59 94 137
61 97 161
59 94 149
59 94 127
58 92 137
63 97 165
58 92 111
62 97 151
62 97 167
62 98 169
61 96 140
58 92 140
60 96 151
63 99 161
55 90 137
63 99 161
63 98 140
62 96 149
63 99 161
57 92 149
64 97 151
62 97 140
61 96 151
61 96 147
62 99 171
58 93 137
61 98 171
61 96 140
56 88 127
62 97 149
61 97 151
59 94 114
58 93 114
57 91 114
65 100 159
61 96 140
62 98 161
58 91 114
60 95 140
58 92 140
64 99 151
58 93 127
60 95 140
63 98 149
59 93 151
61 96 151
61 96 140
58 94 127
61 96 140
58 90 142
56 91 99
66 103 181
57 89 130
57 92 99
60 95 127
63 98 151
64 100 171
59 94 114
57 92 114
60 94 114
63 99 161
62 97 140
57 90 99
60 93 127
53 85 80
57 92 99
61 94 130
53 87 80
55 87 114
60 93 133
58 94 140
58 91 114
63 99 151
55 87 127
58 91 114
64 97 163
60 95 140
58 92 140
57 90 127
59 94 127
60 93 117
59 95 151
58 90 99
58 88 117
64 99 171
56 87 120
58 91 117
55 87 118
61 93 140
54 86 130
57 89 102
57 86 105
58 92 141
57 90 114
59 91 142
58 91 142
56 85 135
61 91 135
82 100 122
214 224 234
193 180 114
192 180 114
124 119 77
44 57 50
37 48 41
19 29 29
36 50 46
43 58 54
45 61 61
47 62 60
44 56 36
46 61 54
46 57 42
50 64 59
51 66 61
43 60 46
49 67 60
52 67 54
42 57 48
53 70 59
54 74 72
51 67 54
53 70 60
52 67 59
50 70 62
54 72 63
54 74 73
52 71 62
56 76 72
57 77 76
138 136 92
188 178 114
188 178 114
188 178 114
188 178 114
188 178 114
188 178 114
188 178 114
188 178 114
188 178 114
188 178 114
188 178 114
188 178 114
188 178 114
189 178 114
188 178 114
188 178 114
188 178 114
189 178 114
189 178 114
189 178 114
189 178 114
189 178 114
189 178 114
189 178 114
189 178 114
189 178 114
189 178 114
189 178 114
189 178 114
189 178 114
189 178 114
189 178 114
189 178 114
189 178 114
189 178 114
189 178 114
189 178 114
189 178 114
190 178 114
189 178 114
189 178 114
190 178 114
190 178 114
189 178 114
190 178 114
190 178 114
190 178 114
190 178 114
190 178 114
190 178 114
190 179 114
190 178 114
190 178 114
190 179 114
190 179 114
190 179 114
190 179 114
190 179 114
190 179 114
190 179 114
190 179 114
190 179 114
190 179 114
190 179 114
191 179 114
191 179 114
190 179 114
191 179 114
191 179 114
191 179 114
191 179 114
191 179 114
191 179 114
191 179 114
191 179 114
191 179 114
191 179 114
191 179 114
191 179 114
191 179 114
191 179 114
191 179 114
191 179 114
191 179 114
192 179 114
192 179 114
192 179 114
192 179 114
192 179 114
192 179 114
192 179 114
192 179 114
192 179 114
192 179 114
192 179 114
192 180 114
192 180 114
192 180 114
192 180 114
192 180 114
192 180 114
192 180 114
192 180 114
192 180 114
192 180 114
192 180 114
193 180 114
193 180 114
193 180 114
193 180 114
193 180 114
193 180 114
193 180 114
193 180 114
193 180 114
193 180 114
193 180 114
194 208 228
194 208 228
193 208 228
193 208 228
193 208 228
193 208 228
193 208 228
193 208 228
193 208 228
193 208 228
193 208 228
193 208 228
193 208 228
193 208 228
193 208 228
193 208 228
193 208 228
193 208 228
193 208 228
193 208 228
193 208 228
193 208 228
193 208 228
193 208 228
193 208 228
192 208 228
192 208 228
192 208 228
192 208 228
192 207 228
192 207 228
192 208 228
192 207 228
192 208 228
192 207 228
192 207 228
192 207 228
192 207 228
192 207 228
192 207 228
192 207 228
192 207 228
192 207 228
192 207 228
192 207 228
192 207 228
192 207 228
191 207 228
192 207 228
191 207 228
191 207 228
191 207 228
191 207 228
191 207 228
191 207 228
191 207 228
191 207 228
191 207 228
191 207 228
191 207 228
191 207 228
191 207 228
191 207 228
191 207 228
191 207 228
191 207 228
191 207 228
191 207 228
191 207 228
191 207 228
191 207 228
191 207 228
190 207 228
191 207 228
191 207 228
190 206 228
190 206 228
190 206 228
190 206 228
190 206 228
190 206 228
190 206 228
190 206 228
190 206 228
190 206 228
190 206 228
190 206 228
190 206 228
190 206 228
190 206 228
190 206 228
190 206 228
190 206 228
190 206 228
190 206 228
190 206 228
189 206 228
190 206 228
189 206 228
190 206 228
190 206 228
190 206 228
189 206 228
189 206 228
189 206 228
189 206 228
189 206 228
189 206 228
190 206 228
189 206 228
189 206 228
189 206 228
189 206 228
189 206 228
189 206 228
189 206 228
189 206 228
54 86 125
53 85 114
55 86 114
53 85 123
51 83 114
53 85 133
51 81 123
51 82 129
55 87 151
50 80 131
52 83 123
54 84 139
51 81 133
52 85 150
47 76 112
50 78 134
39 63 84
50 81 137
52 83 137
50 81 144
40 65 93
43 67 118
41 66 110
40 64 120
42 68 128
45 72 119
36 60 121
37 62 124
38 62 122
174 188 213
194 208 228
207 222 242
49 78 126
50 80 110
58 92 144
55 87 111
62 97 157
53 85 114
61 95 137
56 87 122
61 95 144
59 93 159
57 92 125
59 92 141
60 94 140
61 97 159
64 100 161
62 97 171
60 94 111
60 96 151
63 98 159
60 95 140
59 94 114
62 97 151
57 92 149
62 97 140
60 96 159
59 93 111
59 93 140
61 96 161
62 98 161
63 99 161
54 87 114
63 98 161
55 88 99
56 90 114
56 89 114
59 94 127
62 98 161
64 100 161
58 93 125
61 97 151
61 96 140
57 92 99
58 93 140
59 94 127
62 97 151
61 96 140
59 94 127
64 99 161
60 95 140
60 96 151
59 93 127
60 96 140
63 98 140
63 99 161
63 98 171
63 96 140
63 98 151
60 92 127
58 92 140
59 93 114
59 94 151
58 91 151
60 94 140
61 96 140
60 96 151
59 93 151
59 92 127
56 88 114
62 97 140
61 95 151
63 99 161
57 88 80
63 98 153
60 96 140
60 94 140
61 97 151
60 94 140
61 97 151
61 95 153
60 94 130
57 90 130
63 98 151
57 90 99
62 94 144
62 97 163
58 92 114
60 91 130
58 91 127
60 95 127
59 94 151
58 90 105
59 92 130
57 87 105
58 89 144
56 87 105
58 89 133
55 85 120
53 78 95
58 89 144
54 85 102
55 81 92
50 79 131
205 204 184
194 180 114
173 163 105
42 52 37
40 53 51
40 53 42
43 59 59
30 40 33
49 63 56
23 30 19
46 56 38
33 43 33
48 63 56
44 56 43
50 68 57
39 51 31
45 59 47
45 61 47
50 68 58
41 53 35
50 66 58
51 68 58
51 69 64
51 71 58
54 71 65
54 69 60
56 74 73
49 64 47
54 72 52
56 76 72
56 75 68
53 72 52
189 178 114
189 178 114
189 178 114
189 178 114
189 178 114
189 178 114
189 178 114
189 178 114
189 178 114
190 178 114
189 178 114
189 178 114
190 178 114
190 178 114
189 178 114
190 178 114
190 178 114
190 178 114
189 178 114
190 178 114
190 178 114
190 178 114
190 178 114
190 178 114
190 178 114
190 179 114
190 179 114
190 179 114
190 179 114
190 179 114
190 179 114
190 179 114
190 179 114
190 179 114
190 179 114
190 179 114
190 179 114
190 179 114
190 179 114
190 179 114
190 179 114
190 179 114
190 179 114
191 179 114
190 179 114
191 179 114
191 179 114
191 179 114
191 179 114
191 179 114
191 179 114
191 179 114
191 179 114
191 179 114
191 179 114
191 179 114
191 179 114
191 179 114
191 179 114
191 179 114
191 179 114
191 179 114
191 179 114
191 179 114
191 179 114
191 179 114
191 179 114
192 179 114
192 179 114
192 179 114
192 179 114
192 179 114
192 179 114
192 179 114
192 179 114
192 179 114
192 179 114
192 179 114
192 179 114
192 180 114
192 180 114
192 180 114
192 180 114
192 180 114
192 180 114
192 180 114
192 180 114
192 180 114
192 180 114
192 180 114
192 180 114
192 180 114
193 180 114
192 180 114
193 180 114
193 180 114
193 180 114
193 180 114
193 180 114
193 180 114
193 180 114
193 180 114
193 180 114
193 180 114
193 180 114
193 180 114
193 180 114
193 180 114
193 180 114
193 180 114
193 180 114
193 180 114
193 180 114
193 180 114
193 180 114
193 180 114
194 180 114
194 209 228
194 208 228
194 208 228
194 208 228
194 208 228
194 208 228
194 208 228
194 208 228
194 208 228
194 208 228
194 208 228
194 208 228
194 208 228
194 208 228
194 208 228
194 208 228
194 208 228
193 208 228
193 208 228
193 208 228
193 208 228
193 208 228
193 208 228
193 208 228
193 208 228
193 208 228
193 208 228
193 208 228
193 208 228
193 208 228
193 208 228
193 208 228
193 208 228
193 208 228
193 208 228
193 208 228
193 208 228
193 208 228
193 208 228
193 208 228
192 208 228
193 208 228
192 208 228
192 208 228
192 208 228
192 208 228
192 208 228
192 208 228
192 207 228
192 208 228
192 208 228
192 208 228
192 207 228
192 207 228
192 207 228
192 207 228
192 207 228
192 207 228
192 207 228
192 207 228
192 207 228
192 207 228
192 207 228
192 207 228
192 207 228
192 207 228
192 207 228
192 207 228
192 207 228
192 207 228
191 207 228
191 207 228
191 207 228
191 207 228
191 207 228
191 207 228
191 207 228
191 207 228
191 207 228
191 207 228
191 207 228
191 207 228
191 207 228
191 207 228
191 207 228
191 207 228
191 207 228
191 207 228
191 207 228
191 207 228
191 207 228
191 207 228
191 207 228
191 207 228
191 207 228
191 207 228
191 207 228
191 207 228
191 207 228
191 207 228
191 207 228
191 207 228
191 207 228
191 207 228
190 206 228
190 206 228
190 206 228
190 206 228
190 206 228
190 206 228
190 206 228
190 206 228
190 206 228
190 207 228
191 207 228
190 206 228
152 169 198
54 85 133
57 89 153
55 86 142
54 86 125
53 84 133
54 86 135
45 73 99
54 86 158
52 82 131
55 85 131
51 80 132
50 80 129
47 76 131
51 81 137
47 75 139
52 82 131
54 85 146
45 72 114
41 66 104
48 78 132
43 69 126
35 56 101
44 71 121
47 74 139
26 46 84
39 64 119
38 62 106
43 69 118
42 70 134
126 141 170
194 208 228
187 203 224
48 77 122
55 88 127
53 86 125
56 90 155
60 95 159
50 79 99
50 81 80
62 95 153
56 88 137
63 97 149
59 94 149
60 95 149
60 95 165
61 96 140
61 96 140
62 97 127
60 95 137
62 97 149
60 95 137
61 96 140
64 99 151
62 96 140
59 93 114
60 94 157
60 95 159
55 89 114
60 93 99
60 95 149
58 92 151
62 97 149
63 98 140
59 95 157
57 90 127
63 99 161
59 93 151
64 99 161
62 98 161
62 98 151
60 94 114
62 97 151
59 93 137
65 101 161
57 91 114
62 97 140
59 92 114
60 95 127
65 101 181
61 98 161
65 101 161
63 99 171
65 100 161
58 92 127
62 98 161
60 95 140
62 97 140
60 96 140
60 96 161
63 99 161
64 99 151
57 89 127
56 89 114
60 93 140
59 94 127
63 99 161
56 90 114
63 97 151
63 98 151
65 101 171
60 94 127
59 94 127
62 96 151
62 96 151
58 91 140
60 93 140
62 95 127
62 98 161
62 97 140
57 90 114
64 98 163
60 93 142
60 95 127
60 94 151
63 96 151
58 91 117
57 91 114
55 86 117
57 89 142
58 89 142
57 91 102
61 95 155
54 84 103
64 98 153
57 88 142
56 84 117
57 89 133
56 88 130
61 93 142
53 78 108
58 89 133
53 76 81
55 82 111
51 76 96
194 192 165
194 180 114
109 105 68
37 49 42
32 44 38
30 39 31
40 52 43
47 62 54
44 57 49
39 52 49
47 63 59
47 61 49
47 62 47
46 59 39
51 67 48
39 48 36
44 57 42
49 67 63
51 71 64
46 58 49
53 70 64
51 65 41
52 68 63
54 75 72
49 66 58
54 72 65
55 73 69
56 75 72
51 69 63
52 72 58
55 75 62
55 75 67
140 138 99
190 179 114
190 179 114
191 179 114
190 179 114
190 179 114
190 179 114
190 179 114
190 179 114
191 179 114
191 179 114
191 179 114
191 179 114
191 179 114
190 179 114
191 179 114
191 179 114
191 179 114
191 179 114
191 179 114
191 179 114
191 179 114
191 179 114
191 179 114
191 179 114
191 179 114
191 179 114
191 179 114
191 179 114
191 179 114
191 179 114
191 179 114
191 179 114
191 179 114
191 179 114
191 179 114
191 179 114
191 179 114
191 179 114
191 179 114
191 179 114
191 179 114
191 179 114
191 179 114
191 179 114
191 179 114
192 179 114
192 179 114
191 179 114
192 179 114
192 179 114
192 179 114
192 179 114
192 179 114
192 179 114
192 179 114
192 179 114
192 179 114
192 179 114
192 179 114
192 180 114
192 180 114
192 180 114
192 180 114
192 180 114
192 180 114
192 180 114
192 180 114
192 180 114
192 180 114
192 180 114
192 180 114
192 180 114
192 180 114
192 180 114
192 180 114
193 180 114
193 180 114
193 180 114
193 180 114
193 180 114
193 180 114
193 180 114
193 180 114
193 180 114
193 180 114
193 180 114
193 180 114
193 180 114
193 180 114
193 180 114
193 180 114
193 180 114
193 180 114
193 180 114
193 180 114
193 180 114
193 180 114
193 180 114
193 180 114
194 180 114
194 180 114
194 180 114
194 180 114
194 180 114
194 180 114
194 180 114
194 180 114
194 180 114
194 180 114
194 180 114
194 180 114
194 180 114
194 180 114
194 180 114
194 180 114
194 181 114
195 209 228
195 209 228
194 209 228
195 209 228
195 209 228
194 209 228
194 209 228
194 209 228
194 209 228
194 209 228
194 209 228
194 209 228
194 209 228
194 209 228
194 209 228
194 208 228
194 209 228
194 209 228
194 208 228
194 208 228
194 208 228
194 208 228
194 208 228
194 208 228
194 208 228
194 208 228
194 208 228
194 208 228
194 208 228
194 208 228
194 208 228
194 208 228
194 208 228
194 208 228
194 208 228
194 208 228
193 208 228
194 208 228
193 208 228
193 208 228
193 208 228
193 208 228
193 208 228
193 208 228
193 208 228
193 208 228
193 208 228
193 208 228
193 208 228
193 208 228
193 208 228
193 208 228
193 208 228
193 208 228
193 208 228
193 208 228
193 208 228
193 208 228
193 208 228
193 208 228
193 208 228
193 208 228
193 208 228
193 208 228
193 208 228
193 208 228
193 208 228
193 208 228
193 208 228
192 208 228
192 208 228
192 208 228
192 208 228
192 208 228
192 208 228
192 207 228
192 207 228
192 208 228
192 208 228
192 208 228
192 207 228
192 207 228
192 207 228
192 207 228
192 207 228
192 207 228
192 207 228
192 207 228
192 207 228
192 207 228
192 207 228
192 207 228
192 207 228
192 207 228
192 207 228
192 207 228
192 207 228
192 207 228
192 207 228
192 207 228
192 207 228
191 207 228
192 207 228
192 207 228
192 207 228
192 207 228
192 207 228
191 207 228
191 207 228
192 207 228
191 207 228
192 207 228
191 207 228
191 207 228
192 207 228
187 198 209
118 128 146
56 87 153
57 88 135
53 84 131
51 81 118
54 85 148
57 89 151
54 85 133
52 82 137
53 84 131
53 84 142
48 75 99
48 76 123
49 78 122
51 81 121
45 73 115
46 73 94
50 81 112
50 80 148
48 78 124
48 77 129
36 57 102
40 65 113
45 72 134
38 62 110
34 57 94
32 55 104
29 49 101
43 69 130
31 55 99
40 65 112
195 209 228
143 160 169
40 67 123
52 83 127
56 89 122
56 90 157
56 87 133
59 93 111
53 86 105
62 98 161
55 88 95
62 96 149
58 93 135
61 96 149
60 96 171
59 93 127
62 97 151
59 93 127
59 93 144
62 98 151
60 94 151
58 90 135
60 94 114
62 98 151
59 94 114
62 98 151
60 95 135
62 98 161
63 99 161
56 89 114
60 93 149
62 98 151
58 91 137
60 95 127
63 99 169
59 94 140
60 95 127
56 91 140
57 90 114
60 95 140
60 95 140
63 98 161
60 96 151
63 98 151
59 95 140
58 91 125
62 97 140
64 99 151
61 96 140
61 97 151
61 97 140
63 98 151
61 96 140
63 99 161
62 98 161
61 96 161
58 92 140
59 94 127
60 96 151
60 94 151
61 94 140
59 95 140
58 94 127
62 97 161
62 97 151
59 93 130
61 96 140
59 93 99
56 90 99
64 99 151
62 97 151
62 97 140
60 97 161
64 99 151
57 92 114
56 88 117
59 92 114
56 90 99
58 90 84
57 90 140
61 95 140
54 84 127
56 89 99
59 93 140
60 92 130
60 94 130
59 93 130
61 96 151
60 95 151
63 97 153
67 103 181
62 97 161
57 86 117
62 96 163
59 90 130
57 85 105
59 89 125
58 90 117
59 88 124
56 86 122
58 91 144
51 80 80
55 82 92
45 68 74
180 174 140
194 181 114
94 94 64
43 56 50
22 28 18
32 40 30
34 42 20
41 53 47
39 50 32
41 52 42
31 40 31
42 54 40
43 58 53
41 53 47
45 59 40
39 52 46
41 52 42
49 64 47
48 64 53
53 66 49
46 63 58
52 67 56
49 62 44
51 67 53
54 70 60
49 67 51
50 68 44
52 71 62
55 73 59
56 75 67
53 72 62
54 72 59
112 115 78
189 177 113
192 179 114
191 179 114
191 179 114
192 179 114
192 179 114
191 179 114
191 179 114
191 179 114
191 179 114
192 179 114
191 179 114
192 179 114
192 179 114
192 179 114
192 179 114
192 179 114
192 179 114
192 179 114
192 179 114
192 179 114
192 179 114
192 179 114
192 179 114
192 179 114
192 179 114
192 179 114
192 179 114
192 179 114
192 180 114
192 179 114
192 179 114
192 180 114
192 180 114
192 180 114
192 180 114
192 180 114
192 180 114
192 180 114
192 180 114
192 180 114
192 180 114
192 180 114
192 180 114
192 180 114
192 180 114
192 180 114
192 180 114
193 180 114
192 180 114
193 180 114
193 180 114
193 180 114
193 180 114
193 180 114
193 180 114
193 180 114
193 180 114
193 180 114
193 180 114
193 180 114
193 180 114
193 180 114
193 180 114
193 180 114
193 180 114
193 180 114
193 180 114
193 180 114
193 180 114
193 180 114
193 180 114
193 180 114
193 180 114
193 180 114
193 180 114
193 180 114
193 180 114
193 180 114
193 180 114
193 180 114
194 180 114
194 180 114
194 180 114
194 180 114
194 180 114
194 180 114
194 180 114
194 180 114
194 180 114
194 180 114
194 180 114
194 180 114
194 180 114
194 180 114
194 180 114
194 181 114
194 181 114
194 181 114
194 180 114
194 181 114
194 181 114
194 181 114
194 181 114
194 181 114
194 181 114
194 181 114
194 181 114
194 181 114
194 181 114
194 181 114
194 181 114
195 181 114
195 181 114
195 181 114
195 181 114
195 209 228
195 209 228
195 209 228
195 209 228
195 209 228
195 209 228
195 209 228
195 209 228
195 209 228
195 209 228
195 209 228
195 209 228
195 209 228
195 209 228
195 209 228
195 209 228
195 209 228
195 209 228
195 209 228
195 209 228
195 209 228
195 209 228
195 209 228
194 209 228
195 209 228
194 209 228
194 209 228
194 209 228
194 209 228
194 209 228
194 209 228
194 209 228
194 209 228
194 209 228
194 209 228
194 209 228
194 209 228
194 209 228
194 209 228
194 209 228
194 209 228
194 208 228
194 209 228
194 209 228
194 208 228
194 208 228
194 208 228
194 208 228
194 208 228
194 208 228
194 208 228
194 208 228
194 208 228
194 208 228
194 208 228
194 208 228
194 208 228
194 208 228
194 208 228
194 208 228
194 208 228
193 208 228
194 208 228
193 208 228
193 208 228
193 208 228
193 208 228
193 208 228
193 208 228
193 208 228
193 208 228
193 208 228
193 208 228
193 208 228
193 208 228
193 208 228
193 208 228
193 208 228
193 208 228
193 208 228
193 208 228
193 208 228
193 208 228
193 208 228
193 208 228
193 208 228
193 208 228
193 208 228
193 208 228
193 208 228
193 208 228
193 208 228
193 208 228
193 208 228
193 208 228
193 208 228
193 208 228
193 208 228
193 208 228
193 208 228
193 208 228
192 208 228
193 208 228
193 208 228
192 208 228
192 208 228
193 208 228
192 208 228
193 208 228
192 208 228
193 208 228
193 208 228
192 208 228
192 208 228
190 203 219
170 168 137
99 111 116
54 86 135
56 87 135
56 87 150
55 86 142
50 81 127
50 81 88
51 80 99
46 73 108
53 83 121
53 85 131
48 77 99
55 86 141
49 78 104
47 77 110
47 75 123
49 78 107
50 80 114
48 77 130
53 83 142
45 73 126
45 72 117
46 73 128
44 70 121
42 70 120
37 61 110
33 54 102
38 61 115
38 60 105
37 61 119
28 49 89
165 180 202
177 192 212
52 83 144
53 85 76
54 86 136
60 94 137
58 91 147
59 94 127
59 92 153
61 94 125
59 93 114
55 86 122
56 89 159
61 97 149
63 98 165
54 84 105
59 92 137
59 94 149
62 96 140
63 99 161
59 94 127
56 90 125
54 86 127
64 100 169
61 97 151
61 96 140
60 96 151
56 90 99
58 93 125
65 100 161
60 95 140
62 98 161
65 101 171
64 100 181
61 96 161
58 93 137
59 92 127
59 94 140
61 95 140
61 97 140
61 96 140
60 96 140
62 97 151
58 92 140
60 93 151
62 96 161
58 91 99
62 97 151
61 96 140
63 99 161
59 93 140
62 97 140
57 89 114
57 91 127
64 100 171
58 92 140
59 94 114
58 92 114
60 95 140
57 92 114
62 98 161
61 96 127
64 100 171
63 98 161
64 100 171
60 93 127
61 97 161
62 98 161
62 97 151
55 88 114
59 92 127
59 94 127
58 91 120
61 95 151
63 99 161
62 98 151
53 84 99
61 95 140
59 92 114
57 89 127
54 86 114
55 87 80
58 93 140
59 95 140
56 88 105
56 88 127
55 87 102
63 97 153
61 95 142
65 100 151
60 92 142
56 86 120
59 93 127
60 91 133
59 91 140
56 88 127
54 82 88
59 92 140
59 93 127
52 83 57
55 80 115
55 79 99
54 82 108
53 81 117
143 138 89
186 173 111
37 50 46
28 37 31
32 42 38
33 45 41
39 51 44
31 39 17
42 56 49
28 37 18
51 66 60
50 65 57
47 59 37
53 69 59
34 45 39
54 68 61
45 61 53
50 64 48
43 58 53
51 65 48
48 64 50
52 68 59
53 71 63
50 68 52
50 67 62
49 64 41
52 70 63
55 75 73
50 68 57
52 70 58
52 71 62
55 73 68
69 82 54
165 157 102
190 178 113
193 180 114
192 180 114
193 180 114
193 180 114
193 180 114
193 180 114
192 180 114
193 180 114
193 180 114
193 180 114
192 180 114
193 180 114
193 180 114
193 180 114
193 180 114
193 180 114
193 180 114
193 180 114
193 180 114
193 180 114
193 180 114
193 180 114
193 180 114
193 180 114
193 180 114
193 180 114
193 180 114
193 180 114
193 180 114
193 180 114
193 180 114
193 180 114
193 180 114
193 180 114
193 180 114
193 180 114
193 180 114
193 180 114
193 180 114
193 180 114
193 180 114
193 180 114
193 180 114
193 180 114
193 180 114
193 180 114
193 180 114
193 180 114
193 180 114
193 180 114
194 180 114
193 180 114
194 180 114
194 180 114
194 180 114
194 180 114
194 180 114
194 180 114
194 180 114
194 180 114
194 180 114
194 180 114
194 180 114
194 180 114
194 180 114
194 180 114
194 180 114
194 180 114
194 180 114
194 180 114
194 181 114
194 181 114
194 180 114
194 181 114
194 181 114
194 181 114
194 181 114
194 181 114
194 181 114
194 181 114
194 181 114
194 181 114
194 181 114
194 181 114
194 181 114
194 181 114
194 181 114
194 181 114
195 181 114
194 181 114
195 181 114
195 181 114
195 181 114
195 181 114
195 181 114
195 181 114
195 181 114
195 181 114
195 181 114
195 181 114
195 181 114
195 181 114
195 181 114
195 181 114
195 181 114
195 181 114
195 181 114
195 181 114
195 181 114
195 181 114
195 181 114
195 181 114
195 181 114
195 181 114
196 209 228
196 209 228
196 209 228
196 209 228
195 209 228
196 209 228
196 209 228
196 209 228
195 209 228
195 209 228
195 209 228
195 209 228
195 209 228
195 209 228
195 209 228
195 209 228
195 209 228
195 209 228
195 209 228
195 209 228
195 209 228
195 209 228
195 209 228
195 209 228
195 209 228
195 209 228
195 209 228
195 209 228
195 209 228
195 209 228
195 209 228
195 209 228
195 209 228
195 209 228
195 209 228
195 209 228
195 209 228
195 209 228
195 209 228
195 209 228
195 209 228
195 209 228
195 209 228
195 209 228
195 209 228
195 209 228
195 209 228
195 209 228
195 209 228
195 209 228
195 209 228
195 209 228
195 209 228
195 209 228
194 209 228
195 209 228
195 209 228
194 209 228
194 209 228
194 209 228
194 209 228
194 209 228
194 209 228
194 209 228
194 209 228
194 209 228
194 209 228
194 209 228
194 209 228
194 209 228
194 209 228
194 209 228
194 209 228
194 208 228
194 209 228
194 209 228
194 209 228
194 209 228
194 209 228
194 208 228
194 208 228
194 208 228
194 208 228
194 208 228
194 208 228
194 208 228
194 208 228
194 208 228
194 208 228
194 208 228
194 208 228
194 208 228
194 208 228
194 208 228
194 208 228
194 208 228
194 208 228
194 208 228
194 208 228
194 208 228
194 208 228
194 208 228
194 208 228
194 208 228
194 208 228
194 208 228
194 208 228
194 208 228
194 208 228
194 208 228
194 208 228
194 208 228
194 208 228
194 208 228
186 195 199
164 157 102
54 86 135
57 89 144
55 86 142
56 88 151
48 75 123
51 81 107
51 81 123
53 83 114
51 81 123
52 83 127
54 85 125
51 80 97
48 76 114
49 79 112
43 71 136
43 70 104
49 79 123
49 79 133
42 69 120
36 59 96
42 69 102
36 60 83
42 68 107
35 58 109
44 71 113
32 52 85
31 52 80
40 64 109
36 59 102
27 46 68
35 57 115
140 154 178
141 154 178
47 77 86
54 86 154
55 87 116
58 92 114
52 83 111
61 96 140
55 87 125
59 94 161
63 99 161
56 89 135
59 93 135
57 90 114
54 86 114
59 93 114
58 92 151
56 89 104
61 95 151
59 93 127
66 102 181
60 94 151
57 91 125
59 92 140
60 95 151
60 95 140
58 93 127
58 92 127
59 93 114
57 90 127
62 97 151
60 93 140
60 95 140
64 99 151
59 94 151
61 96 137
55 88 114
61 97 151
59 92 137
59 94 125
60 96 140
63 99 151
58 91 151
57 91 99
59 93 140
59 94 127
57 89 114
61 97 151
62 98 151
60 94 127
61 97 151
61 95 140
58 91 114
55 89 114
62 97 151
62 97 140
55 89 114
55 88 127
61 96 140
59 94 127
61 96 161
57 92 114
59 93 140
56 87 140
57 88 127
60 94 140
59 93 127
59 93 127
61 97 151
51 82 57
59 91 140
59 93 114
60 93 117
60 95 142
61 95 127
64 100 161
58 91 99
60 96 140
61 95 142
61 93 142
61 95 142
59 94 127
61 95 151
57 90 130
61 95 163
60 94 140
52 81 102
58 92 140
58 90 114
56 90 114
63 97 161
55 87 99
56 84 105
60 94 140
59 91 117
63 97 163
59 91 130
53 83 102
60 90 108
60 93 144
54 84 85
60 91 147
56 85 111
58 88 142
127 122 79
176 163 103
23 32 28
37 46 34
29 40 38
33 41 30
25 34 27
37 49 39
39 48 21
31 40 20
36 47 33
42 56 48
45 58 42
51 67 48
50 65 48
49 63 47
44 59 48
47 62 31
51 67 41
52 69 63
51 67 59
43 58 38
57 76 73
54 72 67
56 74 68
48 65 54
45 59 25
54 70 64
56 75 74
57 75 67
57 77 72
55 75 62
74 88 75
164 157 102
182 170 108
193 180 114
193 180 114
194 180 114
194 180 114
194 180 114
194 180 114
194 180 114
194 180 114
194 180 114
194 180 114
194 180 114
194 180 114
194 180 114
194 180 114
194 180 114
194 180 114
194 180 114
194 180 114
194 180 114
194 180 114
194 180 114
194 180 114
194 180 114
194 180 114
194 180 114
194 180 114
194 180 114
194 180 114
194 180 114
194 180 114
194 180 114
194 181 114
194 180 114
194 180 114
194 180 114
194 181 114
194 180 114
194 181 114
194 181 114
194 181 114
194 181 114
194 181 114
194 181 114
194 181 114
194 181 114
194 181 114
194 181 114
194 181 114
194 181 114
194 181 114
194 181 114
194 181 114
194 181 114
194 181 114
194 181 114
195 181 114
194 181 114
194 181 114
195 181 114
194 181 114
194 181 114
195 181 114
195 181 114
195 181 114
195 181 114
195 181 114
195 181 114
195 181 114
195 181 114
195 181 114
195 181 114
195 181 114
195 181 114
195 181 114
195 181 114
195 181 114
195 181 114
195 181 114
195 181 114
195 181 114
195 181 114
195 181 114
195 181 114
195 181 114
195 181 114
195 181 114
195 181 114
195 181 114
195 181 114
195 181 114
195 181 114
195 181 114
195 181 114
195 181 114
195 181 114
195 181 114
195 181 114
195 181 114
195 181 114
195 181 114
195 181 114
195 181 114
196 181 114
195 181 114
195 181 114
195 181 114
196 181 114
196 181 114
196 181 114
196 181 114
196 181 114
196 181 114
196 181 114
196 181 114
196 210 228
196 210 228
196 210 228
196 210 228
196 210 228
196 210 228
196 210 228
196 210 228
196 210 228
196 210 228
196 210 228
196 210 228
196 210 228
196 210 228
196 210 228
196 210 228
196 210 228
196 210 228
196 210 228
196 210 228
196 210 228
196 210 228
196 210 228
196 209 228
196 210 228
196 209 228
196 209 228
196 209 228
196 209 228
196 209 228
196 209 228
196 209 228
196 209 228
196 209 228
196 209 228
196 209 228
196 209 228
196 209 228
196 209 228
196 209 228
196 209 228
196 209 228
196 209 228
196 209 228
196 209 228
195 209 228
195 209 228
195 209 228
195 209 228
196 209 228
195 209 228
195 209 228
195 209 228
195 209 228
195 209 228
195 209 228
195 209 228
195 209 228
195 209 228
195 209 228
195 209 228
195 209 228
195 209 228
195 209 228
195 209 228
195 209 228
195 209 228
195 209 228
195 209 228
195 209 228
195 209 228
195 209 228
195 209 228
195 209 228
195 209 228
195 209 228
195 209 228
195 209 228
195 209 228
195 209 228
195 209 228
195 209 228
195 209 228
195 209 228
195 209 228
195 209 228
195 209 228
195 209 228
195 209 228
195 209 228
195 209 228
195 209 228
195 209 228
195 209 228
195 209 228
195 209 228
195 209 228
195 209 228
195 209 228
195 209 228
195 209 228
195 209 228
195 209 228
195 209 228
195 209 228
195 209 228
195 209 228
195 209 228
195 209 228
195 209 228
195 209 228
195 209 228
195 209 228
195 209 228
175 171 137
166 158 102
46 75 72
51 81 123
50 80 112
52 82 123
52 84 123
55 87 150
49 77 99
49 78 102
49 77 109
50 80 121
49 78 106
49 78 90
47 76 118
50 79 118
39 64 100
54 85 114
42 67 101
41 66 90
48 77 125
33 54 93
45 72 94
40 64 94
41 67 88
37 61 106
35 59 87
41 65 109
32 53 81
36 59 112
29 47 86
5 12 46
15 27 43
110 122 146
165 178 200
53 85 129
53 85 120
56 89 118
54 86 141
57 91 137
61 97 151
59 93 137
53 85 122
57 92 99
62 96 151
57 89 132
60 95 151
60 95 149
59 93 125
54 85 114
58 91 114
58 90 99
62 97 157
63 98 151
60 95 114
57 92 114
63 97 157
62 96 149
60 95 127
58 92 111
63 99 161
59 94 127
57 89 114
54 85 114
60 95 127
60 95 159
59 95 140
62 96 127
56 89 99
62 97 149
65 100 169
59 95 149
61 96 140
60 97 161
60 95 127
57 91 99
60 95 140
62 97 151
53 83 80
58 92 114
60 94 114
62 96 171
61 96 151
59 93 127
61 95 127
59 94 114
61 96 140
59 94 114
54 88 99
64 100 161
57 91 114
58 93 114
62 97 151
63 98 140
62 96 151
61 96 127
55 89 114
62 98 161
63 96 140
56 88 80
56 88 127
59 93 140
55 88 127
57 90 127
56 89 127
55 89 114
56 88 99
62 96 153
58 92 127
62 96 151
60 95 140
60 93 133
54 84 117
63 97 153
64 98 153
59 93 127
57 91 114
51 81 99
60 92 144
56 85 102
62 97 140
53 85 80
60 93 142
60 92 117
58 92 127
63 95 157
62 95 153
56 87 107
57 90 102
56 86 133
61 93 142
58 89 105
55 82 84
52 75 110
57 87 130
56 86 122
51 77 92
131 131 117
165 153 97
21 29 27
26 30 12
32 39 20
37 52 46
28 35 19
37 45 16
46 60 50
41 55 37
36 50 39
51 67 60
49 64 56
48 60 49
47 62 45
42 54 46
48 63 54
46 57 37
49 63 53
42 54 16
55 71 65
48 60 47
50 67 52
49 64 45
51 66 39
48 67 57
49 66 52
53 73 67
54 74 68
55 73 68
51 71 62
53 73 57
52 71 51
159 152 100
175 164 104
194 181 114
195 181 114
195 181 114
195 181 114
195 181 114
195 181 114
195 181 114
195 181 114
195 181 114
195 181 114
195 181 114
195 181 114
195 181 114
195 181 114
195 181 114
195 181 114
195 181 114
195 181 114
195 181 114
195 181 114
195 181 114
195 181 114
195 181 114
195 181 114
195 181 114
195 181 114
195 181 114
195 181 114
195 181 114
195 181 114
195 181 114
195 181 114
195 181 114
195 181 114
195 181 114
195 181 114
195 181 114
195 181 114
195 181 114
195 181 114
195 181 114
195 181 114
195 181 114
195 181 114
195 181 114
195 181 114
195 181 114
195 181 114
195 181 114
195 181 114
195 181 114
195 181 114
195 181 114
195 181 114
195 181 114
195 181 114
195 181 114
195 181 114
195 181 114
195 181 114
195 181 114
195 181 114
195 181 114
195 181 114
196 181 114
195 181 114
196 181 114
195 181 114
196 181 114
196 181 114
196 181 114
196 181 114
196 181 114
196 181 114
196 181 114
196 181 114
196 181 114
196 181 114
196 181 114
196 181 114
196 181 114
196 181 114
196 181 114
196 181 114
196 181 114
196 181 114
196 181 114
196 181 114
196 181 114
196 181 114
196 181 114
196 181 114
196 181 114
196 181 114
196 181 114
196 181 114
196 181 114
196 181 114
196 181 114
196 181 114
196 181 114
196 181 114
196 181 114
196 181 114
196 182 114
196 181 114
196 181 114
196 181 114
196 182 114
196 182 114
196 182 114
196 181 114
196 182 114
196 182 114
197 210 228
197 210 228
197 210 228
197 210 228
197 210 228
197 210 228
197 210 228
197 210 228
197 210 228
197 210 228
197 210 228
197 210 228
197 210 228
197 210 228
197 210 228
197 210 228
197 210 228
197 210 228
197 210 228
197 210 228
197 210 228
197 210 228
197 210 228
196 210 228
197 210 228
196 210 228
196 210 228
196 210 228
196 210 228
196 210 228
196 210 228
196 210 228
196 210 228
196 210 228
196 210 228
196 210 228
196 210 228
196 210 228
196 210 228
196 210 228
196 210 228
196 210 228
196 210 228
196 210 228
196 210 228
196 210 228
196 210 228
196 210 228
196 210 228
196 210 228
196 210 228
196 210 228
196 210 228
196 210 228
196 210 228
196 210 228
196 210 228
196 210 228
196 210 228
196 210 228
196 210 228
196 210 228
196 210 228
196 210 228
196 210 228
196 210 228
196 210 228
196 210 228
196 210 228
196 210 228
196 210 228
196 210 228
196 210 228
196 210 228
196 210 228
196 210 228
196 210 228
196 210 228
196 210 228
196 210 228
196 210 228
196 210 228
196 210 228
196 209 228
196 209 228
196 210 228
196 210 228
196 210 228
196 210 228
196 209 228
196 210 228
196 210 228
196 210 228
196 209 228
196 209 228
196 209 228
196 210 228
196 209 228
196 209 228
196 209 228
196 209 228
196 210 228
196 209 228
196 210 228
196 209 228
196 210 228
196 209 228
196 209 228
196 209 228
195 209 228
196 209 228
196 210 228
196 209 228
194 205 219
171 160 102
161 153 97
54 86 142
52 83 102
52 82 112
54 85 135
53 83 109
55 86 135
50 79 104
50 80 72
48 76 125
48 77 118
49 79 138
54 86 125
49 78 123
50 80 121
50 79 137
43 70 98
45 72 97
45 72 106
47 74 97
44 71 83
39 64 87
35 57 57
45 72 120
40 64 106
36 59 102
36 60 114
34 55 107
20 36 78
26 43 63
30 48 88
26 44 87
140 153 172
130 147 169
58 91 133
48 76 120
54 87 135
53 84 120
60 95 155
57 90 133
50 80 111
57 89 108
60 94 137
55 89 120
61 96 149
59 94 147
54 87 95
58 92 137
57 91 114
60 95 137
56 88 122
58 93 114
61 96 140
60 96 157
59 92 140
58 92 99
61 97 151
59 93 125
52 84 57
61 95 140
60 96 140
59 95 151
56 90 151
59 94 125
63 98 151
60 94 140
61 96 151
59 95 140
60 93 140
61 96 151
61 96 159
62 97 151
57 91 80
63 98 151
65 101 171
58 92 99
61 94 114
63 98 151
56 89 127
62 96 171
56 88 114
62 97 140
57 91 127
60 95 127
52 85 99
64 100 161
64 99 161
64 99 151
56 87 114
64 99 151
59 92 114
62 96 151
62 97 151
61 97 151
59 93 127
58 91 127
57 91 80
61 97 151
60 96 140
57 92 140
58 94 127
57 89 127
55 89 99
59 92 127
58 92 99
62 97 151
62 98 151
60 94 127
61 95 151
61 93 142
64 99 151
63 97 161
59 92 130
58 89 105
56 87 117
60 94 140
54 87 114
63 99 171
61 96 142
62 98 151
58 92 127
59 92 140
53 85 99
59 93 127
59 90 117
61 94 144
55 86 130
58 89 105
56 88 118
58 92 99
59 92 153
59 92 142
53 81 84
48 76 117
53 82 105
51 74 104
143 138 100
141 132 81
22 32 25
27 36 14
34 42 30
36 47 41
36 45 20
36 47 40
37 50 47
40 52 41
45 60 52
43 56 18
44 59 52
44 61 54
45 61 55
50 67 53
43 59 51
51 67 58
50 67 53
52 69 59
47 64 58
48 63 41
49 67 53
47 64 44
48 66 44
54 73 62
52 70 58
49 67 38
52 69 45
48 64 53
53 71 67
55 72 58
55 72 69
153 146 95
171 160 102
194 179 113
196 181 114
196 181 114
196 181 114
196 181 114
196 181 114
196 181 114
196 181 114
196 181 114
196 181 114
196 181 114
196 181 114
196 181 114
196 181 114
196 181 114
196 181 114
196 181 114
196 181 114
196 181 114
196 181 114
196 181 114
196 181 114
196 181 114
196 181 114
196 181 114
196 181 114
196 181 114
196 181 114
196 181 114
196 181 114
196 181 114
196 181 114
196 181 114
196 181 114
196 181 114
196 181 114
196 181 114
196 181 114
196 181 114
196 181 114
196 181 114
196 181 114
196 181 114
196 181 114
196 182 114
196 181 114
196 181 114
196 181 114
196 181 114
196 181 114
196 181 114
196 181 114
196 182 114
196 182 114
196 181 114
196 182 114
196 182 114
196 181 114
196 182 114
196 182 114
196 181 114
196 182 114
196 182 114
196 182 114
196 182 114
196 182 114
196 182 114
196 182 114
196 182 114
196 182 114
196 182 114
196 182 114
196 182 114
196 182 114
196 182 114
196 182 114
196 182 114
196 182 114
196 182 114
196 182 114
196 182 114
196 182 114
197 182 114
196 182 114
196 182 114
197 182 114
196 182 114
196 182 114
196 182 114
197 182 114
196 182 114
197 182 114
197 182 114
196 182 114
197 182 114
197 182 114
197 182 114
197 182 114
197 182 114
197 182 114
197 182 114
197 182 114
197 182 114
197 182 114
197 182 114
197 182 114
197 182 114
197 182 114
197 182 114
197 182 114
197 182 114
197 182 114
197 182 114
197 182 114
197 210 228
197 210 228
197 210 228
197 210 228
197 210 228
197 210 228
197 210 228
197 210 228
197 210 228
197 210 228
197 210 228
197 210 228
197 210 228
197 210 228
197 210 228
197 210 228
197 210 228
197 210 228
197 210 228
197 210 228
197 210 228
197 210 228
197 210 228
197 210 228
197 210 228
197 210 228
197 210 228
197 210 228
197 210 228
197 210 228
197 210 228
197 210 228
197 210 228
197 210 228
197 210 228
197 210 228
197 210 228
197 210 228
197 210 228
197 210 228
197 210 228
197 210 228
197 210 228
197 210 228
197 210 228
197 210 228
197 210 228
197 210 228
197 210 228
197 210 228
197 210 228
197 210 228
197 210 228
197 210 228
197 210 228
197 210 228
197 210 228
197 210 228
197 210 228
197 210 228
197 210 228
197 210 228
197 210 228
197 210 228
197 210 228
197 210 228
197 210 228
197 210 228
197 210 228
197 210 228
197 210 228
197 210 228
197 210 228
197 210 228
197 210 228
197 210 228
197 210 228
197 210 228
197 210 228
197 210 228
197 210 228
197 210 228
197 210 228
197 210 228
197 210 228
197 210 228
197 210 228
197 210 228
197 210 228
197 210 228
197 210 228
197 210 228
197 210 228
197 210 228
197 210 228
197 210 228
197 210 228
197 210 228
197 210 228
197 210 228
197 210 228
197 210 228
197 210 228
197 210 228
197 210 228
197 210 228
197 210 228
197 210 228
197 210 228
197 210 228
197 210 228
197 210 228
197 210 228
191 197 199
174 162 102
156 148 91
52 83 114
53 84 102
50 79 88
56 88 142
54 85 131
50 79 121
52 82 102
58 90 153
50 80 99
50 80 126
53 84 133
52 83 148
50 81 102
43 69 117
46 74 97
50 79 116
41 66 87
36 60 102
48 76 125
40 65 75
42 69 104
45 71 109
35 57 113
28 47 81
29 48 80
29 47 77
17 31 58
36 59 76
29 47 77
22 36 56
26 44 70
141 153 176
114 129 147
56 89 142
54 86 130
59 92 125
52 84 114
60 95 155
58 91 125
56 89 135
62 98 175
54 86 108
56 88 120
57 91 130
61 95 140
58 93 99
60 95 161
62 98 151
59 94 127
55 89 114
59 94 127
58 92 125
59 93 140
58 92 140
65 98 159
64 100 171
59 92 111
65 99 167
58 92 99
58 93 127
57 89 114
55 89 80
61 97 151
59 92 140
62 96 140
63 99 151
62 98 161
52 83 99
60 93 140
61 98 161
63 97 151
58 92 111
63 98 161
60 94 125
57 92 114
60 95 127
58 93 114
62 97 140
60 94 127
61 97 151
60 96 140
58 93 114
60 95 127
60 94 151
62 98 151
63 97 140
59 93 140
62 96 151
59 92 127
58 93 127
63 99 161
61 97 161
61 96 140
61 95 140
58 92 114
59 93 127
62 98 151
61 96 127
59 95 127
62 97 140
59 93 127
59 94 114
59 92 114
57 90 130
60 94 127
59 94 114
61 96 140
62 98 151
58 93 114
60 94 127
58 91 127
63 98 163
53 85 80
61 96 153
62 96 151
56 88 114
60 93 140
61 93 133
55 89 80
58 87 130
64 98 163
59 88 105
62 95 153
60 92 127
56 86 117
55 85 117
55 86 105
60 93 140
60 90 133
51 78 84
58 92 140
62 95 142
56 85 99
52 79 68
50 74 95
142 135 84
140 130 80
25 33 27
32 43 39
30 36 16
33 42 33
36 49 46
28 36 28
20 28 16
47 62 53
45 53 25
38 49 30
47 63 39
42 55 49
46 61 46
30 41 28
41 56 36
46 58 34
51 67 48
48 61 47
52 68 52
50 68 45
49 66 53
52 69 48
52 72 67
50 66 53
49 69 51
51 70 62
54 73 67
54 74 68
53 71 59
50 68 44
53 72 63
129 126 84
174 161 102
193 178 112
197 182 114
197 182 114
197 182 114
197 182 114
197 182 114
197 182 114
197 182 114
197 182 114
197 182 114
197 182 114
197 182 114
197 182 114
197 182 114
197 182 114
197 182 114
197 182 114
197 182 114
197 182 114
197 182 114
197 182 114
197 182 114
197 182 114
197 182 114
197 182 114
197 182 114
197 182 114
197 182 114
197 182 114
197 182 114
197 182 114
197 182 114
197 182 114
197 182 114
197 182 114
197 182 114
197 182 114
197 182 114
197 182 114
197 182 114
197 182 114
197 182 114
197 182 114
197 182 114
197 182 114
197 182 114
197 182 114
197 182 114
197 182 114
197 182 114
197 182 114
197 182 114
197 182 114
197 182 114
197 182 114
197 182 114
197 182 114
197 182 114
197 182 114
197 182 114
197 182 114
197 182 114
197 182 114
197 182 114
197 182 114
197 182 114
197 182 114
197 182 114
197 182 114
197 182 114
197 182 114
197 182 114
197 182 114
197 182 114
197 182 114
197 182 114
197 182 114
197 182 114
197 182 114
197 182 114
197 182 114
197 182 114
197 182 114
197 182 114
197 182 114
197 182 114
197 182 114
197 182 114
197 182 114
197 182 114
197 182 114
197 182 114
197 182 114
197 182 114
197 182 114
197 182 114
197 182 114
197 182 114
197 182 114
197 182 114
197 182 114
197 182 114
197 182 114
197 182 114
197 182 114
197 182 114
197 182 114
197 182 114
197 182 114
197 182 114
197 182 114
197 182 114
197 182 114
197 182 114
198 211 228
198 211 228
198 211 228
198 211 228
198 211 228
198 211 228
198 211 228
198 211 228
198 211 228
198 211 228
198 211 228
198 211 228
198 211 228
198 211 228
198 211 228
198 211 228
198 211 228
198 211 228
198 211 228
198 211 228
198 211 228
198 211 228
198 211 228
198 211 228
198 211 228
198 211 228
198 211 228
198 211 228
198 211 228
198 211 228
198 211 228
198 211 228
198 211 228
198 211 228
198 211 228
198 211 228
198 211 228
198 211 228
198 211 228
198 211 228
198 211 228
198 211 228
198 211 228
198 211 228
198 211 228
198 211 228
198 211 228
198 211 228
198 211 228
198 211 228
198 211 228
198 211 228
198 211 228
198 211 228
198 211 228
198 211 228
198 211 228
198 211 228
198 211 228
198 211 228
198 211 228
198 211 228
198 211 228
198 211 228
198 211 228
198 211 228
198 211 228
198 211 228
198 211 228
198 211 228
198 211 228
198 211 228
198 211 228
198 210 228
198 211 228
198 211 228
198 211 228
198 211 228
198 211 228
198 211 228
198 211 228
198 211 228
198 211 228
198 211 228
198 211 228
198 211 228
198 211 228
198 211 228
198 211 228
198 211 228
198 211 228
198 211 228
198 211 228
198 211 228
198 211 228
198 211 228
198 211 228
198 211 228
198 210 228
198 211 228
198 211 228
198 211 228
198 211 228
198 211 228
198 211 228
198 211 228
198 211 228
198 211 228
198 211 228
198 211 228
198 211 228
198 211 228
198 211 228
188 188 177
177 163 102
160 151 116
48 77 72
54 86 125
50 79 88
57 89 144
54 84 135
54 86 135
48 77 99
52 83 114
48 76 123
48 75 94
52 82 123
51 80 133
54 85 152
49 77 87
48 76 109
50 79 114
50 80 125
46 74 82
39 64 85
44 71 125
40 65 89
46 73 97
35 59 88
44 71 103
40 65 103
28 47 82
36 59 106
29 50 95
25 41 57
24 40 83
25 39 55
127 138 144
119 138 167
43 70 134
51 81 111
59 92 159
54 86 132
59 92 149
57 91 147
59 93 151
59 93 125
57 91 125
56 90 114
58 91 133
57 91 111
55 89 127
59 94 149
58 92 137
62 96 147
61 97 159
55 88 125
57 90 114
57 91 149
60 95 127
63 99 171
61 95 151
58 92 114
58 93 114
58 92 140
58 93 114
65 100 161
63 99 151
57 89 114
61 96 140
55 90 95
57 91 127
57 91 127
59 94 127
58 91 114
58 92 127
62 97 159
63 99 161
62 97 140
58 93 114
62 97 151
60 95 127
53 86 114
59 93 114
60 95 127
62 97 151
57 91 127
56 90 127
62 97 149
60 95 127
59 93 99
66 102 171
53 84 99
58 91 140
63 97 169
60 95 127
58 93 114
60 94 140
62 98 171
61 95 151
60 96 151
64 99 151
62 98 151
60 95 127
62 97 153
62 96 140
62 97 140
62 98 161
64 99 151
59 92 114
61 95 151
57 90 99
59 93 153
61 96 140
58 91 140
61 95 140
64 100 161
59 94 114
57 91 151
60 95 127
58 91 117
62 97 151
63 97 140
52 80 99
57 87 99
60 92 102
61 94 127
54 83 114
56 88 117
62 95 144
59 94 114
58 89 133
55 82 105
55 88 117
63 97 142
52 82 99
56 82 105
62 95 144
53 83 103
52 79 122
52 77 105
144 140 102
127 118 73
28 36 12
28 35 18
33 43 30
23 34 27
21 29 4
46 59 30
37 48 26
36 46 30
36 49 38
32 43 28
44 54 33
39 52 31
51 65 47
45 59 37
34 44 31
42 58 40
51 68 53
48 62 55
48 64 57
50 64 50
49 64 43
50 66 57
50 69 51
53 71 63
49 65 39
53 72 51
52 71 58
55 75 62
55 74 68
50 68 45
53 70 62
159 149 91
177 163 102
194 179 112
198 182 114
198 182 114
198 182 114
198 182 114
198 182 114
198 182 114
198 182 114
198 182 114
198 182 114
198 182 114
198 182 114
198 182 114
198 182 114
198 182 114
198 182 114
198 182 114
198 182 114
198 182 114
198 182 114
198 182 114
198 182 114
198 182 114
198 182 114
198 182 114
198 182 114
198 182 114
198 182 114
198 182 114
198 182 114
198 182 114
198 182 114
198 182 114
198 182 114
198 182 114
198 182 114
198 182 114
198 182 114
198 182 114
198 182 114
198 182 114
198 182 114
198 182 114
198 182 114
198 182 114
198 182 114
198 182 114
198 182 114
198 182 114
198 182 114
198 182 114
198 182 114
198 182 114
198 182 114
198 182 114
198 182 114
198 182 114
198 182 114
198 182 114
198 182 114
198 182 114
198 182 114
198 182 114
198 182 114
198 182 114
198 182 114
198 182 114
198 182 114
198 182 114
198 182 114
198 182 114
198 182 114
198 182 114
198 182 114
198 182 114
198 182 114
198 182 114
198 182 114
198 182 114
198 182 114
198 182 114
198 182 114
198 182 114
198 182 114
198 182 114
198 182 114
198 182 114
198 182 114
198 182 114
198 182 114
198 182 114
198 182 114
198 182 114
198 182 114
198 182 114
198 182 114
198 182 114
198 182 114
198 182 114
198 182 114
198 182 114
198 182 114
198 182 114
198 182 114
198 182 114
198 182 114
198 182 114
198 182 114
198 182 114
198 182 114
198 182 114
198 182 114
198 182 114
198 182 114
198 211 228
198 211 228
198 211 228
198 211 228
198 211 228
198 211 228
198 211 228
198 211 228
198 211 228
198 211 228
198 211 228
198 211 228
198 211 228
198 211 228
198 211 228
198 211 228
198 211 228
198 211 228
198 211 228
198 211 228
198 211 228
198 211 228
198 211 228
198 211 228
199 211 228
198 211 228
198 211 228
198 211 228
198 211 228
199 211 228
198 211 228
199 211 228
198 211 228
198 211 228
199 211 228
198 211 228
199 211 228
198 211 228
199 211 228
199 211 228
199 211 228
199 211 228
199 211 228
198 211 228
199 211 228
199 211 228
198 211 228
199 211 228
199 211 228
199 211 228
199 211 228
199 211 228
199 211 228
199 211 228
199 211 228
199 211 228
199 211 228
199 211 228
199 211 228
199 211 228
199 211 228
199 211 228
199 211 228
199 211 228
199 211 228
199 211 228
199 211 228
199 211 228
199 211 228
199 211 228
199 211 228
199 211 228
199 211 228
198 211 228
199 211 228
199 211 228
199 211 228
199 211 228
199 211 228
199 211 228
199 211 228
199 211 228
199 211 228
199 211 228
199 211 228
199 211 228
199 211 228
199 211 228
199 211 228
199 211 228
199 211 228
199 211 228
199 211 228
199 211 228
199 211 228
199 211 228
199 211 228
199 211 228
199 211 228
199 211 228
199 211 228
199 211 228
199 211 228
199 211 228
199 211 228
199 211 228
199 211 228
199 211 228
199 211 228
199 211 228
199 211 228
199 211 228
199 211 228
189 189 177
169 157 85
131 126 82
56 87 125
57 88 142
52 81 125
52 81 102
51 81 114
49 78 102
53 85 135
48 77 85
53 83 131
56 88 156
45 72 51
50 79 112
54 84 152
44 71 72
53 84 141
31 52 72
42 67 88
44 70 82
41 66 79
45 73 112
52 83 114
35 56 71
40 65 83
26 44 74
31 53 99
35 58 79
31 52 77
40 65 111
28 46 81
19 33 70
29 47 68
94 107 135
145 159 191
63 98 151
54 86 142
53 85 135
61 97 159
61 96 157
55 88 92
57 91 122
58 90 114
53 85 137
55 87 125
59 93 137
59 93 127
61 96 140
51 83 95
60 94 140
61 97 151
61 95 159
54 86 127
59 95 140
65 102 181
60 95 127
64 100 161
58 93 114
60 94 127
57 90 127
56 88 140
64 99 161
63 98 151
59 94 127
59 93 99
61 96 127
60 94 140
58 93 114
60 95 127
60 96 140
54 85 111
60 95 140
59 93 127
55 89 57
60 94 114
59 94 127
62 98 161
54 87 114
57 92 140
62 97 140
62 96 140
61 96 161
59 94 127
61 96 140
60 95 127
56 90 99
60 95 127
60 95 151
60 95 127
56 87 130
59 94 114
58 92 99
59 93 140
61 97 151
60 96 151
65 101 161
57 91 114
57 89 140
59 93 99
61 96 140
63 98 151
63 97 142
54 87 114
60 95 127
62 97 161
56 87 102
57 91 127
61 96 127
61 95 151
62 96 142
61 93 140
61 96 140
59 94 114
60 96 151
59 92 102
62 98 161
50 82 80
58 92 140
55 89 114
58 94 127
52 84 99
57 90 140
60 93 127
63 97 153
59 93 151
52 81 102
60 95 161
56 88 130
58 89 127
60 92 147
59 90 120
59 90 144
58 85 120
58 88 142
57 85 108
56 83 126
56 87 122
155 144 94
126 117 72
14 16 1
22 29 25
6 11 8
21 28 12
40 49 33
27 37 28
28 36 18
32 41 12
37 47 16
46 63 44
44 58 47
45 59 46
48 62 39
33 41 19
49 64 55
45 58 39
50 66 42
48 62 53
39 51 38
48 66 52
47 63 46
45 61 37
51 66 48
46 59 37
46 62 36
53 71 63
55 70 61
52 70 57
42 59 44
52 70 51
57 77 76
149 141 56
165 154 79
195 179 112
199 183 114
199 183 114
199 183 114
199 183 114
199 183 114
199 183 114
199 183 114
199 183 114
199 183 114
199 183 114
199 183 114
199 183 114
199 183 114
199 183 114
199 183 114
199 183 114
199 183 114
199 183 114
199 183 114
199 183 114
199 183 114
199 183 114
199 183 114
199 183 114
199 183 114
199 183 114
199 183 114
199 183 114
199 183 114
199 183 114
199 183 114
199 183 114
199 183 114
199 183 114
199 183 114
199 183 114
199 183 114
199 183 114
199 183 114
199 183 114
199 183 114
198 183 114
199 183 114
199 183 114
199 183 114
199 183 114
199 183 114
199 183 114
199 183 114
199 183 114
199 183 114
199 183 114
199 183 114
199 183 114
199 183 114
198 183 114
199 183 114
199 183 114
199 183 114
199 183 114
199 183 114
199 183 114
199 183 114
199 183 114
199 183 114
199 183 114
198 183 114
199 183 114
199 183 114
198 183 114
199 183 114
198 183 114
199 183 114
199 183 114
198 183 114
199 183 114
198 183 114
199 183 114
199 183 114
198 183 114
198 183 114
198 183 114
198 183 114
198 183 114
198 183 114
198 183 114
198 183 114
198 183 114
198 183 114
198 183 114
198 183 114
198 183 114
199 183 114
198 183 114
198 183 114
198 183 114
198 183 114
198 183 114
199 183 114
198 183 114
198 183 114
198 183 114
198 183 114
198 183 114
198 183 114
198 183 114
198 183 114
198 183 114
198 183 114
198 183 114
198 183 114
198 183 114
198 183 114
199 211 228
199 211 228
199 211 228
199 211 228
199 211 228
199 211 228
199 211 228
199 211 228
199 211 228
199 211 228
199 211 228
199 211 228
199 211 228
199 211 228
199 211 228
199 211 228
199 211 228
199 211 228
199 211 228
199 211 228
199 211 228
199 211 228
199 211 228
199 211 228
199 211 228
199 211 228
199 211 228
199 211 228
199 211 228
199 211 228
199 211 228
199 211 228
199 211 228
199 211 228
199 211 228
199 211 228
199 211 228
199 211 228
199 211 228
199 211 228
199 211 228
199 211 228
199 211 228
199 211 228
199 211 228
199 211 228
199 211 228
199 211 228
200 212 228
199 211 228
199 211 228
199 211 228
199 211 228
199 212 228
199 212 228
199 212 228
199 212 228
200 212 228
199 212 228
200 212 228
199 211 228
199 212 228
200 212 228
200 212 228
200 212 228
200 212 228
200 212 228
200 212 228
200 212 228
200 212 228
199 212 228
200 212 228
200 212 228
199 212 228
200 212 228
200 212 228
200 212 228
200 212 228
200 212 228
200 212 228
200 212 228
200 212 228
200 212 228
200 212 228
200 212 228
200 212 228
200 212 228
200 212 228
200 212 228
200 212 228
200 212 228
200 212 228
200 212 228
200 212 228
200 212 228
200 212 228
200 212 228
200 212 228
200 212 228
200 212 228
200 212 228
200 212 228
200 212 228
200 212 228
200 212 228
200 212 228
200 212 228
200 212 228
200 212 228
200 212 228
200 212 228
200 212 228
200 212 228
200 212 228
135 132 0
132 132 0
51 80 102
50 81 72
51 82 114
57 89 144
49 76 102
54 85 125
53 82 88
53 84 123
54 86 133
55 85 133
51 80 121
52 83 123
53 85 133
54 83 109
45 71 85
48 75 117
45 72 56
46 73 109
41 67 82
45 72 86
39 63 77
51 81 109
27 46 57
20 34 34
31 49 71
32 53 82
26 45 32
25 44 100
22 39 66
22 37 57
24 40 78
90 98 115
144 159 188
52 81 109
53 84 111
57 89 133
52 82 108
56 91 135
53 87 111
55 88 133
57 92 111
56 90 147
58 91 127
52 83 92
57 91 127
58 92 127
62 97 140
63 98 161
55 88 114
61 96 127
59 93 114
63 98 151
55 88 122
56 90 137
58 92 127
56 89 127
59 94 127
57 91 127
60 95 127
64 99 161
58 92 114
58 92 127
58 92 114
58 93 127
56 89 99
60 94 140
58 92 127
58 93 140
57 91 127
61 96 140
58 92 111
60 95 127
55 89 127
59 94 151
60 96 149
60 94 151
59 94 127
60 95 127
60 95 161
61 97 151
54 87 80
51 79 0
55 88 114
58 93 114
59 93 151
64 99 161
59 93 114
60 95 114
64 99 161
57 91 127
58 91 127
60 92 140
56 89 114
61 95 151
57 91 99
60 95 151
64 100 161
60 94 114
57 91 127
62 98 161
58 89 114
56 88 114
60 94 130
64 100 171
55 88 140
62 97 151
61 94 117
53 82 127
64 98 151
62 96 153
59 91 127
48 78 114
61 94 127
61 96 140
60 93 117
56 89 130
58 90 140
58 92 99
57 91 140
59 90 102
57 90 114
57 86 105
61 95 142
60 93 133
61 97 140
58 88 120
55 85 127
47 72 90
62 94 144
59 93 140
53 80 117
58 86 117
49 77 100
55 84 102
50 74 72
98 102 86
156 145 92
30 36 20
27 35 16
32 42 27
32 38 19
30 38 28
27 35 29
28 35 11
37 49 36
45 59 45
46 60 30
36 45 32
35 46 38
40 50 28
50 67 64
49 63 48
52 68 53
41 55 36
47 58 42
47 62 57
42 54 32
42 55 28
51 65 48
49 66 44
54 72 58
54 69 63
49 64 41
51 69 44
55 72 52
49 67 28
57 78 76
56 75 72
136 135 0
138 136 0
200 183 114
200 183 114
200 183 114
200 183 114
200 183 114
200 183 114
200 183 114
200 183 114
200 183 114
200 183 114
200 183 114
200 183 114
200 183 114
200 183 114
200 183 114
200 183 114
200 183 114
200 183 114
200 183 114
200 183 114
200 183 114
200 183 114
200 183 114
200 183 114
200 183 114
200 183 114
200 183 114
200 183 114
200 183 114
200 183 114
200 183 114
200 183 114
200 183 114
199 183 114
200 183 114
200 183 114
200 183 114
200 183 114
200 183 114
200 183 114
200 183 114
200 183 114
199 183 114
200 183 114
200 183 114
199 183 114
200 183 114
200 183 114
200 183 114
199 183 114
199 183 114
200 183 114
199 183 114
199 183 114
199 183 114
199 183 114
200 183 114
199 183 114
199 183 114
200 183 114
199 183 114
199 183 114
199 183 114
199 183 114
199 183 114
199 183 114
199 183 114
199 183 114
199 183 114
199 183 114
199 183 114
199 183 114
199 183 114
199 183 114
199 183 114
199 183 114
199 183 114
199 183 114
199 183 114
199 183 114
199 183 114
199 183 114
199 183 114
199 183 114
199 183 114
199 183 114
199 183 114
199 183 114
199 183 114
199 183 114
199 183 114
199 183 114
199 183 114
199 183 114
199 183 114
199 183 114
199 183 114
199 183 114
199 183 114
199 183 114
199 183 114
199 183 114
199 183 114
199 183 114
199 183 114
199 183 114
199 183 114
199 183 114
199 183 114
199 183 114
199 183 114
199 183 114
199 183 114
199 183 114
199 212 228
199 212 228
199 212 228
200 212 228
199 212 228
199 212 228
199 212 228
199 212 228
200 212 228
200 212 228
200 212 228
200 212 228
199 212 228
200 212 228
200 212 228
200 212 228
200 212 228
200 212 228
200 212 228
200 212 228
200 212 228
200 212 228
200 212 228
200 212 228
200 212 228
200 212 228
200 212 228
200 212 228
200 212 228
200 212 228
200 212 228
200 212 228
200 212 228
200 212 228
200 212 228
200 212 228
200 212 228
200 212 228
200 212 228
200 212 228
200 212 228
200 212 228
200 212 228
200 212 228
200 212 228
200 212 228
200 212 228
200 212 228
200 212 228
200 212 228
200 212 228
200 212 228
200 212 228
200 212 228
200 212 228
200 212 228
200 212 228
200 212 228
200 212 228
200 212 228
200 212 228
200 212 228
200 212 228
200 212 228
200 212 228
200 212 228
200 212 228
200 212 228
200 212 228
200 212 228
200 212 228
201 212 228
200 212 228
201 212 228
201 212 228
200 212 228
201 212 228
201 212 228
201 212 228
196 209 217
192 205 204
196 209 217
196 209 217
200 212 228
196 209 217
201 212 228
188 202 191
184 199 177
196 209 217
191 205 204
192 205 204
192 206 204
177 194 161
196 209 217
183 197 161
186 201 191
187 202 191
179 195 161
186 200 177
177 194 161
187 200 177
166 184 102
175 192 144
177 193 144
181 196 161
169 187 125
174 190 125
182 197 161
184 199 177
185 200 177
184 199 177
172 190 144
180 195 161
175 192 144
135 132 0
119 124 88
54 84 102
53 83 135
53 85 114
49 76 88
52 82 99
53 83 135
52 81 102
44 71 102
46 73 93
48 75 109
52 81 112
48 76 131
46 73 104
50 78 82
50 78 85
43 68 114
42 69 94
41 66 87
45 72 104
40 66 85
42 68 79
41 65 81
40 65 113
34 56 57
39 62 106
31 52 81
19 30 29
16 29 41
23 41 68
31 50 36
18 32 58
156 166 183
144 158 182
55 87 114
58 93 144
55 86 142
58 90 135
57 91 127
48 78 80
59 92 127
54 88 127
61 96 127
58 93 122
60 95 137
60 94 151
59 95 151
55 86 114
56 88 137
56 89 114
60 95 140
56 88 99
54 86 80
61 95 140
58 92 114
60 95 127
57 91 80
62 98 151
56 89 114
59 94 140
58 92 114
57 92 125
61 95 127
57 92 127
61 95 127
63 98 161
60 94 125
58 93 140
60 94 114
62 97 151
58 92 99
61 96 140
61 96 149
64 98 159
65 100 161
59 93 151
60 94 140
59 92 114
62 97 140
62 97 140
53 86 80
59 91 99
61 96 140
61 96 140
59 94 127
58 91 114
62 97 161
65 100 161
57 91 127
56 90 142
59 95 127
57 90 99
54 87 99
55 87 80
55 88 99
52 85 80
61 97 140
59 92 140
54 86 80
60 95 127
61 96 140
58 91 114
56 87 127
55 87 114
58 93 114
58 93 114
61 95 151
60 96 151
59 93 140
55 88 80
57 90 127
59 95 127
56 89 130
59 94 127
62 94 130
62 94 153
55 86 102
58 90 130
58 92 127
58 91 153
58 88 102
58 91 114
52 81 85
60 93 133
55 86 114
56 88 99
52 82 127
60 95 151
53 79 88
59 91 127
54 83 107
59 94 142
55 88 114
50 79 104
52 77 88
50 78 130
131 130 92
168 155 99
17 25 5
21 28 25
18 20 11
27 32 12
35 43 16
35 45 31
35 47 38
38 53 46
37 49 39
29 37 27
40 51 33
41 52 31
44 60 45
41 55 30
37 53 37
40 54 38
46 59 25
46 61 40
38 53 36
47 63 38
46 61 44
46 61 39
43 55 39
53 69 60
50 66 38
53 72 57
51 69 37
54 72 52
47 65 51
53 70 45
52 69 51
140 136 0
143 140 0
169 162 62
169 162 62
176 167 72
178 167 72
181 170 80
183 171 88
171 163 62
183 172 88
184 172 88
182 171 88
183 172 88
175 166 72
186 173 88
188 175 95
184 172 88
179 169 80
194 179 102
182 170 80
178 168 80
191 177 102
178 168 80
184 172 88
188 175 95
190 176 95
188 175 95
193 178 102
196 181 108
197 181 108
198 181 108
201 184 114
196 181 108
197 181 108
201 184 114
198 181 108
193 178 102
197 181 108
201 184 114
200 184 114
200 184 114
201 184 114
200 184 114
200 184 114
200 184 114
200 184 114
200 184 114
200 184 114
200 184 114
200 184 114
200 184 114
200 184 114
200 184 114
200 184 114
200 184 114
200 184 114
200 184 114
200 184 114
200 184 114
200 183 114
200 184 114
200 183 114
200 183 114
200 183 114
200 183 114
200 184 114
200 183 114
200 183 114
200 183 114
200 183 114
200 183 114
200 183 114
200 183 114
200 183 114
200 183 114
200 183 114
200 183 114
200 183 114
200 183 114
200 183 114
200 183 114
200 183 114
200 183 114
200 183 114
200 183 114
200 183 114
200 183 114
200 183 114
200 183 114
200 183 114
200 183 114
200 183 114
200 183 114
200 183 114
200 183 114
200 183 114
200 183 114
200 183 114
200 183 114
200 183 114
200 183 114
200 183 114
200 183 114
200 183 114
200 183 114
200 183 114
199 183 114
200 183 114
199 183 114
199 183 114
199 183 114
199 183 114
199 183 114
199 183 114
199 183 114
199 183 114
200 212 228
200 212 228
200 212 228
200 212 228
200 212 228
200 212 228
200 212 228
200 212 228
200 212 228
200 212 228
200 212 228
200 212 228
200 212 228
200 212 228
200 212 228
200 212 228
200 212 228
200 212 228
200 212 228
200 212 228
200 212 228
200 212 228
200 212 228
200 212 228
200 212 228
200 212 228
201 212 228
200 212 228
200 212 228
200 212 228
200 212 228
201 212 228
200 212 228
201 212 228
201 212 228
201 212 228
201 212 228
201 212 228
201 212 228
201 212 228
201 212 228
201 212 228
201 212 228
201 212 228
196 209 217
201 212 228
197 209 217
193 206 204
201 212 228
193 206 204
189 202 191
191 205 204
179 195 161
185 199 177
179 195 161
175 192 144
180 196 161
179 195 161
185 199 177
168 187 125
172 189 125
169 187 125
177 193 144
181 197 177
162 181 72
178 194 161
165 184 102
163 182 72
160 180 72
162 181 72
176 192 144
165 184 102
154 176 0
165 183 72
157 178 0
160 179 0
159 180 72
155 176 0
157 177 0
156 177 0
158 178 0
154 176 0
155 175 0
152 175 0
155 176 0
156 177 0
156 177 0
156 177 0
155 176 0
157 177 0
152 175 0
153 175 0
156 177 0
155 176 0
152 175 0
152 175 0
151 174 0
154 176 0
156 177 0
157 177 0
152 175 0
156 177 0
158 178 0
156 177 0
160 179 0
157 177 0
158 178 0
157 177 0
155 176 0
154 176 0
157 178 0
152 175 0
158 178 0
153 175 0
153 164 0
142 138 0
56 88 135
54 85 114
51 82 99
49 78 102
43 71 51
41 66 88
48 76 99
53 83 112
52 83 133
47 75 112
49 79 114
45 70 64
51 81 107
36 57 52
44 70 68
50 79 109
41 66 72
40 65 93
46 72 89
42 66 104
43 69 108
47 75 91
34 56 66
37 59 94
38 62 75
30 49 62
34 53 89
8 20 31
26 42 12
29 48 66
16 30 53
179 190 204
158 173 177
56 90 120
39 64 102
51 81 111
54 87 127
58 92 135
50 79 114
58 91 140
58 91 99
57 90 111
60 95 147
59 93 140
54 85 99
57 89 88
56 90 80
64 100 171
53 84 111
60 95 137
52 83 122
59 92 111
59 94 137
56 88 114
59 92 137
56 90 114
57 92 149
59 93 99
67 103 181
57 90 137
60 95 140
58 93 111
62 97 140
59 93 151
62 98 151
59 94 127
63 98 151
59 92 137
63 97 140
61 95 151
57 90 140
58 92 114
57 91 114
61 95 127
60 95 140
64 100 161
58 93 114
62 98 151
59 93 114
57 91 127
59 93 114
58 94 127
61 95 127
57 91 127
59 93 125
60 93 114
60 95 127
60 96 140
58 90 114
57 92 114
61 97 140
56 90 127
60 94 151
61 94 151
57 89 99
60 93 140
61 96 140
59 94 114
59 92 117
53 87 99
57 90 114
59 93 127
63 98 151
62 96 130
63 99 161
61 97 140
61 95 114
61 97 140
53 83 114
62 96 142
61 97 151
59 90 130
59 91 142
63 97 142
63 97 140
63 98 163
58 91 114
53 84 117
58 88 130
58 93 130
56 86 84
61 95 153
60 96 140
58 91 127
54 86 57
60 90 108
57 87 130
57 86 133
59 94 127
59 95 140
56 85 117
61 92 127
51 75 68
50 76 72
45 67 74
168 156 99
168 155 95
21 28 8
34 46 26
22 32 11
22 28 14
37 46 30
27 38 8
25 31 13
34 47 36
36 46 29
31 41 29
36 47 28
48 60 48
45 59 30
45 54 21
50 68 51
44 58 52
39 51 32
47 59 41
50 67 63
43 56 38
51 67 45
51 68 45
50 67 44
42 57 44
53 70 59
49 65 53
47 60 40
49 67 45
53 73 57
55 74 68
64 77 37
139 137 0
145 144 0
158 154 0
157 154 0
157 153 0
159 154 0
155 153 0
157 153 0
159 154 0
155 153 0
157 154 0
157 154 0
155 153 0
156 153 0
157 154 0
156 153 0
157 154 0
157 154 0
155 153 0
152 151 0
160 155 0
157 154 0
159 154 0
160 155 0
161 156 0
156 153 0
155 153 0
153 152 0
154 152 0
154 152 0
155 153 0
156 153 0
157 154 0
156 153 0
156 152 0
154 152 0
159 155 0
157 154 0
160 155 0
164 157 0
165 159 51
166 159 36
156 153 0
161 155 0
161 156 36
161 157 36
154 152 0
164 159 51
161 156 36
168 160 51
161 156 36
177 167 72
158 155 36
170 163 62
181 170 80
167 160 51
159 155 36
186 173 88
177 168 80
170 162 62
178 168 80
184 171 80
181 170 80
197 181 108
193 178 102
192 178 102
190 176 95
190 176 95
201 184 114
201 184 114
201 184 114
201 184 114
201 184 114
201 184 114
201 184 114
201 184 114
201 184 114
201 184 114
201 184 114
201 184 114
200 184 114
201 184 114
201 184 114
201 184 114
201 184 114
200 184 114
201 184 114
201 184 114
200 184 114
200 184 114
200 184 114
200 184 114
200 184 114
200 184 114
200 184 114
200 184 114
200 184 114
200 184 114
200 184 114
200 184 114
200 184 114
200 183 114
200 183 114
200 183 114
200 183 114
200 183 114
200 183 114
200 183 114
200 183 114
200 183 114
200 183 114
200 183 114
200 183 114
200 183 114
200 183 114
200 183 114
200 212 228
201 212 228
200 212 228
201 212 228
201 212 228
201 212 228
201 212 228
201 212 228
201 212 228
201 212 228
201 212 228
201 212 228
201 212 228
201 212 228
201 212 228
201 212 228
201 212 228
201 212 228
201 212 228
201 212 228
201 212 228
192 205 204
192 205 204
197 209 217
189 202 191
184 198 161
201 212 228
194 206 204
194 207 204
184 199 177
177 193 144
184 199 177
162 180 72
179 195 161
167 185 102
171 188 125
164 184 102
169 187 125
157 178 0
154 176 0
162 181 72
159 179 0
163 182 72
162 180 0
158 178 0
156 177 0
161 180 0
156 177 0
156 177 0
153 175 0
157 178 0
156 177 0
158 178 0
155 177 0
154 176 0
157 177 0
156 177 0
156 177 0
155 176 0
155 177 0
158 178 0
158 178 0
155 177 0
155 176 0
153 175 0
153 175 0
154 176 0
155 176 0
157 177 0
157 178 0
156 177 0
158 178 0
154 176 0
157 178 0
156 177 0
156 177 0
155 176 0
157 177 0
156 177 0
155 176 0
159 178 0
155 176 0
154 176 0
148 169 0
158 178 0
156 177 0
154 176 0
153 176 0
159 179 0
153 175 0
151 174 0
150 170 0
154 176 0
157 177 0
154 176 0
155 177 0
160 179 0
155 176 0
154 176 0
152 175 0
154 176 0
151 174 0
156 177 0
152 175 0
154 176 0
158 178 0
154 176 0
156 177 0
155 176 0
159 179 0
152 175 0
158 178 0
151 172 0
158 178 0
154 176 0
144 146 0
100 105 51
52 81 123
45 72 51
53 82 123
48 76 99
50 79 88
45 73 107
51 81 112
45 73 68
50 80 85
53 82 109
48 77 116
50 78 107
49 75 112
43 69 79
42 68 112
48 77 109
45 71 87
46 74 99
44 71 108
41 66 82
33 54 86
35 57 85
37 60 77
40 62 91
41 65 94
31 50 60
24 40 23
20 36 18
18 30 31
32 52 51
197 209 217
158 171 177
48 78 127
48 75 107
52 83 111
53 86 104
57 90 122
55 85 111
58 90 120
58 92 111
58 93 149
59 94 140
61 96 137
58 92 114
61 96 127
56 88 80
58 91 140
57 90 114
60 94 122
58 89 140
58 91 111
50 79 99
59 95 140
60 96 140
55 88 80
57 90 125
57 90 99
62 97 140
55 88 114
57 91 114
63 97 140
59 93 140
57 93 127
61 96 127
57 89 114
62 97 140
55 87 99
62 98 161
57 91 80
60 94 125
60 94 114
60 96 140
63 99 161
63 97 171
61 95 127
57 90 99
57 91 127
54 88 99
57 89 114
61 96 140
61 95 151
64 101 181
62 97 151
55 88 57
56 90 114
62 98 151
62 96 140
59 93 114
50 79 114
64 99 161
57 90 114
64 99 161
61 96 140
58 90 99
57 90 127
58 92 140
65 101 161
62 98 151
55 87 114
56 89 114
63 98 151
59 93 151
61 95 140
57 91 114
58 92 127
62 97 140
53 82 80
59 90 142
57 90 127
59 93 127
62 97 140
56 89 114
55 87 140
63 99 161
60 92 105
56 88 99
59 94 127
49 80 82
55 82 105
60 93 127
58 91 99
61 95 140
58 87 108
50 78 62
52 81 114
57 91 127
60 93 142
59 91 105
56 86 114
56 88 142
54 84 102
53 83 99
54 80 67
52 76 84
74 84 67
197 181 108
31 38 30
18 21 4
31 39 11
31 40 28
16 21 12
27 37 27
25 33 8
35 46 28
46 59 40
39 48 30
50 62 45
36 48 36
44 53 11
51 64 39
44 56 39
43 57 36
42 55 32
51 67 30
45 56 35
47 62 52
41 54 38
49 62 42
55 73 67
50 67 51
54 72 62
51 68 51
52 72 67
50 67 51
52 70 57
49 67 57
84 91 25
139 137 0
157 154 0
153 151 0
157 152 0
158 154 0
157 154 0
156 153 0
149 150 0
157 154 0
154 152 0
160 155 0
154 152 0
154 152 0
150 150 0
153 152 0
155 153 0
152 151 0
154 152 0
153 152 0
156 153 0
163 156 0
157 153 0
156 153 0
157 154 0
152 149 0
152 151 0
156 153 0
156 153 0
156 153 0
152 151 0
159 155 0
155 153 0
154 152 0
156 153 0
162 156 0
159 154 0
154 152 0
153 152 0
157 153 0
155 153 0
157 153 0
155 153 0
152 151 0
155 153 0
158 154 0
158 154 0
157 154 0
157 153 0
155 153 0
157 154 0
161 155 0
157 153 0
155 153 0
160 155 0
154 152 0
156 153 0
156 153 0
155 153 0
154 152 0
160 155 0
160 155 0
157 154 0
155 153 0
157 154 0
155 153 0
155 153 0
155 153 0
157 154 0
157 154 0
155 153 0
154 152 0
155 153 0
157 154 0
156 153 0
162 158 51
160 156 36
156 153 0
170 162 62
160 156 36
170 163 62
159 154 0
175 166 72
176 166 72
179 169 80
174 164 62
178 168 80
176 166 72
190 176 95
167 160 51
188 175 95
193 178 102
185 173 88
193 178 102
201 184 114
196 181 108
201 184 114
201 184 114
201 184 114
201 184 114
201 184 114
201 184 114
201 184 114
201 184 114
201 184 114
201 184 114
201 184 114
201 184 114
201 184 114
201 184 114
201 184 114
201 184 114
201 184 114
201 184 114
200 184 114
200 184 114
200 184 114
201 212 228
201 212 228
201 212 228
201 212 228
198 210 217
189 203 191
186 200 177
175 191 144
180 194 144
193 206 204
179 195 161
159 180 72
182 197 161
161 181 72
172 189 125
158 179 72
169 187 125
172 189 125
162 180 0
155 177 0
156 177 0
155 177 0
155 176 0
156 177 0
153 175 0
151 174 0
153 175 0
159 178 0
156 177 0
157 177 0
162 180 0
160 179 0
156 177 0
160 179 0
163 181 0
155 176 0
153 175 0
159 178 0
153 175 0
161 179 0
156 177 0
154 176 0
158 178 0
156 177 0
155 176 0
158 178 0
155 176 0
156 177 0
155 176 0
155 176 0
158 178 0
155 176 0
156 177 0
152 175 0
155 177 0
152 175 0
156 177 0
155 176 0
157 177 0
157 177 0
158 178 0
156 177 0
155 176 0
159 178 0
156 177 0
159 179 0
156 177 0
153 175 0
154 176 0
157 177 0
158 178 0
158 178 0
157 177 0
163 181 0
160 179 0
154 176 0
153 172 0
158 178 0
156 176 0
158 178 0
154 176 0
158 178 0
157 177 0
157 177 0
156 177 0
159 178 0
157 177 0
158 178 0
156 177 0
156 177 0
158 178 0
157 178 0
155 176 0
155 176 0
156 177 0
147 168 0
158 178 0
156 177 0
153 175 0
156 177 0
146 168 0
153 173 0
151 174 0
153 172 0
153 175 0
157 177 0
154 176 0
150 174 0
153 176 0
152 175 0
160 179 0
155 176 0
154 173 0
153 175 0
153 175 0
148 162 0
75 89 45
56 87 125
51 82 88
53 82 131
51 81 85
48 75 109
51 81 99
52 82 102
51 80 114
47 75 102
49 77 114
44 70 72
41 65 106
45 72 105
49 78 102
44 70 87
42 66 99
37 60 82
44 71 109
32 52 63
48 75 110
33 53 31
35 56 76
33 56 43
30 50 12
37 60 45
22 37 40
17 31 50
30 50 64
30 48 45
97 118 61
182 197 161
190 201 217
42 68 102
46 75 83
52 83 120
57 88 114
58 90 114
56 88 122
60 94 127
59 95 149
55 88 125
50 80 57
58 90 135
48 78 80
60 94 114
57 90 111
53 84 114
57 91 80
58 90 137
59 92 149
57 92 114
58 91 135
62 97 140
63 99 151
57 91 114
63 98 151
59 93 125
61 96 140
61 96 140
60 94 114
59 94 151
58 93 127
59 93 111
60 95 127
56 89 114
61 96 140
59 93 127
59 94 114
57 89 140
59 93 114
55 87 114
60 94 140
59 93 114
58 91 127
62 97 140
64 100 169
53 85 99
56 90 127
59 92 125
61 96 127
62 97 140
63 99 151
57 91 99
62 97 140
58 92 140
61 95 127
58 90 127
54 84 80
56 91 99
58 92 127
56 88 127
62 96 127
60 96 140
61 96 127
62 96 127
55 89 99
63 98 151
58 92 127
61 96 140
59 95 140
61 98 161
62 97 140
56 88 127
58 91 127
57 89 117
58 90 117
60 95 127
59 92 127
60 96 140
62 95 153
63 97 161
57 88 88
62 95 153
59 91 105
56 88 115
52 79 80
51 80 57
54 84 114
59 93 99
55 86 127
56 88 99
53 85 81
61 95 153
62 98 161
62 94 142
61 94 140
61 93 120
54 82 127
55 84 84
55 86 114
53 81 89
49 71 72
51 75 86
56 83 108
171 160 114
171 163 62
59 63 28
28 38 25
23 27 12
8 14 0
32 41 28
24 30 14
31 40 29
25 34 8
34 41 16
38 49 8
37 49 38
37 45 28
43 54 31
38 49 20
48 60 33
42 53 38
42 52 32
42 57 11
46 60 47
48 65 45
48 64 48
49 65 52
51 68 51
49 65 45
49 66 37
52 70 57
53 70 58
53 71 58
52 71 57
50 69 51
102 104 25
152 148 0
152 152 0
146 145 0
153 152 0
157 152 0
155 153 0
158 154 0
154 152 0
154 151 0
154 151 0
157 153 0
152 151 0
155 153 0
146 148 0
156 152 0
161 155 0
151 148 0
163 156 0
156 153 0
160 155 0
154 151 0
156 153 0
155 150 0
153 152 0
157 154 0
156 153 0
158 154 0
151 150 0
156 153 0
159 154 0
155 153 0
158 154 0
153 151 0
160 155 0
155 153 0
151 151 0
152 152 0
152 151 0
158 154 0
156 153 0
146 146 0
155 152 0
155 153 0
159 155 0
156 153 0
154 152 0
155 150 0
157 153 0
159 155 0
155 153 0
156 153 0
154 152 0
149 147 0
153 152 0
154 152 0
155 153 0
158 154 0
156 153 0
160 155 0
153 152 0
153 152 0
153 152 0
157 154 0
154 152 0
156 153 0
154 152 0
158 154 0
153 151 0
156 153 0
158 154 0
156 153 0
154 152 0
159 154 0
155 153 0
153 152 0
151 151 0
158 154 0
154 152 0
151 151 0
151 151 0
156 153 0
158 154 0
160 155 0
155 153 0
154 152 0
158 154 0
158 154 0
157 154 0
158 154 0
155 153 0
153 149 0
153 152 0
157 154 0
151 151 0
158 154 0
157 154 0
160 155 0
154 152 0
177 168 80
165 159 51
168 161 51
160 156 36
161 157 36
175 166 72
184 172 88
173 165 72
183 172 88
191 176 95
189 175 95
190 176 95
187 175 95
196 181 108
201 184 114
201 184 114
201 184 114
201 184 114
155 177 0
161 181 72
155 176 0
157 177 0
156 177 0
154 176 0
159 179 0
155 176 0
156 177 0
156 177 0
155 176 0
156 177 0
159 178 0
153 175 0
154 176 0
158 178 0
156 177 0
156 177 0
155 176 0
156 177 0
158 178 0
157 178 0
159 179 0
157 178 0
161 180 0
156 177 0
153 176 0
157 178 0
157 177 0
156 177 0
154 176 0
156 177 0
156 177 0
159 178 0
153 175 0
155 176 0
158 178 0
154 176 0
157 178 0
155 176 0
153 175 0
153 175 0
154 176 0
156 177 0
157 177 0
154 176 0
156 177 0
158 178 0
153 175 0
159 178 0
145 168 0
156 177 0
156 177 0
152 175 0
158 178 0
158 178 0
159 179 0
155 176 0
158 178 0
158 178 0
154 176 0
152 175 0
159 178 0
156 177 0
158 178 0
155 177 0
154 176 0
152 175 0
151 174 0
151 173 0
158 178 0
153 176 0
154 176 0
153 175 0
156 174 0
152 172 0
151 170 0
154 176 0
152 175 0
158 178 0
151 174 0
154 173 0
156 177 0
152 175 0
156 177 0
160 179 0
156 177 0
157 178 0
154 172 0
156 177 0
153 173 0
147 169 0
154 176 0
156 177 0
154 176 0
156 177 0
155 176 0
152 175 0
155 174 0
157 178 0
158 175 0
153 175 0
149 169 0
151 172 0
154 176 0
157 177 0
150 171 0
147 166 0
151 171 0
152 169 0
152 172 0
157 175 0
154 173 0
149 164 0
147 162 0
154 173 0
137 153 51
54 85 114
53 83 135
48 77 102
51 80 135
47 75 88
47 76 68
52 81 112
46 73 88
51 81 102
46 73 112
46 74 79
44 72 85
50 78 109
46 71 94
44 71 94
41 66 88
42 67 90
42 68 45
42 67 72
47 75 114
46 73 107
44 70 75
39 63 45
37 60 74
36 58 72
27 44 43
17 28 28
17 31 56
8 19 12
92 106 54
153 175 0
194 208 214
42 68 76
47 74 104
56 88 108
53 84 118
59 93 144
49 78 105
55 88 130
56 88 135
57 92 122
58 90 125
55 87 122
62 97 157
58 91 99
53 85 114
61 96 151
62 98 159
62 97 151
58 93 137
58 91 122
56 88 80
55 89 80
59 94 137
57 91 125
57 91 127
61 95 151
59 92 140
57 92 114
58 91 114
56 88 80
62 99 171
52 85 57
55 87 80
61 96 140
58 91 127
61 96 149
59 94 114
59 93 127
63 98 149
59 93 127
56 90 76
52 81 111
64 100 161
61 94 140
60 96 140
58 92 99
57 89 140
65 100 161
58 92 99
59 94 140
61 96 140
60 94 127
59 94 140
61 96 127
57 90 125
59 94 127
58 92 114
60 94 127
63 99 161
57 89 127
54 86 114
59 93 140
61 93 127
60 94 127
59 94 114
62 96 140
61 95 151
53 84 99
63 99 151
60 95 127
60 94 114
57 91 127
54 87 80
59 94 127
57 91 127
65 100 173
53 85 114
54 85 117
62 97 140
55 87 80
61 97 151
59 94 140
60 95 127
60 95 127
58 92 127
61 94 140
59 94 127
57 88 117
61 96 140
57 89 130
58 88 120
58 91 99
56 83 95
63 97 153
60 92 117
57 88 105
58 88 117
55 85 62
53 78 108
54 81 84
52 81 86
48 75 100
52 80 114
196 190 144
154 152 0
112 114 28
32 42 28
27 36 11
30 39 25
28 34 11
35 47 28
34 45 1
42 53 30
38 49 28
44 56 35
35 44 29
43 56 26
42 53 39
47 61 29
40 53 16
48 61 39
50 66 62
47 63 39
50 66 53
51 67 47
39 53 36
48 63 45
53 70 51
49 64 45
52 70 57
52 69 45
51 68 57
52 70 45
49 68 44
49 66 57
90 94 36
155 151 0
154 150 0
155 151 0
149 145 0
157 152 0
158 153 0
152 149 0
154 152 0
152 149 0
156 153 0
158 153 0
157 153 0
154 151 0
157 153 0
156 151 0
158 153 0
157 153 0
161 156 0
153 152 0
158 154 0
160 155 0
158 154 0
152 151 0
159 155 0
160 155 0
147 146 0
157 154 0
157 154 0
155 153 0
153 152 0
148 150 0
145 145 0
149 147 0
153 152 0
154 152 0
158 154 0
154 150 0
155 153 0
149 147 0
158 154 0
156 153 0
155 153 0
155 153 0
159 155 0
152 151 0
153 152 0
162 156 0
155 152 0
154 152 0
154 152 0
155 152 0
155 153 0
154 152 0
156 153 0
154 152 0
165 157 0
154 152 0
153 152 0
156 153 0
150 149 0
156 153 0
158 154 0
154 152 0
157 154 0
157 153 0
157 154 0
158 154 0
158 154 0
154 152 0
156 153 0
160 155 0
154 152 0
158 154 0
155 153 0
157 154 0
155 153 0
157 154 0
158 154 0
155 152 0
154 152 0
152 151 0
162 156 0
153 152 0
154 152 0
157 154 0
155 153 0
162 156 0
155 153 0
157 154 0
156 153 0
152 151 0
158 154 0
155 153 0
158 154 0
153 152 0
154 152 0
153 152 0
158 154 0
159 155 0
159 154 0
158 154 0
157 153 0
155 153 0
159 154 0
155 153 0
161 156 0
154 152 0
154 152 0
154 152 0
157 153 0
163 156 0
155 153 0
155 153 0
154 152 0
165 159 36
163 158 51
156 177 0
157 177 0
154 176 0
160 179 0
157 177 0
154 176 0
158 178 0
159 178 0
156 177 0
153 175 0
158 178 0
155 176 0
156 177 0
159 179 0
157 177 0
155 177 0
152 175 0
154 176 0
154 176 0
155 176 0
152 175 0
155 176 0
157 177 0
155 176 0
153 175 0
157 178 0
155 176 0
152 175 0
152 175 0
151 172 0
155 176 0
156 177 0
160 179 0
154 176 0
157 178 0
153 175 0
160 179 0
153 176 0
159 178 0
158 178 0
153 175 0
157 177 0
156 177 0
158 178 0
157 175 0
158 178 0
157 177 0
155 177 0
157 177 0
157 177 0
151 174 0
152 175 0
154 176 0
159 179 0
153 175 0
154 176 0
154 171 0
152 175 0
154 176 0
151 174 0
156 177 0
156 177 0
154 176 0
158 178 0
155 176 0
158 178 0
155 176 0
158 178 0
161 180 0
150 174 0
147 169 0
152 175 0
155 177 0
157 177 0
150 174 0
162 180 0
159 178 0
155 176 0
158 178 0
159 178 0
155 177 0
155 174 0
157 177 0
152 175 0
157 178 0
156 177 0
155 176 0
149 170 0
155 177 0
152 172 0
161 180 0
154 173 0
150 172 0
156 177 0
146 165 0
149 173 0
151 174 0
154 176 0
154 176 0
149 169 0
156 177 0
160 179 0
151 169 0
154 173 0
152 167 0
160 179 0
144 160 0
154 170 0
156 177 0
158 178 0
152 169 0
138 145 0
153 169 0
138 151 0
145 157 0
152 165 0
148 155 51
54 85 114
49 78 102
54 85 123
47 75 112
51 80 109
51 81 123
46 73 72
48 75 99
51 81 102
50 79 114
39 61 72
47 74 99
51 80 129
46 74 102
45 72 79
42 67 85
46 71 107
36 59 67
35 58 60
40 64 85
38 60 79
42 69 100
32 52 50
42 67 102
27 44 54
21 38 50
29 49 32
28 45 45
39 62 64
137 157 32
153 175 0
191 208 181
43 68 72
53 85 111
47 78 120
52 84 108
57 89 122
59 91 127
51 82 95
60 95 161
63 97 140
60 93 153
54 86 108
59 92 122
57 89 125
57 91 111
53 86 95
54 87 99
56 91 114
61 95 127
60 95 151
58 92 114
56 89 149
57 91 114
59 93 140
60 95 127
55 87 80
59 93 114
55 88 114
55 89 99
60 95 127
59 93 140
57 91 127
55 87 114
56 89 127
60 92 127
60 93 140
57 91 114
63 99 171
58 90 127
62 97 140
56 89 114
56 88 114
61 95 151
62 96 140
61 96 127
61 96 140
57 90 114
60 95 127
59 92 127
62 98 161
57 89 127
58 91 114
57 89 114
58 92 140
60 96 140
61 96 151
61 95 127
61 97 151
59 93 114
63 98 151
56 90 114
57 91 117
57 89 114
65 100 151
60 96 140
62 95 127
56 89 127
52 85 99
60 94 114
57 91 114
59 92 114
61 96 140
61 95 140
56 89 114
64 98 163
59 93 151
61 96 127
59 92 102
58 92 140
55 88 99
57 90 99
62 99 171
55 84 114
57 90 114
57 88 102
56 85 117
59 91 117
62 97 151
60 94 127
64 99 151
64 97 140
54 83 84
56 86 84
57 87 84
59 88 117
46 71 57
58 93 140
52 81 99
51 79 84
50 79 84
52 80 103
51 80 57
84 101 120
207 212 204
155 153 0
131 128 25
28 36 12
26 35 12
41 52 28
37 46 28
31 39 11
26 34 8
46 61 46
45 54 11
40 51 31
38 48 18
27 37 25
45 59 46
46 60 46
46 60 46
43 55 38
49 62 54
51 67 51
45 61 37
49 66 51
50 68 44
52 68 57
47 63 36
42 57 45
48 62 28
50 67 58
49 67 51
50 66 52
49 67 44
51 69 62
147 142 0
147 144 0
145 142 0
145 143 0
152 147 0
141 138 0
156 153 0
152 148 0
143 143 0
147 144 0
157 153 0
159 155 0
146 144 0
153 151 0
158 153 0
150 149 0
156 153 0
151 150 0
155 153 0
146 145 0
157 151 0
148 146 0
151 148 0
148 146 0
156 153 0
157 153 0
156 152 0
145 144 0
157 154 0
156 153 0
154 152 0
152 151 0
154 152 0
155 152 0
155 153 0
157 153 0
149 146 0
157 154 0
153 152 0
154 152 0
153 152 0
151 151 0
154 152 0
154 152 0
153 150 0
156 153 0
154 152 0
156 153 0
156 153 0
157 154 0
149 147 0
156 153 0
152 151 0
154 152 0
154 152 0
158 154 0
155 153 0
153 151 0
154 152 0
158 154 0
153 152 0
161 156 0
154 152 0
151 148 0
156 153 0
156 153 0
162 156 0
156 153 0
157 154 0
155 153 0
155 153 0
157 153 0
158 154 0
155 152 0
159 154 0
152 151 0
161 155 0
153 152 0
157 154 0
156 153 0
158 154 0
156 153 0
157 154 0
153 152 0
163 156 0
158 154 0
157 154 0
156 153 0
160 155 0
153 152 0
159 155 0
154 152 0
159 155 0
158 154 0
154 151 0
152 151 0
157 154 0
155 153 0
156 153 0
155 153 0
153 152 0
156 153 0
153 152 0
156 153 0
155 153 0
155 153 0
154 152 0
157 154 0
156 153 0
150 150 0
159 155 0
154 152 0
153 152 0
154 152 0
156 153 0
159 154 0
158 154 0
156 177 0
159 179 0
153 175 0
157 177 0
154 176 0
157 175 0
155 177 0
157 177 0
158 178 0
154 176 0
155 176 0
162 180 0
157 177 0
154 176 0
156 177 0
154 176 0
156 177 0
153 175 0
157 178 0
155 176 0
154 176 0
160 179 0
156 177 0
153 175 0
151 174 0
157 178 0
151 173 0
153 176 0
155 176 0
156 177 0
155 177 0
157 177 0
151 174 0
154 176 0
160 179 0
156 177 0
156 177 0
160 179 0
157 178 0
155 176 0
155 177 0
155 177 0
156 177 0
157 178 0
156 177 0
157 177 0
156 177 0
157 178 0
152 172 0
160 179 0
152 175 0
157 177 0
160 179 0
155 177 0
155 176 0
155 176 0
151 170 0
152 175 0
150 174 0
156 177 0
152 175 0
153 173 0
154 176 0
155 176 0
153 176 0
159 179 0
154 176 0
159 179 0
157 177 0
159 179 0
155 175 0
156 177 0
154 176 0
155 176 0
156 174 0
155 176 0
154 176 0
155 175 0
154 176 0
154 176 0
159 178 0
148 168 0
155 177 0
154 176 0
145 164 0
157 178 0
154 176 0
156 177 0
157 178 0
158 178 0
147 164 0
149 170 0
149 169 0
154 176 0
148 169 0
147 169 0
143 164 0
155 176 0
148 168 0
155 170 0
148 164 0
136 154 0
126 142 0
154 173 0
156 171 0
144 167 0
142 157 0
143 156 0
131 147 0
144 154 0
147 167 0
135 148 0
133 144 0
152 165 0
139 149 0
132 134 0
144 161 0
68 87 72
46 75 51
52 82 109
45 73 51
50 79 112
49 78 88
54 85 141
49 78 99
47 75 106
52 81 121
53 83 123
47 76 72
53 83 109
45 72 104
45 71 82
45 72 100
40 65 51
41 65 80
38 63 75
37 59 77
44 70 102
41 66 75
43 69 85
27 47 31
21 38 0
27 43 47
32 51 64
28 46 0
64 80 51
155 177 0
155 176 0
218 231 242
51 81 104
53 84 88
56 88 135
53 82 95
62 95 159
52 82 99
53 84 102
58 93 144
55 87 140
58 90 111
49 80 80
56 89 108
54 87 114
57 91 127
58 92 99
60 93 130
59 93 114
60 95 127
59 93 99
64 99 151
55 88 95
56 88 127
60 95 140
62 97 140
62 98 151
58 90 111
61 96 140
61 96 149
62 97 151
60 95 127
58 93 151
53 86 99
56 90 99
62 97 127
54 87 57
57 91 99
56 90 99
62 98 151
59 93 140
62 97 159
61 94 140
57 91 114
55 88 114
57 91 127
60 94 140
57 91 99
56 88 127
58 92 99
57 90 127
62 98 151
55 88 127
62 97 151
57 90 127
55 88 99
53 83 57
60 94 151
59 92 114
64 100 161
63 99 151
58 91 114
58 92 114
58 90 127
64 100 161
60 94 114
58 91 151
59 93 140
60 94 127
62 97 140
60 95 140
59 94 127
59 93 114
60 93 153
60 93 130
63 97 151
60 94 114
55 86 99
55 86 114
55 88 151
61 96 127
59 92 102
62 97 140
58 91 84
60 93 140
53 84 80
59 92 114
55 86 99
58 90 114
55 86 102
54 84 84
60 94 127
58 91 127
61 92 142
55 87 127
57 89 80
61 93 133
59 90 142
55 86 140
53 79 117
59 92 140
53 82 102
45 67 67
49 75 68
217 230 242
156 153 0
155 153 0
54 59 1
25 29 12
19 26 0
25 32 0
27 33 0
40 50 16
40 52 37
35 47 16
33 41 8
33 41 11
48 61 36
43 55 39
39 54 44
43 56 41
37 52 36
49 65 53
41 52 28
42 54 46
50 67 51
45 59 46
44 59 36
47 61 30
42 56 37
47 62 37
53 71 52
45 60 47
49 65 37
48 65 36
84 87 0
129 127 0
132 126 0
145 141 0
154 150 0
152 149 0
151 149 0
151 147 0
149 147 0
147 144 0
146 139 0
145 144 0
150 150 0
135 135 0
158 154 0
157 154 0
147 146 0
151 148 0
156 153 0
145 145 0
153 151 0
150 144 0
152 150 0
155 149 0
146 146 0
158 154 0
153 152 0
153 151 0
150 151 0
154 152 0
158 153 0
151 147 0
153 152 0
152 151 0
156 153 0
155 153 0
152 151 0
155 153 0
155 150 0
151 151 0
149 147 0
161 155 0
155 153 0
154 152 0
154 152 0
156 152 0
153 152 0
155 153 0
160 155 0
159 154 0
151 151 0
155 152 0
155 153 0
157 154 0
161 156 0
154 152 0
159 154 0
156 153 0
154 152 0
155 153 0
154 152 0
155 152 0
154 149 0
154 152 0
155 153 0
152 151 0
155 150 0
157 153 0
157 153 0
159 154 0
151 151 0
156 153 0
160 155 0
154 152 0
154 152 0
155 153 0
153 152 0
157 154 0
154 150 0
154 150 0
153 152 0
157 153 0
156 153 0
157 154 0
153 152 0
152 151 0
158 154 0
152 151 0
152 151 0
157 154 0
154 152 0
155 153 0
160 155 0
156 153 0
156 153 0
156 153 0
159 155 0
155 153 0
155 153 0
155 153 0
158 154 0
154 152 0
155 153 0
154 152 0
155 153 0
152 151 0
155 153 0
157 153 0
156 153 0
154 152 0
153 148 0
157 154 0
156 153 0
151 151 0
154 152 0
154 152 0
158 154 0
159 154 0
154 176 0
158 178 0
155 176 0
156 177 0
155 176 0
153 175 0
156 177 0
155 176 0
159 178 0
157 177 0
155 177 0
152 175 0
150 174 0
156 177 0
157 177 0
153 175 0
151 171 0
157 177 0
156 177 0
156 177 0
155 176 0
156 177 0
152 175 0
148 169 0
152 175 0
159 178 0
161 179 0
158 178 0
154 176 0
156 177 0
153 175 0
155 176 0
157 177 0
156 177 0
151 171 0
154 176 0
152 172 0
156 177 0
148 169 0
162 180 0
150 174 0
158 178 0
152 172 0
153 175 0
152 175 0
153 175 0
152 175 0
157 177 0
153 175 0
156 177 0
154 175 0
158 178 0
157 177 0
158 178 0
153 175 0
139 161 0
151 174 0
158 178 0
159 177 0
155 177 0
152 175 0
154 176 0
153 175 0
153 175 0
154 176 0
154 176 0
154 175 0
156 177 0
155 175 0
156 177 0
154 173 0
150 174 0
150 171 0
145 164 0
158 178 0
153 175 0
153 175 0
151 173 0
155 173 0
155 174 0
156 177 0
153 172 0
158 178 0
156 177 0
149 170 0
156 177 0
155 174 0
160 176 0
151 166 0
148 169 0
158 178 0
159 173 0
152 175 0
141 162 0
157 178 0
160 179 0
156 177 0
157 176 0
156 177 0
146 167 0
157 174 0
148 164 0
140 160 0
143 156 0
149 171 0
148 169 0
152 169 0
154 173 0
141 154 0
145 161 0
122 130 0
145 159 0
149 160 0
151 164 0
142 154 0
142 155 0
139 153 0
81 82 72
47 74 102
47 75 102
50 78 112
50 78 0
42 67 72
51 81 85
49 78 97
42 69 68
49 78 85
45 73 45
45 72 97
39 64 51
43 68 88
42 67 82
48 76 99
44 69 94
45 70 68
36 58 68
39 63 94
28 46 46
44 70 88
36 58 54
24 40 0
26 42 59
34 55 0
29 48 34
36 56 70
98 115 0
154 176 0
154 176 0
213 227 228
145 159 161
43 70 94
47 75 111
51 82 126
52 83 76
56 89 114
55 87 101
53 85 99
56 89 114
55 88 120
57 92 99
53 85 108
61 95 140
59 93 114
54 86 95
57 92 151
56 88 127
61 96 127
59 93 125
57 90 127
59 93 114
59 93 114
51 80 114
57 90 114
57 92 140
57 91 111
62 98 151
58 92 114
64 99 151
62 96 127
61 95 114
63 98 149
56 91 114
57 90 99
58 93 125
57 91 99
57 91 137
61 97 140
59 93 137
61 96 127
59 93 127
58 92 99
60 93 151
64 100 161
54 83 57
58 93 114
56 90 114
63 99 161
52 81 80
50 81 99
55 89 114
63 99 161
59 94 114
56 88 114
56 89 99
53 85 127
59 92 114
56 88 127
58 91 127
58 93 114
62 97 140
64 99 161
56 88 127
62 96 153
58 92 114
55 86 80
59 93 140
61 93 117
63 99 151
59 93 140
58 91 151
60 94 140
62 97 140
57 89 105
58 92 127
49 81 80
62 94 130
57 90 99
61 95 140
53 86 114
61 94 140
55 86 117
58 92 114
56 86 84
54 86 80
61 94 127
52 84 99
55 87 127
60 95 127
50 79 80
58 85 117
60 95 127
57 87 117
52 81 128
56 86 130
53 84 129
61 93 142
52 80 103
55 83 99
51 75 88
51 76 102
144 155 162
224 237 255
164 163 80
156 153 0
141 140 0
44 55 28
33 42 0
20 29 11
42 55 37
36 47 12
26 32 16
46 62 45
40 51 28
41 55 37
32 42 31
45 59 52
45 56 36
48 57 34
40 52 31
45 57 39
50 67 58
42 57 37
42 52 37
42 56 25
50 69 62
40 55 36
51 68 36
49 65 28
48 65 36
47 62 44
43 57 37
52 71 51
75 81 25
118 113 0
135 133 0
123 120 0
135 130 0
127 123 0
128 130 0
143 141 0
132 130 0
148 144 0
145 145 0
149 147 0
139 138 0
150 150 0
154 151 0
150 147 0
152 151 0
154 152 0
157 154 0
151 148 0
149 148 0
148 146 0
154 151 0
157 153 0
152 151 0
154 152 0
151 147 0
156 153 0
146 145 0
153 152 0
154 152 0
152 150 0
154 152 0
156 151 0
162 156 0
152 151 0
150 147 0
153 152 0
153 152 0
160 155 0
155 153 0
153 151 0
154 152 0
153 152 0
154 152 0
160 155 0
156 153 0
158 154 0
152 150 0
157 154 0
152 150 0
153 149 0
158 154 0
155 153 0
154 152 0
151 151 0
154 152 0
157 154 0
156 153 0
156 153 0
154 149 0
155 153 0
154 152 0
156 153 0
156 153 0
154 152 0
160 155 0
157 153 0
157 154 0
157 154 0
148 143 0
156 153 0
156 153 0
158 154 0
160 155 0
154 152 0
152 151 0
155 150 0
160 155 0
149 150 0
162 156 0
153 152 0
155 151 0
157 153 0
158 154 0
150 148 0
155 153 0
156 153 0
154 152 0
151 151 0
152 151 0
155 153 0
148 147 0
154 152 0
153 152 0
154 152 0
155 153 0
155 153 0
158 154 0
155 153 0
154 152 0
157 154 0
154 152 0
156 153 0
153 152 0
154 152 0
150 150 0
159 155 0
151 151 0
153 152 0
155 153 0
155 153 0
157 154 0
155 153 0
155 152 0
156 153 0
161 155 0
157 154 0
155 176 0
161 179 0
158 178 0
158 178 0
156 177 0
158 178 0
153 175 0
156 177 0
155 177 0
154 176 0
151 174 0
157 177 0
158 178 0
152 175 0
159 179 0
152 175 0
155 176 0
153 175 0
152 175 0
157 178 0
154 176 0
160 179 0
161 179 0
156 177 0
152 175 0
157 177 0
160 179 0
151 174 0
153 176 0
156 177 0
150 174 0
156 177 0
155 176 0
156 177 0
156 177 0
149 170 0
156 177 0
157 177 0
154 176 0
157 177 0
157 178 0
157 177 0
151 171 0
159 178 0
155 177 0
157 177 0
158 178 0
153 176 0
153 175 0
150 170 0
156 177 0
161 180 0
155 177 0
154 176 0
154 176 0
153 175 0
155 176 0
157 178 0
156 177 0
156 171 0
156 177 0
154 176 0
152 174 0
151 171 0
155 177 0
156 177 0
156 177 0
145 168 0
159 178 0
158 178 0
156 174 0
158 175 0
154 176 0
144 167 0
146 168 0
158 178 0
156 176 0
153 175 0
159 178 0
156 177 0
146 168 0
150 170 0
152 172 0
155 176 0
145 168 0
147 163 0
155 167 0
158 178 0
155 176 0
148 170 0
151 171 0
147 165 0
158 175 0
156 176 0
146 168 0
148 169 0
151 171 0
133 151 0
149 170 0
140 153 0
154 176 0
151 169 0
136 156 0
148 166 0
158 175 0
141 160 0
144 158 0
137 160 0
158 178 0
141 155 0
145 164 0
147 166 0
152 165 0
143 156 0
136 150 0
138 157 0
137 150 0
109 120 0
45 71 88
51 81 85
47 74 99
46 73 85
45 74 0
48 77 85
47 75 85
46 73 68
44 71 75
45 72 72
48 76 68
44 70 85
42 67 64
45 73 68
38 62 51
41 65 51
40 63 103
35 56 64
31 52 34
36 59 28
41 64 75
33 56 73
32 54 54
30 49 28
27 46 32
38 59 69
36 57 64
148 168 0
152 171 0
158 178 0
220 234 242
202 215 228
54 86 137
41 66 94
48 76 102
54 84 95
57 90 125
56 88 95
57 89 137
56 90 125
57 90 127
57 91 125
61 96 140
63 98 149
56 90 127
57 90 99
60 93 137
55 86 114
55 87 95
55 86 114
54 86 114
59 93 122
56 89 95
59 94 114
58 93 114
62 96 151
61 95 127
62 98 159
60 95 127
58 92 125
62 96 140
61 96 127
56 89 95
62 97 140
59 93 140
59 94 127
61 95 127
59 93 114
60 95 140
56 89 114
60 94 114
59 92 127
54 84 80
55 89 99
59 94 140
56 89 99
61 94 140
58 91 114
60 96 140
62 97 140
63 100 171
61 96 140
62 97 151
60 94 140
61 96 140
61 96 127
60 95 127
55 88 114
60 94 114
65 100 161
59 91 127
62 97 151
56 88 140
61 96 140
58 92 99
60 94 140
57 89 114
58 91 127
62 98 161
52 84 127
63 98 151
61 94 127
59 91 140
56 86 99
57 89 151
59 93 127
57 88 117
60 94 140
57 89 127
56 87 102
58 92 99
57 90 99
57 89 114
55 88 127
60 94 151
52 83 84
58 89 130
57 88 117
59 90 127
46 74 84
64 99 151
60 94 117
62 96 142
55 81 88
54 83 99
50 77 84
49 76 114
54 84 102
53 81 84
57 83 88
52 79 99
44 63 85
158 174 151
224 237 255
171 175 88
150 148 0
143 143 0
38 49 25
36 45 30
30 40 25
33 42 16
34 44 25
31 41 25
33 44 8
36 48 28
43 55 36
41 55 36
40 51 39
41 55 36
50 66 47
47 62 25
42 56 36
48 64 51
40 48 19
47 59 22
39 50 11
48 65 38
44 57 30
47 64 36
51 67 39
53 72 57
51 69 52
36 51 25
41 57 36
128 124 0
135 134 0
147 144 0
145 141 0
138 134 0
138 133 0
134 133 0
149 147 0
154 151 0
155 151 0
143 140 0
143 144 0
145 141 0
152 150 0
155 152 0
138 138 0
136 136 0
144 143 0
145 144 0
142 143 0
160 154 0
153 149 0
144 141 0
147 145 0
158 152 0
149 147 0
152 151 0
149 147 0
148 146 0
156 152 0
137 134 0
145 145 0
144 142 0
154 152 0
158 154 0
147 146 0
155 153 0
157 153 0
151 151 0
147 146 0
157 154 0
156 153 0
155 150 0
157 154 0
153 152 0
157 154 0
151 147 0
153 152 0
142 142 0
157 154 0
153 149 0
152 151 0
154 150 0
154 152 0
153 152 0
155 152 0
157 154 0
153 152 0
157 154 0
155 153 0
156 153 0
153 150 0
162 156 0
154 152 0
150 147 0
153 152 0
151 151 0
156 153 0
155 153 0
156 152 0
154 152 0
155 153 0
154 152 0
162 153 0
157 153 0
156 153 0
156 151 0
153 152 0
156 153 0
156 153 0
151 151 0
156 153 0
156 153 0
154 152 0
154 152 0
154 152 0
162 156 0
157 154 0
156 153 0
151 147 0
159 154 0
155 153 0
156 153 0
154 152 0
159 154 0
155 153 0
142 141 0
159 155 0
158 154 0
154 152 0
161 156 0
153 152 0
155 153 0
153 152 0
158 154 0
159 154 0
153 150 0
152 151 0
150 150 0
156 153 0
153 149 0
156 153 0
157 154 0
155 153 0
150 147 0
154 152 0
157 154 0
156 153 0
155 176 0
154 176 0
159 178 0
157 178 0
163 181 0
147 169 0
145 167 0
153 176 0
150 172 0
152 175 0
155 176 0
155 176 0
155 177 0
154 176 0
159 179 0
151 171 0
152 175 0
157 178 0
151 174 0
153 175 0
157 177 0
156 177 0
155 176 0
156 177 0
158 178 0
153 175 0
153 175 0
156 177 0
155 176 0
152 175 0
154 176 0
155 176 0
151 174 0
156 177 0
157 177 0
160 179 0
151 175 0
153 176 0
162 180 0
155 176 0
152 175 0
158 178 0
157 177 0
157 177 0
153 176 0
152 175 0
154 176 0
156 177 0
156 177 0
155 177 0
155 176 0
154 176 0
158 175 0
152 175 0
147 169 0
156 177 0
161 180 0
156 177 0
153 175 0
157 177 0
158 178 0
155 177 0
144 167 0
157 176 0
153 175 0
153 176 0
156 177 0
150 171 0
159 179 0
155 176 0
140 162 0
150 174 0
150 173 0
153 172 0
146 166 0
145 163 0
147 168 0
148 169 0
154 173 0
155 176 0
154 176 0
154 175 0
149 170 0
155 176 0
160 179 0
152 172 0
157 175 0
145 166 0
141 162 0
142 162 0
140 160 0
153 173 0
154 176 0
157 177 0
153 169 0
147 168 0
151 173 0
148 170 0
157 177 0
149 167 0
146 165 0
155 177 0
139 156 0
146 164 0
139 156 0
148 173 0
137 159 0
128 149 0
130 146 0
151 170 0
118 133 0
125 144 0
135 159 0
126 143 0
121 133 0
132 150 0
127 141 0
130 143 0
80 95 0
51 81 88
47 77 72
47 73 72
47 73 88
45 72 88
50 79 102
46 74 72
50 79 109
49 78 72
43 67 82
51 79 112
40 64 74
39 63 20
47 73 114
40 64 68
50 78 88
34 56 68
29 48 63
42 66 68
36 58 75
38 61 51
32 52 56
40 65 67
39 62 60
29 49 0
141 161 0
154 173 0
156 177 0
161 184 0
174 198 0
165 189 0
52 82 95
53 83 111
54 85 114
52 82 108
62 97 140
61 95 137
58 92 111
55 87 147
58 90 125
57 89 125
50 80 95
61 96 157
54 84 80
60 95 149
57 91 137
59 93 137
60 94 151
58 90 114
51 82 80
54 84 114
57 91 137
53 85 57
58 92 140
56 89 114
60 95 127
56 88 127
62 96 127
52 84 80
61 96 140
60 94 114
66 102 171
64 100 161
56 90 127
62 97 159
56 90 127
56 91 127
59 94 127
62 98 151
63 99 151
57 91 127
55 87 99
53 85 80
58 92 99
59 93 114
62 97 151
60 93 151
60 94 127
56 89 140
57 90 99
55 88 80
59 94 127
60 95 127
52 85 99
60 94 140
57 89 140
61 95 140
64 99 151
61 95 127
59 94 127
62 95 151
58 92 127
58 91 140
60 94 114
61 95 151
54 88 99
60 95 127
59 91 114
63 98 140
58 91 114
59 93 127
57 89 117
56 88 114
58 92 114
56 88 99
54 88 99
61 97 151
59 91 140
59 93 151
55 88 99
57 89 117
59 90 140
60 92 105
58 92 114
61 95 140
58 93 140
60 92 117
54 86 114
55 87 99
60 93 133
59 94 114
49 80 80
54 84 84
56 85 114
55 85 114
56 83 84
51 81 99
49 79 85
49 76 114
45 69 103
45 68 100
158 178 0
173 197 0
161 171 0
157 153 0
154 152 0
111 112 0
31 41 0
35 43 11
31 39 27
32 38 3
27 35 14
31 39 0
33 39 11
40 50 19
45 57 28
36 48 2
32 42 2
46 61 36
51 70 62
47 59 32
49 65 28
45 62 25
43 57 37
39 54 36
51 67 47
47 62 28
55 71 58
43 58 28
42 58 37
44 59 37
49 66 28
93 99 36
113 115 0
139 135 0
113 111 0
140 134 0
138 135 0
138 136 0
141 140 0
144 143 0
145 145 0
133 132 0
143 139 0
146 143 0
102 105 0
141 140 0
140 139 0
147 145 0
142 142 0
142 141 0
133 134 0
146 146 0
144 141 0
152 149 0
151 147 0
142 143 0
154 152 0
144 145 0
158 154 0
155 152 0
153 149 0
154 150 0
159 155 0
152 148 0
153 148 0
158 154 0
154 150 0
150 147 0
150 149 0
145 145 0
155 153 0
148 146 0
153 152 0
151 148 0
151 151 0
150 145 0
155 151 0
151 148 0
154 152 0
153 150 0
151 150 0
156 153 0
156 153 0
156 153 0
158 154 0
154 150 0
154 152 0
156 153 0
153 152 0
156 153 0
155 153 0
152 148 0
152 151 0
155 152 0
162 156 0
156 153 0
157 153 0
157 153 0
153 152 0
156 153 0
157 154 0
157 154 0
156 153 0
157 154 0
157 153 0
154 152 0
156 153 0
154 152 0
158 151 0
156 153 0
155 151 0
158 154 0
160 155 0
154 152 0
153 152 0
158 154 0
159 154 0
155 150 0
158 154 0
154 152 0
146 145 0
155 153 0
156 152 0
155 153 0
153 149 0
156 153 0
159 155 0
157 154 0
156 153 0
154 152 0
163 156 0
152 151 0
159 155 0
157 153 0
155 153 0
157 154 0
156 153 0
155 152 0
151 151 0
152 151 0
155 153 0
156 153 0
154 152 0
151 151 0
154 152 0
158 151 0
153 152 0
156 153 0
155 153 0
156 153 0
160 179 0
158 178 0
158 178 0
154 176 0
155 176 0
155 176 0
151 175 0
156 177 0
154 176 0
151 174 0
158 178 0
153 176 0
157 178 0
158 178 0
160 179 0
155 177 0
160 179 0
155 176 0
155 176 0
154 176 0
154 176 0
160 179 0
156 177 0
156 177 0
155 177 0
155 176 0
161 180 0
149 169 0
152 175 0
157 177 0
159 179 0
161 180 0
155 176 0
155 177 0
158 178 0
155 176 0
155 176 0
157 177 0
160 179 0
153 175 0
156 177 0
155 177 0
152 175 0
155 176 0
155 176 0
155 176 0
160 179 0
155 176 0
156 177 0
156 175 0
156 177 0
157 178 0
152 175 0
154 176 0
154 176 0
160 178 0
147 169 0
155 176 0
160 179 0
157 177 0
156 176 0
156 177 0
153 172 0
155 177 0
149 170 0
157 177 0
157 175 0
157 177 0
159 177 0
153 175 0
140 160 0
155 176 0
147 164 0
155 174 0
147 162 0
151 174 0
150 168 0
156 177 0
149 167 0
149 170 0
150 170 0
156 177 0
147 168 0
156 177 0
136 157 0
150 170 0
152 171 0
151 174 0
148 168 0
144 163 0
157 178 0
152 172 0
155 176 0
147 167 0
148 168 0
154 176 0
153 171 0
147 166 0
143 167 0
130 151 0
132 151 0
151 171 0
147 167 0
121 138 0
132 149 0
128 143 0
156 171 0
142 158 0
152 172 0
145 168 0
126 146 0
132 152 0
134 153 0
121 136 0
131 140 0
121 134 0
145 164 0
131 146 0
120 139 0
46 73 72
47 76 51
53 84 88
51 80 99
49 75 72
48 76 72
50 79 85
49 77 72
46 74 99
51 79 112
48 76 68
47 75 93
43 68 88
45 72 51
38 63 32
42 69 72
35 56 0
33 53 51
31 51 60
36 58 51
27 47 37
31 50 0
33 53 0
35 56 74
77 94 72
140 162 0
158 178 0
159 178 0
172 195 0
182 202 0
177 199 0
89 110 51
53 83 135
47 77 57
59 93 125
43 71 92
53 84 120
56 89 127
53 84 99
57 90 114
66 101 161
53 85 99
55 86 99
59 93 95
50 82 105
57 90 127
58 92 127
60 94 137
59 93 147
55 87 80
52 84 80
64 99 167
61 96 140
59 93 127
58 92 114
59 92 114
50 81 80
59 93 114
56 89 99
57 91 127
58 92 127
58 92 127
61 96 140
57 89 114
60 94 127
59 93 99
60 93 127
56 89 114
61 97 151
59 94 127
63 97 151
62 98 151
60 94 127
60 95 161
57 91 127
60 95 151
63 98 151
53 85 99
59 93 114
60 94 125
56 89 127
61 96 140
54 85 99
59 91 127
58 93 99
60 96 140
61 96 140
57 91 99
57 92 99
55 89 114
58 92 99
60 95 127
61 95 127
53 81 80
56 86 114
57 91 102
58 93 114
61 97 151
58 94 127
55 85 114
53 83 99
57 93 127
64 98 153
62 97 127
62 97 140
59 94 127
65 100 173
55 84 117
56 88 99
61 93 140
64 99 161
61 96 140
64 100 161
59 94 127
61 93 142
55 81 102
56 88 80
58 88 120
53 83 62
57 90 117
54 82 108
57 90 99
50 78 84
59 93 114
57 85 117
58 89 120
52 82 82
57 87 117
54 84 84
48 71 62
46 65 36
171 196 0
176 199 0
169 189 0
157 153 0
152 151 0
146 145 0
59 65 28
24 33 0
39 50 28
36 45 11
34 45 11
42 53 30
39 50 11
47 62 36
48 60 48
33 43 0
42 56 0
37 51 25
36 44 19
41 52 0
43 58 44
45 61 45
48 65 37
41 55 36
46 63 45
45 59 39
49 64 44
42 56 36
45 62 36
52 72 51
82 89 44
126 125 0
146 141 0
61 66 0
145 139 0
126 125 0
128 127 0
120 122 0
99 99 0
136 134 0
109 107 0
132 132 0
145 141 0
152 150 0
136 136 0
143 142 0
140 136 0
146 143 0
142 141 0
156 153 0
143 143 0
143 140 0
152 148 0
153 152 0
141 139 0
152 151 0
150 145 0
157 154 0
147 145 0
150 147 0
140 138 0
154 152 0
137 135 0
139 135 0
148 143 0
147 146 0
154 152 0
147 145 0
155 150 0
150 146 0
154 152 0
154 150 0
154 152 0
136 132 0
152 149 0
156 150 0
158 154 0
154 151 0
157 151 0
149 145 0
151 148 0
153 152 0
146 145 0
156 153 0
153 152 0
151 151 0
146 146 0
153 152 0
152 151 0
155 153 0
152 151 0
153 152 0
158 154 0
160 155 0
157 153 0
157 153 0
154 150 0
153 152 0
157 153 0
157 154 0
157 154 0
154 152 0
155 153 0
145 144 0
158 154 0
154 152 0
144 141 0
153 152 0
147 145 0
155 152 0
162 156 0
156 153 0
158 154 0
143 140 0
153 152 0
154 152 0
156 153 0
158 154 0
155 150 0
153 152 0
155 153 0
158 154 0
159 154 0
158 154 0
154 152 0
155 153 0
159 155 0
156 151 0
156 153 0
151 146 0
150 150 0
158 154 0
154 152 0
154 152 0
150 146 0
153 152 0
157 153 0
155 153 0
157 153 0
156 153 0
149 150 0
156 153 0
151 148 0
157 154 0
153 152 0
154 152 0
156 153 0
159 154 0
157 153 0
150 150 0
154 176 0
156 177 0
156 177 0
151 174 0
155 176 0
159 178 0
157 177 0
155 175 0
157 177 0
152 175 0
153 172 0
156 177 0
155 177 0
160 178 0
155 176 0
151 171 0
157 177 0
153 174 0
157 177 0
152 175 0
157 178 0
156 177 0
156 177 0
146 168 0
155 177 0
159 178 0
158 178 0
151 173 0
153 174 0
146 167 0
155 176 0
153 174 0
152 175 0
154 176 0
151 171 0
152 175 0
150 174 0
155 176 0
158 178 0
159 179 0
156 177 0
159 179 0
154 176 0
147 167 0
154 176 0
158 178 0
153 175 0
154 175 0
155 177 0
162 180 0
153 176 0
153 175 0
151 174 0
158 178 0
150 170 0
154 173 0
154 175 0
152 173 0
156 177 0
152 175 0
154 175 0
155 176 0
150 174 0
153 175 0
147 168 0
154 176 0
156 177 0
155 177 0
148 168 0
159 178 0
156 177 0
144 167 0
140 162 0
151 171 0
158 178 0
143 165 0
158 178 0
153 175 0
157 177 0
153 171 0
155 176 0
146 167 0
156 177 0
158 178 0
141 162 0
142 163 0
151 170 0
149 166 0
142 162 0
152 174 0
142 161 0
147 169 0
152 175 0
153 175 0
145 166 0
146 165 0
154 176 0
137 156 0
152 170 0
143 160 0
142 161 0
158 177 0
133 152 0
130 147 0
129 145 0
118 139 0
148 167 0
146 162 0
126 144 0
147 163 0
135 147 0
129 146 0
139 158 0
126 145 0
137 157 0
112 133 0
119 137 0
115 128 0
103 124 0
99 110 0
46 74 72
43 69 72
48 77 85
47 73 102
47 74 51
44 69 72
50 77 82
45 70 102
43 70 51
43 69 45
38 62 45
47 75 97
40 65 77
37 60 51
41 66 75
41 68 45
36 58 68
45 70 82
31 52 63
28 47 27
28 46 0
34 54 51
35 57 45
131 151 0
154 172 0
152 172 0
151 172 0
172 197 0
178 200 0
174 198 0
91 111 76
52 81 134
58 91 140
43 70 80
48 78 84
51 81 99
53 84 104
61 95 127
57 91 127
52 82 114
58 91 125
58 91 127
55 88 125
59 94 114
59 92 125
55 88 140
63 99 159
58 93 137
60 93 137
57 90 114
55 89 114
62 97 127
60 94 127
54 85 99
62 97 140
60 95 127
63 98 151
58 93 114
62 97 140
56 89 99
63 98 140
63 98 161
60 93 127
57 92 114
61 95 127
54 86 114
54 84 127
61 97 151
56 90 125
62 97 151
53 84 80
58 91 114
61 95 151
59 93 111
57 91 99
58 91 114
61 96 127
57 92 114
62 97 140
57 90 114
58 91 114
62 98 151
61 95 127
59 93 114
59 93 127
57 89 114
61 92 117
60 94 140
60 94 127
63 98 151
51 81 80
60 94 114
56 89 127
60 94 114
61 97 151
59 94 127
58 89 127
59 93 140
58 93 140
57 90 114
55 88 80
60 94 130
62 97 140
61 94 127
60 95 127
56 88 114
59 93 127
58 89 130
64 100 161
56 87 105
59 91 117
57 88 127
56 89 80
59 91 130
58 90 99
58 92 117
56 87 114
61 96 151
60 92 127
55 86 114
55 85 114
55 85 114
53 79 84
49 73 62
56 85 120
53 79 88
53 79 88
53 80 117
48 75 99
94 118 102
172 196 0
172 197 0
174 198 0
158 158 0
157 153 0
156 153 0
135 132 0
28 36 11
32 42 0
23 33 1
38 48 11
33 41 0
30 35 16
34 44 25
36 46 11
48 62 46
35 44 3
42 53 32
47 63 31
40 50 25
42 56 36
41 54 44
45 62 45
40 51 40
47 62 28
47 62 11
42 55 36
40 53 37
45 62 0
46 61 37
128 127 0
94 96 0
136 136 0
118 116 0
109 110 0
119 117 0
145 141 0
137 136 0
143 141 0
146 141 0
128 127 0
151 148 0
124 124 0
122 122 0
124 126 0
127 127 0
148 147 0
146 145 0
158 154 0
147 146 0
156 153 0
131 126 0
141 136 0
148 145 0
149 146 0
145 141 0
154 151 0
149 147 0
144 142 0
139 138 0
152 149 0
148 146 0
141 143 0
137 137 0
153 151 0
146 145 0
157 154 0
157 154 0
155 152 0
134 133 0
143 142 0
141 140 0
153 148 0
158 154 0
155 152 0
145 145 0
148 146 0
154 152 0
150 150 0
158 154 0
155 153 0
151 147 0
158 154 0
147 145 0
155 153 0
149 147 0
155 153 0
151 147 0
156 150 0
162 156 0
149 148 0
147 143 0
156 153 0
155 150 0
146 146 0
156 153 0
152 149 0
153 149 0
155 153 0
155 150 0
150 148 0
156 153 0
144 142 0
149 147 0
155 150 0
151 151 0
156 153 0
145 144 0
153 149 0
159 155 0
155 153 0
154 150 0
154 152 0
153 149 0
154 152 0
152 151 0
157 154 0
156 153 0
159 155 0
149 147 0
149 147 0
159 154 0
159 155 0
152 149 0
155 152 0
157 154 0
154 151 0
163 156 0
158 152 0
154 152 0
159 155 0
155 153 0
147 145 0
161 156 0
155 153 0
155 153 0
155 153 0
154 152 0
158 154 0
161 155 0
158 154 0
155 153 0
155 153 0
157 153 0
155 152 0
155 153 0
160 155 0
155 153 0
155 153 0
157 154 0
157 178 0
154 176 0
158 178 0
152 175 0
153 175 0
165 182 0
155 176 0
155 176 0
156 177 0
158 178 0
155 176 0
158 178 0
159 179 0
154 176 0
151 173 0
154 176 0
158 178 0
155 176 0
152 175 0
155 176 0
155 176 0
156 177 0
153 175 0
152 175 0
154 175 0
159 178 0
154 176 0
156 177 0
151 174 0
157 177 0
154 176 0
153 175 0
157 177 0
153 172 0
159 178 0
152 175 0
154 176 0
156 177 0
151 174 0
154 176 0
155 177 0
148 169 0
160 176 0
158 178 0
154 173 0
158 177 0
153 175 0
155 176 0
154 176 0
139 161 0
154 175 0
152 175 0
153 173 0
155 177 0
157 177 0
156 174 0
155 176 0
155 176 0
144 165 0
159 179 0
157 178 0
155 176 0
154 176 0
154 175 0
153 175 0
149 170 0
138 159 0
157 178 0
148 171 0
149 170 0
133 153 0
148 167 0
146 168 0
152 173 0
156 176 0
158 178 0
150 172 0
156 177 0
160 179 0
152 174 0
160 179 0
146 168 0
146 166 0
148 166 0
148 169 0
139 160 0
154 176 0
140 160 0
150 170 0
151 171 0
135 155 0
148 168 0
143 160 0
149 170 0
144 164 0
145 165 0
157 177 0
156 177 0
152 175 0
142 165 0
150 170 0
143 165 0
147 162 0
137 156 0
122 144 0
117 135 0
117 135 0
142 160 0
125 144 0
144 164 0
136 153 0
122 139 0
134 149 0
135 154 0
139 160 0
132 151 0
122 141 0
128 144 0
100 110 0
108 125 0
62 85 0
39 62 51
45 74 72
47 75 72
47 75 72
41 67 51
42 67 72
48 75 68
41 68 68
42 66 68
47 74 85
42 66 72
47 75 72
40 63 64
39 62 87
36 58 46
37 61 74
35 57 64
38 60 79
30 50 0
24 41 0
42 68 68
103 120 0
158 178 0
148 169 0
155 175 0
159 181 0
176 199 0
176 199 0
176 199 0
140 162 0
54 84 120
53 82 57
59 92 144
57 89 140
54 86 76
52 83 111
53 84 114
51 80 57
54 84 95
58 91 114
50 80 80
50 80 76
60 96 140
59 94 125
53 86 114
49 79 80
60 93 127
56 88 99
52 83 76
58 91 127
59 92 111
59 92 111
61 95 159
57 90 99
61 95 140
58 92 127
58 92 114
58 91 127
56 89 99
59 93 127
60 94 151
56 89 114
62 96 127
58 91 114
58 91 114
56 90 111
54 85 99
61 96 149
54 84 114
64 99 151
60 95 127
59 93 140
58 92 99
57 91 127
56 89 114
55 88 140
59 93 127
59 92 114
58 92 114
54 86 114
59 95 127
63 97 151
60 95 114
54 84 99
57 91 114
59 93 127
61 96 127
60 93 114
60 96 140
58 91 140
56 88 114
59 94 114
56 90 114
57 90 99
57 90 140
61 96 140
61 96 127
62 96 127
62 97 140
57 91 80
59 94 114
60 93 130
50 82 99
65 101 171
66 101 161
49 75 67
60 93 114
57 90 99
61 96 127
59 90 117
57 89 117
60 94 114
57 89 114
58 91 127
58 89 127
61 94 127
55 84 102
56 88 99
52 83 62
52 83 80
49 74 102
58 89 133
59 93 117
56 87 114
57 85 114
57 89 99
39 60 25
46 71 80
148 169 57
176 199 0
171 196 0
180 201 0
166 175 0
155 153 0
147 146 0
149 146 0
117 120 25
40 53 36
34 44 28
25 36 0
25 32 0
36 48 25
33 41 11
38 48 16
37 46 16
42 56 28
49 63 45
48 63 36
45 58 37
42 58 25
48 64 45
44 57 25
51 69 51
49 66 44
49 65 51
43 56 28
48 64 57
52 69 51
65 71 28
135 133 0
83 85 0
133 130 0
128 127 0
84 88 0
109 111 0
122 124 0
104 103 0
97 99 0
123 123 0
127 129 0
148 146 0
127 128 0
143 143 0
141 136 0
151 149 0
155 151 0
133 134 0
157 153 0
128 127 0
136 137 0
155 150 0
140 140 0
132 131 0
158 154 0
145 144 0
152 151 0
148 146 0
154 152 0
155 152 0
152 151 0
148 146 0
156 153 0
147 147 0
136 133 0
146 144 0
149 146 0
145 144 0
155 153 0
154 149 0
149 145 0
137 134 0
146 145 0
139 138 0
155 153 0
146 142 0
153 152 0
155 153 0
152 149 0
153 148 0
152 151 0
155 150 0
147 145 0
146 143 0
146 145 0
147 145 0
158 154 0
154 152 0
152 149 0
154 152 0
154 152 0
143 139 0
155 153 0
153 152 0
146 145 0
156 153 0
156 151 0
154 150 0
153 152 0
157 154 0
149 141 0
153 152 0
155 153 0
159 154 0
146 145 0
160 155 0
156 153 0
144 144 0
148 146 0
156 153 0
154 152 0
147 146 0
156 153 0
152 151 0
156 153 0
155 153 0
154 152 0
153 149 0
156 153 0
158 154 0
160 155 0
155 153 0
156 150 0
155 153 0
158 154 0
154 152 0
157 154 0
154 145 0
157 153 0
156 153 0
157 154 0
159 155 0
154 152 0
153 149 0
154 152 0
155 153 0
153 149 0
154 152 0
156 153 0
158 154 0
157 154 0
152 151 0
155 153 0
155 153 0
156 153 0
156 153 0
154 152 0
152 151 0
159 155 0
155 150 0
157 177 0
157 176 0
150 170 0
157 178 0
154 176 0
155 176 0
159 178 0
155 175 0
154 176 0
154 176 0
153 175 0
155 177 0
153 176 0
152 172 0
160 179 0
156 177 0
155 176 0
156 177 0
157 177 0
155 175 0
155 176 0
156 177 0
155 175 0
155 176 0
156 177 0
154 173 0
146 169 0
156 177 0
156 176 0
156 177 0
158 178 0
156 177 0
151 171 0
157 177 0
159 179 0
153 176 0
153 175 0
153 176 0
154 176 0
157 178 0
153 175 0
155 176 0
156 176 0
156 177 0
156 177 0
161 180 0
156 177 0
155 175 0
152 175 0
155 176 0
159 178 0
148 169 0
153 175 0
153 175 0
155 176 0
160 178 0
145 164 0
150 174 0
150 170 0
152 171 0
150 171 0
159 178 0
146 165 0
152 175 0
154 172 0
152 175 0
152 175 0
155 176 0
154 175 0
153 175 0
143 166 0
146 167 0
155 176 0
148 169 0
152 172 0
156 177 0
148 166 0
156 177 0
154 176 0
158 177 0
156 177 0
136 155 0
156 177 0
145 167 0
145 162 0
145 166 0
151 171 0
145 168 0
141 162 0
145 165 0
154 173 0
146 168 0
157 177 0
156 176 0
156 177 0
145 165 0
141 159 0
142 162 0
148 169 0
155 176 0
143 164 0
145 164 0
145 166 0
144 164 0
153 170 0
128 148 0
127 146 0
137 157 0
140 160 0
145 164 0
118 135 0
132 148 0
112 132 0
152 175 0
128 149 0
121 137 0
117 134 0
122 137 0
112 127 0
97 114 0
96 109 0
45 72 51
49 77 102
51 80 88
46 74 51
42 67 0
35 57 68
40 64 51
42 69 51
40 63 72
38 61 0
28 47 0
43 68 88
42 68 75
41 65 51
38 61 68
46 73 0
43 67 0
47 74 85
28 47 0
37 59 51
87 109 85
137 159 0
151 170 0
156 174 0
155 176 0
173 197 0
174 197 0
171 196 0
177 199 0
175 198 0
41 67 67
55 85 95
45 72 80
56 90 111
53 85 76
52 84 116
56 91 127
54 87 80
60 95 127
49 79 57
59 92 125
60 92 127
54 86 80
52 83 57
57 92 140
61 96 151
60 95 137
57 88 114
56 89 92
56 89 99
53 84 99
54 87 80
54 86 57
62 98 151
54 85 76
61 95 114
59 92 127
55 87 114
47 76 0
51 83 80
54 86 99
63 98 149
49 80 57
56 88 99
60 95 127
49 79 80
54 86 99
58 92 127
60 94 127
55 87 99
53 83 114
52 83 99
53 83 80
62 96 130
64 99 161
62 98 151
55 88 99
53 84 80
58 92 114
51 80 80
63 98 127
62 97 127
61 96 127
61 96 127
56 88 114
60 94 140
62 97 151
56 89 57
54 85 114
59 92 127
56 88 99
54 84 114
60 93 140
61 96 127
59 92 99
59 93 127
62 97 127
55 85 127
62 96 127
61 96 140
60 95 114
58 92 140
59 94 114
53 86 114
53 83 62
63 95 142
55 84 114
57 90 114
58 91 114
59 91 105
64 98 151
55 87 127
57 90 102
56 87 114
54 86 99
56 87 114
56 86 127
60 92 117
57 91 114
54 84 99
59 92 142
58 88 114
51 80 99
53 79 88
54 84 62
47 73 84
50 78 82
52 78 84
148 173 80
172 197 0
175 198 0
162 187 0
172 187 0
140 139 0
138 139 0
153 152 0
138 136 0
78 80 0
37 48 0
37 49 3
37 48 11
38 51 26
44 58 26
39 53 25
33 45 36
42 56 0
38 52 25
41 53 25
39 50 26
44 54 39
37 49 25
49 63 36
41 54 28
53 68 45
45 62 44
49 65 36
39 54 25
42 55 25
95 99 25
94 96 0
112 114 0
114 114 0
120 122 0
131 132 0
142 138 0
120 122 0
135 135 0
142 140 0
109 112 0
139 139 0
124 124 0
154 152 0
142 142 0
143 136 0
138 136 0
141 140 0
144 144 0
145 145 0
137 137 0
141 139 0
142 139 0
122 121 0
135 133 0
146 143 0
146 140 0
156 153 0
128 130 0
155 153 0
139 135 0
146 143 0
148 146 0
148 144 0
147 143 0
136 137 0
146 143 0
146 143 0
152 149 0
157 151 0
134 130 0
143 143 0
148 146 0
139 138 0
145 142 0
143 138 0
147 146 0
158 154 0
152 148 0
152 151 0
155 153 0
157 153 0
140 139 0
146 145 0
137 133 0
155 153 0
146 145 0
154 152 0
161 156 0
156 153 0
153 152 0
153 152 0
154 152 0
156 153 0
157 153 0
148 147 0
157 153 0
143 138 0
152 148 0
155 152 0
156 153 0
156 152 0
149 147 0
153 152 0
152 151 0
151 144 0
156 150 0
155 153 0
156 153 0
149 147 0
151 151 0
154 152 0
154 152 0
154 148 0
156 153 0
156 153 0
153 152 0
159 154 0
153 152 0
151 149 0
147 143 0
156 153 0
156 153 0
153 152 0
151 147 0
156 152 0
146 145 0
145 145 0
155 153 0
154 152 0
158 154 0
156 153 0
152 146 0
150 147 0
156 151 0
156 153 0
152 151 0
160 155 0
155 153 0
152 151 0
150 148 0
151 148 0
153 149 0
152 151 0
153 152 0
154 152 0
157 151 0
155 153 0
155 153 0
154 152 0
159 152 0
153 176 0
156 177 0
157 178 0
152 174 0
162 180 0
154 176 0
156 176 0
158 178 0
154 176 0
152 175 0
155 176 0
155 176 0
156 176 0
154 176 0
154 176 0
151 174 0
151 174 0
155 176 0
157 176 0
156 177 0
156 177 0
146 168 0
151 174 0
157 177 0
157 178 0
157 178 0
147 168 0
146 168 0
153 171 0
150 170 0
152 175 0
156 177 0
151 174 0
157 178 0
161 179 0
156 177 0
157 177 0
151 173 0
148 170 0
152 175 0
143 162 0
153 175 0
145 167 0
146 165 0
153 175 0
158 178 0
158 178 0
156 177 0
151 171 0
156 174 0
155 175 0
155 176 0
151 170 0
135 154 0
157 177 0
156 177 0
149 169 0
157 176 0
154 176 0
151 173 0
139 160 0
154 176 0
156 177 0
154 173 0
152 175 0
148 169 0
138 160 0
140 160 0
155 176 0
146 167 0
159 178 0
152 172 0
153 175 0
147 169 0
136 156 0
143 166 0
156 177 0
157 177 0
153 175 0
148 169 0
137 159 0
150 170 0
148 168 0
141 164 0
150 169 0
147 169 0
147 169 0
158 178 0
152 172 0
134 157 0
146 168 0
141 161 0
141 160 0
154 176 0
154 176 0
137 158 0
146 168 0
136 158 0
137 157 0
140 161 0
153 170 0
129 149 0
138 161 0
141 160 0
137 159 0
129 146 0
142 158 0
108 129 0
144 163 0
134 152 0
143 162 0
120 137 0
110 126 0
120 142 0
99 110 0
105 122 0
131 152 0
121 133 0
106 119 0
86 99 0
54 69 0
85 99 0
41 66 51
38 62 0
45 72 72
47 76 51
40 64 51
48 76 72
41 65 68
36 57 72
38 60 52
27 46 45
35 57 51
37 60 51
38 61 54
36 58 45
32 51 45
36 60 0
39 62 0
47 75 68
114 131 0
125 144 0
143 161 0
144 165 0
146 167 0
162 185 0
176 199 0
177 199 0
176 199 0
174 198 0
171 196 0
52 84 105
46 74 80
52 83 108
55 86 125
53 84 95
57 90 108
48 76 108
53 84 111
59 92 111
63 98 151
50 80 92
61 95 127
54 84 111
56 88 114
61 95 127
53 86 0
57 91 114
50 82 80
57 89 111
59 93 127
55 87 99
55 87 114
57 90 99
56 89 125
60 94 114
57 91 114
57 90 127
54 86 99
59 92 140
60 94 127
51 83 99
60 95 127
55 88 99
58 90 99
59 93 127
55 86 114
57 88 127
58 91 140
54 85 80
61 96 140
57 91 99
54 85 114
59 93 140
60 94 114
56 89 114
50 82 57
59 93 114
58 89 127
59 94 140
56 90 114
61 96 127
54 84 114
65 101 181
59 92 114
56 88 102
55 87 102
55 85 80
61 95 151
58 91 99
64 99 151
60 94 140
60 94 140
60 94 114
59 92 140
56 88 114
60 94 127
52 84 80
61 93 140
63 97 151
57 87 114
63 97 127
56 89 80
56 84 105
55 87 57
58 90 114
55 87 114
57 90 127
59 92 114
58 92 114
58 91 114
53 82 102
55 86 114
61 95 153
53 84 114
59 93 99
50 78 62
57 87 133
56 87 102
56 87 84
59 89 127
51 74 67
57 90 84
60 92 117
63 95 142
57 88 117
59 89 92
52 79 84
118 139 57
174 198 0
173 197 0
175 197 0
173 197 0
179 200 0
160 171 0
145 143 0
146 143 0
151 149 0
142 140 0
77 81 0
35 46 16
41 53 0
39 49 36
40 52 37
26 36 5
35 44 25
43 53 16
46 60 37
34 46 36
38 51 36
42 55 11
37 50 25
44 57 28
35 49 0
44 60 36
53 71 57
48 65 36
54 64 25
52 54 0
118 117 0
125 121 0
99 101 0
123 124 0
111 110 0
109 110 0
90 97 0
132 131 0
105 105 0
108 110 0
132 131 0
113 114 0
145 144 0
149 147 0
135 136 0
132 131 0
147 145 0
139 134 0
150 147 0
155 150 0
138 133 0
122 120 0
150 143 0
153 152 0
143 144 0
155 153 0
152 149 0
150 147 0
135 134 0
142 138 0
138 138 0
153 152 0
147 146 0
149 147 0
147 144 0
152 146 0
155 153 0
142 144 0
130 130 0
161 155 0
151 151 0
147 146 0
150 143 0
138 133 0
153 149 0
145 143 0
146 145 0
155 153 0
139 138 0
138 135 0
152 149 0
164 157 0
146 146 0
152 149 0
158 154 0
154 152 0
154 150 0
151 151 0
155 150 0
149 147 0
146 146 0
151 147 0
145 143 0
152 149 0
153 150 0
158 154 0
153 152 0
154 150 0
153 152 0
156 153 0
158 154 0
152 151 0
151 146 0
153 152 0
158 154 0
152 148 0
154 150 0
152 149 0
154 147 0
149 146 0
151 151 0
154 152 0
152 151 0
155 147 0
156 153 0
154 152 0
149 146 0
154 152 0
154 152 0
154 152 0
158 154 0
155 150 0
159 154 0
153 149 0
159 154 0
156 153 0
153 150 0
155 152 0
149 147 0
152 151 0
154 152 0
156 153 0
156 153 0
161 156 0
161 155 0
154 152 0
155 153 0
153 152 0
153 151 0
157 154 0
155 153 0
157 154 0
158 154 0
152 151 0
156 153 0
155 151 0
155 153 0
160 155 0
153 152 0
155 153 0
152 151 0
152 175 0
157 178 0
147 169 0
159 178 0
156 177 0
148 168 0
156 177 0
154 176 0
157 177 0
151 173 0
155 177 0
151 174 0
154 176 0
151 173 0
153 176 0
160 179 0
151 173 0
154 176 0
154 176 0
154 176 0
156 177 0
157 178 0
153 176 0
154 176 0
154 176 0
156 177 0
155 177 0
162 180 0
153 176 0
156 177 0
158 175 0
153 175 0
150 173 0
160 179 0
147 168 0
156 177 0
160 179 0
154 176 0
152 172 0
157 178 0
150 170 0
164 181 0
154 176 0
155 176 0
160 179 0
153 172 0
148 169 0
156 177 0
158 178 0
144 167 0
156 177 0
155 176 0
156 177 0
161 179 0
154 175 0
144 162 0
155 177 0
154 176 0
154 176 0
153 175 0
156 177 0
149 170 0
147 169 0
153 173 0
154 173 0
157 177 0
150 171 0
146 167 0
154 173 0
148 167 0
155 176 0
156 174 0
152 175 0
144 163 0
135 155 0
143 167 0
156 176 0
142 163 0
146 168 0
158 176 0
150 166 0
147 169 0
143 162 0
155 176 0
149 171 0
141 161 0
138 156 0
153 174 0
145 166 0
152 171 0
155 177 0
153 174 0
143 165 0
150 170 0
156 177 0
147 169 0
141 160 0
145 164 0
144 166 0
139 159 0
138 157 0
126 143 0
134 155 0
130 152 0
139 159 0
140 157 0
144 161 0
121 142 0
120 139 0
123 141 0
98 116 0
140 162 0
147 164 0
123 140 0
121 138 0
125 143 0
99 117 0
110 127 0
116 132 0
37 58 0
111 126 0
96 111 0
75 87 0
67 85 72
38 61 72
43 68 88
35 57 0
39 64 45
38 61 51
33 55 0
24 42 0
48 75 72
33 55 51
41 64 72
36 59 0
41 66 72
32 53 45
34 56 0
38 60 51
70 87 32
148 165 0
121 140 0
155 177 0
156 177 0
156 177 0
161 184 0
173 197 0
178 200 0
172 197 0
175 195 0
174 198 0
157 177 0
46 73 57
52 82 111
51 80 99
46 76 57
48 77 51
52 83 92
57 89 111
53 85 95
63 99 161
59 93 114
58 92 137
61 96 137
54 85 111
56 89 114
59 93 125
60 95 125
50 82 76
58 92 114
52 82 114
61 95 159
60 94 140
62 98 151
58 91 140
58 92 140
53 82 99
55 86 114
54 87 80
59 93 114
56 88 114
57 90 127
61 95 137
62 97 140
58 92 99
54 87 80
56 89 99
62 97 151
58 90 114
52 83 99
57 90 114
61 96 140
59 94 114
60 93 114
54 85 99
57 89 99
58 91 114
59 92 127
55 84 127
60 94 114
55 88 99
50 80 57
54 83 80
61 95 140
64 100 161
54 87 114
54 86 99
57 89 114
57 89 99
55 89 57
61 95 140
58 93 114
61 97 151
60 95 127
53 83 114
62 97 140
57 89 127
58 89 114
59 93 114
52 84 114
57 90 114
58 90 80
61 93 130
61 94 140
60 96 140
61 94 127
46 72 102
61 96 127
57 88 102
57 92 114
55 90 127
62 97 140
54 84 80
60 92 127
60 91 130
50 76 99
61 95 127
57 88 114
51 80 80
58 92 127
52 82 114
61 93 127
50 73 84
54 80 84
51 76 99
51 81 80
58 88 117
48 71 67
153 177 0
179 200 0
176 196 0
172 197 0
166 190 0
175 195 0
156 174 0
158 154 0
144 142 0
138 139 0
148 147 0
138 136 0
114 114 0
55 58 0
42 52 11
40 53 28
36 45 25
39 51 25
43 56 25
38 48 28
32 40 0
39 52 25
36 46 25
44 59 0
43 59 25
39 51 25
37 47 25
48 64 44
92 91 0
77 74 0
117 114 0
80 80 0
89 91 0
99 99 0
114 114 0
118 120 0
88 92 0
111 113 0
96 98 0
89 95 0
117 117 0
140 140 0
128 128 0
93 97 0
117 116 0
140 139 0
148 143 0
136 130 0
134 126 0
126 125 0
156 153 0
147 143 0
141 137 0
131 128 0
148 146 0
149 147 0
149 144 0
125 124 0
147 143 0
139 136 0
156 150 0
137 135 0
151 148 0
153 152 0
147 146 0
150 146 0
146 143 0
149 146 0
146 146 0
156 153 0
145 144 0
139 138 0
151 148 0
155 153 0
142 140 0
142 139 0
137 135 0
157 154 0
147 146 0
148 145 0
149 147 0
153 152 0
156 152 0
155 153 0
143 141 0
143 141 0
157 154 0
155 153 0
158 154 0
152 147 0
141 140 0
152 149 0
144 143 0
149 147 0
155 153 0
158 154 0
148 147 0
154 152 0
156 153 0
143 139 0
153 152 0
154 150 0
155 153 0
152 151 0
154 152 0
156 150 0
153 151 0
158 154 0
160 155 0
158 154 0
149 148 0
146 145 0
156 153 0
155 153 0
145 144 0
150 147 0
154 152 0
159 154 0
156 150 0
152 145 0
154 152 0
155 152 0
157 154 0
155 153 0
157 153 0
160 155 0
158 154 0
157 154 0
152 146 0
152 149 0
154 152 0
152 148 0
154 152 0
155 151 0
160 155 0
155 153 0
155 153 0
154 152 0
152 149 0
154 149 0
153 152 0
163 157 0
154 152 0
157 154 0
156 153 0
155 153 0
156 153 0
155 153 0
147 146 0
156 151 0
153 152 0
152 149 0
152 174 0
157 177 0
146 168 0
153 174 0
156 177 0
153 176 0
154 176 0
155 176 0
154 176 0
157 177 0
154 176 0
152 174 0
145 168 0
158 178 0
157 177 0
158 178 0
162 180 0
155 176 0
148 168 0
155 176 0
157 177 0
155 176 0
152 175 0
154 173 0
154 176 0
158 178 0
158 177 0
158 178 0
156 177 0
154 176 0
156 177 0
156 177 0
154 176 0
154 176 0
149 172 0
152 173 0
153 171 0
146 167 0
155 176 0
150 171 0
154 176 0
151 173 0
153 175 0
159 179 0
155 177 0
139 157 0
150 172 0
150 173 0
146 166 0
152 172 0
153 172 0
150 173 0
154 174 0
140 161 0
150 172 0
159 178 0
154 176 0
156 175 0
156 177 0
149 169 0
159 179 0
156 177 0
150 173 0
149 169 0
155 176 0
149 170 0
147 168 0
154 176 0
156 177 0
140 161 0
160 179 0
151 165 0
145 165 0
150 174 0
150 170 0
159 176 0
153 172 0
157 176 0
142 163 0
154 176 0
143 165 0
151 167 0
135 156 0
148 165 0
131 149 0
130 152 0
145 167 0
141 162 0
151 170 0
129 151 0
145 165 0
156 177 0
149 166 0
133 155 0
139 161 0
138 160 0
141 160 0
140 163 0
154 172 0
155 174 0
119 139 0
135 153 0
139 159 0
131 152 0
132 152 0
121 141 0
136 154 0
119 140 0
131 151 0
141 161 0
95 114 0
109 124 0
125 146 0
112 131 0
123 139 0
125 138 0
115 132 0
106 123 0
125 144 0
88 105 0
104 119 0
80 93 0
117 129 0
47 53 0
42 67 51
38 61 51
34 57 0
36 59 0
47 75 72
41 66 45
34 54 0
36 59 51
28 47 32
37 60 68
29 49 0
31 52 45
32 52 0
59 81 72
97 118 0
100 118 0
118 137 0
132 152 0
139 161 0
146 167 0
165 186 0
176 198 0
173 197 0
177 199 0
173 197 0
175 198 0
174 197 0
167 189 36
41 66 51
44 72 0
60 91 151
57 90 122
55 87 95
57 90 99
51 81 135
55 88 80
56 89 80
54 87 111
51 82 76
58 92 140
54 85 99
63 97 140
59 92 140
57 90 127
54 87 99
51 81 57
55 86 95
56 90 99
58 92 111
57 91 127
61 95 140
57 90 76
59 93 99
61 97 149
50 81 99
60 93 99
56 90 99
59 93 114
55 88 80
59 93 125
58 91 114
56 89 80
58 92 127
55 87 114
58 91 140
51 82 57
62 96 140
57 90 99
54 85 57
58 91 127
54 87 57
54 85 114
60 96 140
60 94 99
56 86 114
60 95 127
60 93 114
56 89 99
62 95 140
56 89 114
59 94 127
62 98 151
61 95 140
61 94 140
60 94 140
53 85 99
58 92 114
49 79 80
61 95 151
60 93 117
60 95 151
56 89 114
49 78 99
46 73 0
59 93 127
60 95 114
54 85 80
58 93 114
58 91 99
64 100 161
59 92 151
62 95 127
58 89 127
60 92 127
51 83 80
60 94 127
58 90 130
57 85 102
52 81 84
57 90 114
56 90 114
56 87 99
52 79 102
57 91 99
57 90 127
56 87 99
52 81 82
53 82 102
55 84 62
59 87 133
48 71 84
56 86 84
48 76 60
85 103 83
173 197 0
169 195 0
171 193 0
177 199 0
171 196 0
168 191 0
174 198 0
157 157 0
157 154 0
134 137 0
149 144 0
112 117 0
127 124 0
132 129 0
36 46 0
33 45 25
38 49 0
45 59 28
24 32 0
40 54 25
31 41 36
42 57 25
27 35 0
39 50 44
43 54 11
44 59 36
48 66 44
57 61 0
92 92 0
34 46 0
108 107 0
106 104 0
113 114 0
117 116 0
118 111 0
121 123 0
89 94 0
107 111 0
112 113 0
131 127 0
140 139 0
134 133 0
130 129 0
152 145 0
120 120 0
129 126 0
123 124 0
154 150 0
139 133 0
128 128 0
128 124 0
148 146 0
147 145 0
145 142 0
142 140 0
141 140 0
153 152 0
124 126 0
142 137 0
153 151 0
153 150 0
151 148 0
154 151 0
144 139 0
145 144 0
120 119 0
156 153 0
144 142 0
143 139 0
137 138 0
154 149 0
143 139 0
156 153 0
152 150 0
142 138 0
157 153 0
141 136 0
158 154 0
152 150 0
147 146 0
152 151 0
154 150 0
147 146 0
156 153 0
149 146 0
140 139 0
150 148 0
147 146 0
150 145 0
143 142 0
149 146 0
153 151 0
153 152 0
154 150 0
154 149 0
155 150 0
154 150 0
152 146 0
148 146 0
155 153 0
157 154 0
157 154 0
161 153 0
156 151 0
155 153 0
157 153 0
146 141 0
151 148 0
155 153 0
155 153 0
151 148 0
156 153 0
156 153 0
148 146 0
156 153 0
153 149 0
154 150 0
153 146 0
153 149 0
149 147 0
154 152 0
154 152 0
158 151 0
146 146 0
155 153 0
157 153 0
154 152 0
159 154 0
159 154 0
159 154 0
152 149 0
158 154 0
160 155 0
155 153 0
153 152 0
157 153 0
156 150 0
153 149 0
155 153 0
158 154 0
151 151 0
158 154 0
159 153 0
153 147 0
157 153 0
146 145 0
149 147 0
153 152 0
156 153 0
155 153 0
159 155 0
155 153 0
159 178 0
156 176 0
157 177 0
151 171 0
155 176 0
162 180 0
155 175 0
157 178 0
155 176 0
154 174 0
157 178 0
153 175 0
158 177 0
159 179 0
153 174 0
157 177 0
150 172 0
148 168 0
159 178 0
142 164 0
156 177 0
144 163 0
148 167 0
150 170 0
148 168 0
155 176 0
157 177 0
144 166 0
157 177 0
148 168 0
151 175 0
154 176 0
155 175 0
141 162 0
154 176 0
155 174 0
157 177 0
157 176 0
152 174 0
157 177 0
156 177 0
154 175 0
156 177 0
151 171 0
151 173 0
157 174 0
151 171 0
152 172 0
148 168 0
152 175 0
155 176 0
151 171 0
158 178 0
153 170 0
148 169 0
141 157 0
153 175 0
143 164 0
155 176 0
146 163 0
155 176 0
157 177 0
155 177 0
161 180 0
149 169 0
146 168 0
148 169 0
136 157 0
143 163 0
146 168 0
137 157 0
158 178 0
156 174 0
155 177 0
147 163 0
140 159 0
138 159 0
145 168 0
147 169 0
126 147 0
158 178 0
142 161 0
153 175 0
154 172 0
154 173 0
141 157 0
146 165 0
145 166 0
156 177 0
152 174 0
148 168 0
149 171 0
138 160 0
144 164 0
135 158 0
137 160 0
129 151 0
143 167 0
146 168 0
131 149 0
142 159 0
133 153 0
136 159 0
127 146 0
135 158 0
124 144 0
127 147 0
132 152 0
149 165 0
134 150 0
127 148 0
113 128 0
130 146 0
110 129 0
78 99 0
119 138 0
93 111 0
115 132 0
95 109 0
111 128 0
71 88 0
82 96 0
86 98 0
61 75 0
35 57 0
54 67 0
60 74 0
66 85 51
36 58 51
47 74 85
37 59 0
37 60 51
37 59 45
39 62 0
46 72 72
77 94 51
90 105 0
114 130 0
120 137 0
119 140 0
141 162 0
145 165 0
146 163 0
146 167 0
166 191 0
170 196 0
175 198 0
173 196 0
172 197 0
172 197 0
171 196 0
175 198 0
88 109 0
49 77 76
57 89 111
47 75 120
52 83 99
55 88 122
53 85 57
49 78 99
55 88 92
56 89 99
52 82 114
60 94 125
49 79 99
58 90 99
57 92 114
51 81 99
52 82 114
47 76 0
52 84 80
56 88 114
56 88 99
54 87 80
55 88 95
55 88 99
54 87 114
61 95 125
51 81 114
56 90 80
56 90 114
55 86 114
63 99 161
63 96 149
57 91 127
53 83 99
56 89 99
56 89 127
55 86 99
59 94 114
61 94 140
62 95 140
64 99 161
60 94 127
61 96 127
62 96 127
59 93 140
61 96 127
54 86 57
59 93 114
62 97 140
59 93 140
60 94 114
58 92 114
59 95 140
56 88 114
59 94 114
56 90 127
58 93 99
63 99 151
56 90 114
59 91 117
60 93 127
53 84 99
59 92 140
61 95 140
58 91 99
56 88 99
52 83 80
58 92 127
51 79 114
59 92 140
62 98 151
59 92 140
57 89 127
61 97 140
56 88 62
54 86 80
55 88 80
52 83 57
59 94 127
57 88 114
56 89 114
58 91 114
60 94 114
51 80 80
54 82 102
57 88 114
51 76 92
50 75 62
60 89 140
56 84 88
47 74 80
52 80 117
55 81 84
52 78 102
40 61 0
100 120 18
175 195 0
174 198 0
171 196 0
175 198 0
176 199 0
171 193 0
176 199 0
165 180 0
145 145 0
145 142 0
147 143 0
111 112 0
140 135 0
125 125 0
136 130 0
76 83 25
36 48 0
40 53 0
33 44 25
43 55 28
41 52 36
41 52 28
42 54 28
43 59 44
45 59 0
46 46 0
75 71 0
96 94 0
80 77 0
59 63 0
91 91 0
101 98 0
70 72 0
115 110 0
52 53 0
101 102 0
115 112 0
123 120 0
87 92 0
117 116 0
128 125 0
90 92 0
120 120 0
115 117 0
146 144 0
128 125 0
132 129 0
146 145 0
123 124 0
141 135 0
137 137 0
146 141 0
149 144 0
130 131 0
134 132 0
135 133 0
120 119 0
150 148 0
121 117 0
150 150 0
144 145 0
142 140 0
140 139 0
135 134 0
144 141 0
153 149 0
158 154 0
142 141 0
141 139 0
153 152 0
151 148 0
143 141 0
151 149 0
150 147 0
147 143 0
154 152 0
147 142 0
145 141 0
146 142 0
148 146 0
151 151 0
158 149 0
149 146 0
140 137 0
152 143 0
145 144 0
144 144 0
140 136 0
148 142 0
155 150 0
157 151 0
153 152 0
153 149 0
146 145 0
149 144 0
152 148 0
145 142 0
146 142 0
149 148 0
146 145 0
144 135 0
152 151 0
145 145 0
146 145 0
157 154 0
137 137 0
157 154 0
156 153 0
154 152 0
158 154 0
151 144 0
152 147 0
155 153 0
154 152 0
146 145 0
156 153 0
150 148 0
143 140 0
151 151 0
148 144 0
159 155 0
157 153 0
157 154 0
153 152 0
157 154 0
155 150 0
155 152 0
140 142 0
158 154 0
157 153 0
158 154 0
159 152 0
156 153 0
150 150 0
152 152 0
158 154 0
158 154 0
155 150 0
157 154 0
154 152 0
156 153 0
156 151 0
153 148 0
154 152 0
159 154 0
157 153 0
159 152 0
156 153 0
155 153 0
145 144 0
154 152 0
156 153 0
161 180 0
142 164 0
158 178 0
157 177 0
158 178 0
157 177 0
155 176 0
147 167 0
157 178 0
155 176 0
149 172 0
151 174 0
155 176 0
157 177 0
159 178 0
158 178 0
151 173 0
153 174 0
156 177 0
159 179 0
156 177 0
153 174 0
158 178 0
152 175 0
152 172 0
149 172 0
156 177 0
154 176 0
157 177 0
158 178 0
158 178 0
157 177 0
149 169 0
153 174 0
149 169 0
159 178 0
155 176 0
155 176 0
154 176 0
151 174 0
150 173 0
156 176 0
144 167 0
149 170 0
142 164 0
157 177 0
147 167 0
144 165 0
136 159 0
157 177 0
148 168 0
147 168 0
148 168 0
156 177 0
154 174 0
148 168 0
148 169 0
140 160 0
152 175 0
155 174 0
148 170 0
154 175 0
151 173 0
153 175 0
155 176 0
144 166 0
149 170 0
145 166 0
145 168 0
152 172 0
156 174 0
158 178 0
150 170 0
140 159 0
149 169 0
154 176 0
153 174 0
143 165 0
132 153 0
147 167 0
150 172 0
144 166 0
156 177 0
157 178 0
130 149 0
138 159 0
149 167 0
154 176 0
133 153 0
147 165 0
143 165 0
116 135 0
147 169 0
136 156 0
140 160 0
128 144 0
147 167 0
143 162 0
131 149 0
114 133 0
128 147 0
122 145 0
138 154 0
129 150 0
133 152 0
124 144 0
129 148 0
148 170 0
114 134 0
119 133 0
122 143 0
135 152 0
122 142 0
116 134 0
109 124 0
117 136 0
112 132 0
106 124 0
108 124 0
110 127 0
81 96 0
75 88 0
90 102 0
96 111 0
81 92 0
86 100 0
61 74 0
54 60 0
60 74 0
24 39 0
61 76 0
33 53 45
57 71 0
36 56 0
103 117 0
126 142 0
113 131 0
102 119 0
122 142 0
116 136 0
138 159 0
122 141 0
140 161 0
160 180 0
172 196 0
174 198 0
172 194 0
172 196 0
174 196 0
176 199 0
172 196 0
167 189 0
160 181 0
46 73 72
52 81 108
53 82 125
46 75 57
56 88 127
53 84 108
50 81 80
54 86 76
46 74 51
57 89 99
58 93 125
61 96 140
56 89 80
55 87 114
52 83 95
55 87 127
58 91 125
52 81 57
57 91 111
55 87 95
61 95 125
60 94 125
57 90 114
56 88 99
49 80 51
56 87 99
58 92 114
60 94 99
50 81 76
57 91 127
58 91 127
62 96 127
62 97 140
59 94 114
61 96 127
55 87 80
49 79 80
58 92 140
60 96 140
57 91 127
63 98 140
60 93 127
54 87 80
56 89 114
56 89 140
57 90 114
60 95 114
61 95 127
55 87 99
60 93 127
55 89 114
54 85 114
51 83 57
60 95 127
63 98 140
60 94 127
62 98 151
56 88 114
62 96 151
56 87 99
62 97 140
59 93 99
54 86 80
58 90 84
57 89 99
56 89 127
58 88 117
60 95 127
59 93 140
50 79 80
59 92 127
56 87 102
57 88 84
58 92 127
54 86 114
59 91 130
53 84 114
55 87 127
59 94 127
56 87 114
59 91 127
56 86 127
59 91 114
51 82 57
57 88 140
58 91 140
54 82 102
52 80 80
47 75 82
53 80 84
52 81 80
55 81 99
46 73 80
45 69 67
171 192 57
172 193 0
174 198 0
175 198 0
176 199 0
176 199 0
172 197 0
177 199 0
173 194 0
158 153 0
139 139 0
147 146 0
149 146 0
121 118 0
125 124 0
104 106 0
127 125 0
125 118 0
106 99 0
61 68 25
93 88 25
76 72 0
45 45 0
80 78 25
26 34 25
97 89 0
58 60 0
93 91 0
47 46 0
76 75 0
100 99 0
60 62 0
148 140 0
117 116 0
111 111 0
102 101 0
113 112 0
127 124 0
141 138 0
128 130 0
131 128 0
133 130 0
96 96 0
148 138 0
110 111 0
111 111 0
134 130 0
138 138 0
119 120 0
88 90 0
153 151 0
132 134 0
138 136 0
155 150 0
120 118 0
130 127 0
138 134 0
137 136 0
146 141 0
135 133 0
130 127 0
129 129 0
145 143 0
148 146 0
140 139 0
126 123 0
143 141 0
147 140 0
156 153 0
137 135 0
136 128 0
138 133 0
145 145 0
141 138 0
152 146 0
155 152 0
155 153 0
135 133 0
147 145 0
141 139 0
148 144 0
143 142 0
158 154 0
143 141 0
152 149 0
155 150 0
146 146 0
155 153 0
147 146 0
153 151 0
139 135 0
158 154 0
132 133 0
158 154 0
152 151 0
151 151 0
138 134 0
155 150 0
159 155 0
155 153 0
158 154 0
152 151 0
151 148 0
149 147 0
158 154 0
156 153 0
146 146 0
147 143 0
154 152 0
155 150 0
154 152 0
160 152 0
150 148 0
158 154 0
155 150 0
153 152 0
152 149 0
146 143 0
152 149 0
155 153 0
149 147 0
146 146 0
157 151 0
152 151 0
150 147 0
155 153 0
159 154 0
152 148 0
155 150 0
156 151 0
154 152 0
154 152 0
147 143 0
152 149 0
153 150 0
156 153 0
151 146 0
157 154 0
150 147 0
152 149 0
158 154 0
159 154 0
157 154 0
156 153 0
157 154 0
157 154 0
156 153 0
153 152 0
152 149 0
154 152 0
156 153 0
154 152 0
155 153 0
157 178 0
154 176 0
153 172 0
152 174 0
156 177 0
155 176 0
155 177 0
156 177 0
156 173 0
154 176 0
152 175 0
155 177 0
157 177 0
155 177 0
157 177 0
156 177 0
156 177 0
154 176 0
155 176 0
149 170 0
155 177 0
145 166 0
159 178 0
159 178 0
154 173 0
153 175 0
142 164 0
149 168 0
159 179 0
146 167 0
154 176 0
151 172 0
147 168 0
157 177 0
153 175 0
155 177 0
155 176 0
150 170 0
154 174 0
159 178 0
156 177 0
154 176 0
158 178 0
156 177 0
153 175 0
149 169 0
155 176 0
157 178 0
153 174 0
144 166 0
152 175 0
146 167 0
155 175 0
153 175 0
142 164 0
154 176 0
153 172 0
142 160 0
155 176 0
157 176 0
137 156 0
151 173 0
153 171 0
146 169 0
155 172 0
157 178 0
149 170 0
147 167 0
149 170 0
139 161 0
147 169 0
143 162 0
160 179 0
139 161 0
151 171 0
139 158 0
146 168 0
146 167 0
144 166 0
137 159 0
147 167 0
143 166 0
149 169 0
141 164 0
155 177 0
155 176 0
148 169 0
144 162 0
140 160 0
132 152 0
136 159 0
147 168 0
140 161 0
142 162 0
150 170 0
150 171 0
134 153 0
130 151 0
137 156 0
146 168 0
128 148 0
125 142 0
117 136 0
138 158 0
147 164 0
130 151 0
115 126 0
129 149 0
131 149 0
115 129 0
109 128 0
77 96 0
107 123 0
88 105 0
97 114 0
150 170 0
137 150 0
127 140 0
100 118 0
76 94 0
94 107 0
91 106 0
95 111 0
102 114 0
105 119 0
25 41 0
67 79 0
67 79 0
49 64 0
66 75 0
79 92 0
72 85 0
87 99 0
56 67 0
85 100 0
114 131 0
121 139 0
119 139 0
123 141 0
139 160 0
158 176 0
136 158 0
136 153 0
157 179 0
172 197 0
172 191 0
163 182 0
171 196 0
179 200 0
169 195 0
174 197 0
176 197 0
173 197 0
49 79 51
46 74 57
46 75 67
50 78 76
47 76 84
46 73 80
52 82 92
44 72 95
52 83 80
55 85 125
60 93 137
62 96 140
58 91 114
59 92 125
51 82 80
54 86 114
53 85 80
59 93 127
56 87 127
54 87 99
50 82 57
58 92 127
59 93 114
61 95 151
59 93 114
60 95 127
53 82 99
60 94 114
51 83 80
59 91 99
59 91 127
51 82 57
59 93 99
57 91 127
56 89 114
59 94 127
62 96 151
57 92 99
58 91 114
60 91 127
56 91 80
58 91 111
54 88 99
53 86 80
53 85 99
54 85 80
53 83 80
61 96 140
58 91 99
59 93 114
58 90 114
56 86 114
49 78 57
55 88 80
51 79 99
49 79 99
53 86 57
60 94 140
59 93 140
63 97 151
54 86 99
60 94 114
52 82 99
59 92 114
54 87 80
54 84 99
61 95 140
61 96 127
59 91 114
58 93 114
56 88 127
55 87 99
52 84 80
56 88 114
55 88 114
55 87 80
55 85 80
53 82 80
61 92 114
58 89 120
54 86 114
59 93 127
53 83 80
57 87 117
55 85 127
54 81 102
62 97 140
60 91 102
57 88 117
40 61 57
59 90 140
45 69 0
51 80 99
118 138 0
166 188 0
163 187 0
171 194 0
176 199 0
172 197 0
166 189 0
175 198 0
178 200 0
164 188 0
158 172 0
145 140 0
143 140 0
146 140 0
138 135 0
144 139 0
103 96 0
89 88 0
60 63 0
25 35 0
122 118 0
86 81 0
112 106 0
78 76 0
55 58 0
59 64 0
56 56 0
80 80 0
74 73 0
93 92 0
88 85 0
80 83 0
112 108 0
123 120 0
94 97 0
108 103 0
96 93 0
129 127 0
115 118 0
137 132 0
119 117 0
106 106 0
119 116 0
109 110 0
131 132 0
125 125 0
136 134 0
123 119 0
159 155 0
120 119 0
126 124 0
142 139 0
145 142 0
131 129 0
121 124 0
136 131 0
147 142 0
148 146 0
144 145 0
135 132 0
130 128 0
131 131 0
143 141 0
144 144 0
151 148 0
139 137 0
154 152 0
155 153 0
132 129 0
149 143 0
140 135 0
128 130 0
157 151 0
145 144 0
132 132 0
154 152 0
146 145 0
134 133 0
151 148 0
144 139 0
151 148 0
143 141 0
160 155 0
153 146 0
147 146 0
152 149 0
148 143 0
156 153 0
157 153 0
147 146 0
154 149 0
151 148 0
155 153 0
159 152 0
146 143 0
152 149 0
141 137 0
153 147 0
157 154 0
150 146 0
139 140 0
155 150 0
157 154 0
156 151 0
155 150 0
146 146 0
147 146 0
153 147 0
154 150 0
157 154 0
144 141 0
155 152 0
140 137 0
157 153 0
155 150 0
151 146 0
157 153 0
148 146 0
146 143 0
154 150 0
155 153 0
146 144 0
157 151 0
158 154 0
152 149 0
153 152 0
155 153 0
153 151 0
149 143 0
153 152 0
152 144 0
152 152 0
160 155 0
153 152 0
144 144 0
156 153 0
156 153 0
157 151 0
161 155 0
156 153 0
156 151 0
153 152 0
154 150 0
150 147 0
159 155 0
152 149 0
157 154 0
161 156 0
149 147 0
154 152 0
157 154 0
153 149 0
155 153 0
159 155 0
151 174 0
158 178 0
153 174 0
157 178 0
157 177 0
152 175 0
158 178 0
145 166 0
155 176 0
155 176 0
155 176 0
156 177 0
157 178 0
152 174 0
150 171 0
153 174 0
157 178 0
160 179 0
139 161 0
150 172 0
153 175 0
156 177 0
150 170 0
153 172 0
151 172 0
148 171 0
156 177 0
154 176 0
157 177 0
154 176 0
148 165 0
159 178 0
159 178 0
157 176 0
156 177 0
149 170 0
149 168 0
147 170 0
156 177 0
154 175 0
152 174 0
146 165 0
147 168 0
153 175 0
154 174 0
150 172 0
152 175 0
147 169 0
148 166 0
159 178 0
145 168 0
154 175 0
146 167 0
146 165 0
156 175 0
149 170 0
154 176 0
153 174 0
151 173 0
153 172 0
148 168 0
146 168 0
151 174 0
154 176 0
145 165 0
153 175 0
155 175 0
136 156 0
157 177 0
148 168 0
140 160 0
146 168 0
139 161 0
141 162 0
155 177 0
149 172 0
146 164 0
149 168 0
137 154 0
157 175 0
141 161 0
135 155 0
139 159 0
132 150 0
148 168 0
141 161 0
130 152 0
145 168 0
146 166 0
149 167 0
146 168 0
126 149 0
138 158 0
148 168 0
128 146 0
149 168 0
142 155 0
149 167 0
136 157 0
140 159 0
137 157 0
150 169 0
139 159 0
131 150 0
142 160 0
125 143 0
130 150 0
109 131 0
131 152 0
122 142 0
126 145 0
110 130 0
121 137 0
114 132 0
105 123 0
109 126 0
105 119 0
77 93 0
127 143 0
98 115 0
81 92 0
100 115 0
84 99 0
97 112 0
74 89 0
56 69 0
60 71 0
55 67 0
50 58 0
34 54 0
100 115 0
68 83 0
106 123 0
107 122 0
129 145 0
83 95 0
101 119 0
94 112 0
100 119 0
147 166 0
130 152 0
144 161 0
150 171 0
167 189 0
173 197 0
171 190 0
177 199 0
174 197 0
180 201 0
168 191 0
176 198 0
168 190 0
176 198 0
176 199 0
38 63 57
50 79 76
53 84 92
46 74 95
54 85 111
56 88 111
59 94 127
58 91 114
48 77 95
60 94 137
56 87 114
60 95 127
59 92 114
49 78 80
54 86 114
54 87 80
55 87 127
58 91 151
56 88 99
57 91 80
57 90 114
54 86 80
52 84 99
55 88 95
49 78 80
55 87 111
54 86 99
55 88 80
53 85 114
58 90 80
60 95 127
52 82 57
59 91 80
57 90 99
53 87 99
61 97 151
53 85 57
53 86 80
57 92 99
54 84 127
64 99 151
58 93 99
59 93 140
60 94 140
59 91 127
60 95 151
58 93 140
56 88 99
58 93 127
52 83 57
60 93 127
59 93 114
54 85 80
52 83 80
63 98 151
56 89 114
53 86 114
56 88 99
52 84 57
59 93 140
48 75 114
58 92 140
55 85 114
56 88 80
57 90 114
53 82 99
57 88 102
59 92 114
55 84 80
61 95 127
56 90 114
56 88 80
58 90 80
54 83 57
60 94 127
53 83 80
55 85 140
57 91 114
50 80 57
54 84 84
49 77 80
62 97 151
59 87 117
55 86 114
57 88 114
47 69 62
51 76 84
48 76 80
51 78 84
54 82 99
53 78 25
52 75 88
169 190 0
173 197 0
174 198 0
178 200 0
168 191 0
175 198 0
176 199 0
172 196 0
175 198 0
167 189 0
170 192 0
155 153 0
134 127 0
102 100 0
139 133 0
102 97 0
119 118 0
76 81 0
112 109 0
108 101 0
103 102 0
61 66 0
46 45 0
74 70 0
73 71 0
72 69 0
37 37 0
76 78 0
75 75 0
86 84 0
97 97 0
95 95 0
59 61 0
93 95 0
75 76 0
117 115 0
114 113 0
108 105 0
129 126 0
92 95 0
123 124 0
125 124 0
120 123 0
115 117 0
101 105 0
128 130 0
131 126 0
137 131 0
130 131 0
139 136 0
132 130 0
127 130 0
130 132 0
131 129 0
128 126 0
135 135 0
153 152 0
145 137 0
147 144 0
138 139 0
116 117 0
133 132 0
130 123 0
151 147 0
153 152 0
126 125 0
139 138 0
135 128 0
148 144 0
146 144 0
149 147 0
146 144 0
144 143 0
144 139 0
142 140 0
160 155 0
157 154 0
144 139 0
156 153 0
152 146 0
147 145 0
146 146 0
155 153 0
149 147 0
147 146 0
149 144 0
145 143 0
139 139 0
152 151 0
157 151 0
148 146 0
155 152 0
152 148 0
159 154 0
157 151 0
154 150 0
136 137 0
149 150 0
145 144 0
157 154 0
142 140 0
139 138 0
158 152 0
156 153 0
146 141 0
153 152 0
137 133 0
159 154 0
155 150 0
156 153 0
154 152 0
154 150 0
144 142 0
151 151 0
155 150 0
152 149 0
154 150 0
147 146 0
157 154 0
153 145 0
152 147 0
151 149 0
150 145 0
160 155 0
153 149 0
155 153 0
155 150 0
144 139 0
159 155 0
156 153 0
154 150 0
158 152 0
151 145 0
152 151 0
156 153 0
153 149 0
150 146 0
150 147 0
154 152 0
154 149 0
149 147 0
154 149 0
155 153 0
155 152 0
156 153 0
154 150 0
154 152 0
153 147 0
159 152 0
156 153 0
150 150 0
151 149 0
154 151 0
154 150 0
157 177 0
155 176 0
152 174 0
154 176 0
156 177 0
155 175 0
155 177 0
158 178 0
151 172 0
154 176 0
152 172 0
146 168 0
157 177 0
154 176 0
153 175 0
153 176 0
153 176 0
155 176 0
145 167 0
154 176 0
156 177 0
159 178 0
159 178 0
151 171 0
153 175 0
156 177 0
146 166 0
154 176 0
152 174 0
152 174 0
153 174 0
155 173 0
157 176 0
159 178 0
153 175 0
150 173 0
148 169 0
151 174 0
157 177 0
151 174 0
151 173 0
154 176 0
138 161 0
155 177 0
154 176 0
154 175 0
144 167 0
151 169 0
155 176 0
155 174 0
152 172 0
149 164 0
151 172 0
157 177 0
155 174 0
155 176 0
157 178 0
154 175 0
153 176 0
152 172 0
146 167 0
155 176 0
148 166 0
150 171 0
158 176 0
131 152 0
154 170 0
137 157 0
143 164 0
146 167 0
143 163 0
127 146 0
148 168 0
140 160 0
143 163 0
145 167 0
154 175 0
133 151 0
155 174 0
152 172 0
123 143 0
129 147 0
141 160 0
152 171 0
157 177 0
155 176 0
148 167 0
149 168 0
140 159 0
118 137 0
148 169 0
135 154 0
130 150 0
133 151 0
134 154 0
143 164 0
114 132 0
123 142 0
146 166 0
127 148 0
137 158 0
116 136 0
114 131 0
118 139 0
138 159 0
123 142 0
137 158 0
145 162 0
131 148 0
113 129 0
135 155 0
100 115 0
117 135 0
118 138 0
107 124 0
122 140 0
97 110 0
76 91 0
108 122 0
121 139 0
89 105 0
88 106 0
109 123 0
74 87 0
91 107 0
109 123 0
71 82 0
92 104 0
92 105 0
70 85 0
107 120 0
122 136 0
86 101 0
79 96 0
98 114 0
123 139 0
102 117 0
116 136 0
130 148 0
137 160 0
150 170 0
137 156 0
165 186 0
168 191 0
169 190 0
173 197 0
173 195 0
173 197 0
177 199 0
177 199 0
176 198 0
176 198 0
164 187 0
168 188 0
116 134 67
46 72 76
56 87 111
52 85 76
54 85 95
51 81 107
54 86 80
58 91 114
54 85 80
56 89 80
59 94 125
54 84 80
56 89 114
57 89 76
58 91 127
57 90 137
59 93 127
57 90 114
50 81 99
53 84 95
58 92 111
56 88 114
52 84 99
55 85 127
55 89 127
57 90 99
57 90 125
57 89 127
55 88 95
60 93 127
56 88 99
58 91 127
62 97 161
43 70 57
59 94 114
57 91 114
58 91 114
61 95 149
55 88 80
61 93 140
57 91 114
64 100 161
62 96 140
59 94 161
60 95 140
58 92 127
55 86 114
54 84 57
49 76 80
58 92 114
51 82 80
57 90 99
52 82 99
58 93 114
56 91 127
52 80 114
59 94 114
55 86 99
58 89 127
56 88 114
52 83 57
59 93 140
62 97 140
55 87 114
61 95 151
58 90 140
62 96 151
57 90 99
59 92 127
59 95 127
59 93 114
56 89 99
58 92 127
54 84 127
54 84 114
56 89 127
54 84 102
49 73 25
54 86 99
58 90 117
54 83 80
58 89 114
55 86 114
48 74 100
57 85 80
41 65 0
51 77 127
54 83 88
59 91 127
54 81 130
50 77 84
87 109 57
171 196 0
176 195 0
165 182 0
178 200 0
180 201 0
171 196 0
169 190 0
168 192 0
164 188 0
167 185 0
168 191 0
162 183 0
144 139 0
132 130 0
137 132 0
134 131 0
77 80 0
104 103 0
79 80 0
77 80 0
90 95 0
97 98 0
80 82 0
97 89 0
89 82 0
96 95 0
112 105 0
75 69 0
114 110 0
129 121 0
74 76 0
38 52 0
100 99 0
139 138 0
129 127 0
99 91 0
80 84 0
110 113 0
134 130 0
87 83 0
121 116 0
128 128 0
117 115 0
119 117 0
120 116 0
134 132 0
132 131 0
119 116 0
128 130 0
132 132 0
125 125 0
143 141 0
117 120 0
115 116 0
134 132 0
149 146 0
127 125 0
147 145 0
133 128 0
141 137 0
136 135 0
149 136 0
136 130 0
153 152 0
144 138 0
138 138 0
134 131 0
138 139 0
145 142 0
146 143 0
143 140 0
133 130 0
122 124 0
140 139 0
145 145 0
152 148 0
140 133 0
134 132 0
152 151 0
152 146 0
158 154 0
157 154 0
143 139 0
147 143 0
154 150 0
154 152 0
153 146 0
149 147 0
148 144 0
152 149 0
153 149 0
144 142 0
154 152 0
152 151 0
155 153 0
146 145 0
149 147 0
158 154 0
156 151 0
144 139 0
154 151 0
153 147 0
153 149 0
150 148 0
147 141 0
154 150 0
154 149 0
156 153 0
156 151 0
147 149 0
153 147 0
151 147 0
151 147 0
150 151 0
157 153 0
156 153 0
154 152 0
158 151 0
135 133 0
147 145 0
131 130 0
154 150 0
148 147 0
146 146 0
149 147 0
156 153 0
153 152 0
146 146 0
149 142 0
155 153 0
157 151 0
154 150 0
155 150 0
162 156 0
157 154 0
159 154 0
158 151 0
151 146 0
154 144 0
165 157 0
151 146 0
149 145 0
157 151 0
156 153 0
149 144 0
154 152 0
157 151 0
159 154 0
156 153 0
156 151 0
157 153 0
155 153 0
156 153 0
152 151 0
149 167 0
149 172 0
155 176 0
155 176 0
155 175 0
155 176 0
155 176 0
155 176 0
156 177 0
154 176 0
158 178 0
147 168 0
147 169 0
154 176 0
146 164 0
155 176 0
152 175 0
156 176 0
157 177 0
158 178 0
158 178 0
156 177 0
155 176 0
153 176 0
157 177 0
152 171 0
148 169 0
153 174 0
154 175 0
152 171 0
151 173 0
152 171 0
151 175 0
158 176 0
153 175 0
158 178 0
147 168 0
158 178 0
155 175 0
158 178 0
155 176 0
144 167 0
144 164 0
148 170 0
154 174 0
134 152 0
153 173 0
155 176 0
139 160 0
147 167 0
150 172 0
149 168 0
150 171 0
137 153 0
147 169 0
153 174 0
152 175 0
146 168 0
153 175 0
150 172 0
153 175 0
144 163 0
154 175 0
144 166 0
143 163 0
156 177 0
137 158 0
150 169 0
153 173 0
145 165 0
148 168 0
158 177 0
147 168 0
141 164 0
145 166 0
154 176 0
141 162 0
130 151 0
131 148 0
143 163 0
152 173 0
151 172 0
149 168 0
138 159 0
150 169 0
124 144 0
151 168 0
154 176 0
142 161 0
138 158 0
131 153 0
136 158 0
143 161 0
128 149 0
142 166 0
146 166 0
146 167 0
137 153 0
133 150 0
130 150 0
136 154 0
140 159 0
123 142 0
138 157 0
157 177 0
120 137 0
140 151 0
111 132 0
124 145 0
113 133 0
131 146 0
140 157 0
128 144 0
76 92 0
82 101 0
130 143 0
115 131 0
62 82 0
122 140 0
118 136 0
56 70 0
110 124 0
105 120 0
88 104 0
95 110 0
89 104 0
100 115 0
93 104 0
55 67 0
94 108 0
104 120 0
64 84 0
127 143 0
99 113 0
119 136 0
121 138 0
148 167 0
135 154 0
149 166 0
141 160 0
139 160 0
156 179 0
173 197 0
174 198 0
160 184 0
160 186 0
161 185 0
170 196 0
173 197 0
175 198 0
172 196 0
176 199 0
165 189 0
166 187 0
153 178 36
66 88 0
49 80 80
51 81 95
54 85 111
56 88 99
52 82 95
47 75 57
47 76 95
60 94 99
53 84 114
60 95 137
55 88 80
48 78 80
53 83 111
53 84 108
58 92 114
56 87 127
59 93 127
61 95 127
60 94 125
56 87 99
45 74 0
52 84 80
57 91 140
61 96 127
56 90 80
56 89 99
59 91 127
62 97 140
55 87 99
59 93 114
56 88 127
55 88 80
47 77 80
57 91 99
45 74 80
60 95 127
58 94 127
43 68 80
51 82 57
53 85 99
58 91 127
58 91 99
57 88 80
50 81 80
59 93 140
56 86 127
54 86 99
55 87 127
55 86 114
55 88 99
59 93 127
61 96 140
59 91 127
58 92 114
57 91 114
61 97 140
57 91 114
59 91 130
59 93 127
63 97 161
57 90 114
56 89 99
56 89 99
57 90 114
60 92 142
59 89 117
56 88 99
55 86 99
54 85 127
54 85 80
52 85 80
54 84 102
56 88 140
54 85 57
45 72 57
48 73 80
56 88 99
57 87 114
57 88 102
55 82 88
53 83 80
54 84 114
42 63 0
59 92 99
49 74 57
50 76 99
48 72 80
47 70 99
42 63 62
163 187 0
168 187 0
170 191 0
172 197 0
164 185 0
169 195 0
169 191 0
166 186 0
174 198 0
166 186 0
165 187 0
171 193 0
169 188 0
154 158 0
139 137 0
128 126 0
121 120 0
123 124 0
132 127 0
113 109 0
114 110 0
75 76 0
103 103 0
91 84 0
99 95 0
77 77 0
77 73 0
74 74 0
79 75 0
95 95 0
94 92 0
94 95 0
102 96 0
130 126 0
87 81 0
80 75 0
104 95 0
101 92 0
127 127 0
110 107 0
140 139 0
123 120 0
108 110 0
139 136 0
127 125 0
123 122 0
120 115 0
122 121 0
143 135 0
154 150 0
118 110 0
147 141 0
134 134 0
135 137 0
129 123 0
138 134 0
138 132 0
123 117 0
138 138 0
142 140 0
122 121 0
113 115 0
125 121 0
156 152 0
131 129 0
146 145 0
150 148 0
116 111 0
138 135 0
138 131 0
136 130 0
139 134 0
139 138 0
153 149 0
132 126 0
151 148 0
143 140 0
144 135 0
153 149 0
136 135 0
147 146 0
155 153 0
155 150 0
149 143 0
154 148 0
133 132 0
154 152 0
138 132 0
145 141 0
144 141 0
141 136 0
133 132 0
146 145 0
141 136 0
159 155 0
148 145 0
155 150 0
152 146 0
146 140 0
157 151 0
154 151 0
142 140 0
156 146 0
141 137 0
135 133 0
153 149 0
150 147 0
149 143 0
152 146 0
136 138 0
156 153 0
147 146 0
146 145 0
152 149 0
147 144 0
153 149 0
150 142 0
153 150 0
150 148 0
146 146 0
156 153 0
146 145 0
156 151 0
152 152 0
156 153 0
155 148 0
156 153 0
152 151 0
157 151 0
156 153 0
150 147 0
154 152 0
152 145 0
155 153 0
152 149 0
153 149 0
144 144 0
154 150 0
152 149 0
137 133 0
149 147 0
159 152 0
160 155 0
156 152 0
147 146 0
151 149 0
158 154 0
159 154 0
155 153 0
159 154 0
157 153 0
150 142 0
150 148 0
155 153 0
153 152 0
147 167 0
156 177 0
153 176 0
149 171 0
151 174 0
157 177 0
146 166 0
150 174 0
155 175 0
158 177 0
155 176 0
156 177 0
155 175 0
162 180 0
152 174 0
154 176 0
153 175 0
156 176 0
154 176 0
149 167 0
159 178 0
153 175 0
143 164 0
157 177 0
156 174 0
141 163 0
147 168 0
151 173 0
146 167 0
156 176 0
152 172 0
150 170 0
151 174 0
150 169 0
155 177 0
148 170 0
152 174 0
143 164 0
128 148 0
156 177 0
154 173 0
144 162 0
154 174 0
148 167 0
144 163 0
147 169 0
148 165 0
152 175 0
152 170 0
147 167 0
155 176 0
153 174 0
151 171 0
147 169 0
156 174 0
153 174 0
156 176 0
143 162 0
158 178 0
153 175 0
147 165 0
156 177 0
154 176 0
146 168 0
149 167 0
153 176 0
148 169 0
151 171 0
144 162 0
129 149 0
148 169 0
139 158 0
157 177 0
135 153 0
146 167 0
148 168 0
145 166 0
137 158 0
145 164 0
128 152 0
145 163 0
141 164 0
144 165 0
154 172 0
132 150 0
145 166 0
140 158 0
127 145 0
145 167 0
136 155 0
144 164 0
140 161 0
151 172 0
127 148 0
126 148 0
118 136 0
114 132 0
139 158 0
136 159 0
138 156 0
141 161 0
134 156 0
159 178 0
133 152 0
143 161 0
139 157 0
113 131 0
140 156 0
125 144 0
105 121 0
125 140 0
140 159 0
124 143 0
120 138 0
111 130 0
95 110 0
134 153 0
124 142 0
99 114 0
102 120 0
113 131 0
102 120 0
91 106 0
122 139 0
78 91 0
95 107 0
99 114 0
116 133 0
86 101 0
118 133 0
109 123 0
78 90 0
73 91 0
87 102 0
112 129 0
133 152 0
95 110 0
117 137 0
120 137 0
131 149 0
153 177 0
167 190 0
180 199 0
169 190 0
164 187 0
163 188 0
165 187 0
171 196 0
169 191 0
177 198 0
167 189 0
160 182 0
165 189 0
163 187 0
169 195 0
113 136 0
42 66 76
50 79 57
49 78 57
51 81 92
57 88 99
47 76 57
47 75 57
51 82 57
56 88 99
51 81 57
60 95 140
60 94 114
49 77 99
53 85 99
61 96 127
49 80 76
61 96 127
59 93 114
55 87 80
55 86 114
59 92 114
55 89 99
55 87 80
48 78 57
61 94 127
52 83 95
58 92 127
59 93 114
46 76 99
55 89 80
51 82 114
55 87 127
54 85 99
59 92 127
57 91 114
53 85 0
57 90 114
59 92 114
55 88 99
58 91 127
59 94 114
56 90 114
54 86 99
61 97 140
56 87 127
56 88 99
58 90 99
57 90 114
55 87 80
58 91 99
59 92 114
54 85 99
55 89 114
50 79 99
54 86 80
54 86 99
57 90 84
61 97 151
54 84 57
49 77 80
54 87 99
56 90 114
59 93 99
56 89 80
57 89 114
60 93 114
59 93 114
51 78 114
55 87 80
55 85 114
56 89 84
62 97 140
57 90 127
61 96 127
59 91 127
57 89 99
56 86 84
44 72 57
59 92 114
49 78 80
53 84 99
52 81 80
46 73 0
49 78 57
46 72 62
53 83 114
57 87 114
48 71 84
135 155 25
163 184 0
173 197 0
170 192 0
166 190 0
174 194 0
166 189 0
172 193 0
164 185 0
176 199 0
164 188 0
176 199 0
171 196 0
165 181 0
177 199 0
143 146 0
130 124 0
115 111 0
110 111 0
102 102 0
105 105 0
74 78 0
121 116 0
88 88 0
103 100 0
97 87 0
55 54 0
96 91 0
86 82 0
91 90 0
110 101 0
113 106 0
119 113 0
110 108 0
106 100 0
90 90 0
100 98 0
122 117 0
141 139 0
115 114 0
123 118 0
130 127 0
111 113 0
127 124 0
96 97 0
127 128 0
126 125 0
121 122 0
106 108 0
142 138 0
129 130 0
134 133 0
149 145 0
145 144 0
152 148 0
132 132 0
139 138 0
133 131 0
144 138 0
132 127 0
144 141 0
133 127 0
134 132 0
141 138 0
152 149 0
151 148 0
137 137 0
121 118 0
132 128 0
127 123 0
135 133 0
150 147 0
143 138 0
140 140 0
122 117 0
137 133 0
137 131 0
139 136 0
141 135 0
144 141 0
147 144 0
153 145 0
154 150 0
147 146 0
158 152 0
152 148 0
157 154 0
147 143 0
153 152 0
123 122 0
138 139 0
141 139 0
137 133 0
145 142 0
150 146 0
142 140 0
148 147 0
151 149 0
139 132 0
153 149 0
138 131 0
147 141 0
153 150 0
149 146 0
151 147 0
150 148 0
157 154 0
144 145 0
152 149 0
153 152 0
156 153 0
147 141 0
156 151 0
150 147 0
154 150 0
149 145 0
152 149 0
156 153 0
148 146 0
156 151 0
157 151 0
154 152 0
153 149 0
146 144 0
152 149 0
159 154 0
145 136 0
153 145 0
154 152 0
148 146 0
150 150 0
139 135 0
142 137 0
150 147 0
153 149 0
155 153 0
156 153 0
153 152 0
154 152 0
159 154 0
153 149 0
154 152 0
155 150 0
154 152 0
153 152 0
155 153 0
155 153 0
141 140 0
154 152 0
154 152 0
156 150 0
156 153 0
155 153 0
145 139 0
156 151 0
155 150 0
152 173 0
156 177 0
158 177 0
159 178 0
157 176 0
149 172 0
154 176 0
153 174 0
154 176 0
152 174 0
156 176 0
158 178 0
155 176 0
150 174 0
156 177 0
144 162 0
148 171 0
153 174 0
154 176 0
150 172 0
157 177 0
146 163 0
151 174 0
154 175 0
146 168 0
153 175 0
149 171 0
151 174 0
148 169 0
153 175 0
155 176 0
151 172 0
155 174 0
153 174 0
151 173 0
149 170 0
147 168 0
155 175 0
150 171 0
152 171 0
155 176 0
156 177 0
150 167 0
153 175 0
147 166 0
145 167 0
154 174 0
151 172 0
152 174 0
145 166 0
157 178 0
147 169 0
142 164 0
146 164 0
145 166 0
152 174 0
150 172 0
154 176 0
144 166 0
153 173 0
137 159 0
152 175 0
144 163 0
148 166 0
154 176 0
153 175 0
149 169 0
137 156 0
149 168 0
149 169 0
128 149 0
139 157 0
139 160 0
148 167 0
149 169 0
129 148 0
141 164 0
156 175 0
153 171 0
137 154 0
155 175 0
156 177 0
156 175 0
136 157 0
145 165 0
133 154 0
121 142 0
142 165 0
150 172 0
121 142 0
148 167 0
126 147 0
93 112 0
153 175 0
114 135 0
138 156 0
147 168 0
129 148 0
112 130 0
156 175 0
151 170 0
137 158 0
119 140 0
141 159 0
131 151 0
141 157 0
130 149 0
134 153 0
109 128 0
118 133 0
122 139 0
93 109 0
141 159 0
114 132 0
105 124 0
107 125 0
132 152 0
138 154 0
126 144 0
114 130 0
89 107 0
100 113 0
106 121 0
131 148 0
79 92 0
100 113 0
86 101 0
79 92 0
114 129 0
118 136 0
103 118 0
76 90 0
97 116 0
119 137 0
105 122 0
128 147 0
114 131 0
113 131 0
120 143 0
126 148 0
157 184 0
170 196 0
178 200 0
174 196 0
174 198 0
175 197 0
171 194 0
167 190 0
170 194 0
173 196 0
170 195 0
170 191 0
162 182 0
175 198 0
174 195 0
177 199 0
90 110 57
49 77 76
49 79 57
46 73 76
58 91 99
52 83 99
58 92 114
46 74 80
58 91 114
55 88 99
56 88 99
54 85 99
53 84 99
56 88 127
49 78 95
59 92 127
58 92 99
53 83 99
54 87 99
53 85 111
56 88 114
50 81 76
47 74 0
60 94 127
55 87 80
52 83 57
53 84 80
61 95 151
59 92 99
51 82 80
54 86 99
59 93 99
52 84 114
50 80 99
55 89 99
56 89 114
58 91 99
65 101 161
59 92 127
56 89 140
60 93 127
57 91 114
52 82 99
58 92 127
57 92 99
51 80 99
56 88 114
50 80 80
49 75 99
56 88 99
49 79 80
59 92 127
56 91 99
57 89 80
53 85 99
56 90 99
59 92 127
58 92 127
55 85 114
62 97 161
57 90 80
57 92 99
50 80 80
54 86 114
57 89 114
59 92 114
56 87 127
52 81 80
59 92 99
49 79 57
52 78 84
53 84 99
54 82 88
51 81 99
55 86 114
53 79 88
50 80 99
53 79 99
55 85 84
55 85 127
49 79 80
52 83 114
54 85 80
52 79 84
51 80 80
49 76 80
43 63 0
88 104 25
149 168 0
177 199 0
170 195 0
169 190 0
165 187 0
170 192 0
170 195 0
173 197 0
166 185 0
165 189 0
166 189 0
171 196 0
160 179 0
157 179 0
172 197 0
163 185 0
134 131 0
136 130 0
139 137 0
103 100 0
128 119 0
107 98 0
87 82 0
64 49 0
112 109 0
115 105 0
101 96 0
78 76 0
102 98 0
106 95 0
104 101 0
100 99 0
76 75 0
97 93 0
101 97 0
99 96 0
96 97 0
131 124 0
111 104 0
124 118 0
105 98 0
108 107 0
134 130 0
126 124 0
103 106 0
120 113 0
121 117 0
94 89 0
134 127 0
122 118 0
131 124 0
132 129 0
125 124 0
136 132 0
147 145 0
123 120 0
121 119 0
131 131 0
138 133 0
153 149 0
150 144 0
133 131 0
143 140 0
124 117 0
146 144 0
126 124 0
146 143 0
130 129 0
131 126 0
148 146 0
141 136 0
140 136 0
133 130 0
119 119 0
136 132 0
140 138 0
148 147 0
152 148 0
141 143 0
154 150 0
142 133 0
139 139 0
132 132 0
143 141 0
150 146 0
152 145 0
143 138 0
154 152 0
138 139 0
134 123 0
150 150 0
151 148 0
153 149 0
132 130 0
137 132 0
150 148 0
134 128 0
152 148 0
131 125 0
150 147 0
157 154 0
143 143 0
147 146 0
155 146 0
154 152 0
157 151 0
156 153 0
154 152 0
152 151 0
151 146 0
158 152 0
159 154 0
155 148 0
160 155 0
150 145 0
150 143 0
156 153 0
146 146 0
148 142 0
143 140 0
154 150 0
154 150 0
156 153 0
155 148 0
156 152 0
155 150 0
159 153 0
152 151 0
154 152 0
149 145 0
156 153 0
154 149 0
144 144 0
152 151 0
157 154 0
148 145 0
149 147 0
148 145 0
154 152 0
157 153 0
152 144 0
157 154 0
153 152 0
155 152 0
151 151 0
156 153 0
154 150 0
157 151 0
149 144 0
161 155 0
146 139 0
159 154 0
157 151 0
158 154 0
157 151 0
154 152 0
145 167 0
151 172 0
156 177 0
156 177 0
149 172 0
157 178 0
144 167 0
155 176 0
146 168 0
153 174 0
153 173 0
156 177 0
151 174 0
155 175 0
149 170 0
153 173 0
137 159 0
149 170 0
152 175 0
154 172 0
152 175 0
151 170 0
155 176 0
153 174 0
154 175 0
153 174 0
146 168 0
147 165 0
155 176 0
155 176 0
152 175 0
150 171 0
137 160 0
150 172 0
156 177 0
155 176 0
153 174 0
143 164 0
153 175 0
151 171 0
153 174 0
152 174 0
148 170 0
143 163 0
151 172 0
154 176 0
150 171 0
153 173 0
154 175 0
146 165 0
140 160 0
154 175 0
144 161 0
146 165 0
148 169 0
150 170 0
149 167 0
144 166 0
154 175 0
153 173 0
152 174 0
157 178 0
134 151 0
149 170 0
141 159 0
156 174 0
137 159 0
114 134 0
142 163 0
148 169 0
154 174 0
148 168 0
149 172 0
139 161 0
146 166 0
148 170 0
143 165 0
141 161 0
144 161 0
141 164 0
134 150 0
147 167 0
123 144 0
137 153 0
142 164 0
152 174 0
157 177 0
140 156 0
147 167 0
145 167 0
134 153 0
157 176 0
145 167 0
121 139 0
141 163 0
136 153 0
130 150 0
127 145 0
139 159 0
128 145 0
127 147 0
124 144 0
123 142 0
135 155 0
150 167 0
131 147 0
118 137 0
154 172 0
120 139 0
111 130 0
136 154 0
98 115 0
119 138 0
107 124 0
125 144 0
116 136 0
79 95 0
100 115 0
101 118 0
112 129 0
99 114 0
130 147 0
108 125 0
100 116 0
120 138 0
33 54 0
70 83 0
84 99 0
83 96 0
118 134 0
108 126 0
105 121 0
56 73 0
118 133 0
129 149 0
142 160 0
137 158 0
139 159 0
147 167 0
160 184 0
174 196 0
154 177 0
161 185 0
166 189 0
176 199 0
168 193 0
164 185 0
174 195 0
166 189 0
171 195 0
172 195 0
170 196 0
163 188 0
173 197 0
164 188 0
167 192 0
139 161 51
53 82 95
49 78 80
53 85 95
47 74 51
45 71 80
48 77 76
52 83 80
50 80 95
50 81 80
52 83 80
56 89 127
56 90 114
54 85 99
54 87 127
48 75 99
55 86 80
59 94 127
56 91 99
57 88 80
47 77 99
60 94 127
53 85 57
60 93 140
58 91 114
50 79 57
58 92 127
59 92 99
58 91 114
61 96 140
60 95 127
54 84 114
55 87 99
56 90 114
54 85 114
61 95 151
55 88 99
57 89 114
58 90 80
61 96 127
55 87 114
53 86 80
54 87 80
62 97 140
55 88 80
58 88 80
56 89 99
56 87 114
42 66 80
57 90 99
59 92 127
60 94 140
54 86 80
59 94 114
60 95 114
54 86 99
59 88 84
59 93 127
59 92 127
56 90 80
58 93 114
56 87 80
52 82 80
53 84 114
59 91 99
58 89 127
61 95 127
55 84 80
55 87 99
52 82 99
55 86 114
57 91 127
52 82 99
56 87 80
61 94 127
57 84 114
54 86 99
53 85 57
46 73 80
52 81 57
49 78 80
56 87 114
54 84 99
49 74 57
54 84 80
37 61 57
50 73 57
132 148 57
169 186 0
172 194 0
172 193 0
169 188 0
163 184 0
175 198 0
157 178 0
173 194 0
178 200 0
169 192 0
162 183 0
169 195 0
177 199 0
159 178 0
176 199 0
180 201 0
149 157 0
138 134 0
117 113 0
133 127 0
114 110 0
136 127 0
116 112 0
110 107 0
103 103 0
97 93 0
95 92 0
113 110 0
117 107 0
100 93 0
83 77 0
100 94 0
141 134 0
122 116 0
92 90 0
121 113 0
129 127 0
90 88 0
89 90 0
115 110 0
118 115 0
115 114 0
131 128 0
108 109 0
102 100 0
134 124 0
109 106 0
120 112 0
112 106 0
105 103 0
128 125 0
128 127 0
104 101 0
146 143 0
131 123 0
136 131 0
134 129 0
134 132 0
148 144 0
140 135 0
133 133 0
121 124 0
145 142 0
139 133 0
125 124 0
142 135 0
124 117 0
151 145 0
149 146 0
135 133 0
148 142 0
137 135 0
151 144 0
145 142 0
145 140 0
150 146 0
131 128 0
133 131 0
151 146 0
139 138 0
156 153 0
149 145 0
144 144 0
144 137 0
152 151 0
135 130 0
146 140 0
148 144 0
153 147 0
139 131 0
146 143 0
152 149 0
144 138 0
143 141 0
150 146 0
145 137 0
144 137 0
155 150 0
145 139 0
150 148 0
127 127 0
154 152 0
154 144 0
157 153 0
155 150 0
161 153 0
146 145 0
150 148 0
153 149 0
148 145 0
144 140 0
157 154 0
157 154 0
152 149 0
154 150 0
143 140 0
153 144 0
145 145 0
147 139 0
153 150 0
140 138 0
145 142 0
152 149 0
151 151 0
154 148 0
156 153 0
157 151 0
159 154 0
150 143 0
157 154 0
154 152 0
149 146 0
155 150 0
150 142 0
153 152 0
155 153 0
152 148 0
155 150 0
155 152 0
156 153 0
153 150 0
149 147 0
153 152 0
153 149 0
154 152 0
155 153 0
155 153 0
155 153 0
156 153 0
142 141 0
151 144 0
153 152 0
159 155 0
153 149 0
153 149 0
155 153 0
150 172 0
146 166 0
154 176 0
154 176 0
157 177 0
150 171 0
153 174 0
149 170 0
150 172 0
158 178 0
156 176 0
157 177 0
153 174 0
152 171 0
155 176 0
155 176 0
143 160 0
159 177 0
154 171 0
157 177 0
151 171 0
152 175 0
150 172 0
149 168 0
151 172 0
152 174 0
145 166 0
145 168 0
153 173 0
158 178 0
157 177 0
150 173 0
154 174 0
148 168 0
157 176 0
150 170 0
154 175 0
146 167 0
150 173 0
144 165 0
144 166 0
155 176 0
142 160 0
153 173 0
153 175 0
148 167 0
151 173 0
146 168 0
153 175 0
147 167 0
155 174 0
165 182 0
147 166 0
151 174 0
154 175 0
154 176 0
139 159 0
140 158 0
135 153 0
157 177 0
139 159 0
147 168 0
145 167 0
147 166 0
146 167 0
149 167 0
152 173 0
143 161 0
128 147 0
140 162 0
149 170 0
154 174 0
135 157 0
146 165 0
148 164 0
153 173 0
115 136 0
144 166 0
144 163 0
154 176 0
127 146 0
153 172 0
140 157 0
130 148 0
146 165 0
148 166 0
136 153 0
144 164 0
154 174 0
149 168 0
144 162 0
137 159 0
122 143 0
139 156 0
135 154 0
138 154 0
119 137 0
132 154 0
115 135 0
152 171 0
155 175 0
147 169 0
114 132 0
126 145 0
131 151 0
114 133 0
105 122 0
128 147 0
92 110 0
119 135 0
121 139 0
112 133 0
116 130 0
100 118 0
128 145 0
118 135 0
120 141 0
115 133 0
115 130 0
63 80 0
109 124 0
111 127 0
123 136 0
86 102 0
103 118 0
83 99 0
93 109 0
125 143 0
101 117 0
122 139 0
121 137 0
85 99 0
100 115 0
129 147 0
120 139 0
101 118 0
120 136 0
130 147 0
139 161 0
168 191 0
165 188 0
162 187 0
161 183 0
173 197 0
158 182 0
170 190 0
166 187 0
166 191 0
163 186 0
173 197 0
151 174 0
176 198 0
151 176 0
168 193 0
159 181 0
163 188 0
163 184 0
87 109 57
49 78 99
40 66 76
47 75 57
53 83 76
47 75 0
51 81 80
53 84 111
43 69 22
57 90 111
53 84 114
53 83 114
50 80 99
55 87 99
55 87 57
54 87 80
61 96 149
59 92 127
52 82 99
58 92 149
58 92 127
53 84 80
51 80 99
61 95 125
54 86 80
56 89 99
55 87 99
57 91 114
60 94 140
54 87 80
50 80 80
53 85 80
58 92 127
56 89 114
60 95 127
53 84 99
52 82 99
60 93 140
58 89 99
58 92 114
61 96 127
56 87 127
54 87 80
56 86 99
59 90 127
57 90 114
53 86 80
55 85 127
58 91 114
55 87 80
56 90 80
55 87 99
59 92 127
58 92 127
58 91 127
55 86 99
50 78 80
52 83 80
55 87 127
54 85 114
56 89 114
50 80 99
53 83 99
51 81 80
59 91 114
50 80 80
57 90 114
51 80 114
54 84 114
61 97 140
56 87 99
45 71 57
62 95 117
56 88 114
51 78 99
54 85 127
43 65 0
49 75 84
48 76 80
44 69 80
57 86 102
55 85 57
52 82 114
52 79 57
46 71 57
70 94 57
170 192 0
164 184 0
159 182 0
173 197 0
167 194 0
154 179 0
171 189 0
173 197 0
170 192 0
159 178 0
172 197 0
173 197 0
172 196 0
159 180 0
166 187 0
169 191 0
175 195 0
171 196 0
149 155 0
147 146 0
113 115 0
119 112 0
108 109 0
104 105 0
105 101 0
123 115 0
97 93 0
34 47 0
106 98 0
122 117 0
114 113 0
66 66 0
85 85 0
102 96 0
111 107 0
87 85 0
119 116 0
118 115 0
110 103 0
112 110 0
134 129 0
97 102 0
117 113 0
123 123 0
130 124 0
105 102 0
110 103 0
118 119 0
147 140 0
98 88 0
134 129 0
126 121 0
87 87 0
140 131 0
141 132 0
140 130 0
150 147 0
146 146 0
147 140 0
127 125 0
138 134 0
136 132 0
148 144 0
130 129 0
137 134 0
130 127 0
156 152 0
129 130 0
145 142 0
151 145 0
159 154 0
145 145 0
140 132 0
142 137 0
142 134 0
153 152 0
140 136 0
156 153 0
137 132 0
143 139 0
151 141 0
144 141 0
133 129 0
147 145 0
136 133 0
155 147 0
154 150 0
149 146 0
149 146 0
136 131 0
138 134 0
142 136 0
158 154 0
154 152 0
148 144 0
145 144 0
142 139 0
149 141 0
129 126 0
141 139 0
149 147 0
145 139 0
138 136 0
156 153 0
156 153 0
151 148 0
153 152 0
145 135 0
153 147 0
149 145 0
156 151 0
149 145 0
149 144 0
134 130 0
154 150 0
155 148 0
156 151 0
139 134 0
153 144 0
139 137 0
155 153 0
150 145 0
152 151 0
149 145 0
156 148 0
149 139 0
150 147 0
159 154 0
157 149 0
150 148 0
141 139 0
145 141 0
158 154 0
154 152 0
145 140 0
156 153 0
154 152 0
158 154 0
152 152 0
152 151 0
152 149 0
152 148 0
151 144 0
150 142 0
161 153 0
155 150 0
147 143 0
151 149 0
155 150 0
147 143 0
147 142 0
156 150 0
156 151 0
145 142 0
155 153 0
149 144 0
159 154 0
152 173 0
157 178 0
156 176 0
150 173 0
157 176 0
153 174 0
159 178 0
155 173 0
152 175 0
156 174 0
152 173 0
138 159 0
150 172 0
155 176 0
149 170 0
155 175 0
151 173 0
156 175 0
157 177 0
152 175 0
156 177 0
142 163 0
145 161 0
152 175 0
151 172 0
147 168 0
152 175 0
156 176 0
144 166 0
156 173 0
149 169 0
144 164 0
155 174 0
152 172 0
153 174 0
152 171 0
154 174 0
150 173 0
150 172 0
155 175 0
154 176 0
154 176 0
151 168 0
147 168 0
143 163 0
150 171 0
158 176 0
154 176 0
157 177 0
141 161 0
140 159 0
141 161 0
140 161 0
155 176 0
155 177 0
149 173 0
151 172 0
133 154 0
151 174 0
150 173 0
148 166 0
146 167 0
153 174 0
124 146 0
158 177 0
154 173 0
148 169 0
144 164 0
139 160 0
151 172 0
143 164 0
135 152 0
146 166 0
140 163 0
125 145 0
156 174 0
156 176 0
139 159 0
154 175 0
144 163 0
129 150 0
137 155 0
147 168 0
136 155 0
150 169 0
146 168 0
138 161 0
138 159 0
148 169 0
141 162 0
133 149 0
128 147 0
148 169 0
143 160 0
139 158 0
129 151 0
113 132 0
125 144 0
122 138 0
133 152 0
113 129 0
138 158 0
105 123 0
132 152 0
134 155 0
130 147 0
108 127 0
121 136 0
124 141 0
142 160 0
118 137 0
132 149 0
124 142 0
141 158 0
106 123 0
109 127 0
111 130 0
129 145 0
70 83 0
110 126 0
129 146 0
134 151 0
122 135 0
107 124 0
126 144 0
97 108 0
92 104 0
126 142 0
90 102 0
94 110 0
49 67 0
119 135 0
138 156 0
76 92 0
131 148 0
131 149 0
100 115 0
152 171 0
153 175 0
171 195 0
168 192 0
177 198 0
167 190 0
169 193 0
169 192 0
170 192 0
169 193 0
171 194 0
171 195 0
179 200 0
162 187 0
171 194 0
149 172 0
170 193 0
166 190 0
165 188 0
172 195 0
165 190 0
68 94 80
49 78 80
61 96 140
58 91 125
53 85 80
47 75 99
49 77 57
49 78 95
50 78 111
57 89 127
56 88 111
52 84 51
57 88 99
51 81 80
54 85 111
52 83 57
53 83 57
52 83 99
55 87 114
57 90 57
53 85 99
58 92 99
54 86 114
54 86 114
61 96 127
57 91 95
60 94 114
61 95 140
55 87 114
51 82 99
62 95 140
60 93 114
58 92 114
55 86 114
49 79 114
53 87 99
53 85 80
57 90 80
56 87 114
56 87 114
58 90 140
52 83 57
58 92 99
54 86 99
61 94 127
50 81 80
56 88 57
55 88 99
61 96 140
59 93 140
56 89 57
63 98 140
55 87 99
53 84 57
57 88 114
57 87 117
58 90 114
49 76 84
55 89 114
53 83 57
60 94 114
55 85 114
58 88 117
56 88 80
48 74 99
58 90 102
55 87 114
55 86 117
60 92 130
59 91 114
55 86 99
52 81 99
51 78 99
54 84 99
51 80 99
51 81 84
53 79 99
51 80 99
50 79 57
50 75 92
45 70 62
52 77 62
46 69 62
71 92 62
172 190 0
168 187 0
158 174 0
163 187 0
161 182 0
166 188 0
164 187 0
171 190 0
169 195 0
176 199 0
162 183 0
171 189 0
169 191 0
163 187 0
176 199 0
176 198 0
170 196 0
163 181 0
168 186 0
169 183 0
146 141 0
117 114 0
150 144 0
110 106 0
96 97 0
119 108 0
129 125 0
113 114 0
89 87 0
106 99 0
118 110 0
122 114 0
103 99 0
115 108 0
98 96 0
119 113 0
95 93 0
92 92 0
108 103 0
114 109 0
134 127 0
132 128 0
129 126 0
121 118 0
115 110 0
122 116 0
99 95 0
139 134 0
131 126 0
121 117 0
111 109 0
157 150 0
110 110 0
129 126 0
139 130 0
136 134 0
132 132 0
147 142 0
124 121 0
128 121 0
134 131 0
137 130 0
150 142 0
143 141 0
138 138 0
121 117 0
139 139 0
125 122 0
155 152 0
147 145 0
140 134 0
146 142 0
154 150 0
125 116 0
141 138 0
151 142 0
142 137 0
125 124 0
135 137 0
156 153 0
146 146 0
149 141 0
154 147 0
152 149 0
140 130 0
147 139 0
147 141 0
158 154 0
131 130 0
132 125 0
129 127 0
145 141 0
137 129 0
153 152 0
144 141 0
140 139 0
142 139 0
136 134 0
140 134 0
149 147 0
147 146 0
148 146 0
150 145 0
146 143 0
151 148 0
156 148 0
149 150 0
146 142 0
148 142 0
154 147 0
155 152 0
121 120 0
151 146 0
155 150 0
144 139 0
152 144 0
152 149 0
144 138 0
146 143 0
151 149 0
152 151 0
146 140 0
151 144 0
154 147 0
150 144 0
150 145 0
151 148 0
145 137 0
149 147 0
160 155 0
155 148 0
149 148 0
149 147 0
151 148 0
144 142 0
155 149 0
155 148 0
152 146 0
152 146 0
155 153 0
149 145 0
152 151 0
150 148 0
152 149 0
150 147 0
154 150 0
153 149 0
144 139 0
146 146 0
153 148 0
155 150 0
155 153 0
158 154 0
154 152 0
152 149 0
157 154 0
150 148 0
153 149 0
154 174 0
160 179 0
153 174 0
157 177 0
154 175 0
148 168 0
154 176 0
152 171 0
148 169 0
139 156 0
154 176 0
159 178 0
152 174 0
145 167 0
147 167 0
156 177 0
152 173 0
152 175 0
151 174 0
153 174 0
151 172 0
149 168 0
157 177 0
152 175 0
153 175 0
151 172 0
151 171 0
155 176 0
151 173 0
149 171 0
154 176 0
156 177 0
155 175 0
160 177 0
157 177 0
145 164 0
151 172 0
148 169 0
156 176 0
146 166 0
148 170 0
155 176 0
155 175 0
152 172 0
150 169 0
155 175 0
150 174 0
148 168 0
146 165 0
155 177 0
144 162 0
151 171 0
154 174 0
147 168 0
142 162 0
154 176 0
144 163 0
161 180 0
152 171 0
138 159 0
147 164 0
135 157 0
151 172 0
153 176 0
150 170 0
137 157 0
146 167 0
156 176 0
134 155 0
144 163 0
152 173 0
143 162 0
150 172 0
155 173 0
142 161 0
150 170 0
145 160 0
146 167 0
144 164 0
129 149 0
135 155 0
135 155 0
149 170 0
139 157 0
151 173 0
147 169 0
123 143 0
140 159 0
142 160 0
157 177 0
122 140 0
137 157 0
142 162 0
146 167 0
129 143 0
156 176 0
137 154 0
135 155 0
123 140 0
119 138 0
150 168 0
139 157 0
131 147 0
134 151 0
124 142 0
123 141 0
112 130 0
125 142 0
116 132 0
114 127 0
132 151 0
116 131 0
128 145 0
118 135 0
81 98 0
123 142 0
119 134 0
101 122 0
110 125 0
88 105 0
114 129 0
114 134 0
102 117 0
143 160 0
130 143 0
90 103 0
95 111 0
147 164 0
107 124 0
112 129 0
108 123 0
123 139 0
137 152 0
126 144 0
130 148 0
118 134 0
134 153 0
168 191 0
170 195 0
169 194 0
154 179 0
146 169 0
163 186 0
164 189 0
157 182 0
157 181 0
162 181 0
164 188 0
175 198 0
174 196 0
174 196 0
150 176 0
174 196 0
145 168 0
159 181 0
149 171 0
165 185 0
169 192 0
126 148 0
55 86 111
46 73 95
58 91 80
48 78 95
51 82 114
48 77 99
54 87 80
48 77 80
53 83 99
52 83 111
56 88 127
56 88 80
54 84 99
56 89 114
53 84 80
53 85 80
54 85 99
51 81 99
50 80 99
56 89 127
59 92 125
51 81 99
51 80 80
47 76 99
56 88 127
55 85 114
57 91 80
56 90 80
55 87 114
46 75 57
54 86 127
65 101 161
56 86 127
56 90 114
58 91 114
48 77 57
53 85 99
60 96 140
55 86 99
54 84 127
56 89 114
58 93 114
61 93 127
49 77 80
53 84 99
55 85 99
57 91 57
57 89 114
52 84 57
55 88 99
58 93 114
55 87 80
56 90 80
57 90 99
46 72 25
56 86 105
57 90 84
57 90 114
51 82 0
58 91 114
55 85 117
54 87 57
57 90 99
46 72 57
43 71 0
56 89 114
56 88 117
51 82 80
51 79 80
59 93 127
55 86 99
44 70 0
45 73 57
49 78 57
44 70 57
52 79 57
53 83 80
55 86 114
53 84 80
52 77 57
48 77 57
50 78 62
121 137 57
157 181 0
165 184 0
170 189 0
162 181 0
154 172 0
155 172 0
161 183 0
153 169 0
158 177 0
160 183 0
163 184 0
170 192 0
167 187 0
168 187 0
153 169 0
175 195 0
156 176 0
153 177 0
168 191 0
165 185 0
174 194 0
111 112 0
137 122 0
144 139 0
132 123 0
133 123 0
128 118 0
148 141 0
92 87 0
82 78 0
84 83 0
101 101 0
100 88 0
109 100 0
124 119 0
101 100 0
76 75 0
144 133 0
114 109 0
97 91 0
113 104 0
99 96 0
128 119 0
112 109 0
122 118 0
124 119 0
131 128 0
139 135 0
117 108 0
110 99 0
98 97 0
102 95 0
111 109 0
138 134 0
112 101 0
125 121 0
89 92 0
137 132 0
120 120 0
122 123 0
148 144 0
127 129 0
151 146 0
125 116 0
123 120 0
134 133 0
121 118 0
129 123 0
145 141 0
138 132 0
135 130 0
155 153 0
146 140 0
150 144 0
130 124 0
137 129 0
135 130 0
123 111 0
149 150 0
151 145 0
119 117 0
150 144 0
125 116 0
140 133 0
138 134 0
156 153 0
142 140 0
147 142 0
131 128 0
145 141 0
156 153 0
146 143 0
155 150 0
153 145 0
140 137 0
156 153 0
161 155 0
153 147 0
150 146 0
138 133 0
142 140 0
154 147 0
139 134 0
149 141 0
159 152 0
151 148 0
140 135 0
153 149 0
149 145 0
138 135 0
154 147 0
138 138 0
149 142 0
155 150 0
151 141 0
141 134 0
150 140 0
151 148 0
159 155 0
144 141 0
155 153 0
146 139 0
156 151 0
154 152 0
151 149 0
150 148 0
156 153 0
150 148 0
157 154 0
151 146 0
152 147 0
148 146 0
136 133 0
155 148 0
143 144 0
163 154 0
152 151 0
153 152 0
145 141 0
154 152 0
153 149 0
153 149 0
146 143 0
147 146 0
153 149 0
156 150 0
146 143 0
155 153 0
160 153 0
155 153 0
158 154 0
151 148 0
153 152 0
152 151 0
157 151 0
155 150 0
151 148 0
155 153 0
147 168 0
159 179 0
150 171 0
153 173 0
157 178 0
156 176 0
148 169 0
151 171 0
148 170 0
148 171 0
155 174 0
152 175 0
157 176 0
145 166 0
157 176 0
154 175 0
156 176 0
150 171 0
151 172 0
156 177 0
151 171 0
151 173 0
143 163 0
152 175 0
153 172 0
155 176 0
154 173 0
155 176 0
152 174 0
149 170 0
152 174 0
154 175 0
155 175 0
154 176 0
150 170 0
137 158 0
157 174 0
149 171 0
150 168 0
148 167 0
140 161 0
149 169 0
146 167 0
124 144 0
149 172 0
146 163 0
152 169 0
142 161 0
154 174 0
155 175 0
146 166 0
152 172 0
141 163 0
152 174 0
134 153 0
156 177 0
139 157 0
149 167 0
139 160 0
138 160 0
142 159 0
151 173 0
141 161 0
121 138 0
146 164 0
150 169 0
145 166 0
153 173 0
151 173 0
142 161 0
146 168 0
138 158 0
155 175 0
146 165 0
149 169 0
140 159 0
150 169 0
149 169 0
135 153 0
145 166 0
134 150 0
156 176 0
142 162 0
147 167 0
139 160 0
131 151 0
140 159 0
117 133 0
150 172 0
148 169 0
129 147 0
119 136 0
134 152 0
134 152 0
119 138 0
134 153 0
129 149 0
135 152 0
132 152 0
111 127 0
121 139 0
106 122 0
126 146 0
142 159 0
146 166 0
144 165 0
133 153 0
136 154 0
133 154 0
111 126 0
125 144 0
107 124 0
107 126 0
132 150 0
115 132 0
121 139 0
134 150 0
118 137 0
100 116 0
79 96 0
112 128 0
94 110 0
116 134 0
114 128 0
112 125 0
105 121 0
128 144 0
118 135 0
109 122 0
100 117 0
100 116 0
121 138 0
113 130 0
123 141 0
132 147 0
139 159 0
151 174 0
159 184 0
156 179 0
159 182 0
151 173 0
164 185 0
158 179 0
166 192 0
156 178 0
167 190 0
156 178 0
164 188 0
155 177 0
154 176 0
172 191 0
163 186 0
144 169 0
171 196 0
158 184 0
165 187 0
157 180 0
175 196 0
145 165 0
126 145 0
43 69 92
54 84 80
45 74 0
51 82 57
51 81 80
46 74 99
52 84 80
50 79 76
52 83 114
48 77 51
53 83 99
55 87 80
56 87 99
54 87 80
45 71 57
54 86 111
54 85 114
57 89 111
51 82 80
51 83 80
58 92 80
46 73 57
59 94 114
61 96 127
62 97 140
60 94 114
51 80 80
59 91 125
63 97 127
51 83 80
59 92 114
49 79 80
60 95 140
55 87 80
54 86 114
57 91 114
56 88 114
57 91 99
58 92 99
53 85 114
58 91 127
60 94 114
52 82 80
45 73 57
53 86 80
55 87 114
55 87 80
56 89 127
57 89 80
57 90 99
59 92 127
47 76 57
46 72 0
57 91 114
58 91 114
53 84 99
48 77 57
51 80 80
57 89 114
55 85 114
54 82 80
53 82 62
55 86 80
60 91 102
49 73 57
56 87 99
53 84 80
56 85 130
55 88 99
50 78 80
51 80 99
49 73 62
53 82 99
40 64 0
53 80 62
43 65 57
47 75 80
50 78 0
51 76 102
43 67 0
113 133 0
159 173 0
152 170 0
168 189 0
166 185 0
156 177 0
152 172 0
162 181 0
157 176 0
150 166 0
161 183 0
158 174 0
154 175 0
166 186 0
170 189 0
166 183 0
162 183 0
171 193 0
164 179 0
174 191 0
135 151 0
158 176 0
168 186 0
142 138 0
137 131 0
116 104 0
142 133 0
127 110 0
105 96 0
102 98 0
130 121 0
98 93 0
120 112 0
106 107 0
95 93 0
120 114 0
102 100 0
95 93 0
97 92 0
96 93 0
121 111 0
129 126 0
112 105 0
108 100 0
124 120 0
124 120 0
132 126 0
132 130 0
122 118 0
110 102 0
149 136 0
128 121 0
148 143 0
118 113 0
140 137 0
83 81 0
148 143 0
126 123 0
120 119 0
128 120 0
137 128 0
140 132 0
135 129 0
124 124 0
145 144 0
127 122 0
123 116 0
121 123 0
140 132 0
124 119 0
127 120 0
137 132 0
127 120 0
143 136 0
141 136 0
128 128 0
139 127 0
127 125 0
144 142 0
143 138 0
145 142 0
146 140 0
138 135 0
134 132 0
140 139 0
146 143 0
152 146 0
151 143 0
141 137 0
123 124 0
146 140 0
143 138 0
153 148 0
151 146 0
136 128 0
139 135 0
145 145 0
152 148 0
149 142 0
144 139 0
145 141 0
141 136 0
154 151 0
146 143 0
139 137 0
142 139 0
157 151 0
152 149 0
155 153 0
151 145 0
144 134 0
152 148 0
147 140 0
153 149 0
137 135 0
152 152 0
142 140 0
154 152 0
155 153 0
156 151 0
154 147 0
131 129 0
151 148 0
159 154 0
156 151 0
152 149 0
153 149 0
133 130 0
146 143 0
145 141 0
153 149 0
154 152 0
143 137 0
153 149 0
152 148 0
148 144 0
145 136 0
155 152 0
146 136 0
160 155 0
157 151 0
145 140 0
149 142 0
151 147 0
153 149 0
157 146 0
151 148 0
152 151 0
152 148 0
157 149 0
157 153 0
149 141 0
150 143 0
150 145 0
155 150 0
147 142 0
155 153 0
152 149 0
149 146 0
139 137 0
153 175 0
151 172 0
153 174 0
155 176 0
158 177 0
149 169 0
151 174 0
151 174 0
153 175 0
148 168 0
149 171 0
157 177 0
158 177 0
148 172 0
153 171 0
149 170 0
153 175 0
142 164 0
153 171 0
153 175 0
156 177 0
150 167 0
145 166 0
156 176 0
156 177 0
150 172 0
144 165 0
160 179 0
154 173 0
144 164 0
157 177 0
148 170 0
154 171 0
158 177 0
151 173 0
142 163 0
154 174 0
137 157 0
158 178 0
157 178 0
149 167 0
153 176 0
151 171 0
147 167 0
144 164 0
147 166 0
151 174 0
155 173 0
153 175 0
152 174 0
153 174 0
153 172 0
146 167 0
153 174 0
145 165 0
140 161 0
152 173 0
148 168 0
149 170 0
150 174 0
128 149 0
146 164 0
141 160 0
126 147 0
141 156 0
153 175 0
151 171 0
146 167 0
144 163 0
151 172 0
152 173 0
147 165 0
144 163 0
143 161 0
142 162 0
133 153 0
138 158 0
125 145 0
125 146 0
139 157 0
137 152 0
126 144 0
138 157 0
131 153 0
139 160 0
125 148 0
146 167 0
137 156 0
131 150 0
126 144 0
123 143 0
137 155 0
124 143 0
129 146 0
147 164 0
135 154 0
125 145 0
136 153 0
118 138 0
146 162 0
128 142 0
124 139 0
104 121 0
105 121 0
125 139 0
138 158 0
155 176 0
120 136 0
142 159 0
125 142 0
128 147 0
107 126 0
152 171 0
130 146 0
101 115 0
133 151 0
93 113 0
115 132 0
119 137 0
118 132 0
101 118 0
107 126 0
143 159 0
96 109 0
138 155 0
99 116 0
124 139 0
90 105 0
115 129 0
88 103 0
114 130 0
113 130 0
118 134 0
125 142 0
140 157 0
165 185 0
172 197 0
152 173 0
160 178 0
166 188 0
174 196 0
159 183 0
159 179 0
155 179 0
168 192 0
160 184 0
181 201 0
166 187 0
163 187 0
155 179 0
144 166 0
153 179 0
167 188 0
133 157 0
151 174 0
163 184 0
149 172 0
144 166 0
158 180 0
159 184 0
101 122 0
46 75 0
46 76 57
41 65 80
50 79 120
45 74 0
56 88 99
53 86 99
59 93 114
56 89 80
51 81 80
42 68 57
50 79 80
57 89 114
54 87 80
49 76 57
58 91 137
59 93 99
55 87 114
56 88 99
57 90 99
58 89 140
57 91 127
48 78 80
47 76 0
47 76 80
47 77 99
52 82 99
49 79 80
57 91 111
57 90 99
60 94 114
53 85 114
52 83 114
56 87 127
53 84 99
53 85 57
56 88 114
59 93 140
55 85 114
58 92 99
62 97 140
46 74 57
57 87 102
56 87 99
60 95 114
62 97 140
54 86 127
51 80 57
51 78 102
53 83 99
57 90 99
63 98 140
55 88 99
58 92 127
52 83 99
54 86 114
52 83 99
52 80 99
59 91 114
59 92 114
53 81 99
55 87 99
55 84 102
56 86 114
60 90 120
56 87 80
50 79 127
54 83 114
51 76 57
55 86 99
46 70 57
53 83 102
52 79 84
53 82 114
53 84 99
48 76 80
54 85 114
52 79 62
102 119 0
169 188 0
168 188 0
165 185 0
161 183 0
159 185 0
135 153 0
166 185 0
177 199 0
153 174 0
151 172 0
165 184 0
155 172 0
148 166 0
175 198 0
165 184 0
155 172 0
170 185 0
167 187 0
160 182 0
159 180 0
166 186 0
155 178 0
151 171 0
172 197 0
165 174 0
116 110 0
110 108 0
138 128 0
106 105 0
86 83 0
71 71 0
94 89 0
78 81 0
113 105 0
90 79 0
120 116 0
121 117 0
135 128 0
114 111 0
128 118 0
132 123 0
105 96 0
115 112 0
107 102 0
133 128 0
132 121 0
119 112 0
114 113 0
113 110 0
117 114 0
139 135 0
136 131 0
122 121 0
98 92 0
130 125 0
127 126 0
131 121 0
132 127 0
123 117 0
131 124 0
130 127 0
122 120 0
111 105 0
132 131 0
142 134 0
124 125 0
136 128 0
136 124 0
134 128 0
140 137 0
123 118 0
122 119 0
139 133 0
136 134 0
128 124 0
137 136 0
131 131 0
121 119 0
148 144 0
147 146 0
124 112 0
154 145 0
133 131 0
145 141 0
127 124 0
141 134 0
141 136 0
153 149 0
143 138 0
128 120 0
144 142 0
149 146 0
142 136 0
146 143 0
142 139 0
154 147 0
147 144 0
154 150 0
154 147 0
149 145 0
144 141 0
157 153 0
139 136 0
155 148 0
141 137 0
142 139 0
148 142 0
146 140 0
148 144 0
156 146 0
149 146 0
150 148 0
152 151 0
144 142 0
150 138 0
158 154 0
148 141 0
138 135 0
159 154 0
154 147 0
157 154 0
140 130 0
156 153 0
149 142 0
149 145 0
157 154 0
142 142 0
157 153 0
151 145 0
138 135 0
153 149 0
152 146 0
140 132 0
150 145 0
149 145 0
133 128 0
144 141 0
141 137 0
159 154 0
158 154 0
152 146 0
156 151 0
130 129 0
155 148 0
150 141 0
157 153 0
152 145 0
157 151 0
153 147 0
153 149 0
156 151 0
158 149 0
155 149 0
157 153 0
152 147 0
153 152 0
153 149 0
156 151 0
149 145 0
146 140 0
158 177 0
157 176 0
157 178 0
160 179 0
156 177 0
156 177 0
157 177 0
153 173 0
156 177 0
141 161 0
154 175 0
151 174 0
141 157 0
147 169 0
154 176 0
150 171 0
151 173 0
155 176 0
153 175 0
154 174 0
147 168 0
141 161 0
152 171 0
149 172 0
155 172 0
151 173 0
152 172 0
144 162 0
141 163 0
149 168 0
153 175 0
151 171 0
145 164 0
148 169 0
154 176 0
152 173 0
152 174 0
143 163 0
156 176 0
141 159 0
154 176 0
147 168 0
139 158 0
144 162 0
154 174 0
141 160 0
136 156 0
154 173 0
136 156 0
142 163 0
151 171 0
152 174 0
147 168 0
158 175 0
156 177 0
146 167 0
149 170 0
152 171 0
145 163 0
144 165 0
147 166 0
138 157 0
129 150 0
140 163 0
151 170 0
147 165 0
152 171 0
152 174 0
136 156 0
132 148 0
150 169 0
118 139 0
141 161 0
140 159 0
149 167 0
145 165 0
140 160 0
150 168 0
137 156 0
142 162 0
145 164 0
154 173 0
144 166 0
103 121 0
130 149 0
126 144 0
138 157 0
116 135 0
140 159 0
134 150 0
139 156 0
151 171 0
137 155 0
150 171 0
127 147 0
129 150 0
145 163 0
137 154 0
146 167 0
154 175 0
129 151 0
138 156 0
119 137 0
121 139 0
116 133 0
123 143 0
111 127 0
123 142 0
138 156 0
129 148 0
103 121 0
121 139 0
96 108 0
135 152 0
65 83 0
86 101 0
116 134 0
114 129 0
118 133 0
125 139 0
117 132 0
102 117 0
129 147 0
102 117 0
97 111 0
128 145 0
88 101 0
86 100 0
108 122 0
121 140 0
103 122 0
100 118 0
127 144 0
108 125 0
158 178 0
152 176 0
159 182 0
170 189 0
164 186 0
164 185 0
162 183 0
133 155 0
161 183 0
153 176 0
168 191 0
165 188 0
154 177 0
162 184 0
144 164 0
145 164 0
154 176 0
154 174 0
160 184 0
169 193 0
143 164 0
136 155 0
156 177 0
161 184 0
145 167 0
153 173 0
123 145 0
48 77 80
54 85 99
41 68 0
48 75 76
53 82 80
51 80 125
58 91 95
39 63 57
47 76 80
49 78 95
51 82 80
52 83 99
57 90 80
54 84 114
59 91 114
54 86 125
40 66 57
52 84 80
60 94 114
55 87 114
47 76 57
53 85 80
56 89 99
56 90 80
47 75 80
50 80 99
58 93 114
57 89 127
61 96 151
58 91 114
59 92 114
56 89 99
45 75 0
55 86 99
52 85 57
53 85 99
53 84 99
61 94 127
60 92 99
51 83 57
59 92 99
64 99 151
60 95 127
57 91 114
57 91 114
60 94 151
58 91 99
52 84 99
53 86 57
55 88 99
52 81 57
53 84 114
53 85 80
51 81 80
52 85 99
53 86 80
52 83 80
52 83 102
54 85 62
53 86 114
59 89 127
52 83 99
50 79 99
44 71 57
52 79 57
56 85 84
50 80 114
52 82 99
56 89 99
51 78 80
53 82 80
43 62 36
54 85 114
60 94 99
51 82 114
46 70 57
55 86 84
37 60 0
164 183 0
121 139 0
155 178 0
174 194 0
149 167 0
144 166 0
165 188 0
171 196 0
156 179 0
169 188 0
167 183 0
147 168 0
152 170 0
145 165 0
147 160 0
165 184 0
173 197 0
162 179 0
143 160 0
180 198 0
146 166 0
162 178 0
161 180 0
172 193 0
133 152 0
165 183 0
148 153 0
127 114 0
132 124 0
112 107 0
114 110 0
115 114 0
118 107 0
99 88 0
151 142 0
95 90 0
103 99 0
101 95 0
115 109 0
100 95 0
123 115 0
91 92 0
106 90 0
103 103 0
131 123 0
127 122 0
132 126 0
120 104 0
124 123 0
100 103 0
148 140 0
127 117 0
112 108 0
124 121 0
149 137 0
141 129 0
129 128 0
128 116 0
109 106 0
122 114 0
123 124 0
103 100 0
132 126 0
124 122 0
101 101 0
132 127 0
122 117 0
142 137 0
126 122 0
147 143 0
129 124 0
128 122 0
149 146 0
125 122 0
90 92 0
143 140 0
145 136 0
145 134 0
140 138 0
152 149 0
144 139 0
140 135 0
132 126 0
125 122 0
123 121 0
150 145 0
136 129 0
153 147 0
145 142 0
146 143 0
140 134 0
153 152 0
143 137 0
135 131 0
153 149 0
136 133 0
146 144 0
146 143 0
152 146 0
161 153 0
145 142 0
158 154 0
137 131 0
140 136 0
147 143 0
149 144 0
146 141 0
139 135 0
148 145 0
143 137 0
148 141 0
150 146 0
148 144 0
143 142 0
146 142 0
137 127 0
151 146 0
154 150 0
155 145 0
148 144 0
150 150 0
149 140 0
159 152 0
151 148 0
160 155 0
152 151 0
149 139 0
155 150 0
164 154 0
152 146 0
150 148 0
146 143 0
157 154 0
156 151 0
149 144 0
148 140 0
150 146 0
150 146 0
151 148 0
157 148 0
148 146 0
144 138 0
153 149 0
148 144 0
157 151 0
156 150 0
160 155 0
156 150 0
151 148 0
139 132 0
152 142 0
147 143 0
148 144 0
150 148 0
148 144 0
150 147 0
151 149 0
158 154 0
150 143 0
142 132 0
149 145 0
151 171 0
144 164 0
159 178 0
152 172 0
150 174 0
154 176 0
155 176 0
152 175 0
153 174 0
157 177 0
148 167 0
147 169 0
145 166 0
156 177 0
155 174 0
148 168 0
153 173 0
146 165 0
149 171 0
142 161 0
146 164 0
149 168 0
148 166 0
147 165 0
156 174 0
147 170 0
155 175 0
159 179 0
146 166 0
153 174 0
156 176 0
150 168 0
144 162 0
156 177 0
151 170 0
155 176 0
153 171 0
147 165 0
151 174 0
155 173 0
147 168 0
155 175 0
158 176 0
150 170 0
145 164 0
157 176 0
152 171 0
152 174 0
156 177 0
147 167 0
142 164 0
154 176 0
153 173 0
144 164 0
135 157 0
146 165 0
146 167 0
151 172 0
143 165 0
133 151 0
149 170 0
140 160 0
157 176 0
145 166 0
152 173 0
124 142 0
148 168 0
139 160 0
152 169 0
140 161 0
151 168 0
140 161 0
143 161 0
145 165 0
142 162 0
152 175 0
124 144 0
131 147 0
137 159 0
148 162 0
142 162 0
113 132 0
122 140 0
137 156 0
145 163 0
128 147 0
139 156 0
143 164 0
110 125 0
138 157 0
110 129 0
134 152 0
135 156 0
137 158 0
132 151 0
148 166 0
121 139 0
121 139 0
128 144 0
130 146 0
142 160 0
140 160 0
123 143 0
143 164 0
120 140 0
99 115 0
135 155 0
135 150 0
123 140 0
126 144 0
112 126 0
114 130 0
121 140 0
128 148 0
102 118 0
110 126 0
124 139 0
100 116 0
114 129 0
127 144 0
64 78 0
113 128 0
87 102 0
88 105 0
109 123 0
114 129 0
64 78 0
90 106 0
81 92 0
83 94 0
108 123 0
112 125 0
112 129 0
142 164 0
161 182 0
170 192 0
168 188 0
155 177 0
142 164 0
143 166 0
155 176 0
171 194 0
155 177 0
167 187 0
164 187 0
147 170 0
163 183 0
166 190 0
136 158 0
143 165 0
138 159 0
170 193 0
150 172 0
157 181 0
175 197 0
163 187 0
156 178 0
158 179 0
132 154 0
132 155 0
167 190 0
124 142 0
103 120 57
40 64 0
50 78 111
47 73 80
51 81 80
52 81 114
51 81 114
58 92 99
56 89 99
50 80 80
47 77 57
51 81 57
49 80 0
48 78 57
46 74 80
50 81 57
50 81 99
50 80 57
51 79 99
56 89 99
55 88 80
47 76 57
53 86 114
54 84 114
59 93 99
58 91 137
54 87 99
50 80 0
45 73 57
56 90 57
59 93 114
58 92 127
56 91 80
54 87 99
56 90 114
65 99 151
56 89 99
50 80 99
50 82 57
51 80 80
57 90 114
59 93 114
46 74 80
48 77 80
50 79 80
59 91 140
51 80 99
51 79 99
54 86 99
50 80 0
57 89 114
52 82 80
57 91 114
55 87 57
52 83 80
54 86 114
54 85 99
55 85 99
52 81 99
55 86 99
57 90 99
56 88 102
53 83 25
55 86 99
46 71 57
58 91 127
55 84 80
56 85 102
53 83 84
50 78 80
47 75 0
51 76 102
52 78 0
51 79 80
32 50 25
88 111 80
139 161 0
133 144 0
164 186 0
166 188 0
153 172 0
141 164 0
162 184 0
158 179 0
153 174 0
125 140 0
176 194 0
157 174 0
133 151 0
143 163 0
166 178 0
163 174 0
152 174 0
146 161 0
171 189 0
148 167 0
147 163 0
156 176 0
144 163 0
167 191 0
155 172 0
144 168 0
176 193 0
166 186 0
134 138 0
141 136 0
116 109 0
105 96 0
118 115 0
114 108 0
143 136 0
81 73 0
86 77 0
90 85 0
102 100 0
120 110 0
118 110 0
124 119 0
115 105 0
60 61 0
105 103 0
115 112 0
123 113 0
103 99 0
117 112 0
139 133 0
140 138 0
122 116 0
118 110 0
129 127 0
138 134 0
113 110 0
100 94 0
117 109 0
137 129 0
134 127 0
93 87 0
116 116 0
129 124 0
143 136 0
131 125 0
125 119 0
134 133 0
133 128 0
95 92 0
139 133 0
125 116 0
122 119 0
117 110 0
127 121 0
144 138 0
141 137 0
148 143 0
154 145 0
143 140 0
140 137 0
147 142 0
154 150 0
137 132 0
157 151 0
143 135 0
141 137 0
141 132 0
147 142 0
128 126 0
143 131 0
155 153 0
134 129 0
153 149 0
139 137 0
147 146 0
149 149 0
145 140 0
147 143 0
141 135 0
147 137 0
154 147 0
135 130 0
148 143 0
142 140 0
140 139 0
140 136 0
144 141 0
153 146 0
144 140 0
141 134 0
136 131 0
150 145 0
151 148 0
157 154 0
158 152 0
138 135 0
150 148 0
148 143 0
152 147 0
150 145 0
142 137 0
150 148 0
145 136 0
155 148 0
156 151 0
153 144 0
156 153 0
140 140 0
153 149 0
140 131 0
153 151 0
143 137 0
132 129 0
152 146 0
150 148 0
150 141 0
151 143 0
146 141 0
156 153 0
158 154 0
152 143 0
155 147 0
159 152 0
151 144 0
154 150 0
149 145 0
146 138 0
156 151 0
153 152 0
153 149 0
141 139 0
152 146 0
156 152 0
149 147 0
149 145 0
157 148 0
150 148 0
153 152 0
157 151 0
156 153 0
154 148 0
152 146 0
150 170 0
146 166 0
153 175 0
151 173 0
153 174 0
149 171 0
156 176 0
158 178 0
157 177 0
156 176 0
156 176 0
150 167 0
151 173 0
152 174 0
153 173 0
151 171 0
152 175 0
137 155 0
152 170 0
153 174 0
139 160 0
152 170 0
149 168 0
147 168 0
152 173 0
153 175 0
150 173 0
139 159 0
155 174 0
148 169 0
156 176 0
149 171 0
159 177 0
151 173 0
142 163 0
153 174 0
151 172 0
152 172 0
150 170 0
144 166 0
154 172 0
157 176 0
151 171 0
145 165 0
146 165 0
160 179 0
144 166 0
156 177 0
146 165 0
144 166 0
153 174 0
145 166 0
144 167 0
134 154 0
142 162 0
144 166 0
136 156 0
155 175 0
145 163 0
151 170 0
140 159 0
150 172 0
135 152 0
154 173 0
148 167 0
144 163 0
150 170 0
142 164 0
158 176 0
137 155 0
140 161 0
149 170 0
133 153 0
116 134 0
149 169 0
146 167 0
128 142 0
136 154 0
140 158 0
147 167 0
149 167 0
108 126 0
135 155 0
138 159 0
149 168 0
127 145 0
137 154 0
122 138 0
150 170 0
133 154 0
138 156 0
141 159 0
140 161 0
130 148 0
130 151 0
93 108 0
144 163 0
128 149 0
137 158 0
119 132 0
122 140 0
116 137 0
123 137 0
120 137 0
155 173 0
112 132 0
116 135 0
130 148 0
135 149 0
115 133 0
132 148 0
141 162 0
91 106 0
96 115 0
112 127 0
126 143 0
91 103 0
115 131 0
121 135 0
119 136 0
106 119 0
122 138 0
126 143 0
152 171 0
103 118 0
146 162 0
75 89 0
83 96 0
114 133 0
128 143 0
122 139 0
126 145 0
127 142 0
167 186 0
163 186 0
157 180 0
145 163 0
154 179 0
153 175 0
166 188 0
139 158 0
152 174 0
142 166 0
160 181 0
148 169 0
155 178 0
146 166 0
161 182 0
149 168 0
143 165 0
142 166 0
159 183 0
158 175 0
159 179 0
166 187 0
150 174 0
159 181 0
163 186 0
154 177 0
143 165 0
141 162 0
141 165 0
148 165 0
41 68 0
40 66 57
53 84 127
46 75 57
52 83 80
55 85 99
49 77 57
54 84 80
53 83 99
54 86 57
50 80 76
55 88 80
47 77 57
51 81 80
51 82 80
49 77 57
53 84 99
59 92 80
52 82 99
54 85 99
55 85 114
51 78 80
58 91 127
49 79 80
60 92 99
51 81 114
46 74 99
54 84 114
52 83 0
52 84 99
55 86 114
55 87 127
50 80 99
49 79 57
60 93 127
58 91 127
54 85 99
51 81 80
55 87 80
47 77 57
50 79 80
58 89 99
56 87 99
59 93 114
50 78 0
50 78 99
55 87 99
49 77 80
55 86 99
56 87 114
52 82 99
56 86 140
55 86 62
51 82 99
55 86 80
52 82 99
48 76 57
53 83 80
58 92 99
53 82 80
56 86 105
52 83 80
55 83 114
45 71 99
48 75 57
56 88 117
41 67 57
52 82 80
55 85 80
52 78 99
38 59 57
42 65 57
33 51 57
63 83 80
156 180 0
146 162 0
145 170 0
148 172 0
148 170 0
156 179 0
149 165 0
160 182 0
135 149 0
157 177 0
158 177 0
145 165 0
158 179 0
153 173 0
137 153 0
163 185 0
143 159 0
127 147 0
154 169 0
154 178 0
152 174 0
165 181 0
145 161 0
159 179 0
161 180 0
159 177 0
153 171 0
159 169 0
156 176 0
144 156 0
130 138 0
123 113 0
123 115 0
96 88 0
147 140 0
112 104 0
125 124 0
109 104 0
79 73 0
109 96 0
120 117 0
119 110 0
98 97 0
116 110 0
117 112 0
82 81 0
106 96 0
97 91 0
122 116 0
132 127 0
102 95 0
103 101 0
123 114 0
122 116 0
137 127 0
105 99 0
134 126 0
113 109 0
98 94 0
148 138 0
128 122 0
130 122 0
108 103 0
116 114 0
121 117 0
147 140 0
124 118 0
133 129 0
142 137 0
130 126 0
134 130 0
147 146 0
135 127 0
141 134 0
143 138 0
149 143 0
114 105 0
139 135 0
150 146 0
142 138 0
148 137 0
125 121 0
121 116 0
156 152 0
142 141 0
132 128 0
137 131 0
143 140 0
124 122 0
151 142 0
141 137 0
125 119 0
155 147 0
141 134 0
139 128 0
139 129 0
138 133 0
144 142 0
146 142 0
151 143 0
129 127 0
148 139 0
151 144 0
140 133 0
143 140 0
152 148 0
153 152 0
151 146 0
146 143 0
143 139 0
137 132 0
147 146 0
145 142 0
141 137 0
150 144 0
144 138 0
144 140 0
137 133 0
145 142 0
135 128 0
152 146 0
151 143 0
158 154 0
147 141 0
148 144 0
150 145 0
149 142 0
146 140 0
147 138 0
155 150 0
139 132 0
148 145 0
156 151 0
149 147 0
151 144 0
147 140 0
147 141 0
141 137 0
155 150 0
151 145 0
152 144 0
153 141 0
148 147 0
160 155 0
159 155 0
149 146 0
141 134 0
149 145 0
154 147 0
150 145 0
159 154 0
149 147 0
153 149 0
156 153 0
150 148 0
153 149 0
147 141 0
145 135 0
152 151 0
157 151 0
155 150 0
153 149 0
152 144 0
151 172 0
146 168 0
152 174 0
152 173 0
150 169 0
147 169 0
152 174 0
155 176 0
157 178 0
157 176 0
141 160 0
154 173 0
150 170 0
152 169 0
154 174 0
158 174 0
157 176 0
152 169 0
151 171 0
149 171 0
151 170 0
140 160 0
152 175 0
149 169 0
156 175 0
147 165 0
147 164 0
150 169 0
153 175 0
151 172 0
148 169 0
151 172 0
147 169 0
143 162 0
141 159 0
137 156 0
150 173 0
140 160 0
152 172 0
151 172 0
138 156 0
138 157 0
155 176 0
157 177 0
135 155 0
153 173 0
147 167 0
150 170 0
137 155 0
149 168 0
150 169 0
135 156 0
153 172 0
139 158 0
151 167 0
144 166 0
136 152 0
131 152 0
142 163 0
155 176 0
148 168 0
149 170 0
128 150 0
142 162 0
141 163 0
159 177 0
151 167 0
143 159 0
152 172 0
143 163 0
130 146 0
143 163 0
148 168 0
138 156 0
147 165 0
149 170 0
148 168 0
139 157 0
143 164 0
132 154 0
137 154 0
148 166 0
129 147 0
122 141 0
140 162 0
137 157 0
134 153 0
146 167 0
143 161 0
141 161 0
135 154 0
143 163 0
144 163 0
154 172 0
122 141 0
130 146 0
99 114 0
133 150 0
137 156 0
120 138 0
129 143 0
93 110 0
100 112 0
135 157 0
104 123 0
138 156 0
107 123 0
111 126 0
126 143 0
127 145 0
113 128 0
126 143 0
127 142 0
103 120 0
108 124 0
121 141 0
106 119 0
115 132 0
100 115 0
134 148 0
88 101 0
89 101 0
113 127 0
110 124 0
109 124 0
111 124 0
109 124 0
107 124 0
104 120 0
130 146 0
148 165 0
126 144 0
144 165 0
169 192 0
144 166 0
171 191 0
164 183 0
148 169 0
161 182 0
137 154 0
155 175 0
160 182 0
163 187 0
160 181 0
151 176 0
159 177 0
136 159 0
139 160 0
158 179 0
153 176 0
152 175 0
160 186 0
164 187 0
151 172 0
135 156 0
165 187 0
145 169 0
161 182 0
152 175 0
127 150 0
142 164 0
146 167 0
156 179 0
113 132 0
71 96 95
45 72 0
48 77 57
49 78 80
42 68 57
49 79 57
49 79 57
51 82 80
46 76 57
46 73 114
53 85 99
52 81 57
53 82 99
48 75 80
57 90 114
58 90 114
51 79 99
49 78 57
52 84 80
51 82 80
54 85 99
45 73 80
52 81 80
46 73 57
48 76 99
52 82 57
52 83 99
62 96 151
58 91 114
58 90 127
54 86 99
50 82 57
59 92 114
56 89 99
51 80 57
58 91 80
59 92 127
59 92 99
51 81 99
57 90 114
53 85 114
58 93 114
58 90 127
50 80 114
57 91 99
51 83 99
52 81 99
56 89 99
56 89 99
51 82 80
59 92 114
53 82 99
62 94 114
51 83 80
56 86 99
47 74 25
55 85 114
47 75 80
55 85 127
53 84 99
50 80 80
53 82 117
55 85 102
54 87 99
51 78 114
56 85 114
43 70 0
52 82 57
38 62 57
51 79 99
48 74 0
81 104 0
123 143 0
142 162 0
115 136 0
171 192 0
156 178 0
155 175 0
149 165 0
152 166 0
142 161 0
157 174 0
144 163 0
163 178 0
135 152 0
145 162 0
143 158 0
151 163 0
159 174 0
141 162 0
155 165 0
162 179 0
156 175 0
160 171 0
133 148 0
158 179 0
173 194 0
154 171 0
157 167 0
152 165 0
138 143 0
174 190 0
167 179 0
143 158 0
125 127 0
119 112 0
120 106 0
107 92 0
95 89 0
113 105 0
92 89 0
64 58 0
122 114 0
154 150 0
85 81 0
117 110 0
131 128 0
118 108 0
120 112 0
82 80 0
116 112 0
114 106 0
127 119 0
142 131 0
122 117 0
106 103 0
116 118 0
128 119 0
141 129 0
134 131 0
122 117 0
128 122 0
139 135 0
128 119 0
128 125 0
102 98 0
101 98 0
130 123 0
104 100 0
126 125 0
99 96 0
115 110 0
128 121 0
145 137 0
127 122 0
126 122 0
109 98 0
143 133 0
126 125 0
147 141 0
135 128 0
130 112 0
141 129 0
138 132 0
147 138 0
156 147 0
152 144 0
145 143 0
154 150 0
141 138 0
116 110 0
136 131 0
137 133 0
145 136 0
152 148 0
143 138 0
145 133 0
149 143 0
133 127 0
126 125 0
143 139 0
157 151 0
154 141 0
131 123 0
136 129 0
155 146 0
156 151 0
146 134 0
140 134 0
130 127 0
139 132 0
126 125 0
143 136 0
150 145 0
131 124 0
145 140 0
148 143 0
138 131 0
147 140 0
146 139 0
155 148 0
145 141 0
142 133 0
126 124 0
143 139 0
136 134 0
147 138 0
143 137 0
148 146 0
141 133 0
152 146 0
151 146 0
151 148 0
142 138 0
148 142 0
149 139 0
155 150 0
155 150 0
145 145 0
154 148 0
151 140 0
143 139 0
147 140 0
148 143 0
154 150 0
150 143 0
145 142 0
140 135 0
160 155 0
152 149 0
149 144 0
152 149 0
142 140 0
145 138 0
151 145 0
160 155 0
155 147 0
148 143 0
154 150 0
153 149 0
158 154 0
152 149 0
153 152 0
152 151 0
152 141 0
157 149 0
158 177 0
156 177 0
149 170 0
151 174 0
150 168 0
151 173 0
156 177 0
154 175 0
143 164 0
149 171 0
152 171 0
153 174 0
153 175 0
152 173 0
151 171 0
154 174 0
148 168 0
149 171 0
151 173 0
158 177 0
153 173 0
157 174 0
158 177 0
152 172 0
159 175 0
148 169 0
152 172 0
149 172 0
154 176 0
156 175 0
150 170 0
142 162 0
149 168 0
153 176 0
156 176 0
148 167 0
134 151 0
150 170 0
146 166 0
142 165 0
152 175 0
135 155 0
152 172 0
142 162 0
154 174 0
139 159 0
151 171 0
142 162 0
157 175 0
142 163 0
144 162 0
152 173 0
156 176 0
145 166 0
141 159 0
122 140 0
141 161 0
137 157 0
137 155 0
150 170 0
151 173 0
159 177 0
129 147 0
143 163 0
140 161 0
143 165 0
130 150 0
143 160 0
152 173 0
144 165 0
130 149 0
129 148 0
142 159 0
135 153 0
116 134 0
137 158 0
142 163 0
149 169 0
131 149 0
132 154 0
128 145 0
133 154 0
130 146 0
138 156 0
134 153 0
143 162 0
139 161 0
133 149 0
135 155 0
118 133 0
121 139 0
114 131 0
116 132 0
146 166 0
135 154 0
143 160 0
132 149 0
138 155 0
146 165 0
132 151 0
118 136 0
130 148 0
131 147 0
135 151 0
96 114 0
130 149 0
119 134 0
144 163 0
94 107 0
139 157 0
127 142 0
101 119 0
137 154 0
105 119 0
105 120 0
108 124 0
109 125 0
104 119 0
101 114 0
114 130 0
123 138 0
111 127 0
99 114 0
69 83 0
98 109 0
113 126 0
94 112 0
118 131 0
110 125 0
110 126 0
142 161 0
150 171 0
162 183 0
151 172 0
154 174 0
156 178 0
160 178 0
157 179 0
148 166 0
142 163 0
154 177 0
145 165 0
162 184 0
146 167 0
166 186 0
131 154 0
150 171 0
157 177 0
167 190 0
148 166 0
144 160 0
156 176 0
157 179 0
127 150 0
152 174 0
158 179 0
106 128 0
111 130 0
155 178 0
147 169 0
140 158 0
166 187 0
155 177 0
148 167 0
156 179 0
47 74 51
50 80 57
48 77 99
43 70 0
57 90 95
52 85 80
55 88 99
45 70 0
53 85 57
57 90 114
49 78 80
56 88 114
55 86 80
51 82 57
54 85 57
52 82 57
57 90 99
55 87 80
51 83 0
53 86 57
50 79 125
47 74 80
60 93 127
47 74 99
53 82 57
53 84 114
48 78 80
52 83 80
52 83 57
55 86 99
57 89 114
46 74 80
46 75 57
56 89 99
60 92 114
50 81 80
59 92 127
57 90 114
62 97 127
62 97 140
59 92 140
52 84 114
45 71 57
55 89 57
59 92 127
52 84 80
52 81 99
58 89 99
53 83 57
52 83 99
57 90 99
45 70 80
56 87 114
47 77 57
60 93 127
52 81 99
57 90 80
53 84 99
54 82 80
51 81 99
40 63 0
54 86 99
52 80 80
53 81 80
56 87 114
50 78 57
44 68 57
47 71 57
47 75 57
64 83 0
143 161 0
139 160 0
172 193 0
148 161 0
137 149 0
131 152 0
153 173 0
147 166 0
144 164 0
124 139 0
139 161 0
142 162 0
144 162 0
134 156 0
123 133 0
123 143 0
158 172 0
153 169 0
166 188 0
148 158 0
124 131 0
160 169 0
144 160 0
134 154 0
154 165 0
162 180 0
155 171 0
140 152 0
161 181 0
140 158 0
167 176 0
155 164 0
167 183 0
168 182 0
147 154 0
135 129 0
141 135 0
113 101 0
88 86 0
101 94 0
120 113 0
129 119 0
101 98 0
112 103 0
96 93 0
101 89 0
87 83 0
110 98 0
124 113 0
125 113 0
120 103 0
112 105 0
121 111 0
123 113 0
122 114 0
121 115 0
121 121 0
105 97 0
112 108 0
117 104 0
124 117 0
141 131 0
112 107 0
91 86 0
121 111 0
133 126 0
139 131 0
123 119 0
126 121 0
134 129 0
113 106 0
142 139 0
136 129 0
147 138 0
109 99 0
105 99 0
135 130 0
150 138 0
130 127 0
132 130 0
132 127 0
144 138 0
152 145 0
153 149 0
138 133 0
100 98 0
126 125 0
145 139 0
140 133 0
141 135 0
140 137 0
127 122 0
146 140 0
143 137 0
137 129 0
156 153 0
145 140 0
149 143 0
147 146 0
150 141 0
138 136 0
131 124 0
122 119 0
148 143 0
152 146 0
152 145 0
144 141 0
154 149 0
149 145 0
150 144 0
140 131 0
141 135 0
148 135 0
153 144 0
154 145 0
152 149 0
149 145 0
150 140 0
144 136 0
138 135 0
155 150 0
143 139 0
158 154 0
149 148 0
149 143 0
152 147 0
143 141 0
147 140 0
145 140 0
155 143 0
156 149 0
155 153 0
157 148 0
145 140 0
144 141 0
154 145 0
153 147 0
154 152 0
152 151 0
151 146 0
147 143 0
152 146 0
154 152 0
150 145 0
159 155 0
154 150 0
153 149 0
136 129 0
146 143 0
157 154 0
154 150 0
156 153 0
151 145 0
161 155 0
152 148 0
151 148 0
150 145 0
151 146 0
155 150 0
156 151 0
151 148 0
160 155 0
156 151 0
153 147 0
143 137 0
157 176 0
152 173 0
150 170 0
140 162 0
154 174 0
164 181 0
151 172 0
150 170 0
151 173 0
157 178 0
130 150 0
152 174 0
149 172 0
143 162 0
160 178 0
156 173 0
143 165 0
145 168 0
156 175 0
155 176 0
148 169 0
141 161 0
150 172 0
144 163 0
140 158 0
152 172 0
152 171 0
153 174 0
154 176 0
151 172 0
159 177 0
143 163 0
149 171 0
156 176 0
146 167 0
153 174 0
153 172 0
152 171 0
143 164 0
154 173 0
151 172 0
141 158 0
145 166 0
150 169 0
136 153 0
140 158 0
134 152 0
148 170 0
144 164 0
154 175 0
145 165 0
129 149 0
142 163 0
149 168 0
147 164 0
146 163 0
144 164 0
146 169 0
140 160 0
139 160 0
139 156 0
149 170 0
146 166 0
154 175 0
127 150 0
135 149 0
141 159 0
134 153 0
140 162 0
132 152 0
136 155 0
137 154 0
137 155 0
153 172 0
146 166 0
143 161 0
142 163 0
150 170 0
119 137 0
142 160 0
128 144 0
150 169 0
153 169 0
157 174 0
152 174 0
119 138 0
127 146 0
133 150 0
152 172 0
151 169 0
142 159 0
139 159 0
127 144 0
107 126 0
132 148 0
155 174 0
132 149 0
139 156 0
107 126 0
130 148 0
119 140 0
123 140 0
89 105 0
152 169 0
114 129 0
105 120 0
100 118 0
89 106 0
113 131 0
122 137 0
137 156 0
92 105 0
99 116 0
118 135 0
103 117 0
86 98 0
118 133 0
77 90 0
115 130 0
87 102 0
119 136 0
92 104 0
104 117 0
106 121 0
112 125 0
85 100 0
99 115 0
106 124 0
109 124 0
126 146 0
141 159 0
168 186 0
133 154 0
169 190 0
133 152 0
146 164 0
150 174 0
148 165 0
146 166 0
148 169 0
148 166 0
138 157 0
139 156 0
159 179 0
147 168 0
143 163 0
134 154 0
134 151 0
164 186 0
135 155 0
136 156 0
165 189 0
116 137 0
152 171 0
137 157 0
146 167 0
143 163 0
144 165 0
134 156 0
155 175 0
112 135 0
119 141 0
112 131 0
131 152 0
66 88 0
153 174 0
70 97 92
42 68 57
56 89 57
55 86 114
55 87 114
50 79 0
53 84 99
52 83 80
50 80 99
53 86 95
38 63 0
47 76 57
52 82 114
50 78 57
52 84 99
54 86 80
47 75 0
52 85 57
49 79 57
51 81 80
50 81 80
47 74 80
53 84 99
52 83 114
61 95 151
50 80 57
53 83 99
51 82 80
49 76 80
53 81 80
51 81 80
57 90 99
57 89 127
52 82 114
58 92 127
43 69 57
51 82 80
50 80 114
44 72 80
47 75 80
59 94 114
41 66 57
54 84 57
55 87 99
42 67 80
50 80 99
60 94 99
52 82 99
49 78 99
52 82 0
45 74 0
58 91 114
53 82 80
59 93 140
33 53 57
50 80 57
51 79 84
47 75 80
43 69 0
50 76 99
49 75 99
45 72 99
48 75 99
36 57 0
44 71 0
40 57 80
51 79 80
89 110 0
131 149 0
139 147 0
154 178 0
141 158 0
104 119 0
141 160 0
166 186 0
160 179 0
137 151 0
146 162 0
138 158 0
141 157 0
153 169 0
157 180 0
83 97 0
142 160 0
158 174 0
124 129 0
105 121 0
127 151 0
171 193 0
130 146 0
139 151 0
151 166 0
149 164 0
163 175 0
148 166 0
154 170 0
136 153 0
120 127 0
150 167 0
168 181 0
132 147 0
162 171 0
154 163 0
131 144 0
135 144 0
115 114 0
115 105 0
126 118 0
76 63 0
110 106 0
78 74 0
112 102 0
119 105 0
131 120 0
94 83 0
98 94 0
108 102 0
113 105 0
120 110 0
146 134 0
123 117 0
103 99 0
102 97 0
129 121 0
119 105 0
111 105 0
124 115 0
137 137 0
132 121 0
135 124 0
136 127 0
140 134 0
110 103 0
147 136 0
100 92 0
141 133 0
117 114 0
91 94 0
134 115 0
123 123 0
123 119 0
122 108 0
132 128 0
124 113 0
117 116 0
156 151 0
135 123 0
156 150 0
120 113 0
140 130 0
144 136 0
140 132 0
124 117 0
124 117 0
146 138 0
122 115 0
148 144 0
138 132 0
133 123 0
137 133 0
146 139 0
129 125 0
125 122 0
145 136 0
120 119 0
141 136 0
134 127 0
144 135 0
148 145 0
144 141 0
136 124 0
141 126 0
139 136 0
144 135 0
138 137 0
154 150 0
147 135 0
131 124 0
151 143 0
155 147 0
135 124 0
149 143 0
129 127 0
139 129 0
138 137 0
154 152 0
145 133 0
153 147 0
145 139 0
155 149 0
144 138 0
144 144 0
146 139 0
153 147 0
151 151 0
152 148 0
136 133 0
156 151 0
146 145 0
147 142 0
148 140 0
144 135 0
154 152 0
149 144 0
141 130 0
155 147 0
147 142 0
138 134 0
148 146 0
148 144 0
157 151 0
152 144 0
155 150 0
146 140 0
150 140 0
152 146 0
151 149 0
149 144 0
157 153 0
147 143 0
151 142 0
148 145 0
154 147 0
156 147 0
147 144 0
148 138 0
157 153 0
149 142 0
148 149 0
158 146 0
153 149 0
154 149 0
143 141 0
152 151 0
162 180 0
137 155 0
153 175 0
150 173 0
143 164 0
147 166 0
149 169 0
158 178 0
153 171 0
158 178 0
159 178 0
149 163 0
148 168 0
141 161 0
148 168 0
149 171 0
153 175 0
139 160 0
156 177 0
157 176 0
144 166 0
150 173 0
154 174 0
140 161 0
147 165 0
148 168 0
147 167 0
141 158 0
150 171 0
148 166 0
155 176 0
136 153 0
142 161 0
148 168 0
153 175 0
153 173 0
133 151 0
137 154 0
153 173 0
147 166 0
144 164 0
150 170 0
136 155 0
144 165 0
149 168 0
148 166 0
152 171 0
137 157 0
147 168 0
143 162 0
153 172 0
142 164 0
132 149 0
141 161 0
149 165 0
138 160 0
155 175 0
152 172 0
148 167 0
141 162 0
152 170 0
137 159 0
138 154 0
137 157 0
138 155 0
140 159 0
135 154 0
138 157 0
134 153 0
130 151 0
140 160 0
155 173 0
125 139 0
137 156 0
130 144 0
147 166 0
142 161 0
142 160 0
120 139 0
143 163 0
147 166 0
135 151 0
123 139 0
135 153 0
149 171 0
119 137 0
139 155 0
134 152 0
138 156 0
136 152 0
126 142 0
153 173 0
126 145 0
130 149 0
125 143 0
130 146 0
128 145 0
124 144 0
137 156 0
128 145 0
145 164 0
140 158 0
116 130 0
114 130 0
111 125 0
142 161 0
129 144 0
141 157 0
128 144 0
69 81 0
127 142 0
122 138 0
94 110 0
78 95 0
112 127 0
122 137 0
109 124 0
128 145 0
90 104 0
86 102 0
91 103 0
95 107 0
133 148 0
114 131 0
106 125 0
113 124 0
97 107 0
138 155 0
128 147 0
144 166 0
160 180 0
147 165 0
122 140 0
134 151 0
149 165 0
149 168 0
154 175 0
136 156 0
138 157 0
132 149 0
150 168 0
149 170 0
153 172 0
145 163 0
161 179 0
153 170 0
167 187 0
139 157 0
151 171 0
132 150 0
163 185 0
122 139 0
141 162 0
135 158 0
139 160 0
170 192 0
160 184 0
106 124 0
146 164 0
130 148 0
128 147 0
136 157 0
135 154 0
145 165 0
129 148 0
103 120 0
131 149 0
83 102 57
53 85 80
34 56 0
47 76 80
55 87 99
43 67 99
56 88 114
51 81 57
54 85 80
51 81 99
51 81 80
40 66 0
50 80 99
52 83 99
54 84 80
53 85 0
54 86 57
49 78 99
50 80 57
48 77 57
57 90 114
56 88 99
52 83 80
51 81 99
60 94 140
53 83 99
56 88 99
51 81 57
55 86 99
50 79 114
56 89 99
53 82 80
53 84 114
53 82 99
55 88 80
52 83 114
49 78 80
59 93 99
42 68 57
53 81 84
53 82 114
53 85 80
53 82 84
53 83 127
47 73 0
60 92 127
49 78 80
59 90 84
45 70 80
47 76 57
52 82 99
54 86 99
56 88 127
51 80 99
45 73 57
50 80 80
53 81 99
49 78 80
50 79 57
54 84 80
51 81 99
55 84 84
43 69 80
47 71 0
46 67 57
101 115 57
146 167 0
127 143 0
141 155 0
122 143 0
152 165 0
122 135 0
129 146 0
152 172 0
107 119 0
131 142 0
129 137 0
138 146 0
138 152 0
140 159 0
125 134 0
134 146 0
128 138 0
139 148 0
163 176 0
172 193 0
146 158 0
111 128 0
106 110 0
150 165 0
146 160 0
150 157 0
155 172 0
144 156 0
167 178 0
146 158 0
152 171 0
125 131 0
143 157 0
160 173 0
153 166 0
141 157 0
168 183 0
161 169 0
147 144 0
133 123 0
105 99 0
122 105 0
125 113 0
104 90 0
123 111 0
113 107 0
117 113 0
108 96 0
130 126 0
111 102 0
120 109 0
118 108 0
109 99 0
120 114 0
107 104 0
124 109 0
129 104 0
123 111 0
104 93 0
128 117 0
96 91 0
127 120 0
123 108 0
128 119 0
103 92 0
116 111 0
130 119 0
113 107 0
121 111 0
139 130 0
89 85 0
131 121 0
145 135 0
134 137 0
134 126 0
130 123 0
141 134 0
127 127 0
127 119 0
136 128 0
159 152 0
123 112 0
124 114 0
138 133 0
128 121 0
145 137 0
123 119 0
148 144 0
136 131 0
140 133 0
132 126 0
123 119 0
130 122 0
141 136 0
151 142 0
147 144 0
149 143 0
129 122 0
154 150 0
142 137 0
128 126 0
157 154 0
142 140 0
139 138 0
121 115 0
137 129 0
141 139 0
140 133 0
142 131 0
129 118 0
137 128 0
141 128 0
145 141 0
143 134 0
150 140 0
140 132 0
149 142 0
152 146 0
149 143 0
126 122 0
140 129 0
150 143 0
141 134 0
142 138 0
150 150 0
154 147 0
147 142 0
148 141 0
152 146 0
147 140 0
150 146 0
144 141 0
144 132 0
138 131 0
151 141 0
156 148 0
153 149 0
144 141 0
153 146 0
150 145 0
152 146 0
154 152 0
153 144 0
153 146 0
140 134 0
149 145 0
152 146 0
140 126 0
155 147 0
152 151 0
154 147 0
153 149 0
157 153 0
155 153 0
142 134 0
149 143 0
151 146 0
155 150 0
152 149 0
149 146 0
152 146 0
157 151 0
148 141 0
150 145 0
150 148 0
163 156 0
152 149 0
151 172 0
156 177 0
160 179 0
153 172 0
157 177 0
151 172 0
148 170 0
146 167 0
152 173 0
151 170 0
155 177 0
152 172 0
145 164 0
151 171 0
141 162 0
146 166 0
150 168 0
163 180 0
148 167 0
159 177 0
153 176 0
157 175 0
154 174 0
153 174 0
150 172 0
155 174 0
145 165 0
137 158 0
156 176 0
143 165 0
146 165 0
150 171 0
149 171 0
154 173 0
150 171 0
151 173 0
146 161 0
144 161 0
154 175 0
150 171 0
140 160 0
149 168 0
150 171 0
152 173 0
149 168 0
148 167 0
154 176 0
145 164 0
140 157 0
151 171 0
143 163 0
145 163 0
149 168 0
146 165 0
127 145 0
143 160 0
152 169 0
145 162 0
140 159 0
139 156 0
130 146 0
141 158 0
142 164 0
140 159 0
158 178 0
143 163 0
147 165 0
134 153 0
140 161 0
146 163 0
142 163 0
137 156 0
150 170 0
151 168 0
136 155 0
155 175 0
152 171 0
135 151 0
124 139 0
130 149 0
122 142 0
133 150 0
139 157 0
130 146 0
150 171 0
129 145 0
148 169 0
133 153 0
133 153 0
133 148 0
144 160 0
137 156 0
115 129 0
128 146 0
101 115 0
137 156 0
125 142 0
140 155 0
88 101 0
116 132 0
126 142 0
149 164 0
130 144 0
116 134 0
103 120 0
102 118 0
123 141 0
104 120 0
122 133 0
145 162 0
131 147 0
116 132 0
135 152 0
132 146 0
133 149 0
110 127 0
105 120 0
134 149 0
104 117 0
92 105 0
131 147 0
85 97 0
108 123 0
122 135 0
60 71 0
115 127 0
136 151 0
126 145 0
145 162 0
155 173 0
141 160 0
145 163 0
140 159 0
142 163 0
143 161 0
122 138 0
134 149 0
153 174 0
139 159 0
113 130 0
150 170 0
154 173 0
127 145 0
140 158 0
122 142 0
135 154 0
157 179 0
131 150 0
139 158 0
146 164 0
145 164 0
153 174 0
128 149 0
116 133 0
115 134 0
144 166 0
157 177 0
120 139 0
133 150 0
106 120 0
135 156 0
129 151 0
156 177 0
135 156 0
126 143 0
145 168 0
114 131 0
119 140 0
116 137 57
38 62 0
51 79 80
56 89 80
49 77 99
51 80 114
52 84 99
54 84 99
52 82 80
51 80 80
57 89 114
48 75 57
45 73 57
46 75 57
54 85 80
44 69 99
45 75 0
57 88 99
57 90 80
47 76 57
46 75 57
55 87 114
56 88 111
56 88 114
55 88 57
49 78 114
57 92 99
53 83 99
47 76 57
54 87 80
54 86 114
51 82 80
53 84 57
54 87 80
52 82 80
53 85 80
49 77 80
51 82 80
56 87 114
56 89 99
50 80 0
45 73 80
52 82 0
46 75 57
52 84 80
50 81 0
55 85 127
53 87 80
55 86 114
45 73 57
50 79 80
55 86 57
51 81 99
56 88 80
55 86 99
47 76 0
53 85 80
52 80 80
51 79 80
39 62 57
56 86 99
43 68 0
72 95 57
96 113 57
143 157 0
141 159 0
85 99 0
114 128 0
125 148 0
152 163 0
140 153 0
128 142 0
135 152 0
148 165 0
142 159 0
147 162 0
141 153 0
114 137 0
128 137 0
143 160 0
148 170 0
149 162 0
130 146 0
132 147 0
165 180 0
152 166 0
163 173 0
132 135 0
131 142 0
149 156 0
152 164 0
143 158 0
147 159 0
123 131 0
149 166 0
128 135 0
157 170 0
88 100 0
143 146 0
147 165 0
164 175 0
145 158 0
141 155 0
153 167 0
155 166 0
126 111 0
89 82 0
91 83 0
90 80 0
104 94 0
103 86 0
103 99 0
116 105 0
133 126 0
90 80 0
134 122 0
65 63 0
124 116 0
102 93 0
146 136 0
135 117 0
128 116 0
118 114 0
112 105 0
121 113 0
138 126 0
106 105 0
106 94 0
113 100 0
132 122 0
120 113 0
117 116 0
137 126 0
138 127 0
144 134 0
147 142 0
131 122 0
124 117 0
129 120 0
114 109 0
141 136 0
127 113 0
127 120 0
142 132 0
127 117 0
140 133 0
150 143 0
134 126 0
116 104 0
139 135 0
126 123 0
129 119 0
125 117 0
140 127 0
148 143 0
143 140 0
132 124 0
148 144 0
148 140 0
145 142 0
152 143 0
147 141 0
148 136 0
138 137 0
144 136 0
105 98 0
136 125 0
138 130 0
130 126 0
125 121 0
141 129 0
148 143 0
146 146 0
148 141 0
144 140 0
155 148 0
143 138 0
131 122 0
146 143 0
137 130 0
130 122 0
142 134 0
149 143 0
135 134 0
146 139 0
149 141 0
153 144 0
146 141 0
146 136 0
145 137 0
155 150 0
137 130 0
141 138 0
143 141 0
149 138 0
144 138 0
146 143 0
145 136 0
156 151 0
148 142 0
149 140 0
145 139 0
158 149 0
147 146 0
148 143 0
154 147 0
147 135 0
155 148 0
153 149 0
132 127 0
156 149 0
154 144 0
147 135 0
153 152 0
149 145 0
150 144 0
149 142 0
154 150 0
149 145 0
150 142 0
151 146 0
144 135 0
150 137 0
150 142 0
149 147 0
142 136 0
150 140 0
154 150 0
147 144 0
156 151 0
148 143 0
153 152 0
156 175 0
153 174 0
150 170 0
156 174 0
151 174 0
156 177 0
144 164 0
146 168 0
156 176 0
154 176 0
147 168 0
150 174 0
157 176 0
153 174 0
155 175 0
152 172 0
141 159 0
148 169 0
148 168 0
148 167 0
154 173 0
144 166 0
143 165 0
150 170 0
149 168 0
150 169 0
152 173 0
144 165 0
146 167 0
150 173 0
157 176 0
145 167 0
156 175 0
144 165 0
145 165 0
149 169 0
154 171 0
145 163 0
143 164 0
141 157 0
125 143 0
143 162 0
142 161 0
154 174 0
141 163 0
156 173 0
154 173 0
149 169 0
135 154 0
150 169 0
147 166 0
150 170 0
148 166 0
145 166 0
146 164 0
152 169 0
141 160 0
132 151 0
149 168 0
156 175 0
145 163 0
132 149 0
137 154 0
148 170 0
143 164 0
132 152 0
144 162 0
141 161 0
144 158 0
127 146 0
147 164 0
150 170 0
141 160 0
143 161 0
138 157 0
144 162 0
140 161 0
141 158 0
147 167 0
131 148 0
116 134 0
140 158 0
135 151 0
142 160 0
139 157 0
140 155 0
142 162 0
127 144 0
127 144 0
117 132 0
112 129 0
112 128 0
120 132 0
118 137 0
121 141 0
127 143 0
114 131 0
125 144 0
116 135 0
92 105 0
133 151 0
134 148 0
122 138 0
111 129 0
96 115 0
134 150 0
117 138 0
124 141 0
94 109 0
91 104 0
136 151 0
121 139 0
112 128 0
127 143 0
74 92 0
109 123 0
119 133 0
89 103 0
114 128 0
123 139 0
60 78 0
91 104 0
119 134 0
120 136 0
114 128 0
118 133 0
140 158 0
154 173 0
138 153 0
134 150 0
149 169 0
155 177 0
123 142 0
165 187 0
130 151 0
146 166 0
146 169 0
111 131 0
135 151 0
145 165 0
171 191 0
138 154 0
131 150 0
139 162 0
109 128 0
133 153 0
139 159 0
157 175 0
137 158 0
134 153 0
141 162 0
134 152 0
162 182 0
136 155 0
156 177 0
123 143 0
167 191 0
102 124 0
126 145 0
115 134 0
122 137 0
105 124 0
128 146 0
106 126 0
110 132 0
110 130 0
113 130 0
123 143 0
119 135 0
108 129 0
69 87 76
46 73 0
38 63 0
32 54 0
39 65 0
48 77 80
50 80 99
46 75 0
50 81 99
51 81 114
50 78 80
56 88 57
51 82 80
56 88 99
49 79 80
55 85 114
50 80 80
48 77 57
50 78 95
55 87 80
58 92 99
47 77 80
53 84 99
46 74 0
46 77 57
44 71 57
53 84 80
47 75 80
57 89 80
53 82 80
55 87 114
54 83 99
46 74 57
52 82 114
54 87 80
48 78 57
51 80 57
51 80 99
58 92 99
46 75 57
59 93 99
53 82 99
49 79 80
48 75 57
52 81 114
47 75 57
48 77 80
51 81 99
49 78 57
46 72 57
45 69 57
44 72 57
47 73 57
50 79 114
50 79 57
51 79 80
49 74 80
39 62 0
46 73 0
40 64 57
119 138 57
100 108 0
153 172 0
106 116 0
167 185 0
101 115 0
115 133 0
124 136 0
126 148 0
147 163 0
117 135 0
126 144 0
153 170 0
134 148 0
116 130 0
130 150 0
123 137 0
143 152 0
149 151 0
115 127 0
133 146 0
143 156 0
138 157 0
135 151 0
121 138 0
110 125 0
140 158 0
136 146 0
134 141 0
137 145 0
152 167 0
155 167 0
130 131 0
158 167 0
149 160 0
173 183 0
125 134 0
139 150 0
121 136 0
147 156 0
149 157 0
163 179 0
158 160 0
133 146 0
115 106 0
110 102 0
125 108 0
90 84 0
137 123 0
127 118 0
113 105 0
132 118 0
125 109 0
110 94 0
111 105 0
117 101 0
103 104 0
110 101 0
87 82 0
109 96 0
116 108 0
136 122 0
112 107 0
116 108 0
99 92 0
126 118 0
138 125 0
132 125 0
133 127 0
135 126 0
102 91 0
116 105 0
114 104 0
154 144 0
119 108 0
114 107 0
121 123 0
125 114 0
149 140 0
132 130 0
137 132 0
141 132 0
135 129 0
133 127 0
131 122 0
126 108 0
129 122 0
148 138 0
115 113 0
121 110 0
155 150 0
126 124 0
133 126 0
144 132 0
136 130 0
144 133 0
118 109 0
131 125 0
140 132 0
144 133 0
134 125 0
137 129 0
152 140 0
144 141 0
140 139 0
141 134 0
134 129 0
147 143 0
145 139 0
149 145 0
136 127 0
133 128 0
133 131 0
138 127 0
148 135 0
142 137 0
123 118 0
153 144 0
151 142 0
150 140 0
143 137 0
141 134 0
142 132 0
132 131 0
134 127 0
135 131 0
152 146 0
148 144 0
141 131 0
140 134 0
149 143 0
145 140 0
157 151 0
134 124 0
154 148 0
148 138 0
145 133 0
148 141 0
149 139 0
148 144 0
137 127 0
153 149 0
152 146 0
148 141 0
151 148 0
151 142 0
145 140 0
140 133 0
151 148 0
149 141 0
155 148 0
153 149 0
153 147 0
147 138 0
153 149 0
153 150 0
148 144 0
147 144 0
151 143 0
151 146 0
148 144 0
139 135 0
153 149 0
149 146 0
149 144 0
154 150 0
148 144 0
153 147 0
153 144 0
152 147 0
153 168 0
153 171 0
152 171 0
143 165 0
152 173 0
157 177 0
155 175 0
146 164 0
151 168 0
146 164 0
156 176 0
157 177 0
156 175 0
155 175 0
152 172 0
148 167 0
149 170 0
149 172 0
156 175 0
146 163 0
154 172 0
147 165 0
150 173 0
129 149 0
141 160 0
149 169 0
150 167 0
149 167 0
144 163 0
144 164 0
143 162 0
151 171 0
144 163 0
145 166 0
142 162 0
154 175 0
145 165 0
140 161 0
141 160 0
131 151 0
149 168 0
146 167 0
145 164 0
151 169 0
145 163 0
155 174 0
146 163 0
138 155 0
143 164 0
140 160 0
146 165 0
150 166 0
157 177 0
147 170 0
128 146 0
145 164 0
150 169 0
146 165 0
148 169 0
134 153 0
139 158 0
129 149 0
134 150 0
148 166 0
123 141 0
145 164 0
125 141 0
125 140 0
152 173 0
135 151 0
147 167 0
122 142 0
128 146 0
128 148 0
154 173 0
137 156 0
148 164 0
148 166 0
132 148 0
141 157 0
143 158 0
158 176 0
134 152 0
127 147 0
128 148 0
121 140 0
145 162 0
144 164 0
106 125 0
156 175 0
132 151 0
150 169 0
130 149 0
150 169 0
130 144 0
131 149 0
141 158 0
109 123 0
110 125 0
131 148 0
133 151 0
135 153 0
124 143 0
119 132 0
135 152 0
109 123 0
101 116 0
118 132 0
119 134 0
127 140 0
133 151 0
128 143 0
115 132 0
127 142 0
111 125 0
126 141 0
103 120 0
126 142 0
113 126 0
82 98 0
126 139 0
116 132 0
103 115 0
103 120 0
136 154 0
147 166 0
149 166 0
156 173 0
141 157 0
140 158 0
154 173 0
120 135 0
141 159 0
133 152 0
63 79 0
146 163 0
141 159 0
111 128 0
126 145 0
138 156 0
108 127 0
153 173 0
164 181 0
116 131 0
103 120 0
134 155 0
157 180 0
153 171 0
117 136 0
167 186 0
146 164 0
137 154 0
135 158 0
126 150 0
136 152 0
134 155 0
158 179 0
143 161 0
137 158 0
108 125 0
81 98 0
160 178 0
131 146 0
117 135 0
122 138 0
144 163 0
105 122 0
125 142 0
125 139 0
142 163 0
136 154 0
114 127 0
44 70 57
42 69 80
48 77 0
41 63 57
48 77 80
59 92 127
54 84 127
46 75 57
45 70 57
38 59 57
46 74 80
51 81 57
54 85 80
50 80 80
54 84 57
52 84 80
56 89 80
46 72 99
55 87 80
54 86 114
57 89 99
52 81 99
54 86 57
55 88 99
52 83 99
52 82 57
52 83 99
45 73 57
51 80 99
54 84 99
50 80 80
51 82 114
55 86 99
49 78 57
53 83 99
47 75 80
48 76 99
48 74 57
50 80 80
56 89 99
60 93 114
49 77 80
44 71 0
60 95 127
55 86 99
49 79 80
55 87 80
48 77 57
52 82 99
47 74 80
42 67 0
39 63 0
54 85 80
53 83 127
50 76 57
46 71 57
39 61 57
90 101 0
68 83 0
131 140 0
88 111 0
117 135 0
64 81 0
118 123 0
138 155 0
137 150 0
148 158 0
127 144 0
127 139 0
98 108 0
139 152 0
100 105 0
91 99 0
117 137 0
125 132 0
131 150 0
122 134 0
151 164 0
107 120 0
145 151 0
134 143 0
108 113 0
136 154 0
131 142 0
121 126 0
161 178 0
126 142 0
133 133 0
137 152 0
128 144 0
122 136 0
135 143 0
156 171 0
142 151 0
169 188 0
147 164 0
149 156 0
139 143 0
167 184 0
170 174 0
168 177 0
132 143 0
146 156 0
141 142 0
121 112 0
91 78 0
124 111 0
106 97 0
128 111 0
82 79 0
131 124 0
137 125 0
126 117 0
80 78 0
99 83 0
121 108 0
116 112 0
94 86 0
132 116 0
144 133 0
107 103 0
97 94 0
123 110 0
122 99 0
106 96 0
140 134 0
117 110 0
112 103 0
116 113 0
120 121 0
123 115 0
125 122 0
149 137 0
133 120 0
91 81 0
120 117 0
138 126 0
119 113 0
112 102 0
140 136 0
135 128 0
152 143 0
133 124 0
132 125 0
136 129 0
146 133 0
142 134 0
141 133 0
134 123 0
129 118 0
139 125 0
134 129 0
132 124 0
129 120 0
127 124 0
138 133 0
126 121 0
148 140 0
143 134 0
143 138 0
142 134 0
137 134 0
153 149 0
125 119 0
132 127 0
147 136 0
138 130 0
129 116 0
144 144 0
147 141 0
141 137 0
139 127 0
154 147 0
150 145 0
138 127 0
136 131 0
147 137 0
155 150 0
155 144 0
146 137 0
135 123 0
151 149 0
139 131 0
146 135 0
160 153 0
149 147 0
153 141 0
131 121 0
144 135 0
142 140 0
150 145 0
149 138 0
152 146 0
144 138 0
143 138 0
138 131 0
146 133 0
144 139 0
154 149 0
151 139 0
138 134 0
138 128 0
148 141 0
152 149 0
137 130 0
158 149 0
153 146 0
148 140 0
157 154 0
148 147 0
142 127 0
148 141 0
149 138 0
144 135 0
155 150 0
150 144 0
161 155 0
144 142 0
156 151 0
147 138 0
152 149 0
152 145 0
146 140 0
153 144 0
149 143 0
157 154 0
149 139 0
153 146 0
150 169 0
147 168 0
149 169 0
154 174 0
151 170 0
150 170 0
151 169 0
155 174 0
155 175 0
152 172 0
160 178 0
156 175 0
158 178 0
155 175 0
148 166 0
155 174 0
145 168 0
149 171 0
154 174 0
148 166 0
153 172 0
150 170 0
158 176 0
151 173 0
140 158 0
151 172 0
149 170 0
149 166 0
151 171 0
148 168 0
156 173 0
148 169 0
150 169 0
154 175 0
148 167 0
154 171 0
144 163 0
145 165 0
145 164 0
147 166 0
146 166 0
147 167 0
153 172 0
146 166 0
147 168 0
146 165 0
152 170 0
151 171 0
152 173 0
155 174 0
152 173 0
148 166 0
154 172 0
127 146 0
148 166 0
152 173 0
138 156 0
138 156 0
140 159 0
156 175 0
125 143 0
130 148 0
146 165 0
141 160 0
148 167 0
129 148 0
138 154 0
147 166 0
151 171 0
142 162 0
142 161 0
149 164 0
121 140 0
114 131 0
125 143 0
136 155 0
133 150 0
152 170 0
134 152 0
123 138 0
125 143 0
127 142 0
139 160 0
146 162 0
148 166 0
137 153 0
148 165 0
126 142 0
134 151 0
113 132 0
130 145 0
133 149 0
132 150 0
110 128 0
101 115 0
133 147 0
126 142 0
120 140 0
136 153 0
93 103 0
116 133 0
117 132 0
115 132 0
118 132 0
121 136 0
108 124 0
132 148 0
93 109 0
117 131 0
118 132 0
114 129 0
127 143 0
94 107 0
80 92 0
154 169 0
114 127 0
120 136 0
111 124 0
117 132 0
92 106 0
88 101 0
112 126 0
110 125 0
106 122 0
148 164 0
154 174 0
155 172 0
126 142 0
150 170 0
118 133 0
152 169 0
158 175 0
163 182 0
138 159 0
124 140 0
117 133 0
137 155 0
138 156 0
139 157 0
120 139 0
138 157 0
124 142 0
152 172 0
150 166 0
153 169 0
156 172 0
108 122 0
145 168 0
66 82 0
108 125 0
135 152 0
138 156 0
156 179 0
143 164 0
132 147 0
106 125 0
132 150 0
101 123 0
130 150 0
144 162 0
131 151 0
136 157 0
117 131 0
114 130 0
134 151 0
110 128 0
86 103 0
127 144 0
119 136 0
103 122 0
136 156 0
151 172 0
90 103 0
68 87 57
44 72 80
48 76 80
41 67 57
49 76 80
31 50 57
48 76 57
31 50 0
34 54 0
46 74 57
51 81 80
34 57 57
45 72 57
42 65 80
50 78 114
57 89 99
47 74 80
53 84 99
50 79 80
56 87 95
50 81 99
49 76 80
49 79 80
60 95 127
44 71 57
52 82 99
50 80 80
45 73 0
45 72 57
55 87 80
52 83 80
59 92 127
47 76 80
49 78 57
50 80 57
48 75 80
51 82 99
50 76 80
49 77 80
43 71 80
47 76 0
47 77 57
48 76 80
50 79 80
48 77 80
52 83 99
53 82 62
55 86 114
43 69 0
46 71 57
47 71 62
38 62 57
44 70 57
91 110 80
107 119 0
118 133 0
125 136 0
127 136 0
83 96 0
134 151 0
35 49 0
112 128 0
101 108 0
136 147 0
125 133 0
107 115 0
122 142 0
112 125 0
111 128 0
107 115 0
135 149 0
142 159 0
115 133 0
118 137 0
117 129 0
128 139 0
120 138 0
131 142 0
133 147 0
127 142 0
118 118 0
119 130 0
94 108 0
129 141 0
131 136 0
111 126 0
129 139 0
152 161 0
120 131 0
133 135 0
118 119 0
131 143 0
136 142 0
149 156 0
130 140 0
127 136 0
137 142 0
138 144 0
159 166 0
141 138 0
141 146 0
165 176 0
149 162 0
139 151 0
135 118 0
119 109 0
120 110 0
103 97 0
86 77 0
120 105 0
105 91 0
81 74 0
110 96 0
119 110 0
138 122 0
116 108 0
75 76 0
114 101 0
103 93 0
106 90 0
102 98 0
119 112 0
138 123 0
139 137 0
86 81 0
114 108 0
133 118 0
123 112 0
116 107 0
153 142 0
99 99 0
131 124 0
114 103 0
137 133 0
135 120 0
121 109 0
142 132 0
109 104 0
129 112 0
101 91 0
151 140 0
150 141 0
139 133 0
137 125 0
137 127 0
146 135 0
139 132 0
142 133 0
135 130 0
139 124 0
148 142 0
142 131 0
141 133 0
127 118 0
136 134 0
146 138 0
144 133 0
136 123 0
139 135 0
138 130 0
139 132 0
150 140 0
137 128 0
153 144 0
148 142 0
132 126 0
115 111 0
146 143 0
141 132 0
137 122 0
144 135 0
153 146 0
156 150 0
132 132 0
147 142 0
146 136 0
135 129 0
150 142 0
143 135 0
138 129 0
142 131 0
125 121 0
149 144 0
152 146 0
148 140 0
137 128 0
151 144 0
139 127 0
143 134 0
148 140 0
137 132 0
152 146 0
154 147 0
155 145 0
143 136 0
155 148 0
141 133 0
149 141 0
154 150 0
150 141 0
144 136 0
158 152 0
151 148 0
147 140 0
144 141 0
146 132 0
154 150 0
149 147 0
138 124 0
149 138 0
150 145 0
145 135 0
152 148 0
147 140 0
154 149 0
141 132 0
153 146 0
157 154 0
151 140 0
150 144 0
147 140 0
154 148 0
150 148 0
133 125 0
152 144 0
150 144 0
158 154 0
151 171 0
151 170 0
156 174 0
152 173 0
146 167 0
150 172 0
146 164 0
157 175 0
146 166 0
152 173 0
155 175 0
149 171 0
155 176 0
156 175 0
150 170 0
144 166 0
144 164 0
155 176 0
145 167 0
146 167 0
150 168 0
147 165 0
153 175 0
141 158 0
144 162 0
157 176 0
146 162 0
150 169 0
146 163 0
150 170 0
155 176 0
145 166 0
137 158 0
134 153 0
144 163 0
146 165 0
154 173 0
146 166 0
155 175 0
145 164 0
149 167 0
134 155 0
151 171 0
147 169 0
153 172 0
149 167 0
133 152 0
150 168 0
138 153 0
143 162 0
131 149 0
147 166 0
143 162 0
149 168 0
146 162 0
148 169 0
152 170 0
137 157 0
149 168 0
137 154 0
149 169 0
142 162 0
140 158 0
160 178 0
154 173 0
148 166 0
140 159 0
134 152 0
145 162 0
141 160 0
136 156 0
142 162 0
147 167 0
146 164 0
149 166 0
137 155 0
131 149 0
145 162 0
121 136 0
131 149 0
127 145 0
140 158 0
129 145 0
146 167 0
113 130 0
130 146 0
126 143 0
144 159 0
133 151 0
137 153 0
141 160 0
129 148 0
121 141 0
146 163 0
135 150 0
107 124 0
121 137 0
118 132 0
124 139 0
125 142 0
83 99 0
132 147 0
136 154 0
130 142 0
117 133 0
100 117 0
90 103 0
112 127 0
137 153 0
92 106 0
115 133 0
127 143 0
88 101 0
123 137 0
100 114 0
109 122 0
111 125 0
108 122 0
87 100 0
101 113 0
121 132 0
94 107 0
140 153 0
116 132 0
137 150 0
140 157 0
107 124 0
138 157 0
141 157 0
127 145 0
145 164 0
155 174 0
148 165 0
169 188 0
129 148 0
124 142 0
123 141 0
146 164 0
106 123 0
134 154 0
154 173 0
156 171 0
147 166 0
137 156 0
153 173 0
121 143 0
128 148 0
114 134 0
122 141 0
125 146 0
95 117 0
129 147 0
139 159 0
109 128 0
128 146 0
114 132 0
122 136 0
142 161 0
159 180 0
135 153 0
103 120 0
119 133 0
137 153 0
148 168 0
95 113 0
125 144 0
142 160 0
70 90 0
103 116 0
75 92 0
78 95 0
120 136 0
123 143 0
92 107 0
69 87 57
87 106 0
50 79 99
52 83 114
51 81 57
49 77 99
51 82 80
52 83 57
54 85 99
43 71 57
55 87 80
55 87 114
53 85 0
49 78 57
52 82 57
49 80 0
49 77 80
49 74 80
53 84 80
48 75 80
41 67 57
53 81 57
48 77 57
52 82 80
48 77 57
48 78 99
51 81 99
61 96 127
56 88 80
42 69 0
51 79 0
49 78 80
47 74 80
58 91 99
47 73 57
49 77 99
49 78 57
57 87 114
44 72 57
42 67 0
42 68 57
52 83 80
41 67 57
51 82 57
41 67 57
46 72 80
53 83 99
40 64 0
42 67 57
53 81 57
62 76 0
112 123 57
87 103 0
118 137 0
103 120 0
90 106 0
116 130 0
98 109 0
87 102 0
105 125 0
127 141 0
74 88 0
101 111 0
79 93 0
119 131 0
94 98 0
58 68 0
80 95 0
137 154 0
117 132 0
119 133 0
139 153 0
141 160 0
141 161 0
142 156 0
143 155 0
134 143 0
120 132 0
137 149 0
126 136 0
116 131 0
134 145 0
132 144 0
111 115 0
146 160 0
112 118 0
169 184 0
120 130 0
162 179 0
118 125 0
148 160 0
111 119 0
137 143 0
143 155 0
153 168 0
140 149 0
108 108 0
131 139 0
108 117 0
90 85 0
136 137 0
150 154 0
137 145 0
151 150 0
126 123 0
90 78 0
110 95 0
99 81 0
127 113 0
104 90 0
103 96 0
96 91 0
130 117 0
109 101 0
87 75 0
104 89 0
136 124 0
125 120 0
103 90 0
107 92 0
138 129 0
124 107 0
110 96 0
97 89 0
131 116 0
136 117 0
130 119 0
124 111 0
110 104 0
122 115 0
141 131 0
140 132 0
131 121 0
104 101 0
128 125 0
122 112 0
99 94 0
132 117 0
104 92 0
140 132 0
149 135 0
128 122 0
135 132 0
129 122 0
128 123 0
140 132 0
124 120 0
123 107 0
124 109 0
125 113 0
123 119 0
127 121 0
137 123 0
150 145 0
127 122 0
144 138 0
148 137 0
134 122 0
139 127 0
148 136 0
155 145 0
142 133 0
145 134 0
152 145 0
137 126 0
135 127 0
154 145 0
139 129 0
133 126 0
139 128 0
149 141 0
152 149 0
153 147 0
156 148 0
153 149 0
155 145 0
149 143 0
146 143 0
149 143 0
143 133 0
141 137 0
142 138 0
150 146 0
142 138 0
153 143 0
146 134 0
151 148 0
157 143 0
147 134 0
156 148 0
152 146 0
143 135 0
150 143 0
131 126 0
148 143 0
147 136 0
146 145 0
144 138 0
143 140 0
148 143 0
138 123 0
142 130 0
149 142 0
150 140 0
144 135 0
148 143 0
149 139 0
151 148 0
148 141 0
150 138 0
149 147 0
150 137 0
155 148 0
146 141 0
149 142 0
143 137 0
144 139 0
154 152 0
150 145 0
152 146 0
148 144 0
154 144 0
148 136 0
160 152 0
152 143 0
142 137 0
148 170 0
153 175 0
159 177 0
156 176 0
154 174 0
151 170 0
149 169 0
149 167 0
149 171 0
151 171 0
149 170 0
154 173 0
151 170 0
149 170 0
149 168 0
137 155 0
153 175 0
153 172 0
157 178 0
157 176 0
146 165 0
140 162 0
156 176 0
146 167 0
148 167 0
152 169 0
144 162 0
149 169 0
149 168 0
146 169 0
152 170 0
153 172 0
141 159 0
150 165 0
149 170 0
142 161 0
128 146 0
149 167 0
150 170 0
152 170 0
144 161 0
150 170 0
130 146 0
146 166 0
156 175 0
142 159 0
148 166 0
151 174 0
138 156 0
136 153 0
138 153 0
128 147 0
144 163 0
146 168 0
136 153 0
152 168 0
150 170 0
143 163 0
134 150 0
137 155 0
142 162 0
148 166 0
144 163 0
134 149 0
136 156 0
136 155 0
148 167 0
138 158 0
123 142 0
115 131 0
116 135 0
147 164 0
143 163 0
139 156 0
136 154 0
136 154 0
144 164 0
133 149 0
138 155 0
108 122 0
117 133 0
134 151 0
119 135 0
151 169 0
147 166 0
127 145 0
107 121 0
143 162 0
134 151 0
123 139 0
125 141 0
120 129 0
129 146 0
97 114 0
122 137 0
116 132 0
117 131 0
135 149 0
123 135 0
110 126 0
116 133 0
121 134 0
136 153 0
123 138 0
133 150 0
116 131 0
118 133 0
98 114 0
103 118 0
134 148 0
116 131 0
86 100 0
114 128 0
130 147 0
53 70 0
99 112 0
70 80 0
97 110 0
106 118 0
105 118 0
144 161 0
129 146 0
121 135 0
96 107 0
132 149 0
139 156 0
115 127 0
136 153 0
137 152 0
137 153 0
123 138 0
124 139 0
101 117 0
82 98 0
107 123 0
154 171 0
96 112 0
136 156 0
122 137 0
107 121 0
121 134 0
73 89 0
121 140 0
127 147 0
117 135 0
140 161 0
136 155 0
159 178 0
113 129 0
109 128 0
108 130 0
142 159 0
94 112 0
131 149 0
132 151 0
135 154 0
136 156 0
157 174 0
143 162 0
122 140 0
119 137 0
96 112 0
138 157 0
164 181 0
118 137 0
117 132 0
116 134 0
113 134 0
100 116 0
95 113 0
104 118 0
129 147 0
134 151 0
103 120 0
68 83 0
40 63 0
86 102 0
37 60 0
41 64 99
49 78 57
41 67 57
39 64 0
38 65 0
54 85 99
52 83 80
46 73 57
53 84 99
49 78 80
56 88 57
49 79 0
44 68 0
54 86 99
50 79 80
42 66 0
41 65 57
49 77 80
48 75 57
43 68 57
56 89 80
50 79 80
44 73 57
52 84 80
37 58 57
49 77 80
46 73 57
38 61 57
48 78 57
44 69 57
44 69 57
45 69 0
54 84 99
42 68 57
45 71 0
46 73 80
44 70 57
54 86 99
51 81 80
38 59 57
53 84 57
36 59 0
39 61 0
40 65 57
89 105 80
27 43 57
110 120 0
76 86 0
93 105 0
112 124 0
61 78 0
126 140 0
112 121 0
119 137 0
109 126 0
98 114 0
94 106 0
105 115 0
69 85 0
101 107 0
102 115 0
127 140 0
93 108 0
121 132 0
107 121 0
121 130 0
116 135 0
107 127 0
92 95 0
137 153 0
142 161 0
125 140 0
108 118 0
115 128 0
130 143 0
129 136 0
132 139 0
119 132 0
141 151 0
136 148 0
123 141 0
127 128 0
96 103 0
143 153 0
144 157 0
138 149 0
89 93 0
122 128 0
132 139 0
134 141 0
121 118 0
123 120 0
128 132 0
158 168 0
137 141 0
127 124 0
140 135 0
99 92 0
120 125 0
150 160 0
155 159 0
121 119 0
97 79 0
120 105 0
97 80 0
103 90 0
63 59 0
99 87 0
95 71 0
84 71 0
103 90 0
96 85 0
114 105 0
92 81 0
117 101 0
98 88 0
91 87 0
113 103 0
112 107 0
122 110 0
83 71 0
123 118 0
108 103 0
129 120 0
96 86 0
100 89 0
103 94 0
130 118 0
126 120 0
124 109 0
135 130 0
109 104 0
134 125 0
126 118 0
129 117 0
105 94 0
137 124 0
144 131 0
141 130 0
147 133 0
136 126 0
97 87 0
127 119 0
119 111 0
155 144 0
126 113 0
144 134 0
128 121 0
145 132 0
124 118 0
139 129 0
147 134 0
137 130 0
120 108 0
123 120 0
144 136 0
144 139 0
144 138 0
149 141 0
119 113 0
153 147 0
138 129 0
140 126 0
141 133 0
125 114 0
147 139 0
138 128 0
151 143 0
132 126 0
137 134 0
150 135 0
142 135 0
154 144 0
133 128 0
127 122 0
137 127 0
154 149 0
141 136 0
139 134 0
143 132 0
146 138 0
133 131 0
150 140 0
137 132 0
144 136 0
145 138 0
138 133 0
137 121 0
160 155 0
146 138 0
150 145 0
150 140 0
154 143 0
151 145 0
152 149 0
153 147 0
140 136 0
142 136 0
149 136 0
134 126 0
144 139 0
148 142 0
157 146 0
152 149 0
154 147 0
148 141 0
155 153 0
150 147 0
159 152 0
156 151 0
156 153 0
146 142 0
152 146 0
146 137 0
151 146 0
151 145 0
150 148 0
154 149 0
146 138 0
145 139 0
151 143 0
157 151 0
147 169 0
156 177 0
152 173 0
153 171 0
144 164 0
150 168 0
157 178 0
152 172 0
141 162 0
151 169 0
155 176 0
148 167 0
153 174 0
144 161 0
154 173 0
150 171 0
153 175 0
146 167 0
155 174 0
154 174 0
147 167 0
156 174 0
151 170 0
151 168 0
160 177 0
151 171 0
147 168 0
146 166 0
141 158 0
150 168 0
150 168 0
148 168 0
148 169 0
138 155 0
139 158 0
149 169 0
142 164 0
143 161 0
137 157 0
146 163 0
140 159 0
160 177 0
151 168 0
136 156 0
148 166 0
144 164 0
150 167 0
142 158 0
149 168 0
150 171 0
140 160 0
137 158 0
150 167 0
143 161 0
138 154 0
141 161 0
143 159 0
126 141 0
140 157 0
131 149 0
136 155 0
146 162 0
127 145 0
141 160 0
139 157 0
140 157 0
135 151 0
100 116 0
137 156 0
144 163 0
132 148 0
151 170 0
126 142 0
120 136 0
154 175 0
136 153 0
119 135 0
141 160 0
142 158 0
134 152 0
131 149 0
134 152 0
128 145 0
135 146 0
129 149 0
117 132 0
149 167 0
133 149 0
145 162 0
120 134 0
111 126 0
118 133 0
102 116 0
120 133 0
123 140 0
128 142 0
128 143 0
133 147 0
112 128 0
102 116 0
129 144 0
134 146 0
118 135 0
129 144 0
140 157 0
119 135 0
121 136 0
121 137 0
100 114 0
109 124 0
134 149 0
125 140 0
107 121 0
100 113 0
80 95 0
125 140 0
108 121 0
115 129 0
103 117 0
127 143 0
140 156 0
141 157 0
118 132 0
122 140 0
117 132 0
151 169 0
119 135 0
112 130 0
131 146 0
134 148 0
116 129 0
90 107 0
124 142 0
110 126 0
128 145 0
137 155 0
145 160 0
127 144 0
136 155 0
130 145 0
127 143 0
132 149 0
113 128 0
76 93 0
146 164 0
138 153 0
130 148 0
110 126 0
145 168 0
116 132 0
97 114 0
126 144 0
111 130 0
97 117 0
136 154 0
143 162 0
117 133 0
134 156 0
96 115 0
113 130 0
127 145 0
97 116 0
126 145 0
141 159 0
97 111 0
62 79 0
108 125 0
96 109 0
99 116 0
109 128 0
88 105 0
65 82 0
59 68 0
98 113 0
131 146 0
55 68 0
116 133 0
49 63 0
64 84 80
41 66 57
37 60 57
54 85 99
51 80 80
35 57 0
49 78 80
46 74 99
49 79 80
46 73 99
50 79 80
55 86 99
41 68 80
43 70 57
53 83 80
46 73 57
43 69 80
50 80 80
46 72 99
46 76 80
49 78 57
40 67 0
47 74 57
44 72 0
49 77 0
32 53 0
52 83 80
54 86 80
44 71 0
50 79 80
49 77 80
51 76 80
44 69 57
46 73 0
44 72 0
48 76 99
49 75 57
42 69 0
47 77 57
54 83 99
38 61 57
27 46 0
39 60 0
68 85 0
139 154 0
61 75 0
86 101 0
108 121 0
39 60 0
114 126 0
107 124 0
114 128 0
132 149 0
113 129 0
98 114 0
85 92 0
119 137 0
145 160 0
134 147 0
131 151 0
69 80 0
122 129 0
107 116 0
124 137 0
94 102 0
109 122 0
77 88 0
129 143 0
113 122 0
157 168 0
128 128 0
121 127 0
132 141 0
136 148 0
94 105 0
119 138 0
155 170 0
149 157 0
134 144 0
141 154 0
121 131 0
134 142 0
131 146 0
146 165 0
134 141 0
144 147 0
106 113 0
138 152 0
147 147 0
129 141 0
140 147 0
150 163 0
100 96 0
139 141 0
126 126 0
132 139 0
113 118 0
143 148 0
124 129 0
126 129 0
117 117 0
131 137 0
139 143 0
118 104 0
94 78 0
108 95 0
112 99 0
92 81 0
124 115 0
117 108 0
85 70 0
79 67 0
118 102 0
107 89 0
116 98 0
127 115 0
116 102 0
128 111 0
86 71 0
127 121 0
105 91 0
104 92 0
126 112 0
104 95 0
136 125 0
123 111 0
139 128 0
128 115 0
139 129 0
126 116 0
132 119 0
117 111 0
128 114 0
130 123 0
102 91 0
119 111 0
140 134 0
142 134 0
111 100 0
129 123 0
139 132 0
118 111 0
141 130 0
127 120 0
130 123 0
129 119 0
138 125 0
125 110 0
147 134 0
140 130 0
126 114 0
131 120 0
137 130 0
135 120 0
131 123 0
157 148 0
150 139 0
149 138 0
150 140 0
146 133 0
118 110 0
144 138 0
149 141 0
127 119 0
138 123 0
155 142 0
138 129 0
126 119 0
139 123 0
147 141 0
141 126 0
155 147 0
151 145 0
145 142 0
137 130 0
147 138 0
148 139 0
145 138 0
129 123 0
144 138 0
149 142 0
145 135 0
135 125 0
150 139 0
140 134 0
152 146 0
154 150 0
139 135 0
145 140 0
151 145 0
149 142 0
157 149 0
153 144 0
149 142 0
153 146 0
153 148 0
153 147 0
145 136 0
157 148 0
136 127 0
154 144 0
147 141 0
145 142 0
145 129 0
153 147 0
149 142 0
153 147 0
148 139 0
153 144 0
150 143 0
158 146 0
149 141 0
140 134 0
147 140 0
150 142 0
153 149 0
155 147 0
139 119 0
153 145 0
155 145 0
152 143 0
156 148 0
156 175 0
151 170 0
150 171 0
156 176 0
150 169 0
151 170 0
153 173 0
147 167 0
155 175 0
153 173 0
154 173 0
155 177 0
146 165 0
152 173 0
156 174 0
155 175 0
140 158 0
151 170 0
139 158 0
156 174 0
154 169 0
148 167 0
135 157 0
157 176 0
143 162 0
144 165 0
156 175 0
151 171 0
153 173 0
146 166 0
139 157 0
152 170 0
151 170 0
150 169 0
155 174 0
138 157 0
141 162 0
149 168 0
152 171 0
150 172 0
142 163 0
148 171 0
146 166 0
142 162 0
155 176 0
140 156 0
142 162 0
128 146 0
145 158 0
146 163 0
138 156 0
143 165 0
142 159 0
148 167 0
137 154 0
154 173 0
148 165 0
156 176 0
146 165 0
135 155 0
135 155 0
137 154 0
120 136 0
145 162 0
134 151 0
140 155 0
143 161 0
148 168 0
140 158 0
139 157 0
142 159 0
131 147 0
116 133 0
151 169 0
140 158 0
122 139 0
143 157 0
144 161 0
140 155 0
122 137 0
126 143 0
130 147 0
149 167 0
126 143 0
151 168 0
140 159 0
136 155 0
135 153 0
117 130 0
134 154 0
125 139 0
142 159 0
136 152 0
121 135 0
145 159 0
121 136 0
139 152 0
118 133 0
105 120 0
100 114 0
124 141 0
116 131 0
119 131 0
127 142 0
108 120 0
97 107 0
133 150 0
109 122 0
124 138 0
121 136 0
130 145 0
93 103 0
116 131 0
67 77 0
111 125 0
108 118 0
128 140 0
111 122 0
143 160 0
102 113 0
137 151 0
122 137 0
107 122 0
123 140 0
149 166 0
148 166 0
85 96 0
127 142 0
123 138 0
154 174 0
141 155 0
118 135 0
121 134 0
118 130 0
117 134 0
114 130 0
131 150 0
89 103 0
131 150 0
130 148 0
129 147 0
106 123 0
129 146 0
116 133 0
87 100 0
123 138 0
106 120 0
112 124 0
125 145 0
120 140 0
124 145 0
105 123 0
118 137 0
125 143 0
128 145 0
102 121 0
145 165 0
134 153 0
120 139 0
130 145 0
103 122 0
86 105 0
80 95 0
86 101 0
101 118 0
114 129 0
148 169 0
102 118 0
102 122 0
108 124 0
92 108 0
100 117 0
100 113 0
77 89 0
37 59 0
16 28 0
123 137 0
86 98 0
124 141 0
86 100 0
18 34 0
42 67 99
47 75 80
49 78 80
48 76 99
53 84 57
37 61 57
39 63 57
49 78 80
55 87 80
50 78 99
46 73 57
41 65 57
46 73 0
43 71 0
42 67 80
33 55 0
49 78 114
42 67 57
54 85 99
50 80 80
48 76 0
35 58 0
49 77 99
30 51 0
40 64 57
53 84 80
45 68 80
47 75 80
44 71 57
48 75 99
45 74 80
48 77 80
53 83 99
43 68 57
48 76 99
39 62 80
46 73 0
85 100 57
83 94 57
57 64 0
111 118 0
112 123 0
115 127 0
62 76 0
103 109 0
114 130 0
134 148 0
61 69 0
97 108 0
80 85 0
106 115 0
119 132 0
143 156 0
124 139 0
114 120 0
119 130 0
98 105 0
124 134 0
124 143 0
107 122 0
104 112 0
119 124 0
115 128 0
108 120 0
133 146 0
123 134 0
104 120 0
120 137 0
154 173 0
149 158 0
93 97 0
100 112 0
121 140 0
101 106 0
99 110 0
140 155 0
138 148 0
140 148 0
137 147 0
102 105 0
101 115 0
79 85 0
130 139 0
147 161 0
100 97 0
140 150 0
104 101 0
124 132 0
114 115 0
130 136 0
116 119 0
149 164 0
107 106 0
106 107 0
78 86 0
147 160 0
109 115 0
111 110 0
118 126 0
123 118 0
99 96 0
134 136 0
123 118 0
85 69 0
73 57 0
89 77 0
112 97 0
105 95 0
111 105 0
94 86 0
126 116 0
132 118 0
114 98 0
95 85 0
105 89 0
114 105 0
107 102 0
117 101 0
116 102 0
103 90 0
121 114 0
119 109 0
119 106 0
101 97 0
113 99 0
115 108 0
125 116 0
110 94 0
132 112 0
146 135 0
146 133 0
147 135 0
107 97 0
139 129 0
136 123 0
141 129 0
137 126 0
144 132 0
119 111 0
131 117 0
149 141 0
124 109 0
123 116 0
148 134 0
125 108 0
112 100 0
148 136 0
109 100 0
131 121 0
139 126 0
156 151 0
136 130 0
147 132 0
119 109 0
142 130 0
144 140 0
140 135 0
138 125 0
136 129 0
149 141 0
132 124 0
142 138 0
150 144 0
152 146 0
140 132 0
132 127 0
138 128 0
150 141 0
140 133 0
140 133 0
144 130 0
150 140 0
149 143 0
131 123 0
144 136 0
151 137 0
145 135 0
135 132 0
144 129 0
158 146 0
150 142 0
147 143 0
148 140 0
141 135 0
155 150 0
132 125 0
144 135 0
150 142 0
144 132 0
135 125 0
141 135 0
151 144 0
152 148 0
159 152 0
153 147 0
141 129 0
148 144 0
140 133 0
151 146 0
143 131 0
151 144 0
143 136 0
143 136 0
146 135 0
148 144 0
141 132 0
148 144 0
149 147 0
142 126 0
151 142 0
148 146 0
148 142 0
152 143 0
158 152 0
155 150 0
155 147 0
140 131 0
147 141 0
156 153 0
149 170 0
148 168 0
157 176 0
132 149 0
154 171 0
152 173 0
155 173 0
149 168 0
149 167 0
129 148 0
151 170 0
146 164 0
151 172 0
150 169 0
154 175 0
148 167 0
149 171 0
153 171 0
152 169 0
144 165 0
152 171 0
155 177 0
149 167 0
139 157 0
141 158 0
143 162 0
149 168 0
144 165 0
152 171 0
137 157 0
152 171 0
142 163 0
150 169 0
129 149 0
139 157 0
142 161 0
148 168 0
143 164 0
141 162 0
148 166 0
141 160 0
143 160 0
148 168 0
145 161 0
152 172 0
130 148 0
155 173 0
154 175 0
133 151 0
140 155 0
153 174 0
148 163 0
133 151 0
147 163 0
136 149 0
139 157 0
132 146 0
136 153 0
127 146 0
142 161 0
149 168 0
133 154 0
148 166 0
142 155 0
129 145 0
134 150 0
133 150 0
136 153 0
144 161 0
136 153 0
131 149 0
142 158 0
130 147 0
132 147 0
123 141 0
133 148 0
148 166 0
133 146 0
130 146 0
122 140 0
127 144 0
131 148 0
132 149 0
141 161 0
138 154 0
132 148 0
135 152 0
111 125 0
140 159 0
130 145 0
135 150 0
143 161 0
90 102 0
120 132 0
119 135 0
130 149 0
135 151 0
103 116 0
115 132 0
107 122 0
123 139 0
139 156 0
98 111 0
113 131 0
110 125 0
127 142 0
119 132 0
110 123 0
90 102 0
69 80 0
123 138 0
85 98 0
126 140 0
112 126 0
130 143 0
114 126 0
118 129 0
120 135 0
119 131 0
128 143 0
144 160 0
103 115 0
120 133 0
131 148 0
109 123 0
105 121 0
122 139 0
131 146 0
81 95 0
117 132 0
143 158 0
111 126 0
124 138 0
118 133 0
123 140 0
100 117 0
91 102 0
117 131 0
154 172 0
114 130 0
123 140 0
130 148 0
148 165 0
143 160 0
114 131 0
77 94 0
108 127 0
137 152 0
125 143 0
136 155 0
121 143 0
159 180 0
131 147 0
125 143 0
120 138 0
112 130 0
101 118 0
67 82 0
95 112 0
78 96 0
103 120 0
114 131 0
117 131 0
131 148 0
85 102 0
92 110 0
78 96 0
29 47 0
112 126 0
80 92 0
75 91 0
56 77 0
68 87 0
102 114 0
116 134 0
98 111 0
84 100 0
80 98 0
67 80 0
83 94 0
38 58 0
17 29 0
94 108 0
21 36 0
65 81 0
50 78 80
38 62 57
44 70 57
48 76 0
53 83 80
40 66 0
40 66 0
42 67 57
47 75 0
43 70 80
53 85 0
28 47 0
51 80 80
41 66 57
47 75 57
61 95 114
24 39 57
47 74 80
26 44 0
51 80 99
25 44 0
51 82 57
49 76 99
49 77 99
48 77 80
46 73 57
35 55 0
45 71 0
41 68 57
31 50 0
71 92 57
52 60 0
104 113 0
85 91 0
27 43 0
61 70 0
58 63 0
36 55 0
68 80 0
54 63 0
58 69 0
119 134 0
72 90 0
61 75 0
93 104 0
102 117 0
67 74 0
109 123 0
123 133 0
127 142 0
123 137 0
142 152 0
98 111 0
128 141 0
97 111 0
113 127 0
109 122 0
102 110 0
98 118 0
158 172 0
138 140 0
121 138 0
131 145 0
150 165 0
137 151 0
116 124 0
135 145 0
157 171 0
102 118 0
114 128 0
137 150 0
140 151 0
140 140 0
113 131 0
120 124 0
119 119 0
132 140 0
136 143 0
138 152 0
131 139 0
101 104 0
137 151 0
140 142 0
116 122 0
106 109 0
96 102 0
97 100 0
149 154 0
109 104 0
120 125 0
136 136 0
96 96 0
109 114 0
119 119 0
123 123 0
127 119 0
83 75 0
133 135 0
128 124 0
104 99 0
128 114 0
81 67 0
84 64 0
111 95 0
112 98 0
94 82 0
92 77 0
101 82 0
120 101 0
118 100 0
130 116 0
114 105 0
106 94 0
98 89 0
120 112 0
103 93 0
132 117 0
107 95 0
149 144 0
112 97 0
82 75 0
111 107 0
123 118 0
149 139 0
134 125 0
123 109 0
144 131 0
117 108 0
132 122 0
139 129 0
140 125 0
112 97 0
150 145 0
139 123 0
125 113 0
146 135 0
146 137 0
105 99 0
141 132 0
148 139 0
126 111 0
148 137 0
137 123 0
142 129 0
123 112 0
129 121 0
134 125 0
140 133 0
144 130 0
117 110 0
138 131 0
124 118 0
144 131 0
139 129 0
130 124 0
139 127 0
146 140 0
148 142 0
147 142 0
138 121 0
123 120 0
147 138 0
152 143 0
153 149 0
143 135 0
133 128 0
148 140 0
149 142 0
143 135 0
150 142 0
134 125 0
154 147 0
154 146 0
157 151 0
148 139 0
144 134 0
146 142 0
146 137 0
147 139 0
141 133 0
154 147 0
155 147 0
155 150 0
145 139 0
139 132 0
144 132 0
148 139 0
134 127 0
142 130 0
147 137 0
149 141 0
144 137 0
140 128 0
143 131 0
146 139 0
149 141 0
154 147 0
151 139 0
137 128 0
149 145 0
154 147 0
153 149 0
153 147 0
150 138 0
154 147 0
153 144 0
157 151 0
160 150 0
146 135 0
143 129 0
147 137 0
151 147 0
155 149 0
156 153 0
150 146 0
149 172 0
150 171 0
155 175 0
145 162 0
156 173 0
150 172 0
143 161 0
145 166 0
152 172 0
155 175 0
149 169 0
145 168 0
154 172 0
153 172 0
148 168 0
152 173 0
147 164 0
146 168 0
143 164 0
154 172 0
135 155 0
148 168 0
141 157 0
149 167 0
158 176 0
151 172 0
151 171 0
157 177 0
137 152 0
154 173 0
142 163 0
147 165 0
136 154 0
151 168 0
139 158 0
149 166 0
147 164 0
137 156 0
147 167 0
148 164 0
138 158 0
138 157 0
147 167 0
139 153 0
154 171 0
150 167 0
142 162 0
141 160 0
140 159 0
138 158 0
151 171 0
140 160 0
144 161 0
130 145 0
140 157 0
135 150 0
141 158 0
144 163 0
140 158 0
128 144 0
153 171 0
136 157 0
136 153 0
158 178 0
131 147 0
132 153 0
133 148 0
133 151 0
136 154 0
126 143 0
139 153 0
145 164 0
115 126 0
144 163 0
147 164 0
120 138 0
129 144 0
126 143 0
129 145 0
120 137 0
141 158 0
135 152 0
137 155 0
128 143 0
114 129 0
110 126 0
130 145 0
126 138 0
115 130 0
122 135 0
133 148 0
127 141 0
111 129 0
119 135 0
128 146 0
120 134 0
130 146 0
145 162 0
98 113 0
107 120 0
97 111 0
116 129 0
102 113 0
123 135 0
103 117 0
118 132 0
113 123 0
121 129 0
97 110 0
97 109 0
93 104 0
108 121 0
87 98 0
89 101 0
141 155 0
122 136 0
74 88 0
138 152 0
115 129 0
115 134 0
118 132 0
127 144 0
114 129 0
108 120 0
89 105 0
81 96 0
104 116 0
109 121 0
125 141 0
128 145 0
87 102 0
109 125 0
146 164 0
119 133 0
123 139 0
139 156 0
100 116 0
116 130 0
93 108 0
102 118 0
111 128 0
96 112 0
112 126 0
122 139 0
122 138 0
135 150 0
110 128 0
81 100 0
129 144 0
97 111 0
114 135 0
104 120 0
113 133 0
135 155 0
105 119 0
145 163 0
133 146 0
103 117 0
125 141 0
140 156 0
122 139 0
114 134 0
104 125 0
91 106 0
65 78 0
74 86 0
123 142 0
114 131 0
102 121 0
123 139 0
79 93 0
87 98 0
54 70 0
58 79 0
99 110 0
89 103 0
85 96 0
84 95 0
103 117 0
66 84 0
55 64 0
8 18 0
63 74 0
63 72 0
64 76 0
49 56 0
31 49 0
39 61 80
31 50 0
28 49 57
44 69 80
39 62 57
29 48 57
33 55 57
40 66 0
45 71 57
49 79 0
43 70 80
38 60 0
31 53 0
31 51 0
49 77 114
46 74 57
48 75 99
41 66 57
32 53 0
37 61 57
52 81 57
42 67 0
43 70 57
72 88 57
69 88 57
36 57 0
28 44 0
61 71 0
66 82 0
43 36 0
113 118 0
18 30 0
85 97 0
83 97 0
79 89 0
96 104 0
131 145 0
115 125 0
91 107 0
93 104 0
130 146 0
113 122 0
115 132 0
35 56 0
143 162 0
86 98 0
125 144 0
111 126 0
153 172 0
104 117 0
116 130 0
84 93 0
50 61 0
129 140 0
118 126 0
128 145 0
155 163 0
118 129 0
136 149 0
105 120 0
102 105 0
140 149 0
104 113 0
119 136 0
117 121 0
96 111 0
105 107 0
125 130 0
131 141 0
123 133 0
102 101 0
99 113 0
127 137 0
137 146 0
138 152 0
111 122 0
122 129 0
125 129 0
126 143 0
120 122 0
143 156 0
101 105 0
145 161 0
108 119 0
120 127 0
123 121 0
102 106 0
95 106 0
127 124 0
145 143 0
136 141 0
133 141 0
118 112 0
142 145 0
78 85 0
104 99 0
130 136 0
100 96 0
100 91 0
140 129 0
120 100 0
88 79 0
101 89 0
129 110 0
107 95 0
119 102 0
103 90 0
109 102 0
64 62 0
84 72 0
105 95 0
115 103 0
108 96 0
85 70 0
131 112 0
110 104 0
125 116 0
114 109 0
144 127 0
113 96 0
139 129 0
113 93 0
78 71 0
113 106 0
128 114 0
136 123 0
119 112 0
120 114 0
143 130 0
125 110 0
121 107 0
122 115 0
128 118 0
118 102 0
125 118 0
136 124 0
108 102 0
135 122 0
144 134 0
135 123 0
130 116 0
150 142 0
139 128 0
145 137 0
137 122 0
144 138 0
152 140 0
127 108 0
143 133 0
134 128 0
129 117 0
134 124 0
147 142 0
145 138 0
135 122 0
140 135 0
143 133 0
136 125 0
141 127 0
146 137 0
150 142 0
145 133 0
139 130 0
149 129 0
155 147 0
140 133 0
146 134 0
151 143 0
149 140 0
148 141 0
145 132 0
142 134 0
151 147 0
137 129 0
149 142 0
160 150 0
140 131 0
139 126 0
136 125 0
144 138 0
138 128 0
139 128 0
150 145 0
146 136 0
156 146 0
145 136 0
141 131 0
147 132 0
158 152 0
157 147 0
147 137 0
151 144 0
142 131 0
146 137 0
142 136 0
155 148 0
149 138 0
151 138 0
157 149 0
154 150 0
143 138 0
145 140 0
147 133 0
146 145 0
160 152 0
121 112 0
152 150 0
153 149 0
151 143 0
151 148 0
150 150 0
149 141 0
154 147 0
149 169 0
148 171 0
151 172 0
152 173 0
152 171 0
153 171 0
142 163 0
145 165 0
153 172 0
155 172 0
156 175 0
151 173 0
156 175 0
152 169 0
149 166 0
157 175 0
147 164 0
147 166 0
147 167 0
144 163 0
156 175 0
149 167 0
146 164 0
145 162 0
158 175 0
138 155 0
146 163 0
144 162 0
153 171 0
146 162 0
153 173 0
146 164 0
146 166 0
130 144 0
153 173 0
143 162 0
140 160 0
138 157 0
148 170 0
154 176 0
144 160 0
152 172 0
148 167 0
137 154 0
137 155 0
138 157 0
157 176 0
155 172 0
136 152 0
143 157 0
153 170 0
146 163 0
130 148 0
145 164 0
135 153 0
138 159 0
141 158 0
137 153 0
144 161 0
145 160 0
143 159 0
136 154 0
151 170 0
133 153 0
140 157 0
119 137 0
144 163 0
127 144 0
134 148 0
145 163 0
134 149 0
136 155 0
143 158 0
139 155 0
133 152 0
136 153 0
134 152 0
139 156 0
130 142 0
115 126 0
135 154 0
121 140 0
150 167 0
130 145 0
117 133 0
142 158 0
99 114 0
97 112 0
123 138 0
88 100 0
123 139 0
142 158 0
134 148 0
99 111 0
114 127 0
104 118 0
123 138 0
119 133 0
127 142 0
109 121 0
119 132 0
122 138 0
122 138 0
120 136 0
108 123 0
99 110 0
121 134 0
99 115 0
117 129 0
87 97 0
100 110 0
99 110 0
94 107 0
121 135 0
122 137 0
123 136 0
87 100 0
104 115 0
109 123 0
120 135 0
128 144 0
83 95 0
127 142 0
158 174 0
99 111 0
128 145 0
107 119 0
116 132 0
101 122 0
122 141 0
111 128 0
107 124 0
146 163 0
109 123 0
131 149 0
126 144 0
113 127 0
67 85 0
116 135 0
103 121 0
112 130 0
114 128 0
122 142 0
125 143 0
141 160 0
78 98 0
147 162 0
128 148 0
107 125 0
127 141 0
92 112 0
107 122 0
132 150 0
111 130 0
85 103 0
134 150 0
126 143 0
133 150 0
85 99 0
103 119 0
118 133 0
94 109 0
141 160 0
116 130 0
129 145 0
121 141 0
141 158 0
96 113 0
36 58 0
129 145 0
108 127 0
122 137 0
88 104 0
124 138 0
89 104 0
109 123 0
61 76 0
113 125 0
70 77 0
96 108 0
97 107 0
115 127 0
117 129 0
64 74 0
13 23 0
31 49 0
23 36 0
7 17 0
33 41 0
17 28 0
88 102 0
66 81 0
20 37 0
36 57 0
33 55 0
45 72 57
42 67 57
37 61 0
41 64 57
32 53 0
35 55 0
46 71 80
40 64 57
27 43 0
33 51 0
33 55 80
32 51 0
65 74 0
67 82 0
65 76 0
106 114 0
63 73 0
23 34 0
84 86 0
101 112 0
65 77 0
62 71 0
62 73 0
40 62 0
117 129 0
80 79 0
67 82 0
64 71 0
83 92 0
32 48 0
119 134 0
101 110 0
76 86 0
99 106 0
123 134 0
38 59 0
95 95 0
71 81 0
116 129 0
80 94 0
78 92 0
95 108 0
123 129 0
106 121 0
103 118 0
63 81 0
117 133 0
108 121 0
99 110 0
146 159 0
140 159 0
147 167 0
110 121 0
106 118 0
121 139 0
116 131 0
150 166 0
133 149 0
107 121 0
126 135 0
92 97 0
122 129 0
136 152 0
84 94 0
104 121 0
117 125 0
124 138 0
138 154 0
161 174 0
133 141 0
133 146 0
143 150 0
104 111 0
89 96 0
117 124 0
123 131 0
136 134 0
89 89 0
137 143 0
133 133 0
130 128 0
127 130 0
111 118 0
114 106 0
105 104 0
121 118 0
93 94 0
116 113 0
111 111 0
67 61 0
115 106 0
109 105 0
125 118 0
121 112 0
103 86 0
111 96 0
78 77 0
110 94 0
124 108 0
122 113 0
83 77 0
111 93 0
122 112 0
127 112 0
128 115 0
113 102 0
145 132 0
114 102 0
69 54 0
126 114 0
123 113 0
125 115 0
124 107 0
123 115 0
120 108 0
139 124 0
118 99 0
121 109 0
110 103 0
116 111 0
146 138 0
125 112 0
107 95 0
131 117 0
129 111 0
136 127 0
125 115 0
129 115 0
138 126 0
148 134 0
126 114 0
116 109 0
124 112 0
149 139 0
138 128 0
136 120 0
127 116 0
148 136 0
146 134 0
134 124 0
139 130 0
135 122 0
134 122 0
139 133 0
107 94 0
135 123 0
149 141 0
152 140 0
114 100 0
138 128 0
143 132 0
140 126 0
142 128 0
141 132 0
132 121 0
145 138 0
131 118 0
149 142 0
141 131 0
140 132 0
141 133 0
144 133 0
145 135 0
136 124 0
125 108 0
126 119 0
155 142 0
143 127 0
135 124 0
124 113 0
154 143 0
158 152 0
150 144 0
133 122 0
141 136 0
147 139 0
131 122 0
138 129 0
144 129 0
143 132 0
137 131 0
155 150 0
138 125 0
146 135 0
155 148 0
143 132 0
160 152 0
152 143 0
146 134 0
155 148 0
148 141 0
152 147 0
154 145 0
150 143 0
154 144 0
154 150 0
152 146 0
146 138 0
152 144 0
155 145 0
139 132 0
145 136 0
149 138 0
151 143 0
154 147 0
150 173 0
151 171 0
142 161 0
147 166 0
149 170 0
157 176 0
147 169 0
157 175 0
157 178 0
148 165 0
151 170 0
152 172 0
146 164 0
141 160 0
153 173 0
149 170 0
151 169 0
148 166 0
154 170 0
143 163 0
147 167 0
144 163 0
148 167 0
151 172 0
152 171 0
132 150 0
139 156 0
148 167 0
132 152 0
156 175 0
150 166 0
141 158 0
147 168 0
146 165 0
149 169 0
142 159 0
148 166 0
145 163 0
140 157 0
150 167 0
154 173 0
144 161 0
138 158 0
150 170 0
150 169 0
151 169 0
136 152 0
140 157 0
148 166 0
153 168 0
140 158 0
133 152 0
151 170 0
151 168 0
114 129 0
149 167 0
139 157 0
126 144 0
130 145 0
150 167 0
140 158 0
142 160 0
141 156 0
142 159 0
150 170 0
136 153 0
130 146 0
142 156 0
140 157 0
144 162 0
134 153 0
123 137 0
138 154 0
144 164 0
112 126 0
119 134 0
133 148 0
121 136 0
126 141 0
134 150 0
131 143 0
143 159 0
123 136 0
131 146 0
132 147 0
121 137 0
127 146 0
132 149 0
134 149 0
132 148 0
102 116 0
87 100 0
137 154 0
125 140 0
116 131 0
104 118 0
117 134 0
117 131 0
115 129 0
118 131 0
111 127 0
101 112 0
103 119 0
80 92 0
137 152 0
109 122 0
90 103 0
102 113 0
77 87 0
119 129 0
87 100 0
106 117 0
88 98 0
84 96 0
97 108 0
99 110 0
117 128 0
95 107 0
95 108 0
108 120 0
95 105 0
117 131 0
135 148 0
113 129 0
124 141 0
131 148 0
127 143 0
134 146 0
109 125 0
146 159 0
126 143 0
118 132 0
114 131 0
96 112 0
128 143 0
138 155 0
130 149 0
136 156 0
121 138 0
129 146 0
127 145 0
142 160 0
163 181 0
158 177 0
146 165 0
111 130 0
105 122 0
88 106 0
146 164 0
68 84 0
111 129 0
99 115 0
127 146 0
124 142 0
107 125 0
127 146 0
90 104 0
115 133 0
102 117 0
114 131 0
94 110 0
106 121 0
117 134 0
130 149 0
110 123 0
76 93 0
135 150 0
72 91 0
148 168 0
102 115 0
107 124 0
120 136 0
149 169 0
23 38 0
30 47 0
142 161 0
109 126 0
87 101 0
88 103 0
61 76 0
71 87 0
76 89 0
91 103 0
69 83 0
76 87 0
45 57 0
74 86 0
90 105 0
105 118 0
58 69 0
58 65 0
66 80 0
59 65 0
61 68 0
17 28 0
60 67 0
62 67 0
24 38 0
18 29 0
24 39 0
84 95 0
83 92 0
60 66 0
60 66 0
18 30 0
76 82 0
59 65 0
13 21 0
58 65 0
60 70 0
101 111 0
74 80 0
18 28 0
22 36 0
75 83 0
43 54 0
62 74 0
93 104 0
64 75 0
57 64 0
100 114 0
63 77 0
91 97 0
92 91 0
102 110 0
75 84 0
114 113 0
114 127 0
81 93 0
78 88 0
89 102 0
93 99 0
107 124 0
111 127 0
87 106 0
107 114 0
128 141 0
116 124 0
135 146 0
69 84 0
123 134 0
100 108 0
96 107 0
85 90 0
166 178 0
117 121 0
124 141 0
156 167 0
145 162 0
148 161 0
121 131 0
102 121 0
84 93 0
120 137 0
116 121 0
131 139 0
72 83 0
131 141 0
135 144 0
105 114 0
106 112 0
122 135 0
107 123 0
89 86 0
101 106 0
109 118 0
120 124 0
116 109 0
71 68 0
133 141 0
114 112 0
105 105 0
132 132 0
138 151 0
90 97 0
112 111 0
134 134 0
130 135 0
101 111 0
86 86 0
120 122 0
122 123 0
137 144 0
68 74 0
111 105 0
132 134 0
109 108 0
94 79 0
71 75 0
70 63 0
94 75 0
108 93 0
106 89 0
107 98 0
103 85 0
87 71 0
106 96 0
142 130 0
119 104 0
132 114 0
141 136 0
83 76 0
113 104 0
141 123 0
116 102 0
74 67 0
129 112 0
139 129 0
109 98 0
121 113 0
115 99 0
113 105 0
126 109 0
95 83 0
118 113 0
110 95 0
141 120 0
135 126 0
113 92 0
139 126 0
121 106 0
118 106 0
127 121 0
117 107 0
127 116 0
139 122 0
109 95 0
123 110 0
144 132 0
142 133 0
111 103 0
136 126 0
134 118 0
136 122 0
142 131 0
142 130 0
132 121 0
142 130 0
137 131 0
145 128 0
137 123 0
143 127 0
147 140 0
134 128 0
148 135 0
141 134 0
152 145 0
138 126 0
142 136 0
156 147 0
158 146 0
130 124 0
146 136 0
142 135 0
154 147 0
147 141 0
132 129 0
153 141 0
142 130 0
142 131 0
131 119 0
149 135 0
146 135 0
149 139 0
147 132 0
139 132 0
148 143 0
156 148 0
157 146 0
144 136 0
145 132 0
140 132 0
152 146 0
149 141 0
150 142 0
147 135 0
145 140 0
149 141 0
154 147 0
149 143 0
137 124 0
149 146 0
148 137 0
153 143 0
148 136 0
141 129 0
143 133 0
140 138 0
148 139 0
154 147 0
153 147 0
146 138 0
148 136 0
150 145 0
155 150 0
151 144 0
155 145 0
157 148 0
150 145 0
146 139 0
156 176 0
149 167 0
155 173 0
139 156 0
155 174 0
153 172 0
149 170 0
149 167 0
151 169 0
150 169 0
154 175 0
152 170 0
149 166 0
150 169 0
141 161 0
144 162 0
149 169 0
136 156 0
149 168 0
135 150 0
151 170 0
137 155 0
130 148 0
153 168 0
157 175 0
140 159 0
143 163 0
136 152 0
141 160 0
144 162 0
153 169 0
132 153 0
150 167 0
140 158 0
141 163 0
151 169 0
147 166 0
140 160 0
148 163 0
147 165 0
151 168 0
145 162 0
152 171 0
153 171 0
141 163 0
133 150 0
139 156 0
152 170 0
127 147 0
142 159 0
145 164 0
152 169 0
144 162 0
138 157 0
140 154 0
145 161 0
119 134 0
134 153 0
156 175 0
125 143 0
145 163 0
146 165 0
142 161 0
139 157 0
132 150 0
144 159 0
132 147 0
131 146 0
136 154 0
126 141 0
145 161 0
142 159 0
110 127 0
125 144 0
129 143 0
139 154 0
119 135 0
120 134 0
142 158 0
118 134 0
125 139 0
126 142 0
146 162 0
134 149 0
117 131 0
130 145 0
126 140 0
128 141 0
138 153 0
115 130 0
119 130 0
112 130 0
128 144 0
133 148 0
130 146 0
142 157 0
102 115 0
89 103 0
84 94 0
100 114 0
104 116 0
70 84 0
90 102 0
91 103 0
99 109 0
105 118 0
108 120 0
100 109 0
71 79 0
105 115 0
86 97 0
98 109 0
114 127 0
117 128 0
100 112 0
118 130 0
101 115 0
121 137 0
81 93 0
67 82 0
132 147 0
102 118 0
104 120 0
140 159 0
129 145 0
107 123 0
137 154 0
127 142 0
134 148 0
101 115 0
113 132 0
123 140 0
110 128 0
93 105 0
98 116 0
127 140 0
94 113 0
102 118 0
122 138 0
127 145 0
129 147 0
122 140 0
138 155 0
118 134 0
139 159 0
113 132 0
107 127 0
131 148 0
157 179 0
114 132 0
61 75 0
98 114 0
96 115 0
125 143 0
138 156 0
124 142 0
149 168 0
151 171 0
91 108 0
108 128 0
95 111 0
121 138 0
75 96 0
87 109 0
68 86 0
142 157 0
97 116 0
66 85 0
89 107 0
45 57 0
103 120 0
61 74 0
84 99 0
109 124 0
104 120 0
94 107 0
74 91 0
109 125 0
80 93 0
111 125 0
62 73 0
86 98 0
96 106 0
103 120 0
89 102 0
72 88 0
89 103 0
62 71 0
62 74 0
87 101 0
60 67 0
26 42 0
62 72 0
41 51 0
67 81 0
63 70 0
66 77 0
61 70 0
67 77 0
29 45 0
45 54 0
67 79 0
64 74 0
18 31 0
63 75 0
63 75 0
60 66 0
28 44 0
27 42 0
28 46 0
8 19 0
82 91 0
54 61 0
69 86 0
63 76 0
86 100 0
78 85 0
121 135 0
85 101 0
32 47 0
102 113 0
100 116 0
100 113 0
117 131 0
118 133 0
103 112 0
75 85 0
23 35 0
80 86 0
91 101 0
127 141 0
85 98 0
86 99 0
65 83 0
132 144 0
86 106 0
107 119 0
88 96 0
92 99 0
105 110 0
98 110 0
89 94 0
131 148 0
118 134 0
151 170 0
99 114 0
124 138 0
128 139 0
144 155 0
107 110 0
111 120 0
108 110 0
125 137 0
126 138 0
130 141 0
167 178 0
115 132 0
136 146 0
97 111 0
135 147 0
108 124 0
102 114 0
121 129 0
93 104 0
118 126 0
102 106 0
112 119 0
109 114 0
127 138 0
119 118 0
121 128 0
106 111 0
122 116 0
130 139 0
134 141 0
122 130 0
51 49 0
135 140 0
127 132 0
108 110 0
112 100 0
100 99 0
93 94 0
135 142 0
83 82 0
119 124 0
86 78 0
92 84 0
104 107 0
89 86 0
117 120 0
76 67 0
107 98 0
105 79 0
74 65 0
125 108 0
127 117 0
126 118 0
69 57 0
107 94 0
88 74 0
124 112 0
103 88 0
84 68 0
126 111 0
109 99 0
132 115 0
99 89 0
134 123 0
126 110 0
113 102 0
140 124 0
119 103 0
123 111 0
132 126 0
138 124 0
125 105 0
123 115 0
139 125 0
136 129 0
146 133 0
135 119 0
128 122 0
132 123 0
133 118 0
135 121 0
139 130 0
140 126 0
130 114 0
134 119 0
134 119 0
145 131 0
126 115 0
149 143 0
135 117 0
148 138 0
140 130 0
127 114 0
128 117 0
147 139 0
139 125 0
122 111 0
148 136 0
130 119 0
133 128 0
132 120 0
153 148 0
134 124 0
142 135 0
125 120 0
142 127 0
144 133 0
145 139 0
135 128 0
147 136 0
145 134 0
150 137 0
155 148 0
135 121 0
137 130 0
141 137 0
131 124 0
151 142 0
142 137 0
146 137 0
152 140 0
135 122 0
139 131 0
146 136 0
153 145 0
150 138 0
149 135 0
151 138 0
147 134 0
157 151 0
151 144 0
143 126 0
138 126 0
139 131 0
143 138 0
152 144 0
147 142 0
143 130 0
142 138 0
147 132 0
153 146 0
151 143 0
150 138 0
149 139 0
147 143 0
135 127 0
157 148 0
142 134 0
157 149 0
145 136 0
153 147 0
155 150 0
152 149 0
152 149 0
154 152 0
150 169 0
153 173 0
152 170 0
144 163 0
142 160 0
146 165 0
146 165 0
152 174 0
153 170 0
144 164 0
143 160 0
146 163 0
150 171 0
145 163 0
150 167 0
159 178 0
145 162 0
139 157 0
144 161 0
142 161 0
145 163 0
137 156 0
154 173 0
131 149 0
149 166 0
148 164 0
140 156 0
155 174 0
149 171 0
141 159 0
146 164 0
140 158 0
147 163 0
131 147 0
153 168 0
151 167 0
134 151 0
145 164 0
145 166 0
143 161 0
157 177 0
137 153 0
145 162 0
134 149 0
137 154 0
150 168 0
145 161 0
137 155 0
148 167 0
142 157 0
142 157 0
149 168 0
140 158 0
125 143 0
153 170 0
148 169 0
147 163 0
136 152 0
144 162 0
139 156 0
127 142 0
131 148 0
123 139 0
143 161 0
139 155 0
141 154 0
128 140 0
137 153 0
142 158 0
130 147 0
119 134 0
131 145 0
112 124 0
138 153 0
133 150 0
116 130 0
150 165 0
120 134 0
136 153 0
117 133 0
132 145 0
125 142 0
125 137 0
118 133 0
130 145 0
118 133 0
138 153 0
128 139 0
128 143 0
117 130 0
104 115 0
120 136 0
108 123 0
125 138 0
96 109 0
101 114 0
97 112 0
110 123 0
112 125 0
127 140 0
84 93 0
105 118 0
114 128 0
109 120 0
127 137 0
76 90 0
90 102 0
65 76 0
119 129 0
124 137 0
91 101 0
111 123 0
101 114 0
106 116 0
119 134 0
113 126 0
107 122 0
142 156 0
102 116 0
113 126 0
117 132 0
59 72 0
102 118 0
122 137 0
142 159 0
129 145 0
113 128 0
123 136 0
121 138 0
114 130 0
123 138 0
125 141 0
87 104 0
149 165 0
119 132 0
108 122 0
124 138 0
116 129 0
98 115 0
101 116 0
111 127 0
110 126 0
107 125 0
131 149 0
124 140 0
150 171 0
136 155 0
128 143 0
129 151 0
118 136 0
145 165 0
93 110 0
97 115 0
103 119 0
40 64 0
123 138 0
134 153 0
64 82 0
115 135 0
127 147 0
130 145 0
83 101 0
134 153 0
106 120 0
88 102 0
123 141 0
106 125 0
119 135 0
74 92 0
111 131 0
85 102 0
127 142 0
140 158 0
113 130 0
128 145 0
89 108 0
99 111 0
59 73 0
69 83 0
29 47 0
87 103 0
71 87 0
68 82 0
118 132 0
57 71 0
63 76 0
69 88 0
105 118 0
31 50 0
68 82 0
93 105 0
62 71 0
85 97 0
15 26 0
84 98 0
68 77 0
57 59 0
63 77 0
81 91 0
60 68 0
76 80 0
58 69 0
26 43 0
82 94 0
88 98 0
67 83 0
107 123 0
62 72 0
89 104 0
64 79 0
65 69 0
9 20 0
59 69 0
24 39 0
48 54 0
32 50 0
83 92 0
63 79 0
62 79 0
83 95 0
80 95 0
88 98 0
83 95 0
84 94 0
94 96 0
118 131 0
60 70 0
90 94 0
150 159 0
76 86 0
36 58 0
100 112 0
111 126 0
113 130 0
100 115 0
119 128 0
99 106 0
113 121 0
108 111 0
130 141 0
99 108 0
120 130 0
85 101 0
161 175 0
141 157 0
103 114 0
94 105 0
118 131 0
77 91 0
140 153 0
102 112 0
97 102 0
104 111 0
137 153 0
142 149 0
124 136 0
154 166 0
97 107 0
109 122 0
104 121 0
148 161 0
115 125 0
124 140 0
126 133 0
156 171 0
135 150 0
115 126 0
110 109 0
131 137 0
81 86 0
123 124 0
94 105 0
134 132 0
137 139 0
88 88 0
99 104 0
128 116 0
106 101 0
88 85 0
141 139 0
145 153 0
146 147 0
120 115 0
105 103 0
111 108 0
127 129 0
105 96 0
122 118 0
106 96 0
126 120 0
90 75 0
97 83 0
112 92 0
101 101 0
86 82 0
91 76 0
117 99 0
93 83 0
108 88 0
94 85 0
102 87 0
94 85 0
111 99 0
99 82 0
103 88 0
126 109 0
85 75 0
111 93 0
131 121 0
118 103 0
120 106 0
99 86 0
146 130 0
102 90 0
144 136 0
129 114 0
125 107 0
151 140 0
117 103 0
136 118 0
127 119 0
125 109 0
121 110 0
145 136 0
139 130 0
145 127 0
137 121 0
135 127 0
141 131 0
127 120 0
109 98 0
139 130 0
138 127 0
136 125 0
125 119 0
116 104 0
111 101 0
125 112 0
150 144 0
125 117 0
144 126 0
136 121 0
142 134 0
112 105 0
135 125 0
139 132 0
139 124 0
130 126 0
147 140 0
137 119 0
137 124 0
151 140 0
126 115 0
126 126 0
140 130 0
143 133 0
161 150 0
154 146 0
142 129 0
143 135 0
155 142 0
141 130 0
145 130 0
147 131 0
136 125 0
146 139 0
144 137 0
143 127 0
140 131 0
154 144 0
150 141 0
153 145 0
143 124 0
152 145 0
143 129 0
145 136 0
151 140 0
162 154 0
141 130 0
154 143 0
143 133 0
137 127 0
152 143 0
148 139 0
142 135 0
155 150 0
154 143 0
141 129 0
152 140 0
148 138 0
148 144 0
155 153 0
148 139 0
151 142 0
148 146 0
149 142 0
146 138 0
149 143 0
153 149 0
149 145 0
154 175 0
153 170 0
148 169 0
149 172 0
159 178 0
149 169 0
157 176 0
139 157 0
154 175 0
149 166 0
144 165 0
140 159 0
150 171 0
144 163 0
145 163 0
140 159 0
126 147 0
148 167 0
143 164 0
144 160 0
144 161 0
146 163 0
142 161 0
153 171 0
148 165 0
145 164 0
151 171 0
148 166 0
155 169 0
148 165 0
147 166 0
135 153 0
138 156 0
155 173 0
145 163 0
152 171 0
134 150 0
147 164 0
133 151 0
141 157 0
127 143 0
137 154 0
145 161 0
128 144 0
147 165 0
132 152 0
142 162 0
147 165 0
142 156 0
139 157 0
124 141 0
137 155 0
144 160 0
127 143 0
127 145 0
119 136 0
129 146 0
134 149 0
142 159 0
144 161 0
124 139 0
143 158 0
138 151 0
131 149 0
149 166 0
138 152 0
135 149 0
129 145 0
138 155 0
147 165 0
105 120 0
101 118 0
118 132 0
130 146 0
120 134 0
143 159 0
112 126 0
135 147 0
124 143 0
125 140 0
100 114 0
137 151 0
141 158 0
119 132 0
125 140 0
129 145 0
119 132 0
105 120 0
113 127 0
127 140 0
115 128 0
121 135 0
123 138 0
109 120 0
102 115 0
110 121 0
111 125 0
107 124 0
118 131 0
100 112 0
99 109 0
94 108 0
100 110 0
65 77 0
67 77 0
107 117 0
95 106 0
80 92 0
83 94 0
69 81 0
100 111 0
106 121 0
114 125 0
67 80 0
122 135 0
100 112 0
101 113 0
111 126 0
95 108 0
127 140 0
104 122 0
119 137 0
140 157 0
65 78 0
110 124 0
92 106 0
106 121 0
135 150 0
124 139 0
123 140 0
126 142 0
97 109 0
121 135 0
123 137 0
119 135 0
105 122 0
153 172 0
150 169 0
116 133 0
104 118 0
108 124 0
127 147 0
117 130 0
130 148 0
118 135 0
153 172 0
149 167 0
148 168 0
107 123 0
125 142 0
116 131 0
124 143 0
130 145 0
136 155 0
113 131 0
131 149 0
154 172 0
131 150 0
37 59 0
101 117 0
122 137 0
116 135 0
118 135 0
82 96 0
88 104 0
143 159 0
116 134 0
88 101 0
116 135 0
115 132 0
55 71 0
134 150 0
63 74 0
98 114 0
97 115 0
108 124 0
66 84 0
76 94 0
106 121 0
114 131 0
62 75 0
79 96 0
32 51 0
103 118 0
89 105 0
104 117 0
57 69 0
83 97 0
114 131 0
45 58 0
46 58 0
54 61 0
103 115 0
105 119 0
79 90 0
63 76 0
89 105 0
22 36 0
68 84 0
67 79 0
56 52 0
102 116 0
105 118 0
64 79 0
65 80 0
64 72 0
92 96 0
85 95 0
74 78 0
64 74 0
112 125 0
29 47 0
89 106 0
30 49 0
98 109 0
100 115 0
65 79 0
101 106 0
131 150 0
130 142 0
115 120 0
79 82 0
119 129 0
76 81 0
120 135 0
90 101 0
116 132 0
96 104 0
100 108 0
101 108 0
98 112 0
97 115 0
88 98 0
56 66 0
103 113 0
131 142 0
82 91 0
119 136 0
128 142 0
147 160 0
108 122 0
131 141 0
138 144 0
105 120 0
135 152 0
116 126 0
118 130 0
95 107 0
121 136 0
134 145 0
103 115 0
113 128 0
113 115 0
68 80 0
133 146 0
128 139 0
170 187 0
124 139 0
75 89 0
119 134 0
143 151 0
125 131 0
132 144 0
92 104 0
139 154 0
143 147 0
142 147 0
118 125 0
145 158 0
149 160 0
121 121 0
142 151 0
121 137 0
130 136 0
125 127 0
134 141 0
105 116 0
117 115 0
123 125 0
99 102 0
83 76 0
128 130 0
147 156 0
123 126 0
114 108 0
125 126 0
129 139 0
126 125 0
105 106 0
103 89 0
117 114 0
126 123 0
121 112 0
38 32 0
87 75 0
102 92 0
91 79 0
79 56 0
114 92 0
65 46 0
87 76 0
128 112 0
85 72 0
108 86 0
124 115 0
115 96 0
138 122 0
115 98 0
97 90 0
106 90 0
106 90 0
110 100 0
114 97 0
110 100 0
98 71 0
139 124 0
116 104 0
134 124 0
120 105 0
114 101 0
141 130 0
129 115 0
142 128 0
113 99 0
107 98 0
143 131 0
121 105 0
142 125 0
121 107 0
124 109 0
100 92 0
129 112 0
149 140 0
133 123 0
139 132 0
126 113 0
129 116 0
127 113 0
135 114 0
123 114 0
130 121 0
127 114 0
144 129 0
140 130 0
133 114 0
142 134 0
150 132 0
133 120 0
126 110 0
134 121 0
147 132 0
139 123 0
147 136 0
145 138 0
143 132 0
145 132 0
125 114 0
144 135 0
145 131 0
150 145 0
144 140 0
141 128 0
152 146 0
147 138 0
145 131 0
150 139 0
143 132 0
155 144 0
146 132 0
146 140 0
148 144 0
143 136 0
136 125 0
130 116 0
143 139 0
155 148 0
147 141 0
140 127 0
141 130 0
151 140 0
142 129 0
154 147 0
157 151 0
140 130 0
153 144 0
155 145 0
152 143 0
151 142 0
157 151 0
152 143 0
144 135 0
150 140 0
150 142 0
152 145 0
153 144 0
134 125 0
157 148 0
152 140 0
151 146 0
159 147 0
154 175 0
154 175 0
158 175 0
151 171 0
151 169 0
140 157 0
154 171 0
157 172 0
148 168 0
156 176 0
142 162 0
143 163 0
150 168 0
144 160 0
147 167 0
156 172 0
141 159 0
152 170 0
154 174 0
150 168 0
145 164 0
132 152 0
145 163 0
141 158 0
152 170 0
135 154 0
143 161 0
142 162 0
116 130 0
143 159 0
157 173 0
142 159 0
145 162 0
142 162 0
150 165 0
133 150 0
148 163 0
130 148 0
145 162 0
141 159 0
146 164 0
141 157 0
133 149 0
133 153 0
138 156 0
154 172 0
134 150 0
125 140 0
148 166 0
131 148 0
147 165 0
152 167 0
146 163 0
148 167 0
139 154 0
132 146 0
125 141 0
144 163 0
127 142 0
136 150 0
131 147 0
121 135 0
126 141 0
135 153 0
143 160 0
126 141 0
135 149 0
132 146 0
141 158 0
131 144 0
133 147 0
136 154 0
130 143 0
133 149 0
138 155 0
123 137 0
136 150 0
120 134 0
113 125 0
112 123 0
134 148 0
131 150 0
104 117 0
106 120 0
145 160 0
122 133 0
123 137 0
98 114 0
112 125 0
111 123 0
126 140 0
87 98 0
131 146 0
130 144 0
108 118 0
112 122 0
74 90 0
76 88 0
76 84 0
92 101 0
100 109 0
109 119 0
89 99 0
95 107 0
110 121 0
113 126 0
107 119 0
118 131 0
94 103 0
124 137 0
118 135 0
113 127 0
133 147 0
108 123 0
121 131 0
129 145 0
84 101 0
118 130 0
123 138 0
116 130 0
118 130 0
139 153 0
124 139 0
130 143 0
142 159 0
128 145 0
149 167 0
109 126 0
159 175 0
97 110 0
113 125 0
119 134 0
117 134 0
78 95 0
119 135 0
131 149 0
144 161 0
94 108 0
141 162 0
126 143 0
138 161 0
130 150 0
118 140 0
124 142 0
140 161 0
108 125 0
145 161 0
116 132 0
139 158 0
130 144 0
141 161 0
120 138 0
107 125 0
134 152 0
96 114 0
133 147 0
154 174 0
114 132 0
88 104 0
127 142 0
118 139 0
86 100 0
126 145 0
104 121 0
126 143 0
142 160 0
89 102 0
135 152 0
109 125 0
97 114 0
73 91 0
101 118 0
109 123 0
121 136 0
91 108 0
62 77 0
97 112 0
114 132 0
78 90 0
107 125 0
86 100 0
57 73 0
80 95 0
103 121 0
64 78 0
21 35 0
101 117 0
65 79 0
75 89 0
114 126 0
36 56 0
59 72 0
113 121 0
85 97 0
84 91 0
84 97 0
21 35 0
86 101 0
83 93 0
87 101 0
66 77 0
66 80 0
34 54 0
65 75 0
105 121 0
101 116 0
86 94 0
94 104 0
51 68 0
60 71 0
43 57 0
118 134 0
107 119 0
86 98 0
89 102 0
100 111 0
93 106 0
67 80 0
144 155 0
60 72 0
87 98 0
126 140 0
108 122 0
98 115 0
89 106 0
107 124 0
93 104 0
85 93 0
71 90 0
92 106 0
67 84 0
108 121 0
101 113 0
150 165 0
112 127 0
89 104 0
65 79 0
109 117 0
104 118 0
105 125 0
113 132 0
100 108 0
120 135 0
104 115 0
147 165 0
112 124 0
150 162 0
142 157 0
145 159 0
108 121 0
113 126 0
109 123 0
117 122 0
130 144 0
87 104 0
155 169 0
118 127 0
111 123 0
134 145 0
116 123 0
125 139 0
109 112 0
114 125 0
113 127 0
116 130 0
115 119 0
76 84 0
101 117 0
116 120 0
134 137 0
153 158 0
147 154 0
138 147 0
112 118 0
93 98 0
149 155 0
115 114 0
93 98 0
117 118 0
114 120 0
110 107 0
121 127 0
128 126 0
122 116 0
149 149 0
129 120 0
94 85 0
130 127 0
84 88 0
143 147 0
100 96 0
96 90 0
87 83 0
99 85 0
90 75 0
102 99 0
90 89 0
102 88 0
92 75 0
89 76 0
87 77 0
127 106 0
84 58 0
117 105 0
98 85 0
113 101 0
108 86 0
120 110 0
127 113 0
128 118 0
125 105 0
125 115 0
117 96 0
114 90 0
134 128 0
111 96 0
134 120 0
146 130 0
137 127 0
127 111 0
117 100 0
137 118 0
121 99 0
117 103 0
125 107 0
127 116 0
123 109 0
126 111 0
142 130 0
121 114 0
122 111 0
101 92 0
132 116 0
129 121 0
147 130 0
126 114 0
136 124 0
144 128 0
117 103 0
133 120 0
126 111 0
123 106 0
146 137 0
136 121 0
137 120 0
137 126 0
141 124 0
136 125 0
142 132 0
142 132 0
155 148 0
138 122 0
136 117 0
139 124 0
149 140 0
141 128 0
131 116 0
135 125 0
139 126 0
136 125 0
133 116 0
156 149 0
135 118 0
139 132 0
148 133 0
146 138 0
151 139 0
144 132 0
151 136 0
143 129 0
142 134 0
151 138 0
146 137 0
146 135 0
147 135 0
151 146 0
150 143 0
133 118 0
152 146 0
148 139 0
147 141 0
149 133 0
157 146 0
153 138 0
156 145 0
142 133 0
144 130 0
142 136 0
132 120 0
150 145 0
156 150 0
148 139 0
150 145 0
146 135 0
149 135 0
142 133 0
148 144 0
152 146 0
158 154 0
159 162 0
162 183 0
164 186 0
152 172 0
157 176 0
151 171 0
154 176 0
152 173 0
138 156 0
147 167 0
144 164 0
155 174 0
149 169 0
142 160 0
149 167 0
152 168 0
147 166 0
151 169 0
138 154 0
135 152 0
137 158 0
142 160 0
137 157 0
138 153 0
147 166 0
151 168 0
140 157 0
150 168 0
142 161 0
157 177 0
148 165 0
147 165 0
145 163 0
150 168 0
130 143 0
153 167 0
156 173 0
143 158 0
139 156 0
142 157 0
141 158 0
143 161 0
146 166 0
142 159 0
146 163 0
137 152 0
141 160 0
136 152 0
136 154 0
129 145 0
139 158 0
137 154 0
143 160 0
139 155 0
151 165 0
121 132 0
135 150 0
131 146 0
122 136 0
144 161 0
137 155 0
120 135 0
108 123 0
142 158 0
127 142 0
123 140 0
142 159 0
132 150 0
122 133 0
134 149 0
115 129 0
129 145 0
149 163 0
136 151 0
121 136 0
137 154 0
120 136 0
143 157 0
114 129 0
136 151 0
101 115 0
122 136 0
140 153 0
132 147 0
107 120 0
129 144 0
127 140 0
100 115 0
118 131 0
129 144 0
101 110 0
103 111 0
112 122 0
117 129 0
99 108 0
115 127 0
106 119 0
99 108 0
97 104 0
85 98 0
95 106 0
83 90 0
114 124 0
114 127 0
121 132 0
119 132 0
131 143 0
119 128 0
136 146 0
122 135 0
132 145 0
89 102 0
115 129 0
117 131 0
130 144 0
124 138 0
122 136 0
119 134 0
143 159 0
87 103 0
117 132 0
113 124 0
134 152 0
100 115 0
131 147 0
131 149 0
106 122 0
113 130 0
144 161 0
121 135 0
150 168 0
137 155 0
140 151 0
120 132 0
87 101 0
125 143 0
96 114 0
134 152 0
124 143 0
150 167 0
131 148 0
145 166 0
132 153 0
148 166 0
94 109 0
123 140 0
130 146 0
129 148 0
118 134 0
126 142 0
120 141 0
152 170 0
153 174 0
107 125 0
126 147 0
155 177 0
138 155 0
109 132 0
126 145 0
103 120 0
150 171 0
86 102 0
140 161 0
75 92 0
103 121 0
83 102 0
98 117 0
124 146 0
84 102 0
89 105 0
101 120 0
97 115 0
109 126 0
107 125 0
103 121 0
97 111 0
36 58 0
99 115 0
98 117 0
94 115 0
86 97 0
95 110 0
121 134 0
94 109 0
104 120 0
82 93 0
61 72 0
92 106 0
77 90 0
97 113 0
95 109 0
88 105 0
84 102 0
110 126 0
73 86 0
23 38 0
80 87 0
120 138 0
89 99 0
69 84 0
95 109 0
22 38 0
116 130 0
29 48 0
84 94 0
53 71 0
70 85 0
135 149 0
67 79 0
68 87 0
101 112 0
117 136 0
97 100 0
87 102 0
96 111 0
16 29 0
64 70 0
103 118 0
139 153 0
82 98 0
113 126 0
126 141 0
65 80 0
115 133 0
82 98 0
115 131 0
113 121 0
83 97 0
108 121 0
45 57 0
81 97 0
135 152 0
62 77 0
148 162 0
105 114 0
138 154 0
136 149 0
103 120 0
114 127 0
131 148 0
101 110 0
112 124 0
127 138 0
136 151 0
124 139 0
97 110 0
136 150 0
135 151 0
146 155 0
121 136 0
145 152 0
129 143 0
113 131 0
101 118 0
104 113 0
115 129 0
120 134 0
115 132 0
149 161 0
103 111 0
118 134 0
164 185 0
131 145 0
119 135 0
105 113 0
81 84 0
145 152 0
112 123 0
156 170 0
91 94 0
130 140 0
137 139 0
143 150 0
136 141 0
114 111 0
71 75 0
147 150 0
145 152 0
128 135 0
113 122 0
122 130 0
95 91 0
128 141 0
157 160 0
143 143 0
80 69 0
72 65 0
108 105 0
121 121 0
110 113 0
123 127 0
118 114 0
115 114 0
104 97 0
122 123 0
95 88 0
97 85 0
93 86 0
110 103 0
77 70 0
64 56 0
110 97 0
58 40 0
93 70 0
61 48 0
61 46 0
98 71 0
105 82 0
123 105 0
123 106 0
101 90 0
118 101 0
115 105 0
120 100 0
111 95 0
101 85 0
111 100 0
110 92 0
122 110 0
104 85 0
122 104 0
112 97 0
111 93 0
118 108 0
125 109 0
118 106 0
131 113 0
130 121 0
111 99 0
142 129 0
143 134 0
130 118 0
131 112 0
104 91 0
136 122 0
120 107 0
141 127 0
142 131 0
120 103 0
136 124 0
130 117 0
136 127 0
127 114 0
131 117 0
144 135 0
156 140 0
115 103 0
147 136 0
141 126 0
139 119 0
127 108 0
141 124 0
130 113 0
140 130 0
146 130 0
140 130 0
117 107 0
156 148 0
137 128 0
146 135 0
144 131 0
133 123 0
136 118 0
145 130 0
142 128 0
148 135 0
154 145 0
151 140 0
150 134 0
144 131 0
152 136 0
142 131 0
138 127 0
150 139 0
149 144 0
153 146 0
146 135 0
148 138 0
138 126 0
134 128 0
143 131 0
139 126 0
152 140 0
155 146 0
155 145 0
145 134 0
141 128 0
154 150 0
151 146 0
151 138 0
142 133 0
151 143 0
156 145 0
157 151 0
157 149 0
155 148 0
151 140 0
158 151 0
166 173 0
168 181 0
176 198 0
172 196 0
171 194 0
176 198 0
170 195 0
169 190 0
165 186 0
140 162 0
142 159 0
151 171 0
138 156 0
146 162 0
145 162 0
155 175 0
145 164 0
148 167 0
147 164 0
151 168 0
155 173 0
138 155 0
145 162 0
159 177 0
136 157 0
151 169 0
149 169 0
154 172 0
142 158 0
148 166 0
150 169 0
140 156 0
142 160 0
149 166 0
155 175 0
130 147 0
153 171 0
144 160 0
146 165 0
129 143 0
143 161 0
153 172 0
147 165 0
144 163 0
118 134 0
136 153 0
141 158 0
146 163 0
140 155 0
126 142 0
137 152 0
127 141 0
134 153 0
141 157 0
126 143 0
124 139 0
157 174 0
126 141 0
128 142 0
135 152 0
141 157 0
125 140 0
122 135 0
131 146 0
117 132 0
137 154 0
136 152 0
120 135 0
123 138 0
130 146 0
151 168 0
123 137 0
129 143 0
139 152 0
133 147 0
121 135 0
127 142 0
126 141 0
132 147 0
120 135 0
128 143 0
121 135 0
128 142 0
119 134 0
109 120 0
137 151 0
112 125 0
127 141 0
91 100 0
126 140 0
119 131 0
127 140 0
111 122 0
118 131 0
111 121 0
105 115 0
80 88 0
91 98 0
40 49 0
126 137 0
76 82 0
104 115 0
99 109 0
117 128 0
94 104 0
102 113 0
112 123 0
90 101 0
143 156 0
97 109 0
117 130 0
100 111 0
97 106 0
140 154 0
114 128 0
118 133 0
102 119 0
124 141 0
121 138 0
86 101 0
119 131 0
108 124 0
75 88 0
135 152 0
146 163 0
91 107 0
118 132 0
128 147 0
144 162 0
139 158 0
160 178 0
119 136 0
129 150 0
121 137 0
112 126 0
141 159 0
132 150 0
126 142 0
126 143 0
145 161 0
148 169 0
126 146 0
115 133 0
113 130 0
118 139 0
120 138 0
159 179 0
107 126 0
146 167 0
135 156 0
126 146 0
138 156 0
123 140 0
148 168 0
124 143 0
156 175 0
107 124 0
113 130 0
110 125 0
106 123 0
121 138 0
139 159 0
118 134 0
107 125 0
129 147 0
106 125 0
123 140 0
93 110 0
115 132 0
38 62 0
109 130 0
117 137 0
89 102 0
83 99 0
105 121 0
84 93 0
130 147 0
103 116 0
80 98 0
124 143 0
104 121 0
65 85 0
87 98 0
90 112 0
101 120 0
85 104 0
122 134 0
136 157 0
129 143 0
97 113 0
87 101 0
84 97 0
107 123 0
105 123 0
114 130 0
86 103 0
58 73 0
89 107 0
105 124 0
87 106 0
123 132 0
63 74 0
89 105 0
131 140 0
33 55 0
83 97 0
66 83 0
88 104 0
126 140 0
70 82 0
80 91 0
132 148 0
104 117 0
55 64 0
128 136 0
86 101 0
64 79 0
106 121 0
100 113 0
106 116 0
134 151 0
83 98 0
119 125 0
85 88 0
118 129 0
121 133 0
90 106 0
69 85 0
96 107 0
148 168 0
97 112 0
98 95 0
85 98 0
135 148 0
97 115 0
87 100 0
126 149 0
84 92 0
124 130 0
106 123 0
115 124 0
86 100 0
114 130 0
100 111 0
124 138 0
133 146 0
125 140 0
153 162 0
127 141 0
108 113 0
133 146 0
96 108 0
115 129 0
156 174 0
116 130 0
142 145 0
115 132 0
138 158 0
145 155 0
112 125 0
123 133 0
95 105 0
129 138 0
131 145 0
74 81 0
137 153 0
125 135 0
139 149 0
150 156 0
138 149 0
111 119 0
126 140 0
134 141 0
128 140 0
103 106 0
138 148 0
115 121 0
103 108 0
116 126 0
122 122 0
99 101 0
83 86 0
132 140 0
136 134 0
120 115 0
89 97 0
103 102 0
125 129 0
111 118 0
136 142 0
113 118 0
129 132 0
91 93 0
129 135 0
91 83 0
101 94 0
130 133 0
92 88 0
96 78 0
95 96 0
111 109 0
88 82 0
114 119 0
112 101 0
95 91 0
83 70 0
71 67 0
96 81 0
93 72 0
103 89 0
84 70 0
106 91 0
80 60 0
95 79 0
108 83 0
102 86 0
121 106 0
103 83 0
82 60 0
134 114 0
116 105 0
146 132 0
115 93 0
121 111 0
125 117 0
138 124 0
120 104 0
114 103 0
132 114 0
143 124 0
105 91 0
130 115 0
138 124 0
130 112 0
147 132 0
131 114 0
135 121 0
141 121 0
118 101 0
147 134 0
155 144 0
145 136 0
145 131 0
147 134 0
157 141 0
147 134 0
134 122 0
134 116 0
134 118 0
153 142 0
131 118 0
143 128 0
141 125 0
132 121 0
131 119 0
141 131 0
147 138 0
148 132 0
112 95 0
136 128 0
148 135 0
144 132 0
148 142 0
142 128 0
144 134 0
147 136 0
147 132 0
152 133 0
142 127 0
143 137 0
151 141 0
138 129 0
146 134 0
150 136 0
152 139 0
145 126 0
135 123 0
143 130 0
155 148 0
149 133 0
157 146 0
146 136 0
149 138 0
156 148 0
151 138 0
153 139 0
150 148 0
150 141 0
139 129 0
155 141 0
142 124 0
157 144 0
149 136 0
145 131 0
152 141 0
152 139 0
156 155 0
158 166 0
163 182 0
164 184 0
172 196 0
164 186 0
167 184 0
169 192 0
170 191 0
164 185 0
167 190 0
176 199 0
174 196 0
177 198 0
175 198 0
155 175 0
153 171 0
155 171 0
152 173 0
138 155 0
152 172 0
146 164 0
149 168 0
153 173 0
133 148 0
125 143 0
143 161 0
146 162 0
134 150 0
137 152 0
153 171 0
149 169 0
151 167 0
146 165 0
132 148 0
131 145 0
133 151 0
148 164 0
132 149 0
150 167 0
148 167 0
147 166 0
155 174 0
136 154 0
135 149 0
143 161 0
134 150 0
156 172 0
153 170 0
134 151 0
141 158 0
139 156 0
133 150 0
130 147 0
144 160 0
127 141 0
137 153 0
118 128 0
143 159 0
125 142 0
139 155 0
134 150 0
131 147 0
140 154 0
120 135 0
126 141 0
140 155 0
117 131 0
128 142 0
119 133 0
119 132 0
138 154 0
119 134 0
128 142 0
136 151 0
136 151 0
122 136 0
133 146 0
104 119 0
132 147 0
128 140 0
122 137 0
121 135 0
133 147 0
118 132 0
139 155 0
116 127 0
113 124 0
104 115 0
124 137 0
124 136 0
100 112 0
85 93 0
111 123 0
90 98 0
108 118 0
122 134 0
96 105 0
82 89 0
99 107 0
107 118 0
76 81 0
112 122 0
104 113 0
73 82 0
99 110 0
127 138 0
105 118 0
72 83 0
108 118 0
121 135 0
111 124 0
128 141 0
114 127 0
104 117 0
74 85 0
124 138 0
114 128 0
102 115 0
122 133 0
121 136 0
115 127 0
130 146 0
101 116 0
118 132 0
129 145 0
115 133 0
121 137 0
113 128 0
140 158 0
100 112 0
120 134 0
155 172 0
106 122 0
128 148 0
127 142 0
128 146 0
140 158 0
134 147 0
86 102 0
108 128 0
83 104 0
131 150 0
123 143 0
135 154 0
105 120 0
122 139 0
78 96 0
139 156 0
113 134 0
138 155 0
153 172 0
116 136 0
143 162 0
145 162 0
78 97 0
126 142 0
103 120 0
96 112 0
104 120 0
112 128 0
146 165 0
137 154 0
118 138 0
125 145 0
142 158 0
129 148 0
78 94 0
136 155 0
110 133 0
59 75 0
138 159 0
110 130 0
82 96 0
107 127 0
97 112 0
90 111 0
123 134 0
129 148 0
131 147 0
140 157 0
100 119 0
146 166 0
103 120 0
114 132 0
117 132 0
106 122 0
128 145 0
72 94 0
97 112 0
99 118 0
79 91 0
119 138 0
125 142 0
81 99 0
65 80 0
80 97 0
84 96 0
113 130 0
76 91 0
108 122 0
140 155 0
87 108 0
79 89 0
89 103 0
62 76 0
68 81 0
96 112 0
84 99 0
116 132 0
44 56 0
88 107 0
102 120 0
101 117 0
67 85 0
96 110 0
111 127 0
101 120 0
88 101 0
100 114 0
43 67 0
75 85 0
88 100 0
85 105 0
88 103 0
115 132 0
118 133 0
89 107 0
112 124 0
94 110 0
85 100 0
114 132 0
99 111 0
110 124 0
129 142 0
147 160 0
154 165 0
112 130 0
96 108 0
130 148 0
122 138 0
127 143 0
115 130 0
117 134 0
114 133 0
66 84 0
107 112 0
118 133 0
97 112 0
96 106 0
146 159 0
112 119 0
85 101 0
124 143 0
115 130 0
143 154 0
114 126 0
105 112 0
110 126 0
146 157 0
131 136 0
121 138 0
115 131 0
117 131 0
96 109 0
146 159 0
125 134 0
89 100 0
84 88 0
137 150 0
115 125 0
145 160 0
144 152 0
100 98 0
142 154 0
131 144 0
139 153 0
100 117 0
120 124 0
122 130 0
118 121 0
124 139 0
126 135 0
100 102 0
142 152 0
95 91 0
108 106 0
118 117 0
148 159 0
128 127 0
125 126 0
174 185 0
140 148 0
147 153 0
100 102 0
132 126 0
121 124 0
119 110 0
117 112 0
124 122 0
126 121 0
113 114 0
110 111 0
111 109 0
135 135 0
104 95 0
91 91 0
96 90 0
113 108 0
98 82 0
127 115 0
104 94 0
62 44 0
124 112 0
97 95 0
83 74 0
114 94 0
100 86 0
104 81 0
110 99 0
102 86 0
105 92 0
113 92 0
117 103 0
123 108 0
140 122 0
117 105 0
108 93 0
113 98 0
120 100 0
142 130 0
134 118 0
137 120 0
107 95 0
137 125 0
130 121 0
135 115 0
112 97 0
135 120 0
125 114 0
116 95 0
126 108 0
146 132 0
124 101 0
139 123 0
144 134 0
124 110 0
134 119 0
146 132 0
137 113 0
135 126 0
147 137 0
136 120 0
120 100 0
134 117 0
135 121 0
152 139 0
131 116 0
144 129 0
139 127 0
146 129 0
146 132 0
148 140 0
144 127 0
124 112 0
143 126 0
142 127 0
135 118 0
141 122 0
130 114 0
149 131 0
151 143 0
133 117 0
136 128 0
144 127 0
143 133 0
147 136 0
143 133 0
128 111 0
144 126 0
138 120 0
127 111 0
128 119 0
143 133 0
135 119 0
152 140 0
149 136 0
146 137 0
150 142 0
147 141 0
143 132 0
145 136 0
147 136 0
149 140 0
143 137 0
146 136 0
150 145 0
150 148 0
160 163 0
164 178 0
164 186 0
177 196 0
176 199 0
170 182 0
170 189 0
178 196 0
169 188 0
164 184 0
171 195 0
167 191 0
174 196 0
170 194 0
166 192 0
179 200 0
157 178 0
158 178 0
174 195 0
166 191 0
177 197 0
153 172 0
149 168 0
153 172 0
152 169 0
150 169 0
149 166 0
152 170 0
155 174 0
143 162 0
142 160 0
152 170 0
150 165 0
147 166 0
141 158 0
150 167 0
139 154 0
145 162 0
149 166 0
149 167 0
150 167 0
138 153 0
150 169 0
146 164 0
135 150 0
122 136 0
152 170 0
138 153 0
128 144 0
149 164 0
139 157 0
146 163 0
147 164 0
127 142 0
135 151 0
132 145 0
145 161 0
141 157 0
123 133 0
141 157 0
150 163 0
129 145 0
142 157 0
135 151 0
134 149 0
144 160 0
117 131 0
143 159 0
134 146 0
123 137 0
148 160 0
142 159 0
134 150 0
123 139 0
135 149 0
116 129 0
125 140 0
137 152 0
135 149 0
116 129 0
104 114 0
117 130 0
133 148 0
120 134 0
118 129 0
105 118 0
133 146 0
122 135 0
118 130 0
112 124 0
124 137 0
126 138 0
120 133 0
126 139 0
94 103 0
114 125 0
91 101 0
64 71 0
111 119 0
127 138 0
115 126 0
91 100 0
73 83 0
71 79 0
99 109 0
92 102 0
130 143 0
100 112 0
85 96 0
131 145 0
80 91 0
94 110 0
111 126 0
123 135 0
123 140 0
117 128 0
117 131 0
120 131 0
111 126 0
145 159 0
108 121 0
133 148 0
134 148 0
119 133 0
134 150 0
110 123 0
139 157 0
144 156 0
138 154 0
136 151 0
127 143 0
128 146 0
151 169 0
105 121 0
135 152 0
140 160 0
111 130 0
138 153 0
155 173 0
114 129 0
123 141 0
135 150 0
115 135 0
146 163 0
151 170 0
130 146 0
168 189 0
100 114 0
148 170 0
121 142 0
154 173 0
113 130 0
125 148 0
135 156 0
134 154 0
134 154 0
133 150 0
129 148 0
130 148 0
162 181 0
122 141 0
101 116 0
123 144 0
130 152 0
127 146 0
148 166 0
79 91 0
104 121 0
134 154 0
108 127 0
114 134 0
128 146 0
86 101 0
132 150 0
126 148 0
102 121 0
103 123 0
83 100 0
99 114 0
115 135 0
113 131 0
132 147 0
97 115 0
91 106 0
117 135 0
95 112 0
105 120 0
100 117 0
92 110 0
68 88 0
79 92 0
59 73 0
134 150 0
107 123 0
111 129 0
97 110 0
127 147 0
105 122 0
81 96 0
75 92 0
101 113 0
103 119 0
68 86 0
102 118 0
88 106 0
82 100 0
107 119 0
106 121 0
84 100 0
119 132 0
105 113 0
73 89 0
113 133 0
113 127 0
128 147 0
92 106 0
111 125 0
133 153 0
119 133 0
82 97 0
78 86 0
123 137 0
82 101 0
104 116 0
89 108 0
100 116 0
126 136 0
63 81 0
86 96 0
84 94 0
77 79 0
121 137 0
84 91 0
101 116 0
106 116 0
84 96 0
146 158 0
89 106 0
119 137 0
138 154 0
126 139 0
120 138 0
119 135 0
125 136 0
117 131 0
111 119 0
135 156 0
104 123 0
116 124 0
117 130 0
91 108 0
98 108 0
133 152 0
100 113 0
124 140 0
116 129 0
114 122 0
134 152 0
96 110 0
112 127 0
98 110 0
117 138 0
149 167 0
139 157 0
126 146 0
156 166 0
153 169 0
84 92 0
133 145 0
149 168 0
136 150 0
113 128 0
100 106 0
131 146 0
123 138 0
120 138 0
126 136 0
124 131 0
125 130 0
99 103 0
146 153 0
133 149 0
140 158 0
138 147 0
158 165 0
109 120 0
98 96 0
128 126 0
127 133 0
139 147 0
125 122 0
113 124 0
142 150 0
148 155 0
129 130 0
133 137 0
121 124 0
80 79 0
98 103 0
88 79 0
140 138 0
131 119 0
106 109 0
145 144 0
90 85 0
116 115 0
110 107 0
112 118 0
124 116 0
133 122 0
78 61 0
113 120 0
129 126 0
80 76 0
117 103 0
113 112 0
88 71 0
70 59 0
109 94 0
94 81 0
77 62 0
88 78 0
96 74 0
107 88 0
114 92 0
130 115 0
110 90 0
113 92 0
115 94 0
117 94 0
112 101 0
113 98 0
105 84 0
136 119 0
125 101 0
132 114 0
138 125 0
132 120 0
100 82 0
127 110 0
136 123 0
129 114 0
135 117 0
135 119 0
131 121 0
127 116 0
123 111 0
120 109 0
129 116 0
135 127 0
114 99 0
139 122 0
134 117 0
139 122 0
140 123 0
132 115 0
128 110 0
127 107 0
141 124 0
119 100 0
136 123 0
135 117 0
156 148 0
151 139 0
141 133 0
158 149 0
145 138 0
140 126 0
147 136 0
124 110 0
142 130 0
144 137 0
143 130 0
138 126 0
133 121 0
134 125 0
141 126 0
147 136 0
147 140 0
140 127 0
147 132 0
153 141 0
155 142 0
137 120 0
142 127 0
143 130 0
157 146 0
143 134 0
138 126 0
140 133 0
125 113 0
142 135 0
141 135 0
146 131 0
157 146 0
150 143 0
152 144 0
163 179 0
170 186 0
175 198 0
160 178 0
170 189 0
170 188 0
172 193 0
167 187 0
167 185 0
165 183 0
160 181 0
168 173 0
169 193 0
163 184 0
168 191 0
170 194 0
163 186 0
163 185 0
164 187 0
165 187 0
174 196 0
169 189 0
171 192 0
166 186 0
164 185 0
167 187 0
165 186 0
155 176 0
158 177 0
144 162 0
150 168 0
149 164 0
132 147 0
157 175 0
154 171 0
152 167 0
138 157 0
137 152 0
150 167 0
143 157 0
140 156 0
139 156 0
146 162 0
142 160 0
136 152 0
153 169 0
143 158 0
133 146 0
129 144 0
137 151 0
148 165 0
139 156 0
148 164 0
136 151 0
131 146 0
128 144 0
128 142 0
134 150 0
131 144 0
121 139 0
135 150 0
142 160 0
147 160 0
139 154 0
129 144 0
145 160 0
145 161 0
124 140 0
121 135 0
121 135 0
148 164 0
137 151 0
136 150 0
138 152 0
148 163 0
109 121 0
135 148 0
122 135 0
110 123 0
123 136 0
126 138 0
121 136 0
112 123 0
133 147 0
121 133 0
126 140 0
113 127 0
121 135 0
109 121 0
110 125 0
94 101 0
107 116 0
108 119 0
129 140 0
89 99 0
77 84 0
79 87 0
68 77 0
88 97 0
94 102 0
77 84 0
81 88 0
97 106 0
117 128 0
95 103 0
101 113 0
127 137 0
71 77 0
118 131 0
66 75 0
98 110 0
116 129 0
142 156 0
123 136 0
110 124 0
64 75 0
87 96 0
96 111 0
136 150 0
127 143 0
149 164 0
99 113 0
123 138 0
143 160 0
96 108 0
86 101 0
60 70 0
142 159 0
97 111 0
144 160 0
119 136 0
119 134 0
120 133 0
113 129 0
101 117 0
145 164 0
131 148 0
119 134 0
137 157 0
151 166 0
127 146 0
136 154 0
65 85 0
158 177 0
145 162 0
144 164 0
128 143 0
109 122 0
121 139 0
133 151 0
140 157 0
134 150 0
93 115 0
127 148 0
116 133 0
122 141 0
146 165 0
149 166 0
134 152 0
128 146 0
154 174 0
115 135 0
118 134 0
88 108 0
98 114 0
107 123 0
96 115 0
124 146 0
98 115 0
106 122 0
83 101 0
122 139 0
120 140 0
123 139 0
148 166 0
88 105 0
117 137 0
93 108 0
133 152 0
100 118 0
126 146 0
148 165 0
90 104 0
109 126 0
144 162 0
115 136 0
109 128 0
99 119 0
98 115 0
123 141 0
127 147 0
103 122 0
114 131 0
120 140 0
35 57 0
67 89 0
85 97 0
93 104 0
123 142 0
81 95 0
97 114 0
111 125 0
86 101 0
86 104 0
105 122 0
99 108 0
98 114 0
61 76 0
102 118 0
128 144 0
88 102 0
77 92 0
98 115 0
60 71 0
69 84 0
119 127 0
86 103 0
123 141 0
98 114 0
82 99 0
116 133 0
86 96 0
117 133 0
67 82 0
116 134 0
69 82 0
126 144 0
87 102 0
83 101 0
129 139 0
134 151 0
95 106 0
68 86 0
141 160 0
98 104 0
98 114 0
136 147 0
109 118 0
143 158 0
122 143 0
129 144 0
106 123 0
102 121 0
69 93 0
132 145 0
94 106 0
79 94 0
119 135 0
129 147 0
122 138 0
102 113 0
149 155 0
109 120 0
101 116 0
111 118 0
111 127 0
87 98 0
115 133 0
128 150 0
114 132 0
117 127 0
85 98 0
133 141 0
126 138 0
152 166 0
108 115 0
137 148 0
135 152 0
109 124 0
108 115 0
104 111 0
131 138 0
135 142 0
138 148 0
102 102 0
134 145 0
103 107 0
142 147 0
113 121 0
136 145 0
120 130 0
101 112 0
129 136 0
127 137 0
130 138 0
124 127 0
149 153 0
110 115 0
131 134 0
122 121 0
118 123 0
135 145 0
109 114 0
146 156 0
79 85 0
114 125 0
140 148 0
125 132 0
92 92 0
135 144 0
111 106 0
123 128 0
138 145 0
121 126 0
118 118 0
131 127 0
137 137 0
122 129 0
123 122 0
109 110 0
116 120 0
131 131 0
93 82 0
85 77 0
106 100 0
105 107 0
101 101 0
114 108 0
112 101 0
105 99 0
115 112 0
72 59 0
43 34 0
57 42 0
112 100 0
59 38 0
85 69 0
82 66 0
101 74 0
86 64 0
107 90 0
96 71 0
109 89 0
95 76 0
122 104 0
115 92 0
104 82 0
127 110 0
119 106 0
124 104 0
115 94 0
120 102 0
112 95 0
119 103 0
134 119 0
125 106 0
125 111 0
141 125 0
123 97 0
144 132 0
130 111 0
135 115 0
122 102 0
114 97 0
135 123 0
132 114 0
142 130 0
140 122 0
124 108 0
125 110 0
136 114 0
136 117 0
137 125 0
132 120 0
144 129 0
136 125 0
141 135 0
134 125 0
149 136 0
150 135 0
133 115 0
149 135 0
126 109 0
135 118 0
135 119 0
144 137 0
149 139 0
146 135 0
155 147 0
146 132 0
148 135 0
141 128 0
145 131 0
149 134 0
132 113 0
149 137 0
143 124 0
130 110 0
135 119 0
147 138 0
145 130 0
153 138 0
143 131 0
157 151 0
150 147 0
160 160 0
163 173 0
167 179 0
164 176 0
170 185 0
167 181 0
167 184 0
171 189 0
169 183 0
169 189 0
167 186 0
173 194 0
175 191 0
164 172 0
171 196 0
170 189 0
177 196 0
172 194 0
172 195 0
167 190 0
170 190 0
166 191 0
175 198 0
179 199 0
166 189 0
162 185 0
167 187 0
159 182 0
177 198 0
174 195 0
145 163 0
171 191 0
166 189 0
160 181 0
170 191 0
165 185 0
163 183 0
147 166 0
154 174 0
143 157 0
136 150 0
146 165 0
131 148 0
147 165 0
148 163 0
140 156 0
151 168 0
142 156 0
153 169 0
140 155 0
151 169 0
143 161 0
140 155 0
138 155 0
127 144 0
145 158 0
130 145 0
151 167 0
131 147 0
148 166 0
137 151 0
140 154 0
140 153 0
136 150 0
120 133 0
146 159 0
131 147 0
141 158 0
133 148 0
118 131 0
127 141 0
121 135 0
142 156 0
121 134 0
132 146 0
124 139 0
124 140 0
146 160 0
135 147 0
120 132 0
113 125 0
119 131 0
117 131 0
126 141 0
128 141 0
93 103 0
130 143 0
130 142 0
124 137 0
103 113 0
113 123 0
130 142 0
108 117 0
107 120 0
111 122 0
90 99 0
115 126 0
107 119 0
92 100 0
83 90 0
108 117 0
51 60 0
99 107 0
108 117 0
93 103 0
107 118 0
112 123 0
111 122 0
87 98 0
87 97 0
106 121 0
132 147 0
121 135 0
112 125 0
124 135 0
125 139 0
128 140 0
93 101 0
109 123 0
128 144 0
134 147 0
125 140 0
143 157 0
131 148 0
97 111 0
145 161 0
136 150 0
105 119 0
144 158 0
156 172 0
115 131 0
124 141 0
121 137 0
115 130 0
73 86 0
131 149 0
147 165 0
105 118 0
120 137 0
132 151 0
127 143 0
145 162 0
113 131 0
148 166 0
88 105 0
140 157 0
130 148 0
89 105 0
130 149 0
133 153 0
151 172 0
113 135 0
124 141 0
131 150 0
114 136 0
144 167 0
155 173 0
130 150 0
104 122 0
102 120 0
112 132 0
105 123 0
112 132 0
137 157 0
127 149 0
157 176 0
114 133 0
121 139 0
153 172 0
124 142 0
119 135 0
131 150 0
149 169 0
131 147 0
116 129 0
104 126 0
125 143 0
113 134 0
124 144 0
132 151 0
143 164 0
100 117 0
132 152 0
98 115 0
123 144 0
82 102 0
97 115 0
151 170 0
110 127 0
126 145 0
126 145 0
103 114 0
123 142 0
75 93 0
110 130 0
94 111 0
108 126 0
113 128 0
84 100 0
111 128 0
111 130 0
101 118 0
103 115 0
70 92 0
102 121 0
130 148 0
90 92 0
114 133 0
100 118 0
102 120 0
128 143 0
141 159 0
77 96 0
82 97 0
98 113 0
128 144 0
136 153 0
64 80 0
121 137 0
120 134 0
141 158 0
107 122 0
68 83 0
97 114 0
102 109 0
115 135 0
115 132 0
104 120 0
103 121 0
121 137 0
69 78 0
79 93 0
107 128 0
107 112 0
64 83 0
101 117 0
130 140 0
115 131 0
87 102 0
111 124 0
102 118 0
150 172 0
99 118 0
81 98 0
100 116 0
125 146 0
89 103 0
124 133 0
138 150 0
160 181 0
150 166 0
119 135 0
131 137 0
128 146 0
121 141 0
138 150 0
159 177 0
126 137 0
131 146 0
105 116 0
123 132 0
162 185 0
119 129 0
129 141 0
116 127 0
119 130 0
117 130 0
122 138 0
123 128 0
136 148 0
112 125 0
143 156 0
134 140 0
135 153 0
124 140 0
115 127 0
143 154 0
126 137 0
111 126 0
168 182 0
127 141 0
100 105 0
105 111 0
105 115 0
132 141 0
130 145 0
111 116 0
132 145 0
131 145 0
118 135 0
142 151 0
129 144 0
143 153 0
125 135 0
128 134 0
111 120 0
98 105 0
106 110 0
116 118 0
140 146 0
119 128 0
141 148 0
124 133 0
64 67 0
120 114 0
135 142 0
118 123 0
145 155 0
120 127 0
139 144 0
129 140 0
134 139 0
103 96 0
95 93 0
97 81 0
106 109 0
122 112 0
94 88 0
112 114 0
96 92 0
98 95 0
113 111 0
113 108 0
97 99 0
88 77 0
124 113 0
118 112 0
138 140 0
83 65 0
96 88 0
69 52 0
104 87 0
91 72 0
120 109 0
96 84 0
42 22 0
104 96 0
126 103 0
97 88 0
82 65 0
99 77 0
120 106 0
127 104 0
123 109 0
123 102 0
126 106 0
111 94 0
114 95 0
141 123 0
127 103 0
128 111 0
131 119 0
109 80 0
140 127 0
136 121 0
122 104 0
124 107 0
134 118 0
129 114 0
119 101 0
119 104 0
147 136 0
128 120 0
137 119 0
108 85 0
126 110 0
139 123 0
141 122 0
126 103 0
136 124 0
121 104 0
135 121 0
138 119 0
127 118 0
138 128 0
147 133 0
147 133 0
155 145 0
133 113 0
140 123 0
141 126 0
144 128 0
143 128 0
134 122 0
136 125 0
149 143 0
137 125 0
159 149 0
143 125 0
146 131 0
139 123 0
148 134 0
146 131 0
152 136 0
161 157 0
160 162 0
170 182 0
156 165 0
173 179 0
166 181 0
175 195 0
167 184 0
172 190 0
167 181 0
162 178 0
169 181 0
168 184 0
167 185 0
166 183 0
173 189 0
171 190 0
174 197 0
177 196 0
173 197 0
162 177 0
171 193 0
169 185 0
168 191 0
162 183 0
171 191 0
166 191 0
171 194 0
168 188 0
165 185 0
164 188 0
168 186 0
167 192 0
162 184 0
174 196 0
171 192 0
161 181 0
162 185 0
169 188 0
163 183 0
169 188 0
165 184 0
174 198 0
174 194 0
171 190 0
152 174 0
165 183 0
139 156 0
157 176 0
147 163 0
149 168 0
138 155 0
141 156 0
142 160 0
142 156 0
142 157 0
132 147 0
142 161 0
143 163 0
139 156 0
131 146 0
153 168 0
142 159 0
130 144 0
129 144 0
142 158 0
138 153 0
128 143 0
134 148 0
137 152 0
142 157 0
137 151 0
130 144 0
125 139 0
127 142 0
122 137 0
112 122 0
133 146 0
122 133 0
141 154 0
113 126 0
134 147 0
120 134 0
117 131 0
120 133 0
113 127 0
142 155 0
142 158 0
126 140 0
135 149 0
118 131 0
104 118 0
119 133 0
91 101 0
92 101 0
107 116 0
92 101 0
109 120 0
123 135 0
95 102 0
103 112 0
97 106 0
121 132 0
67 72 0
89 96 0
93 101 0
116 127 0
72 82 0
84 93 0
121 133 0
85 97 0
96 104 0
125 137 0
84 97 0
126 139 0
126 140 0
109 119 0
110 125 0
146 161 0
126 142 0
126 134 0
119 136 0
124 138 0
93 107 0
128 142 0
130 144 0
129 143 0
139 155 0
118 136 0
124 139 0
113 126 0
121 138 0
106 121 0
134 152 0
110 128 0
104 119 0
136 152 0
142 162 0
125 142 0
134 151 0
106 122 0
148 166 0
125 139 0
150 167 0
124 141 0
124 142 0
125 144 0
141 156 0
110 126 0
130 150 0
133 151 0
92 105 0
116 135 0
126 147 0
117 134 0
151 172 0
135 155 0
143 164 0
70 84 0
95 114 0
124 139 0
153 174 0
102 119 0
105 122 0
117 137 0
144 165 0
112 128 0
121 143 0
113 134 0
146 167 0
96 113 0
120 138 0
127 151 0
123 141 0
139 159 0
146 164 0
140 158 0
138 154 0
113 134 0
140 159 0
162 181 0
112 132 0
147 169 0
121 141 0
125 141 0
102 120 0
116 133 0
118 136 0
111 130 0
121 141 0
84 104 0
129 146 0
98 121 0
115 129 0
106 125 0
71 90 0
142 160 0
140 157 0
115 134 0
113 131 0
116 134 0
115 131 0
128 150 0
150 172 0
99 115 0
123 141 0
123 140 0
87 102 0
120 142 0
118 133 0
92 113 0
119 137 0
88 102 0
98 113 0
111 128 0
102 121 0
104 122 0
58 77 0
62 80 0
116 136 0
101 115 0
93 105 0
114 131 0
128 149 0
82 90 0
103 120 0
125 142 0
88 106 0
158 177 0
100 118 0
100 117 0
114 128 0
107 118 0
140 158 0
82 102 0
115 129 0
97 114 0
116 134 0
119 131 0
121 139 0
107 125 0
89 109 0
101 116 0
103 121 0
129 146 0
91 106 0
100 117 0
123 139 0
110 125 0
120 137 0
122 134 0
126 141 0
145 165 0
137 154 0
116 136 0
125 145 0
96 110 0
118 133 0
129 146 0
121 137 0
102 120 0
117 133 0
112 129 0
90 101 0
127 145 0
126 140 0
123 140 0
102 119 0
135 146 0
134 155 0
119 134 0
122 133 0
97 117 0
146 163 0
130 142 0
112 131 0
132 148 0
110 121 0
108 123 0
139 150 0
59 74 0
146 162 0
134 149 0
107 120 0
127 137 0
151 167 0
150 164 0
126 141 0
130 143 0
130 149 0
179 193 0
126 140 0
137 141 0
134 150 0
108 117 0
147 164 0
141 150 0
139 143 0
127 137 0
104 100 0
164 180 0
117 124 0
139 147 0
122 131 0
150 155 0
127 138 0
138 148 0
154 155 0
139 148 0
140 144 0
127 140 0
112 120 0
111 116 0
127 134 0
142 136 0
133 140 0
112 118 0
160 162 0
95 86 0
93 96 0
124 121 0
95 90 0
124 123 0
104 91 0
118 118 0
136 137 0
119 118 0
108 103 0
119 110 0
114 107 0
127 116 0
94 85 0
92 90 0
112 97 0
61 38 0
71 58 0
136 131 0
103 87 0
97 81 0
80 63 0
129 121 0
117 104 0
113 105 0
106 106 0
92 81 0
82 71 0
123 122 0
118 108 0
127 116 0
95 70 0
84 57 0
121 101 0
118 93 0
87 66 0
113 85 0
111 93 0
106 84 0
116 93 0
130 113 0
119 98 0
140 123 0
122 103 0
92 67 0
136 121 0
119 95 0
113 98 0
126 113 0
135 118 0
134 116 0
131 116 0
132 115 0
121 108 0
123 112 0
134 114 0
139 126 0
135 117 0
142 133 0
142 128 0
143 127 0
130 116 0
133 111 0
134 113 0
136 113 0
144 127 0
134 115 0
131 109 0
147 136 0
135 120 0
139 125 0
137 124 0
157 148 0
147 125 0
147 133 0
143 133 0
141 131 0
151 138 0
158 152 0
138 134 0
162 168 0
170 185 0
173 187 0
160 166 0
157 168 0
174 191 0
164 175 0
164 170 0
176 192 0
165 183 0
170 185 0
174 188 0
156 165 0
159 170 0
172 193 0
159 172 0
155 164 0
161 175 0
168 191 0
171 182 0
172 197 0
180 201 0
168 181 0
170 182 0
158 174 0
165 188 0
167 189 0
173 193 0
177 198 0
178 197 0
163 185 0
181 200 0
170 190 0
165 187 0
173 192 0
168 190 0
173 194 0
166 188 0
168 191 0
164 182 0
163 183 0
157 177 0
165 185 0
165 186 0
170 191 0
156 176 0
159 182 0
164 184 0
166 184 0
159 180 0
155 174 0
173 193 0
172 190 0
159 175 0
161 179 0
151 171 0
150 166 0
153 168 0
150 163 0
146 163 0
137 153 0
146 162 0
143 158 0
137 155 0
148 164 0
127 141 0
128 141 0
132 144 0
130 145 0
132 148 0
138 152 0
140 154 0
140 156 0
136 151 0
119 132 0
137 152 0
122 136 0
117 129 0
136 150 0
129 141 0
129 145 0
122 137 0
128 140 0
123 135 0
113 125 0
98 109 0
96 109 0
140 153 0
127 142 0
120 130 0
111 121 0
112 121 0
117 128 0
119 127 0
101 112 0
147 161 0
137 150 0
79 87 0
113 122 0
112 121 0
116 128 0
129 141 0
105 114 0
119 128 0
129 140 0
92 100 0
109 119 0
120 133 0
107 119 0
134 146 0
99 110 0
126 139 0
122 134 0
101 111 0
105 115 0
135 151 0
130 142 0
104 116 0
109 123 0
117 133 0
94 105 0
121 138 0
115 128 0
121 135 0
129 141 0
148 163 0
133 147 0
112 129 0
116 133 0
132 147 0
142 157 0
124 142 0
131 149 0
108 123 0
117 131 0
109 123 0
128 144 0
126 141 0
137 154 0
124 142 0
110 125 0
144 162 0
118 136 0
141 157 0
101 117 0
124 139 0
106 123 0
138 158 0
134 148 0
136 157 0
100 118 0
107 123 0
143 161 0
154 176 0
125 144 0
146 165 0
133 151 0
108 126 0
131 149 0
136 159 0
113 133 0
153 171 0
150 167 0
117 135 0
121 143 0
135 153 0
159 177 0
134 156 0
124 143 0
99 116 0
114 132 0
111 130 0
141 163 0
142 162 0
151 174 0
128 150 0
128 146 0
163 186 0
143 158 0
118 140 0
134 157 0
122 142 0
147 167 0
106 122 0
126 147 0
100 118 0
107 127 0
102 124 0
132 152 0
120 138 0
140 158 0
128 145 0
112 132 0
165 188 0
106 128 0
103 125 0
104 120 0
84 99 0
84 98 0
125 144 0
136 156 0
164 183 0
135 153 0
114 136 0
106 124 0
127 146 0
101 119 0
142 162 0
139 161 0
135 156 0
148 166 0
123 144 0
117 137 0
98 116 0
98 117 0
116 135 0
113 128 0
116 134 0
105 126 0
72 92 0
112 124 0
92 108 0
83 97 0
121 140 0
99 112 0
98 114 0
103 121 0
152 170 0
107 125 0
95 113 0
123 141 0
93 103 0
103 128 0
126 141 0
117 141 0
119 130 0
119 139 0
109 131 0
99 113 0
93 108 0
128 148 0
149 167 0
108 115 0
101 114 0
135 150 0
113 131 0
139 154 0
127 147 0
84 105 0
120 133 0
63 77 0
84 103 0
131 149 0
125 142 0
67 82 0
93 104 0
136 147 0
126 139 0
130 142 0
112 128 0
109 125 0
125 142 0
123 137 0
118 135 0
132 151 0
60 75 0
137 154 0
130 150 0
118 131 0
68 80 0
125 146 0
113 126 0
112 129 0
147 169 0
160 179 0
120 129 0
137 157 0
51 62 0
111 121 0
114 136 0
123 131 0
155 171 0
130 147 0
133 151 0
130 148 0
132 133 0
141 156 0
113 126 0
148 165 0
134 147 0
140 141 0
142 155 0
163 180 0
132 142 0
148 156 0
141 156 0
140 153 0
133 150 0
137 147 0
104 119 0
137 151 0
148 161 0
129 136 0
106 117 0
132 144 0
116 130 0
136 140 0
123 131 0
134 149 0
150 165 0
121 120 0
118 121 0
127 140 0
98 100 0
124 127 0
123 128 0
143 152 0
147 156 0
154 159 0
137 141 0
137 139 0
111 107 0
131 129 0
129 131 0
121 118 0
109 106 0
101 101 0
120 125 0
98 89 0
97 102 0
108 108 0
121 118 0
106 104 0
117 114 0
110 105 0
112 101 0
141 136 0
121 120 0
92 83 0
112 110 0
129 112 0
138 136 0
110 99 0
89 69 0
111 102 0
105 97 0
132 118 0
89 74 0
107 96 0
124 125 0
112 104 0
118 113 0
130 122 0
113 103 0
102 90 0
117 113 0
99 82 0
124 109 0
127 117 0
106 93 0
128 108 0
96 77 0
108 83 0
107 87 0
139 115 0
106 84 0
116 89 0
120 93 0
124 106 0
117 100 0
117 98 0
135 118 0
135 116 0
136 115 0
129 110 0
131 108 0
126 106 0
123 102 0
114 99 0
127 110 0
131 109 0
137 121 0
127 107 0
141 126 0
143 126 0
110 91 0
127 106 0
151 136 0
150 135 0
151 144 0
147 141 0
150 149 0
147 147 0
158 156 0
161 171 0
164 176 0
154 168 0
163 170 0
164 168 0
173 190 0
171 176 0
158 169 0
161 173 0
165 175 0
162 171 0
145 152 0
162 175 0
161 168 0
159 170 0
168 177 0
153 161 0
174 192 0
166 176 0
167 174 0
165 184 0
170 183 0
161 176 0
164 171 0
180 198 0
163 181 0
162 180 0
173 187 0
168 191 0
171 193 0
170 186 0
171 193 0
169 194 0
165 190 0
168 188 0
159 181 0
157 178 0
167 188 0
170 193 0
169 190 0
165 186 0
167 188 0
173 194 0
169 191 0
168 191 0
173 193 0
153 171 0
169 188 0
163 181 0
163 183 0
159 178 0
166 190 0
170 187 0
164 186 0
161 180 0
174 195 0
174 196 0
166 185 0
161 181 0
144 161 0
166 185 0
162 182 0
170 187 0
156 172 0
141 158 0
159 176 0
150 166 0
123 137 0
142 158 0
137 152 0
151 168 0
145 161 0
156 172 0
158 174 0
155 173 0
142 157 0
140 158 0
146 160 0
141 156 0
129 143 0
136 149 0
133 147 0
146 158 0
124 136 0
128 141 0
117 130 0
145 158 0
148 162 0
120 133 0
106 118 0
134 146 0
134 147 0
127 138 0
122 134 0
115 128 0
126 137 0
115 125 0
118 129 0
137 149 0
133 146 0
83 89 0
73 78 0
137 150 0
109 120 0
80 86 0
100 110 0
119 129 0
107 117 0
81 89 0
113 125 0
113 124 0
95 104 0
126 139 0
133 144 0
100 111 0
129 141 0
125 136 0
102 115 0
120 131 0
107 120 0
140 156 0
123 137 0
97 107 0
115 131 0
130 142 0
117 132 0
108 120 0
95 111 0
155 167 0
131 148 0
128 142 0
126 139 0
90 101 0
81 97 0
145 160 0
119 138 0
123 141 0
109 125 0
144 158 0
108 124 0
116 130 0
147 164 0
131 149 0
110 126 0
121 136 0
143 160 0
121 137 0
141 156 0
108 128 0
133 146 0
121 134 0
140 154 0
123 139 0
141 159 0
133 149 0
132 152 0
126 142 0
113 133 0
138 159 0
147 169 0
165 184 0
127 143 0
158 177 0
154 175 0
85 99 0
141 159 0
137 158 0
118 133 0
137 159 0
149 166 0
155 173 0
139 157 0
144 164 0
121 138 0
130 147 0
111 129 0
117 136 0
126 145 0
155 176 0
122 142 0
130 151 0
135 156 0
150 170 0
114 137 0
137 154 0
132 152 0
138 161 0
132 156 0
121 140 0
148 168 0
94 110 0
127 146 0
123 140 0
129 146 0
135 157 0
129 146 0
114 130 0
115 135 0
102 119 0
160 179 0
120 139 0
116 134 0
132 153 0
152 171 0
106 122 0
137 159 0
119 139 0
100 116 0
98 117 0
100 116 0
119 138 0
86 100 0
126 145 0
121 140 0
83 98 0
70 90 0
140 160 0
130 150 0
136 155 0
126 147 0
108 125 0
116 134 0
128 142 0
101 121 0
96 110 0
101 124 0
162 183 0
94 111 0
112 136 0
122 143 0
115 137 0
140 155 0
105 118 0
79 94 0
87 107 0
98 112 0
101 119 0
140 157 0
129 146 0
86 105 0
98 114 0
124 141 0
112 124 0
148 168 0
116 137 0
125 145 0
124 142 0
136 153 0
67 86 0
129 145 0
128 142 0
125 140 0
132 151 0
83 94 0
96 115 0
104 119 0
148 164 0
120 135 0
116 134 0
115 126 0
115 131 0
112 128 0
142 164 0
144 156 0
80 91 0
97 112 0
96 108 0
106 114 0
122 138 0
134 151 0
154 172 0
140 155 0
145 158 0
96 107 0
112 114 0
137 157 0
127 146 0
120 131 0
112 126 0
138 152 0
151 167 0
141 155 0
126 141 0
110 124 0
137 157 0
157 170 0
128 145 0
110 120 0
141 152 0
124 141 0
121 123 0
132 148 0
139 146 0
142 154 0
139 158 0
144 161 0
131 148 0
128 137 0
139 151 0
106 121 0
134 151 0
152 166 0
136 144 0
144 160 0
133 151 0
120 135 0
136 145 0
145 157 0
130 133 0
148 164 0
100 114 0
159 165 0
139 147 0
98 112 0
128 141 0
123 134 0
136 144 0
121 128 0
135 146 0
118 122 0
128 129 0
131 137 0
135 143 0
107 113 0
125 137 0
127 131 0
147 146 0
133 135 0
134 133 0
114 121 0
136 141 0
135 131 0
119 120 0
119 120 0
124 128 0
117 117 0
104 98 0
107 96 0
131 134 0
138 142 0
107 102 0
87 72 0
127 115 0
104 95 0
81 68 0
108 95 0
136 139 0
119 117 0
132 129 0
147 148 0
127 123 0
88 85 0
99 91 0
109 99 0
92 77 0
116 115 0
95 81 0
102 89 0
124 121 0
108 99 0
115 106 0
103 92 0
120 112 0
148 141 0
61 42 0
145 145 0
109 101 0
101 89 0
125 110 0
129 118 0
134 125 0
118 100 0
115 105 0
146 140 0
132 122 0
120 107 0
142 134 0
121 105 0
119 109 0
137 124 0
157 157 0
141 126 0
139 127 0
154 155 0
144 137 0
143 138 0
154 150 0
142 139 0
142 142 0
167 171 0
136 138 0
152 157 0
150 151 0
152 155 0
152 163 0
164 169 0
166 169 0
156 160 0
163 176 0
162 173 0
146 153 0
157 165 0
160 172 0
148 157 0
155 155 0
165 166 0
172 186 0
165 176 0
166 179 0
166 177 0
172 187 0
167 182 0
163 172 0
169 184 0
169 188 0
162 174 0
163 173 0
165 187 0
171 185 0
176 188 0
157 174 0
156 163 0
172 188 0
171 189 0
159 163 0
170 178 0
162 176 0
163 178 0
170 185 0
164 186 0
164 174 0
167 192 0
164 187 0
171 193 0
173 192 0
159 178 0
160 180 0
160 182 0
162 181 0
163 183 0
171 192 0
155 175 0
163 186 0
167 185 0
168 187 0
168 190 0
172 189 0
172 193 0
168 189 0
161 179 0
168 188 0
154 174 0
152 171 0
174 193 0
172 194 0
170 188 0
164 185 0
168 185 0
170 188 0
163 182 0
158 174 0
138 156 0
141 160 0
164 183 0
146 163 0
169 185 0
140 157 0
160 179 0
154 173 0
168 186 0
155 173 0
164 181 0
142 158 0
155 172 0
143 160 0
159 177 0
157 173 0
150 166 0
144 160 0
160 178 0
123 136 0
140 156 0
140 153 0
147 160 0
143 158 0
115 129 0
96 106 0
138 151 0
120 133 0
107 118 0
128 140 0
117 128 0
142 156 0
121 133 0
131 141 0
140 152 0
114 124 0
122 132 0
141 153 0
113 123 0
115 127 0
141 154 0
95 106 0
118 130 0
118 128 0
135 147 0
102 113 0
75 84 0
137 151 0
141 151 0
147 161 0
112 124 0
116 127 0
130 143 0
124 138 0
137 152 0
116 128 0
106 121 0
118 133 0
108 121 0
125 140 0
143 159 0
131 147 0
127 137 0
121 134 0
97 113 0
130 145 0
111 126 0
127 142 0
132 146 0
130 146 0
133 150 0
122 136 0
156 172 0
140 157 0
123 144 0
138 152 0
126 142 0
120 136 0
143 159 0
137 153 0
126 146 0
129 145 0
135 152 0
126 143 0
152 174 0
120 139 0
156 175 0
143 162 0
129 147 0
117 132 0
160 179 0
143 163 0
132 152 0
96 117 0
149 167 0
139 159 0
112 129 0
128 149 0
127 145 0
134 154 0
132 150 0
122 140 0
146 165 0
143 162 0
129 151 0
162 180 0
124 141 0
150 170 0
146 166 0
131 143 0
129 145 0
146 169 0
128 147 0
121 135 0
141 163 0
100 117 0
126 146 0
148 170 0
153 176 0
110 130 0
125 144 0
143 162 0
149 168 0
124 141 0
138 157 0
113 136 0
122 139 0
134 152 0
99 116 0
140 161 0
138 154 0
156 180 0
127 143 0
103 123 0
120 137 0
128 149 0
156 176 0
129 150 0
147 170 0
62 82 0
124 146 0
85 108 0
110 129 0
100 117 0
112 133 0
110 132 0
140 161 0
137 158 0
131 151 0
104 119 0
114 132 0
84 103 0
100 118 0
66 84 0
136 156 0
116 134 0
125 144 0
127 146 0
115 133 0
92 106 0
123 144 0
110 126 0
146 167 0
95 114 0
114 133 0
116 136 0
129 151 0
128 147 0
141 159 0
106 124 0
129 149 0
129 144 0
118 133 0
114 131 0
129 141 0
140 159 0
107 122 0
145 161 0
129 146 0
134 147 0
90 109 0
93 107 0
130 146 0
132 147 0
126 145 0
84 98 0
87 102 0
134 156 0
101 113 0
141 161 0
165 186 0
121 140 0
123 140 0
103 121 0
117 133 0
138 153 0
144 149 0
123 140 0
124 146 0
125 141 0
126 148 0
109 132 0
152 162 0
111 124 0
122 140 0
124 146 0
125 144 0
158 172 0
101 116 0
133 150 0
139 156 0
138 160 0
104 122 0
138 153 0
93 110 0
150 166 0
114 130 0
93 107 0
155 174 0
142 158 0
102 117 0
124 140 0
146 163 0
140 155 0
124 140 0
112 121 0
127 133 0
117 126 0
134 152 0
129 147 0
127 140 0
119 126 0
166 184 0
154 166 0
116 133 0
132 144 0
121 137 0
152 162 0
101 105 0
141 157 0
98 105 0
142 153 0
133 142 0
151 167 0
97 109 0
138 149 0
114 126 0
117 135 0
115 121 0
117 115 0
142 141 0
134 141 0
110 111 0
159 170 0
135 133 0
121 131 0
117 116 0
133 141 0
141 146 0
109 109 0
150 158 0
149 159 0
108 125 0
104 116 0
131 144 0
121 119 0
151 148 0
128 134 0
120 120 0
131 131 0
132 129 0
129 139 0
104 99 0
120 119 0
119 123 0
133 136 0
132 134 0
135 138 0
118 105 0
123 115 0
127 126 0
123 120 0
138 132 0
131 123 0
148 148 0
112 111 0
124 115 0
128 116 0
117 111 0
131 116 0
114 108 0
130 123 0
111 103 0
131 123 0
93 77 0
118 108 0
110 92 0
107 93 0
135 132 0
117 104 0
126 121 0
83 69 0
127 125 0
132 120 0
145 145 0
100 91 0
140 137 0
148 142 0
121 108 0
131 126 0
121 114 0
137 128 0
133 132 0
131 132 0
153 160 0
154 156 0
116 110 0
140 144 0
122 114 0
137 128 0
154 159 0
123 118 0
146 145 0
133 123 0
142 136 0
139 135 0
139 138 0
134 132 0
125 117 0
122 116 0
140 145 0
138 131 0
153 148 0
146 147 0
156 155 0
159 160 0
171 182 0
154 159 0
169 182 0
148 158 0
151 156 0
157 162 0
142 139 0
149 154 0
156 165 0
172 183 0
167 170 0
177 195 0
159 175 0
159 170 0
171 180 0
172 184 0
171 193 0
166 181 0
169 188 0
167 181 0
165 169 0
158 161 0
172 187 0
162 171 0
170 185 0
171 183 0
166 184 0
171 189 0
157 169 0
176 195 0
168 184 0
172 190 0
166 183 0
169 188 0
170 190 0
170 191 0
156 179 0
171 194 0
169 188 0
169 193 0
167 187 0
165 188 0
174 195 0
155 175 0
174 195 0
157 179 0
170 191 0
162 180 0
154 172 0
154 171 0
167 186 0
171 188 0
145 161 0
164 185 0
162 182 0
161 180 0
157 176 0
162 179 0
169 188 0
171 189 0
153 174 0
160 176 0
169 189 0
161 176 0
148 168 0
158 176 0
145 164 0
154 171 0
162 183 0
158 176 0
151 171 0
163 179 0
159 179 0
147 161 0
131 143 0
161 179 0
163 179 0
155 170 0
155 171 0
141 158 0
156 171 0
129 144 0
149 165 0
154 168 0
135 148 0
137 150 0
156 172 0
158 173 0
152 166 0
123 136 0
135 148 0
141 154 0
118 130 0
121 132 0
133 146 0
124 137 0
107 117 0
142 154 0
134 146 0
134 147 0
102 112 0
126 138 0
124 138 0
119 131 0
136 149 0
94 103 0
121 131 0
118 128 0
128 140 0
125 138 0
123 136 0
127 141 0
109 122 0
104 116 0
122 132 0
130 143 0
132 149 0
127 139 0
94 108 0
125 139 0
110 119 0
119 134 0
117 130 0
123 139 0
141 157 0
134 150 0
128 146 0
147 165 0
95 107 0
122 135 0
91 108 0
156 172 0
115 129 0
121 140 0
117 132 0
140 159 0
151 167 0
129 146 0
122 139 0
130 146 0
94 111 0
117 131 0
150 169 0
149 169 0
130 148 0
131 148 0
112 127 0
145 165 0
130 150 0
113 131 0
113 130 0
127 145 0
152 172 0
146 168 0
159 179 0
126 143 0
102 123 0
138 159 0
129 146 0
129 146 0
132 151 0
130 151 0
98 114 0
120 136 0
128 148 0
117 136 0
127 141 0
158 180 0
155 175 0
111 132 0
100 118 0
139 160 0
146 167 0
119 142 0
141 159 0
161 183 0
126 146 0
126 145 0
148 168 0
127 146 0
126 143 0
124 144 0
122 142 0
147 167 0
140 156 0
114 133 0
139 160 0
122 146 0
137 155 0
151 168 0
133 155 0
145 166 0
114 132 0
125 147 0
134 154 0
151 171 0
124 147 0
122 141 0
121 141 0
126 146 0
98 118 0
129 148 0
85 107 0
125 145 0
145 165 0
132 153 0
131 150 0
145 162 0
105 121 0
136 155 0
127 148 0
98 118 0
138 158 0
116 135 0
82 102 0
128 148 0
126 148 0
125 143 0
134 153 0
137 152 0
121 142 0
127 145 0
135 153 0
125 139 0
139 158 0
101 125 0
134 153 0
142 160 0
113 123 0
113 134 0
73 93 0
87 103 0
132 147 0
131 145 0
111 130 0
125 139 0
101 117 0
110 131 0
149 167 0
144 162 0
132 153 0
118 130 0
115 135 0
113 135 0
104 122 0
120 135 0
140 158 0
98 113 0
109 127 0
105 116 0
119 134 0
123 137 0
129 149 0
145 165 0
147 167 0
128 148 0
70 89 0
112 125 0
131 150 0
107 123 0
89 94 0
141 159 0
77 81 0
130 147 0
112 130 0
148 165 0
134 149 0
124 144 0
137 152 0
138 156 0
157 175 0
133 154 0
120 138 0
121 142 0
164 177 0
124 140 0
100 122 0
130 146 0
120 135 0
84 101 0
138 153 0
128 145 0
142 158 0
138 157 0
127 149 0
128 144 0
104 116 0
112 127 0
126 146 0
131 144 0
123 142 0
113 123 0
134 150 0
124 138 0
133 149 0
129 143 0
107 111 0
141 144 0
88 101 0
138 156 0
144 164 0
144 161 0
130 147 0
127 140 0
138 153 0
151 167 0
137 153 0
120 133 0
153 170 0
151 160 0
119 131 0
161 178 0
143 156 0
137 150 0
124 139 0
120 127 0
139 149 0
133 146 0
120 134 0
163 179 0
120 118 0
149 161 0
130 133 0
102 113 0
125 134 0
143 149 0
123 124 0
103 113 0
112 121 0
129 130 0
113 105 0
136 143 0
147 155 0
107 111 0
135 134 0
120 115 0
151 153 0
156 160 0
146 147 0
132 140 0
125 126 0
135 141 0
133 134 0
117 109 0
108 98 0
123 119 0
90 93 0
116 103 0
105 115 0
136 138 0
128 123 0
108 100 0
137 145 0
138 134 0
138 137 0
125 107 0
147 146 0
111 95 0
124 119 0
131 126 0
119 108 0
113 106 0
106 92 0
128 116 0
134 130 0
132 128 0
123 109 0
120 115 0
138 130 0
110 101 0
113 107 0
114 103 0
123 119 0
132 119 0
95 72 0
124 117 0
142 140 0
130 119 0
130 131 0
153 156 0
152 141 0
146 143 0
142 138 0
147 145 0
150 149 0
156 159 0
132 127 0
126 118 0
152 155 0
167 183 0
152 154 0
168 180 0
165 173 0
169 170 0
152 158 0
155 154 0
149 145 0
156 165 0
150 147 0
145 144 0
164 174 0
165 170 0
155 155 0
164 176 0
168 180 0
177 192 0
165 170 0
167 179 0
154 163 0
171 183 0
158 163 0
171 193 0
168 179 0
166 177 0
163 171 0
159 165 0
169 183 0
160 167 0
157 166 0
175 192 0
167 187 0
167 181 0
156 169 0
160 172 0
165 181 0
173 188 0
166 172 0
164 176 0
165 186 0
168 181 0
172 183 0
163 173 0
162 178 0
170 185 0
167 188 0
166 186 0
175 195 0
164 182 0
167 190 0
161 179 0
168 187 0
167 188 0
167 189 0
167 186 0
161 180 0
170 194 0
160 177 0
160 179 0
163 182 0
147 167 0
172 190 0
168 185 0
165 187 0
152 170 0
157 173 0
162 180 0
160 181 0
150 170 0
166 187 0
166 183 0
165 184 0
154 171 0
150 168 0
160 179 0
161 180 0
149 169 0
164 180 0
170 189 0
147 163 0
139 154 0
156 173 0
159 176 0
153 167 0
155 172 0
155 171 0
149 168 0
150 166 0
140 156 0
165 182 0
143 159 0
141 159 0
132 146 0
129 144 0
146 162 0
130 143 0
121 132 0
116 131 0
141 156 0
145 158 0
129 142 0
127 142 0
99 110 0
138 151 0
119 131 0
147 160 0
130 143 0
122 137 0
120 132 0
142 156 0
134 146 0
117 130 0
148 162 0
149 162 0
130 144 0
121 133 0
135 146 0
120 132 0
136 150 0
121 133 0
109 121 0
133 148 0
132 148 0
138 151 0
113 125 0
124 138 0
165 182 0
131 143 0
133 145 0
141 156 0
136 149 0
142 157 0
139 157 0
132 147 0
135 151 0
144 159 0
144 157 0
149 165 0
127 147 0
126 140 0
135 152 0
123 141 0
94 108 0
149 165 0
113 129 0
138 155 0
142 158 0
160 177 0
152 170 0
147 163 0
121 138 0
135 154 0
140 158 0
105 123 0
154 174 0
91 107 0
144 163 0
127 145 0
146 162 0
157 176 0
134 154 0
118 136 0
118 136 0
107 122 0
130 151 0
140 161 0
144 161 0
110 129 0
98 114 0
123 139 0
135 153 0
142 163 0
138 157 0
147 171 0
133 153 0
154 177 0
139 161 0
118 137 0
170 188 0
133 151 0
139 159 0
123 140 0
146 166 0
121 140 0
96 114 0
143 162 0
147 168 0
131 151 0
145 166 0
144 162 0
131 152 0
103 120 0
112 134 0
138 157 0
152 172 0
100 118 0
123 143 0
136 156 0
159 180 0
150 171 0
143 161 0
111 128 0
122 140 0
146 165 0
108 127 0
138 157 0
143 159 0
152 174 0
125 147 0
136 158 0
112 129 0
158 179 0
134 155 0
123 145 0
152 170 0
125 146 0
129 148 0
144 166 0
94 114 0
127 144 0
113 131 0
102 124 0
109 132 0
122 138 0
101 120 0
133 151 0
91 106 0
151 171 0
97 115 0
95 112 0
116 138 0
128 146 0
81 100 0
103 126 0
104 124 0
100 118 0
152 171 0
116 135 0
123 143 0
102 116 0
121 138 0
73 90 0
78 92 0
106 126 0
127 146 0
114 131 0
107 121 0
73 88 0
139 156 0
129 147 0
108 121 0
97 118 0
105 123 0
110 126 0
117 136 0
147 168 0
130 148 0
134 147 0
134 152 0
169 192 0
95 108 0
141 161 0
102 119 0
132 152 0
119 139 0
118 139 0
129 144 0
108 126 0
138 152 0
81 100 0
121 137 0
126 145 0
115 127 0
146 166 0
113 134 0
109 125 0
133 150 0
165 182 0
105 122 0
162 177 0
127 130 0
102 114 0
148 165 0
100 120 0
109 122 0
130 147 0
122 138 0
124 142 0
128 149 0
140 153 0
135 147 0
156 175 0
104 114 0
143 158 0
143 160 0
136 156 0
86 98 0
116 132 0
121 132 0
144 158 0
121 133 0
150 169 0
117 134 0
146 160 0
150 171 0
126 135 0
139 159 0
136 152 0
145 162 0
160 170 0
160 170 0
143 152 0
111 128 0
118 130 0
165 179 0
122 132 0
137 157 0
140 152 0
138 155 0
139 149 0
121 132 0
147 158 0
120 134 0
148 155 0
143 154 0
146 158 0
124 134 0
133 139 0
145 148 0
144 158 0
127 132 0
127 137 0
140 146 0
138 144 0
117 126 0
118 122 0
89 86 0
123 120 0
134 145 0
136 139 0
131 142 0
123 127 0
135 144 0
109 105 0
122 135 0
117 117 0
155 156 0
117 120 0
143 143 0
134 140 0
153 164 0
136 136 0
126 129 0
108 107 0
146 149 0
138 134 0
121 128 0
103 97 0
118 123 0
127 127 0
153 156 0
132 128 0
154 154 0
138 141 0
144 136 0
142 151 0
105 93 0
113 110 0
127 122 0
103 89 0
102 93 0
122 119 0
113 108 0
112 101 0
74 56 0
146 145 0
141 142 0
143 148 0
102 93 0
106 99 0
149 143 0
132 127 0
125 121 0
91 80 0
135 126 0
120 107 0
126 117 0
149 147 0
141 131 0
129 122 0
146 149 0
143 142 0
125 106 0
124 119 0
164 168 0
129 121 0
154 150 0
150 154 0
132 133 0
137 130 0
164 168 0
154 154 0
139 135 0
120 109 0
147 145 0
148 155 0
158 161 0
152 150 0
161 162 0
138 130 0
146 143 0
156 160 0
156 153 0
147 157 0
166 174 0
152 154 0
161 172 0
160 166 0
159 170 0
160 163 0
169 181 0
162 177 0
170 188 0
153 154 0
160 172 0
162 165 0
162 168 0
152 160 0
168 174 0
158 163 0
161 171 0
164 183 0
162 170 0
167 177 0
159 173 0
168 184 0
167 180 0
151 160 0
176 195 0
166 176 0
156 164 0
168 184 0
170 189 0
171 192 0
179 197 0
176 194 0
173 195 0
170 191 0
168 188 0
163 185 0
167 184 0
174 194 0
168 188 0
169 186 0
162 183 0
159 177 0
170 191 0
175 195 0
161 182 0
168 185 0
167 187 0
159 176 0
157 174 0
158 178 0
164 184 0
164 184 0
166 188 0
161 179 0
152 169 0
140 156 0
153 172 0
155 171 0
163 184 0
163 180 0
154 170 0
153 169 0
163 181 0
118 133 0
151 167 0
159 178 0
147 163 0
155 171 0
175 194 0
137 153 0
120 133 0
158 173 0
166 181 0
143 161 0
140 156 0
152 165 0
136 150 0
135 149 0
133 148 0
148 166 0
150 164 0
130 145 0
130 144 0
137 152 0
133 147 0
152 168 0
131 145 0
140 153 0
122 134 0
132 147 0
105 118 0
149 164 0
156 172 0
144 157 0
127 142 0
149 163 0
148 163 0
137 152 0
143 157 0
151 164 0
152 167 0
145 160 0
122 136 0
136 148 0
112 127 0
124 137 0
120 130 0
117 131 0
150 165 0
145 160 0
115 131 0
156 172 0
123 135 0
121 135 0
123 136 0
166 182 0
135 150 0
122 136 0
166 183 0
117 131 0
106 121 0
125 140 0
152 168 0
119 133 0
103 120 0
148 162 0
124 144 0
142 159 0
142 159 0
165 184 0
149 167 0
170 188 0
129 149 0
140 160 0
130 147 0
125 141 0
131 146 0
126 146 0
160 179 0
128 143 0
148 164 0
139 158 0
126 137 0
143 164 0
121 137 0
150 169 0
162 182 0
150 170 0
119 140 0
112 127 0
132 150 0
89 107 0
118 137 0
159 180 0
138 157 0
126 146 0
137 153 0
156 177 0
142 163 0
119 140 0
149 170 0
134 153 0
156 179 0
123 143 0
160 180 0
131 152 0
133 150 0
113 134 0
115 135 0
166 185 0
145 167 0
113 129 0
134 154 0
129 149 0
116 132 0
141 162 0
154 174 0
128 145 0
103 120 0
135 158 0
143 162 0
138 154 0
167 185 0
158 179 0
149 170 0
145 167 0
133 152 0
112 130 0
136 156 0
139 161 0
123 139 0
105 117 0
99 117 0
139 157 0
93 113 0
143 162 0
102 119 0
145 168 0
129 148 0
126 144 0
103 123 0
161 181 0
150 162 0
106 123 0
140 158 0
86 104 0
149 168 0
126 146 0
152 174 0
111 132 0
140 158 0
114 132 0
124 148 0
161 180 0
111 129 0
128 149 0
150 168 0
145 163 0
98 122 0
128 147 0
135 154 0
137 159 0
150 169 0
101 121 0
116 131 0
157 180 0
113 131 0
97 118 0
71 88 0
118 134 0
102 116 0
64 84 0
119 135 0
106 123 0
109 126 0
107 124 0
124 141 0
111 125 0
97 117 0
140 161 0
127 147 0
130 145 0
147 162 0
139 162 0
113 136 0
116 138 0
141 159 0
142 160 0
149 170 0
113 134 0
140 163 0
87 105 0
126 147 0
150 166 0
133 149 0
125 139 0
127 149 0
132 151 0
152 170 0
95 114 0
136 158 0
124 141 0
112 128 0
105 116 0
99 121 0
141 160 0
153 169 0
151 168 0
127 145 0
165 179 0
91 101 0
124 141 0
111 133 0
155 170 0
151 169 0
132 150 0
118 131 0
114 125 0
116 129 0
114 133 0
142 162 0
146 156 0
103 123 0
149 159 0
151 168 0
146 162 0
143 158 0
129 147 0
149 168 0
128 147 0
99 111 0
129 143 0
153 173 0
139 154 0
151 160 0
128 146 0
127 141 0
141 156 0
134 149 0
133 150 0
135 156 0
130 148 0
110 125 0
84 101 0
128 135 0
120 138 0
137 153 0
129 142 0
136 149 0
140 150 0
107 118 0
152 168 0
160 167 0
147 161 0
145 159 0
138 147 0
129 136 0
146 148 0
136 145 0
112 116 0
136 142 0
132 131 0
109 107 0
147 146 0
137 148 0
125 126 0
148 150 0
126 140 0
125 129 0
106 113 0
103 106 0
146 149 0
147 162 0
141 144 0
146 147 0
128 123 0
122 123 0
129 123 0
152 161 0
163 173 0
141 143 0
136 140 0
142 142 0
114 118 0
151 153 0
143 149 0
131 139 0
133 130 0
138 141 0
126 131 0
112 94 0
129 122 0
139 134 0
136 136 0
102 96 0
153 153 0
132 120 0
136 128 0
138 136 0
137 130 0
135 139 0
127 126 0
125 115 0
125 122 0
98 86 0
149 147 0
124 120 0
139 129 0
133 131 0
112 97 0
116 103 0
161 168 0
119 108 0
124 108 0
125 125 0
126 116 0
142 142 0
137 123 0
113 101 0
133 126 0
133 134 0
139 136 0
153 148 0
136 129 0
137 135 0
165 167 0
130 116 0
148 150 0
149 147 0
163 170 0
149 150 0
161 161 0
143 139 0
137 131 0
137 134 0
147 142 0
155 158 0
151 152 0
138 140 0
165 177 0
146 140 0
163 176 0
175 188 0
162 167 0
169 185 0
163 173 0
153 155 0
165 172 0
165 182 0
168 177 0
150 156 0
158 169 0
153 153 0
172 186 0
156 170 0
163 175 0
159 165 0
157 157 0
164 175 0
165 181 0
171 178 0
165 181 0
164 167 0
167 182 0
154 170 0
161 171 0
174 184 0
158 168 0
169 184 0
172 182 0
158 159 0
162 183 0
167 185 0
159 178 0
165 187 0
157 179 0
163 185 0
176 198 0
165 182 0
159 176 0
169 187 0
158 177 0
156 175 0
173 192 0
157 176 0
164 183 0
162 181 0
167 184 0
160 181 0
149 165 0
161 177 0
157 176 0
156 172 0
155 175 0
168 186 0
164 181 0
158 178 0
155 172 0
166 183 0
158 177 0
160 178 0
154 173 0
162 179 0
159 179 0
142 158 0
163 180 0
135 150 0
160 176 0
157 175 0
156 168 0
167 181 0
130 143 0
131 147 0
137 154 0
163 178 0
159 175 0
129 142 0
141 157 0
158 172 0
150 163 0
151 167 0
132 146 0
145 158 0
103 115 0
144 156 0
137 152 0
130 146 0
128 142 0
140 153 0
122 135 0
124 140 0
150 165 0
144 156 0
126 139 0
120 134 0
118 131 0
140 154 0
146 161 0
148 161 0
130 144 0
154 169 0
156 173 0
121 135 0
159 176 0
121 134 0
132 146 0
146 162 0
134 147 0
121 135 0
113 125 0
119 135 0
152 167 0
142 158 0
149 165 0
140 155 0
124 138 0
130 147 0
125 140 0
141 157 0
157 174 0
133 150 0
139 156 0
126 142 0
150 165 0
114 129 0
141 160 0
145 163 0
136 148 0
150 167 0
131 145 0
151 165 0
156 173 0
117 134 0
126 144 0
156 174 0
122 138 0
120 135 0
134 153 0
137 154 0
166 184 0
125 146 0
126 144 0
144 159 0
130 148 0
118 132 0
111 130 0
140 154 0
97 114 0
125 143 0
111 133 0
140 160 0
145 162 0
153 175 0
159 178 0
146 165 0
146 169 0
153 173 0
123 141 0
137 159 0
130 153 0
136 156 0
140 156 0
128 148 0
146 166 0
146 165 0
144 164 0
142 161 0
125 147 0
143 164 0
99 116 0
136 151 0
148 169 0
123 145 0
116 135 0
139 158 0
146 169 0
135 151 0
132 152 0
135 153 0
124 145 0
147 165 0
125 148 0
142 163 0
134 151 0
138 156 0
141 159 0
146 169 0
68 88 0
138 158 0
127 147 0
124 145 0
142 163 0
145 166 0
92 100 0
139 160 0
114 131 0
140 162 0
127 147 0
125 147 0
125 146 0
130 147 0
143 156 0
128 150 0
98 118 0
119 128 0
99 114 0
113 135 0
117 137 0
101 106 0
142 158 0
142 160 0
81 96 0
134 155 0
139 156 0
126 147 0
102 122 0
116 135 0
115 137 0
136 156 0
150 171 0
78 96 0
138 158 0
129 147 0
117 136 0
123 141 0
114 134 0
59 81 0
124 140 0
118 128 0
115 132 0
121 142 0
132 151 0
131 152 0
130 145 0
136 155 0
154 172 0
134 149 0
136 156 0
147 166 0
131 147 0
125 145 0
148 166 0
118 136 0
118 135 0
148 171 0
138 155 0
134 154 0
124 140 0
131 147 0
135 157 0
115 137 0
159 180 0
133 154 0
111 132 0
139 154 0
115 132 0
127 147 0
151 170 0
148 170 0
106 123 0
113 132 0
131 150 0
146 162 0
146 164 0
141 158 0
122 140 0
113 129 0
67 89 0
141 161 0
49 76 0
126 143 0
146 165 0
108 119 0
149 163 0
148 160 0
132 148 0
84 96 0
97 115 0
134 150 0
152 168 0
114 132 0
138 160 0
102 120 0
143 157 0
132 145 0
130 143 0
148 168 0
139 154 0
115 126 0
135 145 0
157 172 0
143 155 0
129 142 0
162 180 0
150 169 0
155 170 0
120 136 0
129 143 0
131 145 0
140 159 0
130 141 0
118 135 0
121 142 0
156 170 0
99 109 0
150 169 0
139 156 0
136 149 0
169 187 0
135 145 0
118 137 0
128 139 0
148 165 0
151 160 0
137 141 0
117 130 0
142 148 0
151 159 0
143 141 0
155 168 0
140 159 0
127 137 0
165 181 0
142 152 0
144 156 0
133 136 0
145 158 0
133 134 0
142 150 0
149 160 0
130 133 0
104 107 0
160 170 0
119 121 0
141 154 0
173 180 0
122 127 0
125 126 0
136 147 0
159 167 0
128 135 0
129 132 0
166 170 0
142 146 0
154 156 0
102 102 0
132 134 0
139 140 0
139 137 0
135 141 0
141 134 0
150 155 0
120 118 0
139 130 0
113 113 0
121 123 0
137 139 0
113 107 0
144 143 0
134 126 0
128 131 0
138 126 0
133 122 0
139 136 0
141 141 0
137 134 0
136 135 0
142 147 0
138 137 0
122 106 0
106 88 0
151 142 0
134 126 0
164 166 0
144 143 0
158 160 0
147 145 0
129 119 0
150 151 0
166 173 0
146 143 0
120 120 0
143 143 0
130 129 0
154 156 0
137 131 0
143 140 0
149 155 0
160 160 0
147 146 0
150 151 0
152 152 0
148 139 0
149 151 0
160 170 0
152 152 0
164 164 0
150 150 0
153 145 0
160 168 0
154 149 0
162 169 0
170 181 0
160 168 0
136 133 0
171 182 0
174 190 0
151 146 0
150 151 0
158 162 0
159 168 0
160 172 0
160 171 0
161 163 0
157 167 0
160 172 0
157 160 0
166 179 0
170 178 0
170 187 0
171 182 0
154 155 0
167 172 0
173 192 0
159 167 0
164 179 0
174 188 0
164 170 0
159 173 0
164 177 0
173 186 0
169 192 0
176 197 0
174 195 0
167 189 0
172 189 0
170 192 0
172 191 0
160 180 0
160 179 0
167 185 0
150 169 0
154 176 0
151 169 0
166 186 0
164 183 0
150 169 0
172 191 0
166 188 0
154 172 0
148 166 0
162 178 0
158 175 0
151 167 0
156 172 0
158 175 0
150 167 0
153 169 0
155 170 0
154 174 0
150 166 0
153 171 0
161 181 0
167 188 0
166 183 0
156 171 0
138 156 0
144 159 0
164 182 0
141 155 0
159 174 0
130 147 0
162 179 0
140 153 0
148 164 0
153 166 0
149 165 0
147 165 0
146 160 0
125 140 0
121 132 0
131 144 0
146 159 0
138 150 0
151 167 0
143 157 0
132 146 0
100 112 0
137 150 0
157 172 0
142 155 0
130 145 0
142 154 0
143 157 0
146 160 0
126 139 0
151 166 0
148 163 0
132 146 0
168 183 0
147 164 0
135 147 0
149 165 0
144 161 0
143 157 0
124 138 0
146 162 0
133 147 0
152 166 0
117 131 0
137 153 0
142 159 0
136 151 0
132 147 0
138 154 0
127 143 0
147 163 0
114 130 0
152 168 0
96 113 0
137 154 0
120 132 0
120 136 0
130 144 0
114 129 0
136 151 0
129 148 0
125 143 0
160 176 0
158 176 0
100 116 0
99 120 0
152 168 0
148 164 0
167 185 0
134 147 0
157 176 0
144 162 0
136 154 0
121 140 0
129 145 0
155 174 0
136 154 0
143 161 0
147 169 0
120 138 0
160 179 0
146 164 0
131 151 0
126 148 0
150 169 0
140 157 0
119 134 0
135 155 0
147 163 0
149 168 0
131 148 0
118 136 0
134 149 0
126 147 0
120 140 0
136 153 0
134 152 0
141 160 0
134 148 0
138 156 0
139 160 0
99 120 0
134 154 0
154 176 0
108 128 0
145 164 0
128 149 0
112 131 0
121 138 0
168 188 0
161 182 0
130 148 0
155 177 0
140 160 0
132 152 0
132 153 0
152 173 0
136 157 0
104 118 0
122 143 0
143 164 0
152 172 0
116 137 0
122 141 0
108 128 0
116 133 0
141 165 0
124 146 0
131 152 0
118 136 0
133 155 0
136 151 0
148 169 0
127 147 0
130 149 0
146 165 0
152 173 0
141 162 0
142 161 0
121 140 0
113 127 0
116 132 0
131 149 0
127 147 0
125 148 0
160 181 0
112 133 0
148 170 0
113 132 0
85 104 0
101 116 0
147 167 0
117 139 0
140 158 0
148 167 0
101 118 0
124 142 0
125 144 0
127 146 0
150 166 0
145 166 0
143 163 0
67 85 0
151 172 0
140 154 0
155 175 0
125 146 0
116 134 0
119 135 0
145 167 0
140 160 0
136 154 0
123 144 0
131 146 0
116 132 0
113 133 0
143 163 0
98 117 0
112 128 0
155 175 0
141 156 0
139 158 0
138 157 0
140 160 0
145 163 0
151 171 0
137 157 0
136 155 0
116 136 0
133 146 0
105 119 0
112 134 0
113 126 0
126 145 0
137 159 0
88 111 0
113 136 0
117 131 0
134 154 0
142 158 0
145 161 0
131 150 0
144 156 0
139 156 0
132 151 0
161 181 0
125 140 0
122 135 0
104 113 0
127 142 0
139 156 0
147 165 0
145 158 0
126 130 0
148 163 0
102 122 0
147 161 0
139 161 0
110 123 0
155 176 0
164 181 0
140 158 0
155 170 0
132 141 0
107 112 0
114 134 0
126 148 0
143 157 0
124 138 0
126 142 0
167 185 0
116 127 0
126 134 0
141 157 0
124 137 0
156 174 0
149 164 0
135 153 0
151 165 0
125 134 0
97 114 0
127 142 0
146 153 0
141 150 0
115 127 0
143 144 0
148 157 0
115 126 0
153 171 0
115 118 0
142 153 0
121 131 0
150 169 0
137 151 0
143 152 0
129 138 0
76 78 0
117 122 0
129 132 0
127 143 0
139 149 0
158 167 0
127 128 0
99 102 0
152 162 0
158 175 0
166 181 0
126 132 0
125 124 0
136 138 0
129 133 0
130 140 0
145 153 0
148 155 0
149 160 0
106 103 0
138 138 0
135 142 0
133 129 0
129 133 0
135 139 0
126 126 0
162 165 0
131 124 0
124 125 0
146 150 0
125 125 0
117 120 0
146 153 0
136 141 0
147 149 0
123 118 0
117 108 0
140 136 0
129 128 0
120 115 0
114 104 0
134 131 0
140 134 0
132 128 0
129 122 0
145 148 0
129 123 0
129 119 0
130 124 0
143 141 0
134 130 0
127 120 0
144 146 0
130 128 0
172 179 0
141 143 0
140 138 0
141 140 0
140 137 0
140 141 0
121 113 0
140 140 0
137 124 0
147 149 0
144 137 0
121 117 0
141 137 0
131 127 0
165 170 0
161 168 0
169 173 0
142 134 0
153 155 0
155 158 0
168 171 0
158 168 0
150 152 0
164 169 0
145 135 0
156 158 0
160 165 0
159 167 0
153 154 0
160 163 0
157 146 0
153 159 0
150 153 0
169 179 0
156 164 0
173 187 0
156 157 0
168 183 0
168 175 0
173 186 0
146 145 0
163 175 0
174 188 0
167 175 0
171 185 0
169 185 0
169 180 0
168 171 0
165 173 0
168 182 0
163 172 0
166 183 0
169 185 0
166 178 0
170 185 0
160 179 0
165 186 0
167 188 0
174 192 0
161 183 0
160 179 0
169 187 0
166 185 0
168 187 0
151 170 0
152 172 0
167 186 0
171 189 0
168 186 0
148 167 0
149 169 0
175 195 0
149 166 0
162 181 0
157 180 0
151 170 0
169 189 0
150 169 0
148 167 0
161 179 0
152 168 0
169 187 0
149 163 0
149 161 0
160 179 0
158 178 0
155 170 0
148 166 0
144 161 0
151 168 0
152 168 0
151 169 0
149 165 0
160 177 0
158 174 0
147 160 0
152 168 0
142 156 0
150 167 0
158 176 0
151 165 0
153 170 0
152 170 0
149 165 0
119 133 0
150 166 0
123 137 0
142 156 0
135 150 0
162 177 0
133 149 0
134 147 0
141 153 0
142 155 0
140 156 0
129 140 0
139 154 0
114 126 0
151 166 0
125 140 0
147 160 0
142 158 0
142 156 0
156 174 0
124 135 0
142 158 0
118 134 0
125 140 0
173 189 0
144 161 0
151 167 0
135 150 0
139 157 0
138 156 0
142 158 0
134 150 0
112 127 0
148 166 0
129 147 0
120 137 0
140 153 0
138 151 0
174 190 0
141 158 0
155 173 0
119 137 0
126 143 0
153 173 0
117 130 0
140 158 0
136 152 0
148 166 0
117 131 0
155 173 0
134 151 0
130 149 0
129 148 0
158 179 0
161 180 0
122 142 0
120 133 0
149 168 0
147 166 0
142 163 0
119 136 0
171 192 0
154 170 0
119 136 0
124 139 0
119 140 0
140 161 0
143 166 0
126 141 0
128 148 0
122 140 0
146 164 0
162 183 0
144 163 0
163 184 0
120 140 0
149 172 0
98 120 0
100 121 0
143 166 0
151 175 0
140 156 0
143 166 0
128 145 0
137 158 0
124 142 0
137 160 0
130 149 0
132 150 0
120 143 0
126 146 0
158 177 0
115 135 0
141 159 0
121 140 0
152 170 0
132 157 0
126 149 0
144 163 0
108 127 0
153 176 0
115 135 0
152 171 0
141 158 0
129 150 0
137 157 0
128 146 0
106 120 0
122 143 0
160 182 0
150 170 0
140 159 0
130 153 0
128 148 0
131 148 0
134 153 0
125 148 0
158 175 0
90 109 0
116 132 0
111 130 0
128 146 0
150 168 0
98 118 0
113 137 0
147 166 0
132 154 0
113 133 0
98 116 0
138 158 0
136 156 0
147 170 0
141 160 0
115 130 0
120 140 0
133 153 0
98 118 0
146 168 0
143 161 0
118 137 0
114 132 0
144 165 0
89 108 0
128 146 0
124 137 0
103 121 0
94 109 0
116 136 0
96 118 0
149 167 0
61 74 0
98 112 0
124 145 0
133 152 0
127 151 0
86 104 0
142 160 0
127 147 0
139 154 0
109 122 0
123 142 0
125 140 0
113 135 0
116 132 0
115 134 0
140 156 0
144 159 0
124 142 0
108 124 0
124 144 0
127 149 0
108 118 0
147 170 0
146 161 0
45 71 0
112 135 0
116 136 0
129 146 0
131 151 0
146 167 0
143 167 0
91 108 0
103 124 0
130 150 0
136 155 0
145 169 0
135 148 0
137 157 0
145 162 0
137 156 0
40 61 0
144 154 0
120 139 0
114 133 0
130 150 0
130 148 0
149 157 0
140 159 0
135 151 0
149 170 0
125 146 0
123 146 0
104 117 0
135 152 0
161 176 0
159 171 0
161 181 0
143 165 0
148 166 0
144 158 0
146 165 0
142 156 0
145 153 0
124 142 0
114 127 0
151 166 0
142 159 0
147 160 0
120 129 0
133 143 0
129 143 0
159 177 0
127 139 0
141 154 0
159 175 0
156 172 0
135 145 0
145 158 0
154 163 0
134 140 0
152 158 0
139 146 0
147 169 0
105 120 0
147 154 0
132 135 0
138 155 0
106 109 0
105 111 0
136 140 0
130 138 0
145 152 0
150 156 0
131 134 0
111 122 0
139 149 0
164 177 0
141 140 0
120 127 0
121 120 0
119 125 0
138 144 0
151 166 0
140 149 0
121 140 0
134 137 0
144 149 0
139 139 0
107 113 0
138 142 0
143 154 0
122 115 0
130 129 0
137 137 0
148 154 0
147 150 0
127 136 0
161 168 0
132 133 0
108 105 0
126 137 0
121 112 0
150 158 0
129 131 0
131 130 0
133 135 0
129 140 0
119 122 0
112 115 0
122 118 0
146 150 0
137 134 0
153 149 0
113 98 0
144 140 0
140 137 0
129 126 0
141 139 0
150 147 0
132 129 0
151 148 0
150 149 0
131 129 0
152 153 0
136 127 0
131 121 0
126 129 0
135 130 0
153 149 0
138 130 0
154 157 0
146 146 0
136 130 0
143 134 0
137 134 0
154 153 0
131 127 0
124 115 0
159 167 0
138 138 0
157 168 0
150 148 0
153 150 0
158 158 0
145 141 0
152 156 0
164 166 0
149 146 0
147 152 0
164 166 0
148 155 0
157 160 0
162 162 0
163 167 0
165 180 0
156 157 0
163 171 0
155 151 0
167 179 0
170 177 0
145 145 0
166 173 0
158 163 0
153 158 0
153 160 0
166 177 0
156 162 0
156 160 0
165 180 0
171 185 0
151 156 0
158 167 0
154 159 0
170 180 0
169 172 0
166 180 0
152 165 0
160 170 0
167 178 0
172 189 0
150 149 0
164 186 0
167 189 0
168 188 0
168 187 0
166 187 0
161 178 0
172 191 0
159 181 0
163 181 0
179 198 0
159 181 0
161 179 0
167 184 0
163 181 0
164 183 0
149 169 0
161 180 0
150 166 0
162 183 0
164 182 0
167 186 0
147 163 0
157 176 0
169 186 0
157 173 0
146 162 0
158 175 0
154 169 0
161 177 0
170 186 0
153 170 0
154 170 0
159 177 0
164 184 0
161 177 0
156 171 0
150 166 0
155 172 0
140 156 0
147 163 0
146 163 0
123 136 0
111 123 0
146 162 0
139 150 0
144 160 0
122 137 0
139 154 0
146 162 0
138 152 0
139 153 0
142 157 0
158 171 0
130 143 0
134 147 0
152 166 0
155 171 0
135 150 0
137 152 0
110 123 0
141 156 0
136 149 0
152 166 0
143 160 0
140 153 0
124 139 0
143 160 0
150 166 0
153 170 0
117 134 0
147 162 0
109 122 0
128 141 0
146 163 0
155 173 0
124 136 0
147 165 0
145 165 0
146 163 0
141 160 0
121 137 0
151 168 0
154 171 0
123 140 0
132 145 0
127 143 0
164 182 0
131 146 0
164 183 0
141 159 0
155 173 0
144 161 0
134 153 0
166 183 0
112 127 0
168 189 0
147 160 0
153 169 0
135 153 0
136 157 0
143 161 0
121 136 0
134 154 0
155 172 0
128 148 0
161 179 0
159 180 0
157 175 0
130 151 0
157 179 0
141 157 0
109 127 0
143 163 0
157 178 0
130 150 0
164 185 0
154 176 0
145 166 0
148 165 0
135 158 0
126 144 0
124 143 0
147 165 0
132 150 0
141 159 0
133 152 0
134 153 0
124 141 0
144 167 0
135 152 0
143 166 0
161 180 0
131 151 0
167 189 0
126 145 0
113 133 0
146 166 0
127 147 0
141 162 0
137 157 0
127 145 0
129 151 0
125 144 0
123 137 0
139 160 0
152 172 0
123 143 0
112 130 0
155 179 0
143 166 0
131 151 0
147 168 0
117 138 0
128 151 0
141 165 0
156 177 0
141 164 0
114 133 0
158 181 0
157 178 0
127 147 0
147 169 0
114 137 0
119 134 0
135 157 0
136 155 0
115 135 0
136 152 0
106 126 0
77 98 0
148 161 0
97 114 0
153 173 0
138 156 0
135 154 0
138 155 0
99 121 0
134 153 0
144 164 0
122 143 0
100 122 0
138 158 0
149 172 0
140 157 0
126 147 0
126 146 0
99 120 0
139 160 0
134 153 0
114 137 0
138 157 0
136 158 0
115 135 0
134 156 0
89 107 0
148 167 0
132 151 0
146 167 0
141 161 0
117 133 0
117 135 0
126 148 0
118 135 0
97 113 0
138 160 0
123 142 0
102 118 0
123 144 0
115 133 0
113 127 0
103 123 0
116 126 0
149 171 0
142 161 0
109 127 0
108 126 0
62 83 0
146 169 0
140 153 0
126 145 0
135 153 0
97 105 0
126 148 0
118 135 0
122 141 0
111 128 0
107 116 0
126 148 0
133 151 0
136 153 0
124 138 0
148 167 0
116 126 0
151 174 0
109 124 0
127 145 0
143 159 0
135 152 0
142 164 0
144 156 0
88 107 0
143 159 0
110 131 0
117 134 0
118 137 0
138 152 0
144 161 0
150 169 0
152 169 0
127 144 0
128 147 0
118 133 0
103 123 0
115 132 0
135 153 0
101 115 0
122 134 0
166 186 0
122 138 0
147 163 0
135 159 0
125 143 0
156 171 0
109 120 0
155 170 0
122 140 0
143 155 0
169 188 0
144 150 0
137 149 0
131 145 0
128 147 0
119 128 0
116 131 0
157 170 0
130 145 0
137 158 0
125 129 0
134 142 0
87 96 0
146 161 0
132 144 0
149 166 0
111 115 0
155 170 0
129 146 0
135 143 0
139 149 0
150 158 0
127 140 0
133 144 0
145 153 0
108 116 0
154 165 0
151 165 0
152 160 0
128 137 0
138 146 0
135 148 0
160 175 0
133 141 0
146 157 0
146 146 0
144 162 0
146 152 0
130 136 0
144 159 0
172 186 0
145 147 0
150 162 0
119 127 0
129 139 0
96 98 0
148 153 0
153 157 0
146 155 0
155 169 0
89 81 0
145 154 0
132 138 0
139 142 0
139 145 0
158 167 0
133 132 0
132 129 0
143 145 0
163 169 0
129 132 0
124 122 0
129 136 0
149 152 0
138 135 0
119 118 0
128 123 0
160 158 0
126 123 0
152 156 0
122 123 0
154 152 0
134 130 0
128 124 0
142 143 0
131 125 0
127 123 0
119 110 0
128 113 0
130 135 0
145 149 0
161 166 0
126 118 0
147 146 0
136 133 0
143 146 0
127 129 0
159 159 0
138 135 0
132 128 0
158 158 0
163 171 0
153 155 0
158 162 0
143 139 0
153 153 0
166 167 0
172 179 0
141 139 0
171 174 0
156 162 0
148 142 0
146 147 0
157 161 0
157 161 0
160 161 0
166 172 0
137 134 0
159 158 0
153 156 0
161 167 0
153 159 0
160 162 0
172 185 0
170 182 0
161 172 0
161 169 0
163 172 0
156 161 0
155 158 0
168 177 0
150 162 0
156 163 0
164 172 0
142 141 0
162 172 0
169 177 0
164 178 0
168 183 0
164 178 0
156 164 0
168 179 0
158 161 0
162 182 0
164 185 0
156 172 0
163 183 0
165 185 0
165 186 0
166 188 0
150 167 0
173 193 0
159 178 0
174 192 0
149 166 0
157 179 0
160 179 0
162 181 0
170 189 0
154 172 0
163 179 0
163 181 0
163 181 0
158 172 0
166 184 0
165 184 0
158 174 0
154 170 0
154 171 0
153 169 0
144 159 0
156 173 0
162 183 0
172 189 0
152 170 0
149 166 0
156 174 0
167 184 0
151 166 0
156 174 0
147 162 0
142 155 0
139 154 0
160 176 0
159 177 0
151 169 0
155 170 0
135 150 0
132 148 0
146 164 0
135 147 0
147 162 0
128 143 0
154 171 0
147 161 0
138 150 0
165 180 0
143 158 0
128 142 0
123 135 0
125 139 0
139 156 0
140 155 0
148 164 0
134 150 0
144 160 0
144 161 0
145 159 0
139 155 0
137 153 0
136 151 0
156 173 0
143 159 0
160 176 0
143 163 0
150 162 0
141 158 0
144 160 0
143 161 0
150 167 0
147 162 0
155 172 0
147 165 0
151 168 0
148 163 0
149 167 0
133 150 0
129 148 0
135 154 0
122 140 0
137 152 0
135 157 0
136 151 0
153 173 0
120 139 0
152 168 0
135 154 0
160 181 0
137 154 0
148 166 0
130 147 0
166 186 0
124 145 0
149 168 0
129 147 0
155 172 0
152 173 0
155 173 0
141 156 0
115 134 0
146 165 0
136 154 0
143 161 0
137 152 0
142 160 0
153 169 0
143 161 0
141 156 0
155 177 0
131 149 0
132 152 0
145 164 0
162 182 0
124 146 0
112 133 0
160 178 0
121 140 0
149 169 0
147 167 0
119 135 0
154 178 0
146 167 0
145 160 0
130 150 0
158 181 0
142 164 0
168 189 0
133 154 0
157 175 0
116 134 0
150 174 0
151 174 0
154 176 0
137 157 0
133 153 0
145 166 0
146 164 0
160 180 0
146 167 0
113 135 0
128 149 0
145 163 0
98 119 0
99 112 0
140 161 0
147 169 0
158 180 0
137 155 0
125 147 0
131 154 0
125 146 0
142 166 0
129 145 0
156 178 0
133 155 0
122 143 0
122 139 0
145 167 0
134 154 0
162 183 0
134 157 0
144 168 0
173 195 0
130 147 0
136 159 0
145 168 0
141 162 0
134 154 0
127 149 0
101 121 0
105 125 0
38 62 0
133 154 0
158 179 0
99 117 0
157 179 0
159 178 0
112 123 0
143 162 0
130 149 0
161 182 0
127 147 0
138 158 0
136 154 0
141 164 0
137 159 0
153 175 0
130 152 0
142 162 0
127 146 0
160 180 0
131 149 0
115 136 0
112 126 0
122 138 0
108 129 0
142 159 0
133 157 0
137 157 0
152 165 0
109 130 0
153 173 0
135 156 0
157 178 0
123 135 0
125 143 0
111 130 0
149 170 0
124 146 0
118 135 0
118 138 0
113 138 0
149 169 0
131 151 0
124 140 0
126 147 0
124 137 0
130 148 0
148 171 0
134 153 0
110 126 0
126 147 0
139 155 0
133 149 0
115 137 0
133 147 0
138 150 0
126 137 0
128 147 0
130 145 0
141 161 0
127 145 0
154 173 0
123 146 0
143 161 0
128 149 0
100 114 0
132 150 0
98 112 0
120 131 0
115 137 0
90 101 0
126 144 0
149 169 0
148 163 0
84 97 0
147 169 0
138 154 0
132 147 0
126 137 0
136 158 0
91 105 0
121 140 0
132 144 0
165 188 0
141 157 0
147 170 0
163 188 0
128 142 0
120 142 0
136 152 0
162 179 0
109 115 0
136 145 0
162 183 0
120 132 0
118 128 0
132 147 0
151 163 0
128 136 0
164 179 0
151 164 0
170 188 0
101 108 0
132 143 0
135 145 0
139 157 0
143 158 0
164 182 0
125 131 0
173 180 0
129 137 0
134 149 0
142 155 0
136 137 0
154 166 0
116 127 0
129 131 0
122 131 0
153 162 0
145 163 0
160 173 0
160 170 0
144 149 0
141 147 0
130 141 0
151 158 0
157 164 0
154 170 0
154 161 0
158 174 0
157 163 0
135 137 0
137 148 0
153 157 0
143 144 0
152 160 0
168 176 0
145 155 0
152 155 0
152 161 0
166 172 0
159 161 0
136 133 0
160 165 0
117 120 0
145 146 0
129 130 0
150 152 0
150 157 0
142 141 0
146 149 0
137 140 0
120 108 0
151 154 0
141 149 0
131 129 0
149 147 0
120 119 0
148 139 0
135 131 0
135 124 0
135 134 0
125 124 0
124 116 0
159 159 0
140 137 0
138 140 0
153 155 0
134 132 0
157 157 0
133 134 0
131 131 0
143 141 0
139 137 0
136 129 0
134 134 0
157 165 0
140 140 0
131 130 0
142 142 0
149 154 0
154 157 0
145 146 0
166 173 0
146 139 0
143 139 0
143 130 0
154 163 0
129 133 0
143 146 0
142 147 0
143 144 0
172 183 0
160 168 0
156 164 0
154 162 0
159 162 0
160 164 0
163 171 0
161 170 0
164 173 0
155 157 0
160 169 0
152 159 0
168 178 0
161 176 0
158 167 0
152 153 0
166 170 0
163 173 0
158 164 0
147 148 0
167 181 0
170 183 0
171 191 0
166 176 0
153 155 0
158 168 0
155 160 0
155 162 0
166 180 0
162 179 0
162 183 0
158 177 0
163 184 0
156 175 0
165 189 0
157 176 0
168 190 0
163 183 0
160 180 0
155 174 0
155 172 0
164 186 0
171 191 0
151 170 0
154 171 0
155 172 0
160 178 0
161 180 0
157 174 0
167 185 0
168 185 0
157 176 0
154 174 0
152 170 0
145 161 0
149 165 0
160 178 0
155 174 0
155 173 0
156 172 0
164 184 0
136 151 0
152 168 0
149 165 0
165 184 0
133 149 0
177 194 0
132 148 0
138 153 0
151 166 0
154 170 0
168 185 0
136 149 0
156 171 0
145 165 0
154 171 0
137 150 0
137 150 0
110 123 0
158 174 0
125 139 0
153 169 0
157 174 0
155 173 0
142 158 0
133 150 0
132 151 0
145 160 0
134 151 0
133 147 0
161 179 0
170 188 0
149 166 0
141 156 0
136 152 0
116 128 0
137 152 0
147 163 0
158 179 0
150 166 0
121 134 0
126 141 0
121 137 0
142 159 0
156 172 0
137 155 0
129 145 0
138 154 0
147 164 0
126 139 0
150 169 0
155 172 0
141 158 0
147 162 0
137 150 0
142 159 0
142 160 0
142 161 0
135 153 0
106 120 0
154 172 0
140 156 0
135 150 0
146 161 0
152 170 0
125 139 0
157 177 0
150 172 0
127 148 0
166 184 0
123 140 0
150 171 0
152 172 0
137 155 0
106 124 0
129 147 0
115 137 0
132 148 0
157 178 0
135 151 0
154 172 0
137 157 0
157 172 0
152 173 0
147 165 0
160 180 0
124 142 0
140 159 0
115 132 0
135 153 0
136 156 0
124 145 0
178 198 0
127 147 0
149 170 0
121 143 0
112 131 0
134 154 0
129 150 0
162 184 0
138 160 0
161 182 0
146 167 0
138 158 0
139 161 0
79 103 0
160 180 0
138 160 0
149 170 0
122 139 0
135 158 0
140 161 0
96 116 0
139 159 0
152 174 0
133 154 0
145 166 0
159 182 0
116 135 0
142 162 0
84 105 0
137 154 0
136 158 0
131 147 0
141 153 0
113 133 0
106 129 0
125 145 0
102 117 0
118 139 0
148 170 0
123 146 0
136 159 0
134 153 0
140 163 0
120 140 0
127 147 0
157 178 0
142 161 0
119 137 0
125 140 0
90 110 0
84 104 0
121 139 0
124 145 0
137 159 0
147 167 0
145 169 0
132 150 0
124 145 0
149 169 0
150 169 0
118 137 0
117 137 0
170 186 0
120 143 0
142 162 0
65 84 0
147 164 0
144 167 0
104 127 0
128 148 0
136 152 0
134 158 0
123 145 0
128 149 0
134 156 0
131 151 0
150 166 0
128 141 0
154 178 0
115 133 0
131 150 0
147 162 0
141 159 0
140 158 0
145 164 0
129 147 0
104 124 0
133 147 0
126 148 0
139 161 0
119 138 0
132 155 0
109 127 0
55 73 0
145 159 0
137 160 0
131 146 0
112 130 0
131 150 0
146 169 0
132 149 0
143 165 0
99 112 0
138 157 0
106 125 0
143 160 0
137 158 0
135 149 0
104 119 0
110 131 0
113 127 0
118 136 0
140 156 0
155 177 0
139 158 0
151 171 0
131 143 0
123 138 0
127 148 0
141 162 0
131 150 0
103 116 0
138 159 0
114 138 0
102 123 0
127 145 0
152 172 0
120 138 0
135 150 0
158 177 0
128 147 0
135 147 0
150 170 0
142 150 0
145 165 0
148 158 0
163 187 0
132 144 0
138 159 0
162 178 0
137 155 0
111 123 0
149 170 0
146 159 0
145 163 0
165 188 0
154 171 0
135 144 0
138 160 0
131 145 0
150 170 0
145 165 0
137 144 0
133 141 0
150 171 0
123 135 0
142 163 0
136 148 0
146 161 0
153 168 0
127 137 0
135 141 0
136 156 0
133 145 0
134 149 0
143 159 0
142 148 0
153 170 0
140 150 0
147 161 0
154 168 0
158 176 0
124 131 0
142 149 0
115 118 0
123 132 0
149 169 0
150 166 0
136 143 0
146 154 0
140 151 0
144 151 0
154 170 0
167 176 0
146 157 0
141 148 0
142 152 0
115 120 0
139 137 0
136 142 0
125 117 0
157 166 0
147 153 0
147 145 0
138 149 0
154 167 0
121 119 0
147 157 0
142 144 0
141 143 0
156 162 0
136 143 0
124 117 0
135 140 0
133 140 0
140 148 0
131 122 0
120 122 0
138 139 0
148 147 0
127 122 0
138 139 0
148 149 0
130 132 0
122 116 0
125 122 0
152 156 0
131 125 0
137 139 0
126 121 0
151 154 0
133 135 0
121 113 0
148 148 0
137 131 0
141 138 0
138 140 0
127 131 0
147 147 0
151 150 0
157 164 0
146 142 0
150 149 0
126 115 0
146 144 0
163 171 0
136 134 0
133 133 0
143 145 0
150 154 0
152 150 0
153 157 0
163 171 0
142 139 0
158 162 0
150 153 0
157 164 0
145 148 0
163 169 0
142 137 0
155 166 0
169 174 0
155 162 0
145 147 0
144 152 0
170 178 0
161 168 0
143 139 0
151 161 0
167 170 0
154 159 0
163 177 0
163 176 0
136 138 0
157 168 0
158 163 0
161 170 0
176 182 0
172 186 0
165 181 0
165 179 0
154 159 0
174 189 0
169 179 0
169 183 0
167 182 0
159 164 0
178 196 0
161 181 0
165 184 0
156 177 0
165 184 0
169 189 0
168 188 0
161 180 0
167 187 0
149 167 0
168 184 0
169 187 0
149 168 0
174 193 0
167 187 0
164 188 0
170 188 0
150 168 0
154 173 0
154 172 0
140 157 0
163 181 0
147 164 0
163 181 0
162 180 0
164 178 0
164 183 0
138 154 0
148 166 0
139 155 0
146 166 0
146 162 0
154 171 0
156 176 0
148 164 0
143 158 0
143 158 0
164 181 0
123 138 0
155 171 0
145 163 0
157 174 0
146 161 0
148 164 0
141 155 0
126 143 0
135 153 0
149 166 0
164 180 0
155 172 0
139 156 0
162 177 0
164 180 0
125 140 0
134 146 0
161 178 0
128 141 0
124 139 0
160 180 0
131 147 0
134 149 0
155 174 0
161 180 0
136 152 0
120 133 0
133 148 0
139 155 0
153 168 0
126 140 0
127 145 0
141 156 0
155 172 0
151 171 0
132 147 0
157 174 0
142 160 0
139 155 0
122 140 0
158 177 0
142 159 0
127 146 0
136 149 0
127 143 0
120 137 0
127 141 0
126 143 0
140 155 0
134 152 0
127 146 0
168 187 0
140 158 0
140 159 0
134 150 0
152 171 0
139 154 0
157 174 0
148 166 0
140 160 0
140 161 0
158 178 0
147 166 0
100 114 0
153 171 0
144 164 0
124 140 0
147 166 0
162 180 0
136 155 0
137 157 0
154 173 0
116 135 0
118 138 0
144 159 0
95 111 0
122 142 0
139 157 0
119 137 0
148 168 0
140 161 0
160 180 0
134 157 0
126 147 0
146 166 0
110 133 0
121 142 0
149 171 0
148 167 0
135 156 0
145 165 0
142 161 0
158 179 0
133 151 0
163 185 0
149 171 0
109 130 0
143 160 0
131 152 0
159 179 0
136 156 0
138 160 0
133 155 0
136 153 0
131 151 0
135 157 0
119 140 0
159 178 0
151 175 0
135 152 0
136 161 0
160 182 0
145 165 0
137 158 0
134 154 0
154 174 0
133 154 0
145 166 0
163 183 0
162 182 0
156 175 0
100 122 0
150 172 0
140 156 0
140 164 0
128 145 0
131 155 0
120 134 0
130 148 0
144 165 0
92 111 0
162 186 0
125 148 0
110 134 0
142 161 0
119 138 0
133 152 0
92 109 0
156 180 0
141 159 0
112 129 0
135 154 0
74 93 0
146 170 0
106 118 0
143 167 0
113 133 0
125 144 0
154 176 0
118 134 0
149 169 0
118 139 0
104 124 0
160 181 0
138 158 0
145 166 0
128 149 0
150 170 0
150 170 0
106 124 0
154 171 0
146 164 0
83 99 0
104 124 0
121 144 0
107 119 0
124 143 0
110 122 0
126 146 0
151 172 0
91 109 0
148 168 0
112 131 0
137 154 0
93 115 0
131 152 0
118 138 0
123 142 0
99 120 0
134 157 0
120 142 0
144 162 0
126 149 0
145 166 0
113 136 0
154 174 0
124 140 0
138 157 0
145 167 0
158 176 0
140 160 0
129 145 0
143 165 0
136 155 0
102 120 0
125 140 0
167 188 0
129 146 0
130 149 0
159 175 0
146 167 0
146 164 0
145 165 0
121 135 0
125 141 0
127 144 0
120 132 0
154 169 0
123 140 0
143 158 0
126 143 0
138 156 0
109 128 0
117 134 0
138 156 0
137 153 0
144 156 0
136 154 0
157 179 0
147 161 0
106 120 0
162 181 0
133 143 0
162 178 0
148 167 0
141 155 0
135 154 0
161 183 0
106 115 0
144 167 0
136 149 0
140 156 0
166 185 0
141 162 0
119 137 0
140 157 0
158 175 0
138 151 0
142 154 0
147 157 0
154 176 0
149 166 0
159 170 0
138 152 0
129 139 0
171 184 0
123 130 0
127 140 0
152 173 0
143 157 0
172 189 0
135 146 0
154 169 0
133 134 0
141 148 0
116 122 0
149 162 0
126 146 0
150 155 0
156 167 0
132 143 0
132 148 0
133 140 0
143 151 0
148 156 0
107 112 0
156 165 0
115 115 0
153 170 0
136 138 0
154 157 0
137 142 0
116 116 0
152 158 0
151 151 0
141 153 0
140 138 0
155 161 0
146 151 0
166 175 0
130 136 0
140 150 0
154 157 0
147 153 0
130 131 0
113 120 0
143 141 0
151 155 0
144 143 0
163 173 0
135 137 0
158 163 0
112 106 0
144 154 0
144 152 0
140 134 0
132 134 0
134 133 0
152 166 0
162 174 0
143 148 0
148 143 0
148 153 0
126 125 0
159 157 0
125 118 0
165 169 0
133 127 0
153 156 0
147 150 0
146 153 0
137 137 0
151 154 0
132 133 0
147 152 0
158 155 0
131 126 0
147 146 0
154 156 0
160 164 0
133 134 0
147 156 0
162 171 0
159 162 0
120 118 0
143 146 0
154 152 0
154 156 0
153 147 0
149 157 0
168 178 0
131 123 0
174 188 0
161 177 0
160 167 0
153 151 0
145 147 0
147 151 0
146 151 0
140 138 0
161 160 0
154 164 0
152 159 0
145 149 0
152 147 0
153 159 0
173 185 0
170 169 0
161 169 0
148 151 0
156 173 0
155 159 0
152 160 0
159 174 0
165 180 0
171 178 0
166 177 0
159 168 0
164 172 0
155 153 0
162 171 0
167 181 0
153 162 0
167 186 0
166 184 0
155 171 0
158 176 0
171 190 0
158 177 0
165 186 0
157 176 0
149 168 0
159 178 0
165 184 0
163 182 0
152 167 0
157 177 0
152 170 0
157 174 0
170 189 0
167 186 0
175 194 0
125 143 0
145 162 0
159 175 0
154 171 0
147 166 0
143 160 0
155 175 0
169 186 0
161 179 0
159 178 0
165 182 0
161 180 0
146 163 0
168 186 0
165 181 0
149 167 0
137 153 0
160 174 0
142 156 0
124 139 0
149 164 0
164 184 0
154 172 0
147 165 0
155 173 0
139 154 0
165 182 0
164 181 0
132 149 0
153 170 0
125 140 0
127 141 0
154 172 0
139 156 0
152 168 0
142 160 0
139 156 0
144 161 0
138 154 0
146 163 0
133 153 0
173 190 0
131 146 0
124 139 0
134 152 0
143 161 0
151 169 0
128 143 0
148 165 0
158 174 0
129 144 0
153 169 0
139 157 0
161 176 0
147 165 0
149 169 0
141 158 0
127 143 0
146 161 0
158 179 0
144 163 0
170 187 0
153 168 0
164 180 0
136 152 0
142 159 0
143 160 0
165 185 0
137 154 0
143 160 0
153 172 0
152 171 0
149 163 0
149 167 0
125 143 0
164 183 0
143 162 0
92 108 0
116 135 0
152 172 0
140 157 0
124 142 0
140 159 0
166 185 0
152 173 0
154 175 0
117 135 0
140 161 0
133 154 0
138 158 0
107 125 0
154 174 0
132 149 0
156 179 0
127 143 0
143 163 0
150 173 0
149 169 0
142 157 0
150 169 0
134 156 0
120 137 0
143 166 0
155 178 0
118 138 0
155 177 0
144 166 0
142 162 0
140 159 0
107 120 0
152 173 0
129 151 0
105 123 0
134 155 0
145 164 0
138 160 0
160 179 0
170 189 0
157 176 0
134 154 0
153 173 0
152 173 0
163 184 0
153 176 0
143 162 0
106 125 0
149 171 0
166 187 0
139 161 0
139 158 0
169 188 0
156 177 0
136 156 0
128 148 0
140 162 0
141 153 0
148 173 0
153 177 0
134 156 0
133 155 0
143 165 0
147 168 0
140 162 0
147 170 0
146 168 0
111 132 0
136 155 0
118 141 0
162 182 0
153 173 0
115 133 0
129 150 0
122 141 0
122 144 0
157 180 0
119 135 0
144 165 0
149 171 0
143 160 0
117 135 0
138 159 0
142 161 0
142 163 0
140 161 0
129 143 0
151 173 0
153 175 0
148 168 0
137 158 0
125 144 0
136 157 0
134 153 0
126 141 0
132 143 0
139 161 0
149 172 0
127 145 0
140 161 0
138 161 0
113 134 0
172 197 0
82 105 0
120 139 0
127 145 0
131 149 0
145 160 0
143 165 0
150 171 0
123 143 0
152 177 0
91 111 0
160 177 0
100 123 0
129 147 0
117 135 0
147 168 0
133 150 0
136 155 0
74 84 0
155 174 0
164 188 0
120 140 0
156 177 0
108 128 0
96 113 0
138 161 0
125 142 0
128 141 0
140 165 0
136 157 0
133 148 0
150 169 0
139 158 0
134 147 0
133 146 0
134 147 0
132 147 0
141 160 0
151 172 0
139 156 0
136 157 0
138 160 0
160 177 0
94 112 0
146 166 0
148 164 0
147 163 0
146 164 0
119 138 0
131 148 0
135 159 0
131 145 0
126 143 0
131 149 0
156 179 0
139 158 0
154 171 0
128 148 0
112 123 0
143 155 0
124 133 0
144 162 0
148 167 0
143 158 0
153 168 0
134 155 0
152 171 0
150 167 0
131 141 0
131 138 0
122 138 0
126 140 0
139 149 0
157 179 0
168 188 0
139 153 0
149 167 0
137 154 0
149 169 0
161 166 0
118 139 0
149 163 0
154 172 0
166 190 0
134 151 0
152 167 0
140 155 0
134 141 0
126 147 0
133 149 0
146 159 0
153 168 0
149 161 0
139 140 0
137 144 0
116 127 0
133 146 0
147 164 0
153 171 0
153 170 0
101 124 0
171 191 0
98 107 0
153 157 0
165 176 0
145 159 0
142 151 0
143 154 0
137 153 0
153 163 0
99 104 0
148 150 0
174 183 0
156 170 0
131 136 0
139 136 0
117 117 0
133 144 0
142 147 0
156 165 0
152 161 0
155 166 0
160 170 0
153 158 0
154 159 0
138 140 0
162 168 0
150 154 0
132 123 0
160 170 0
144 152 0
154 158 0
159 158 0
143 143 0
146 148 0
168 180 0
153 146 0
136 132 0
154 162 0
137 137 0
140 136 0
146 141 0
156 172 0
123 119 0
150 159 0
156 150 0
120 114 0
153 154 0
121 108 0
151 154 0
162 164 0
164 170 0
134 130 0
158 164 0
127 125 0
159 158 0
134 132 0
141 144 0
159 161 0
144 134 0
144 147 0
144 150 0
130 122 0
134 129 0
158 169 0
157 162 0
159 165 0
162 167 0
151 152 0
153 153 0
132 126 0
147 142 0
148 157 0
145 149 0
124 117 0
161 164 0
164 171 0
161 163 0
153 159 0
157 153 0
173 180 0
155 160 0
154 159 0
157 157 0
163 172 0
163 174 0
148 148 0
167 172 0
166 174 0
155 163 0
162 171 0
159 161 0
170 178 0
158 170 0
163 171 0
175 192 0
163 173 0
166 178 0
153 159 0
170 182 0
159 170 0
169 188 0
155 171 0
158 176 0
154 171 0
155 172 0
150 168 0
176 194 0
168 186 0
154 170 0
168 187 0
155 172 0
157 176 0
144 162 0
159 179 0
143 161 0
164 184 0
162 180 0
163 185 0
159 179 0
138 154 0
159 176 0
164 185 0
160 180 0
170 191 0
152 171 0
149 164 0
149 166 0
125 141 0
156 174 0
145 162 0
159 177 0
162 179 0
147 163 0
153 170 0
141 157 0
144 161 0
160 176 0
150 168 0
127 146 0
147 163 0
150 169 0
162 180 0
141 159 0
167 185 0
155 171 0
146 162 0
133 151 0
154 171 0
131 147 0
154 170 0
153 170 0
166 183 0
127 146 0
141 157 0
136 150 0
143 161 0
133 152 0
153 169 0
146 161 0
158 176 0
159 178 0
139 158 0
144 160 0
145 163 0
156 175 0
156 172 0
147 164 0
156 172 0
152 170 0
160 179 0
153 170 0
147 163 0
141 161 0
138 155 0
141 160 0
154 169 0
156 175 0
143 160 0
156 176 0
153 170 0
140 158 0
139 159 0
173 194 0
150 169 0
139 158 0
135 149 0
156 173 0
137 153 0
141 157 0
142 161 0
167 183 0
147 169 0
159 177 0
126 140 0
155 176 0
130 148 0
152 170 0
129 150 0
163 181 0
145 164 0
149 166 0
124 142 0
137 157 0
155 174 0
148 170 0
142 162 0
160 178 0
159 181 0
142 161 0
123 143 0
135 154 0
154 173 0
152 174 0
107 124 0
152 173 0
164 186 0
162 182 0
165 186 0
120 137 0
137 155 0
134 153 0
155 177 0
95 115 0
153 175 0
134 154 0
156 176 0
108 131 0
154 176 0
145 165 0
157 175 0
110 134 0
149 169 0
120 140 0
164 184 0
136 154 0
158 177 0
128 145 0
139 160 0
127 147 0
119 134 0
167 185 0
134 157 0
169 191 0
106 128 0
149 169 0
145 169 0
147 171 0
145 169 0
158 180 0
121 140 0
132 152 0
129 150 0
129 151 0
114 136 0
138 161 0
149 164 0
116 134 0
123 148 0
168 189 0
132 152 0
121 138 0
143 161 0
137 158 0
81 96 0
141 165 0
152 177 0
151 169 0
120 138 0
145 168 0
139 159 0
139 158 0
161 183 0
138 157 0
105 126 0
138 160 0
136 153 0
121 143 0
159 181 0
143 163 0
124 147 0
143 165 0
116 132 0
114 135 0
136 148 0
118 137 0
163 185 0
136 153 0
143 163 0
139 158 0
133 147 0
122 145 0
132 154 0
139 158 0
134 154 0
143 164 0
133 157 0
170 188 0
137 157 0
120 140 0
121 141 0
94 111 0
136 157 0
126 147 0
141 163 0
128 151 0
121 139 0
129 151 0
133 149 0
153 172 0
88 108 0
126 146 0
137 159 0
114 133 0
92 105 0
138 160 0
129 151 0
148 165 0
141 162 0
141 162 0
135 157 0
147 171 0
142 161 0
154 176 0
151 173 0
144 165 0
101 117 0
113 133 0
156 175 0
145 163 0
146 166 0
152 171 0
121 141 0
135 149 0
129 150 0
118 133 0
123 139 0
165 187 0
121 142 0
110 129 0
130 147 0
135 151 0
136 161 0
128 140 0
153 174 0
133 151 0
148 164 0
146 167 0
139 157 0
133 152 0
129 148 0
123 140 0
152 170 0
132 151 0
146 171 0
167 184 0
150 164 0
153 174 0
146 167 0
166 185 0
131 146 0
149 163 0
160 175 0
154 171 0
119 132 0
158 180 0
133 155 0
122 134 0
142 163 0
160 169 0
147 171 0
125 142 0
143 158 0
126 146 0
122 143 0
152 173 0
155 171 0
145 158 0
148 166 0
114 132 0
139 155 0
146 164 0
146 152 0
154 172 0
151 164 0
129 149 0
143 161 0
122 140 0
163 169 0
160 178 0
146 162 0
154 165 0
125 138 0
155 170 0
166 181 0
139 147 0
160 180 0
124 142 0
118 127 0
142 150 0
161 173 0
143 154 0
160 172 0
136 149 0
135 144 0
135 149 0
145 155 0
113 134 0
104 116 0
127 131 0
165 170 0
148 164 0
158 175 0
139 147 0
155 170 0
118 120 0
134 142 0
155 160 0
123 140 0
170 176 0
137 138 0
127 138 0
147 153 0
146 152 0
154 152 0
160 172 0
130 131 0
144 150 0
135 142 0
137 133 0
123 123 0
150 164 0
156 160 0
159 170 0
145 149 0
138 138 0
165 167 0
158 159 0
140 147 0
129 132 0
141 144 0
132 130 0
156 157 0
132 126 0
152 155 0
131 126 0
138 141 0
147 147 0
155 155 0
165 178 0
151 146 0
135 140 0
135 135 0
141 135 0
152 159 0
156 153 0
150 156 0
163 170 0
123 118 0
149 151 0
123 116 0
153 160 0
134 135 0
152 152 0
153 158 0
138 134 0
176 188 0
164 167 0
158 167 0
130 125 0
153 154 0
157 168 0
165 172 0
156 153 0
161 165 0
149 146 0
142 138 0
154 164 0
163 168 0
145 141 0
137 141 0
157 162 0
155 152 0
144 141 0
174 194 0
151 155 0
151 159 0
159 161 0
160 166 0
149 152 0
153 160 0
146 152 0
164 173 0
164 180 0
161 167 0
158 160 0
157 162 0
156 159 0
157 160 0
161 172 0
168 179 0
163 186 0
161 183 0
174 194 0
157 175 0
167 187 0
162 181 0
160 178 0
156 173 0
162 182 0
161 178 0
158 174 0
167 187 0
162 179 0
157 175 0
152 171 0
156 175 0
147 164 0
167 186 0
148 162 0
156 175 0
145 161 0
136 151 0
148 163 0
143 162 0
159 177 0
142 157 0
153 172 0
162 181 0
161 178 0
153 169 0
165 184 0
127 143 0
157 174 0
160 177 0
150 166 0
154 170 0
147 163 0
156 176 0
166 184 0
155 172 0
153 167 0
163 181 0
148 165 0
117 129 0
142 160 0
156 170 0
150 166 0
146 161 0
143 158 0
125 138 0
145 162 0
133 150 0
150 168 0
142 159 0
160 182 0
142 160 0
125 139 0
139 155 0
143 160 0
145 164 0
139 157 0
158 176 0
132 148 0
160 179 0
157 175 0
148 166 0
166 185 0
140 158 0
142 159 0
169 190 0
140 157 0
147 164 0
138 156 0
153 173 0
133 148 0
154 172 0
143 161 0
151 171 0
158 179 0
147 165 0
156 177 0
143 162 0
141 160 0
133 151 0
128 145 0
139 155 0
148 165 0
166 187 0
139 157 0
159 177 0
138 157 0
135 153 0
119 136 0
172 192 0
130 148 0
143 163 0
142 162 0
132 152 0
140 161 0
149 170 0
139 159 0
150 169 0
136 152 0
134 150 0
127 143 0
131 152 0
138 155 0
154 175 0
145 169 0
152 172 0
164 185 0
151 172 0
139 159 0
138 157 0
134 154 0
156 175 0
130 147 0
91 108 0
139 159 0
126 147 0
136 158 0
129 150 0
137 156 0
149 167 0
133 147 0
158 180 0
144 165 0
147 165 0
140 161 0
164 186 0
148 171 0
100 119 0
143 165 0
143 162 0
153 175 0
153 174 0
153 171 0
147 168 0
173 196 0
151 171 0
128 150 0
156 177 0
137 161 0
127 145 0
126 146 0
122 141 0
126 146 0
119 135 0
151 173 0
145 166 0
138 160 0
135 158 0
149 171 0
163 187 0
137 156 0
157 182 0
127 148 0
112 132 0
134 158 0
145 168 0
129 151 0
163 185 0
142 165 0
150 174 0
149 171 0
124 142 0
122 142 0
129 149 0
157 179 0
95 117 0
117 135 0
85 108 0
142 159 0
129 143 0
131 149 0
137 153 0
158 177 0
139 160 0
131 151 0
153 176 0
138 154 0
126 144 0
136 159 0
166 187 0
150 171 0
144 159 0
130 145 0
124 142 0
158 177 0
144 165 0
152 171 0
130 150 0
149 169 0
134 156 0
137 157 0
110 130 0
153 176 0
149 168 0
106 125 0
147 167 0
104 115 0
127 143 0
132 148 0
155 172 0
149 167 0
130 146 0
142 166 0
138 158 0
123 143 0
163 183 0
126 143 0
102 124 0
155 178 0
153 168 0
141 161 0
147 167 0
144 166 0
163 186 0
135 151 0
146 167 0
156 176 0
146 164 0
133 152 0
145 164 0
134 154 0
116 133 0
130 148 0
155 180 0
158 181 0
131 149 0
154 175 0
136 153 0
134 155 0
112 135 0
132 147 0
153 169 0
144 163 0
149 165 0
150 166 0
148 166 0
141 161 0
127 150 0
142 150 0
159 177 0
136 158 0
140 155 0
120 138 0
137 153 0
141 158 0
127 149 0
153 167 0
149 173 0
156 178 0
155 178 0
156 172 0
132 148 0
153 173 0
143 160 0
160 181 0
141 160 0
115 124 0
158 172 0
113 132 0
144 161 0
150 153 0
147 158 0
140 154 0
116 128 0
158 177 0
114 135 0
156 175 0
127 145 0
161 178 0
169 191 0
150 164 0
146 168 0
145 163 0
150 170 0
133 143 0
159 170 0
167 180 0
146 163 0
114 123 0
90 109 0
140 154 0
169 187 0
116 129 0
131 141 0
153 172 0
135 147 0
149 172 0
139 153 0
151 171 0
143 156 0
156 167 0
115 116 0
149 156 0
141 158 0
122 125 0
145 157 0
126 138 0
127 137 0
144 153 0
142 156 0
133 137 0
152 154 0
110 110 0
142 149 0
132 147 0
135 142 0
138 139 0
156 170 0
145 154 0
149 161 0
145 148 0
162 178 0
154 166 0
140 148 0
146 142 0
150 155 0
129 139 0
149 167 0
147 154 0
130 138 0
117 113 0
141 156 0
115 111 0
137 144 0
153 157 0
146 158 0
125 128 0
146 148 0
139 142 0
156 157 0
157 156 0
150 152 0
151 157 0
146 151 0
137 139 0
150 161 0
130 136 0
157 166 0
135 137 0
137 132 0
129 138 0
153 149 0
146 149 0
151 147 0
123 117 0
155 163 0
172 186 0
145 144 0
142 149 0
152 156 0
152 161 0
131 128 0
129 121 0
140 143 0
150 149 0
156 161 0
161 169 0
156 163 0
144 141 0
143 143 0
146 144 0
158 164 0
154 157 0
149 148 0
146 146 0
166 173 0
156 164 0
155 162 0
150 156 0
153 153 0
154 166 0
165 174 0
151 165 0
173 188 0
144 145 0
166 172 0
162 171 0
150 156 0
165 174 0
156 160 0
165 175 0
160 174 0
161 169 0
152 159 0
160 167 0
158 163 0
165 174 0
156 166 0
156 156 0
158 159 0
162 170 0
160 169 0
147 155 0
168 178 0
167 177 0
184 200 0
165 181 0
168 187 0
152 169 0
157 176 0
177 197 0
169 191 0
159 178 0
165 182 0
161 179 0
152 167 0
164 187 0
159 178 0
161 179 0
157 175 0
170 190 0
170 188 0
160 175 0
137 152 0
157 173 0
165 183 0
156 173 0
148 164 0
149 163 0
138 157 0
171 188 0
156 176 0
149 163 0
160 180 0
147 163 0
144 161 0
144 162 0
161 179 0
169 187 0
166 183 0
154 175 0
159 174 0
157 171 0
134 151 0
152 171 0
149 167 0
170 190 0
148 165 0
162 179 0
159 177 0
173 194 0
145 162 0
150 167 0
122 138 0
151 166 0
140 156 0
146 164 0
138 155 0
147 163 0
140 158 0
158 172 0
146 164 0
153 174 0
145 163 0
147 165 0
152 169 0
164 181 0
151 169 0
148 167 0
137 154 0
152 170 0
144 163 0
143 161 0
132 149 0
132 151 0
145 161 0
142 161 0
125 143 0
162 185 0
148 165 0
113 130 0
155 174 0
147 169 0
123 142 0
133 151 0
129 149 0
145 159 0
117 136 0
164 184 0
160 177 0
164 183 0
121 139 0
146 165 0
142 158 0
129 143 0
136 153 0
116 132 0
149 169 0
150 169 0
158 176 0
139 157 0
145 166 0
129 146 0
165 185 0
155 172 0
158 173 0
156 177 0
154 173 0
152 174 0
154 174 0
143 164 0
136 156 0
136 155 0
141 162 0
142 162 0
137 158 0
134 154 0
124 139 0
154 175 0
145 165 0
155 175 0
141 162 0
154 175 0
130 145 0
133 155 0
151 171 0
141 161 0
138 159 0
160 183 0
138 161 0
151 177 0
143 163 0
130 148 0
151 169 0
141 164 0
163 188 0
117 138 0
155 177 0
136 156 0
139 159 0
135 156 0
113 132 0
144 159 0
143 162 0
159 181 0
144 165 0
140 166 0
131 146 0
122 146 0
165 186 0
154 175 0
144 165 0
134 154 0
114 133 0
138 160 0
140 160 0
148 168 0
125 144 0
131 153 0
112 129 0
151 174 0
147 165 0
112 125 0
127 149 0
133 155 0
131 153 0
109 128 0
159 180 0
112 131 0
142 161 0
154 179 0
125 149 0
132 151 0
125 150 0
117 137 0
128 149 0
156 176 0
127 146 0
129 152 0
124 151 0
127 148 0
144 163 0
113 139 0
156 179 0
117 138 0
164 188 0
138 155 0
111 134 0
149 170 0
142 160 0
134 155 0
102 120 0
162 180 0
125 149 0
136 152 0
129 150 0
143 165 0
139 159 0
142 163 0
133 158 0
126 146 0
155 174 0
159 181 0
135 158 0
152 170 0
143 163 0
145 161 0
123 145 0
143 169 0
125 147 0
103 123 0
132 146 0
138 160 0
144 165 0
136 156 0
133 147 0
135 153 0
147 165 0
114 132 0
148 170 0
129 149 0
139 151 0
119 138 0
123 144 0
155 173 0
138 154 0
149 169 0
143 166 0
138 154 0
144 161 0
138 159 0
144 164 0
146 168 0
135 152 0
157 180 0
147 158 0
137 155 0
148 167 0
128 143 0
87 107 0
146 169 0
151 174 0
163 187 0
149 165 0
135 157 0
125 145 0
126 148 0
147 162 0
111 134 0
120 140 0
129 135 0
153 178 0
142 161 0
147 156 0
128 145 0
127 141 0
135 152 0
157 175 0
140 162 0
158 176 0
139 162 0
163 187 0
165 189 0
138 158 0
133 146 0
139 158 0
110 127 0
125 145 0
157 179 0
149 159 0
124 142 0
137 158 0
135 158 0
143 163 0
160 175 0
130 142 0
109 124 0
140 152 0
148 163 0
150 173 0
141 158 0
158 179 0
149 173 0
148 167 0
128 142 0
146 151 0
127 138 0
132 146 0
136 156 0
137 144 0
152 171 0
125 135 0
151 153 0
164 181 0
155 175 0
143 160 0
144 158 0
132 133 0
162 180 0
123 140 0
158 176 0
139 155 0
158 165 0
134 148 0
122 136 0
134 155 0
148 156 0
115 120 0
139 146 0
177 196 0
162 180 0
126 135 0
148 163 0
163 180 0
122 129 0
133 150 0
136 147 0
155 163 0
125 133 0
157 172 0
104 108 0
154 167 0
150 162 0
152 156 0
151 157 0
149 159 0
133 142 0
158 165 0
135 138 0
155 167 0
141 147 0
144 153 0
156 170 0
161 175 0
139 143 0
135 140 0
138 144 0
140 141 0
150 159 0
144 150 0
145 150 0
136 136 0
138 136 0
133 133 0
143 155 0
154 170 0
135 140 0
122 115 0
154 160 0
135 142 0
143 149 0
156 165 0
153 159 0
159 163 0
156 162 0
148 145 0
159 160 0
149 157 0
151 158 0
140 147 0
153 160 0
163 173 0
147 158 0
148 156 0
148 154 0
161 168 0
147 138 0
134 131 0
145 145 0
142 137 0
158 162 0
162 170 0
155 158 0
146 150 0
176 189 0
157 154 0
161 162 0
158 164 0
138 142 0
150 148 0
152 147 0
148 148 0
159 164 0
154 158 0
149 151 0
140 143 0
156 168 0
167 177 0
144 140 0
168 184 0
166 176 0
159 170 0
158 162 0
165 173 0
144 152 0
155 160 0
156 163 0
149 155 0
162 170 0
149 156 0
170 179 0
162 174 0
171 183 0
168 178 0
160 166 0
151 154 0
162 183 0
167 186 0
157 175 0
165 185 0
165 187 0
154 172 0
143 160 0
152 169 0
160 179 0
158 176 0
154 171 0
173 192 0
156 176 0
166 184 0
160 182 0
148 164 0
163 182 0
148 165 0
165 183 0
152 172 0
151 169 0
157 174 0
169 190 0
142 159 0
164 182 0
151 166 0
151 170 0
151 168 0
155 173 0
156 175 0
162 178 0
149 167 0
143 156 0
157 174 0
148 165 0
152 170 0
160 174 0
162 177 0
171 189 0
148 164 0
145 161 0
133 150 0
128 143 0
137 154 0
163 182 0
163 182 0
160 177 0
141 157 0
139 155 0
147 165 0
150 166 0
142 158 0
143 161 0
149 167 0
160 179 0
163 179 0
163 181 0
156 176 0
163 180 0
137 152 0
146 163 0
160 176 0
132 148 0
152 168 0
158 175 0
153 172 0
128 148 0
142 164 0
149 167 0
149 168 0
144 162 0
151 166 0
163 184 0
134 148 0
143 161 0
142 160 0
160 180 0
146 163 0
108 125 0
128 146 0
160 180 0
130 148 0
137 152 0
145 168 0
165 185 0
154 175 0
146 166 0
145 166 0
144 158 0
141 163 0
144 162 0
146 166 0
126 143 0
148 166 0
156 173 0
153 175 0
140 158 0
148 167 0
151 169 0
154 175 0
162 180 0
158 177 0
151 170 0
165 184 0
151 169 0
157 179 0
147 167 0
135 154 0
140 158 0
143 165 0
137 157 0
123 140 0
146 166 0
152 176 0
117 137 0
159 177 0
149 167 0
165 186 0
153 175 0
142 165 0
158 180 0
164 187 0
139 156 0
132 151 0
165 186 0
145 164 0
149 172 0
148 168 0
138 158 0
154 177 0
108 128 0
144 161 0
172 189 0
138 156 0
146 166 0
117 137 0
149 172 0
160 184 0
129 150 0
164 188 0
158 179 0
149 168 0
139 160 0
132 150 0
157 179 0
121 143 0
133 151 0
140 160 0
132 155 0
146 168 0
154 175 0
145 165 0
115 134 0
133 156 0
127 149 0
114 137 0
144 163 0
131 151 0
153 177 0
145 167 0
127 149 0
155 175 0
111 129 0
146 169 0
130 153 0
129 153 0
153 173 0
161 185 0
150 171 0
150 174 0
135 153 0
129 150 0
161 177 0
155 179 0
152 174 0
134 156 0
143 163 0
150 172 0
142 164 0
151 171 0
120 142 0
100 124 0
129 150 0
114 137 0
151 171 0
144 166 0
137 159 0
125 147 0
147 165 0
142 165 0
144 157 0
129 150 0
125 143 0
127 148 0
162 183 0
139 155 0
135 153 0
124 146 0
130 153 0
132 150 0
132 153 0
142 160 0
145 166 0
155 178 0
122 140 0
126 149 0
132 148 0
155 175 0
135 160 0
123 145 0
123 145 0
152 172 0
154 174 0
154 169 0
121 143 0
130 152 0
136 159 0
141 154 0
122 137 0
115 134 0
139 152 0
140 158 0
155 175 0
121 142 0
149 167 0
134 152 0
176 192 0
142 159 0
133 151 0
169 183 0
104 116 0
137 153 0
131 148 0
123 142 0
157 180 0
165 185 0
154 173 0
114 134 0
133 149 0
125 144 0
133 148 0
114 132 0
157 180 0
136 148 0
139 158 0
160 177 0
141 163 0
143 167 0
157 177 0
166 181 0
141 164 0
155 172 0
132 152 0
156 179 0
148 162 0
136 152 0
158 174 0
136 154 0
126 135 0
158 172 0
162 183 0
157 168 0
142 157 0
140 153 0
151 172 0
151 162 0
127 145 0
139 148 0
119 134 0
141 154 0
140 154 0
141 161 0
151 167 0
143 163 0
152 172 0
142 152 0
139 148 0
134 156 0
164 178 0
149 158 0
130 142 0
151 169 0
109 121 0
138 155 0
130 147 0
131 145 0
168 185 0
145 156 0
156 173 0
146 164 0
151 165 0
133 148 0
139 149 0
154 165 0
159 168 0
158 171 0
158 167 0
139 149 0
162 176 0
171 188 0
148 164 0
152 161 0
158 171 0
116 123 0
152 159 0
146 165 0
144 151 0
140 154 0
134 144 0
153 164 0
136 150 0
141 155 0
156 168 0
144 159 0
150 159 0
152 159 0
155 160 0
130 142 0
173 190 0
151 157 0
150 168 0
137 147 0
146 153 0
171 182 0
152 162 0
123 133 0
139 145 0
162 176 0
127 128 0
150 161 0
150 165 0
127 134 0
144 153 0
138 141 0
164 172 0
146 153 0
161 168 0
128 128 0
134 152 0
144 149 0
152 158 0
177 196 0
160 170 0
155 162 0
134 127 0
155 160 0
140 153 0
110 111 0
153 153 0
165 166 0
144 151 0
161 166 0
133 134 0
142 147 0
158 166 0
151 153 0
163 179 0
150 147 0
141 141 0
165 176 0
155 156 0
151 153 0
126 126 0
158 163 0
144 146 0
157 163 0
158 167 0
164 173 0
123 115 0
163 175 0
152 159 0
139 146 0
138 134 0
154 152 0
156 163 0
160 169 0
144 137 0
174 184 0
155 152 0
169 178 0
147 150 0
160 165 0
158 164 0
157 162 0
157 162 0
162 173 0
156 155 0
163 164 0
163 175 0
148 158 0
156 164 0
161 168 0
165 177 0
166 179 0
169 177 0
171 182 0
156 160 0
149 148 0
158 159 0
151 162 0
148 166 0
159 179 0
166 185 0
165 186 0
159 176 0
152 169 0
168 188 0
154 173 0
164 179 0
150 168 0
147 164 0
175 194 0
168 187 0
154 170 0
169 188 0
134 150 0
159 179 0
157 177 0
138 157 0
162 182 0
163 181 0
162 180 0
150 169 0
156 172 0
159 177 0
163 181 0
160 180 0
166 183 0
168 184 0
163 182 0
150 167 0
163 180 0
154 172 0
163 184 0
150 164 0
136 154 0
153 172 0
154 172 0
142 159 0
148 164 0
144 164 0
154 171 0
162 181 0
166 187 0
155 172 0
150 162 0
162 179 0
153 170 0
130 143 0
141 158 0
151 166 0
146 163 0
146 161 0
150 168 0
145 167 0
160 179 0
152 164 0
151 172 0
148 163 0
148 166 0
144 162 0
171 189 0
158 177 0
153 171 0
160 178 0
146 164 0
155 174 0
143 161 0
135 152 0
154 175 0
156 176 0
149 169 0
134 154 0
154 173 0
124 144 0
138 158 0
152 169 0
143 163 0
148 168 0
145 166 0
144 160 0
151 169 0
133 150 0
141 164 0
140 162 0
154 173 0
166 186 0
128 149 0
152 170 0
159 175 0
166 188 0
121 139 0
151 168 0
147 168 0
156 175 0
108 127 0
141 162 0
126 147 0
164 185 0
143 160 0
162 182 0
140 159 0
135 156 0
160 182 0
150 172 0
148 169 0
160 182 0
152 173 0
138 160 0
135 157 0
111 134 0
152 174 0
152 172 0
140 162 0
148 168 0
143 161 0
146 167 0
138 159 0
142 163 0
153 171 0
154 174 0
150 170 0
125 144 0
129 148 0
138 161 0
157 178 0
138 161 0
123 145 0
158 179 0
130 151 0
153 174 0
152 174 0
144 166 0
127 147 0
112 127 0
124 142 0
129 150 0
138 160 0
152 171 0
144 168 0
151 171 0
149 169 0
146 168 0
138 154 0
145 166 0
131 152 0
138 161 0
138 157 0
156 177 0
156 180 0
167 194 0
137 156 0
148 169 0
151 173 0
121 145 0
153 178 0
149 169 0
131 153 0
171 192 0
124 147 0
167 188 0
123 143 0
166 190 0
157 177 0
141 162 0
142 165 0
136 155 0
142 161 0
138 160 0
129 148 0
153 175 0
121 141 0
146 165 0
132 150 0
149 172 0
134 153 0
86 109 0
106 126 0
155 177 0
102 120 0
114 135 0
136 158 0
127 146 0
146 166 0
92 108 0
159 179 0
127 149 0
135 159 0
146 163 0
133 155 0
129 151 0
98 115 0
171 191 0
140 157 0
156 178 0
143 163 0
125 147 0
156 179 0
152 172 0
136 151 0
160 180 0
146 164 0
147 170 0
71 87 0
138 159 0
101 121 0
143 165 0
120 142 0
170 192 0
111 134 0
159 182 0
132 151 0
110 131 0
149 170 0
130 152 0
136 159 0
148 170 0
110 132 0
101 121 0
165 189 0
111 132 0
137 157 0
146 163 0
149 162 0
150 174 0
146 162 0
113 129 0
158 183 0
141 163 0
155 175 0
117 132 0
161 181 0
138 155 0
145 163 0
144 169 0
146 163 0
117 128 0
122 145 0
138 154 0
142 159 0
133 152 0
137 155 0
138 156 0
146 166 0
125 140 0
136 155 0
163 187 0
163 183 0
131 152 0
133 151 0
120 138 0
164 184 0
136 156 0
163 183 0
151 170 0
116 141 0
131 145 0
156 176 0
132 152 0
155 174 0
158 175 0
133 149 0
143 165 0
150 169 0
166 189 0
153 169 0
165 189 0
138 156 0
148 157 0
143 161 0
146 167 0
130 144 0
138 156 0
152 163 0
145 160 0
144 158 0
170 189 0
124 134 0
141 158 0
138 157 0
121 137 0
166 182 0
155 169 0
151 162 0
141 154 0
137 153 0
137 155 0
170 187 0
146 164 0
141 159 0
151 168 0
150 164 0
141 153 0
136 152 0
150 164 0
149 168 0
149 164 0
93 101 0
180 201 0
163 184 0
127 138 0
141 161 0
140 146 0
172 187 0
149 170 0
155 172 0
132 148 0
142 156 0
154 158 0
173 187 0
144 156 0
114 125 0
146 150 0
142 159 0
151 161 0
147 158 0
150 164 0
136 148 0
146 150 0
150 163 0
153 170 0
148 161 0
156 164 0
170 182 0
144 162 0
146 156 0
119 129 0
146 153 0
146 156 0
157 167 0
162 176 0
150 156 0
121 118 0
149 156 0
133 130 0
161 174 0
154 164 0
144 148 0
114 124 0
134 133 0
156 164 0
145 149 0
152 163 0
151 158 0
152 155 0
140 132 0
171 182 0
124 115 0
157 161 0
153 165 0
156 153 0
133 133 0
160 160 0
145 154 0
159 167 0
159 161 0
139 137 0
159 171 0
166 173 0
158 154 0
161 165 0
149 154 0
141 148 0
162 170 0
154 157 0
137 136 0
150 154 0
146 152 0
153 155 0
150 150 0
160 168 0
144 145 0
164 172 0
165 178 0
163 172 0
147 154 0
154 157 0
140 143 0
159 166 0
167 175 0
162 173 0
156 157 0
120 122 0
160 167 0
155 155 0
143 149 0
150 155 0
165 176 0
151 161 0
166 169 0
161 166 0
156 166 0
152 155 0
160 161 0
161 164 0
160 171 0
163 171 0
145 155 0
167 176 0
160 170 0
155 173 0
155 174 0
152 174 0
156 175 0
173 193 0
167 186 0
140 156 0
165 183 0
172 192 0
159 178 0
173 193 0
159 176 0
161 181 0
158 174 0
150 168 0
163 185 0
150 167 0
158 178 0
154 175 0
159 176 0
152 172 0
147 163 0
168 186 0
158 177 0
146 162 0
162 181 0
149 165 0
138 158 0
166 182 0
146 162 0
150 167 0
150 167 0
148 164 0
167 185 0
144 159 0
150 167 0
154 174 0
174 195 0
153 172 0
158 174 0
139 156 0
155 170 0
141 157 0
166 182 0
148 166 0
149 167 0
160 177 0
158 175 0
152 169 0
139 156 0
152 168 0
155 171 0
173 193 0
162 179 0
150 165 0
168 186 0
152 169 0
152 171 0
124 144 0
141 157 0
165 185 0
138 155 0
161 179 0
141 159 0
151 169 0
144 161 0
154 173 0
159 179 0
154 175 0
115 130 0
154 176 0
164 183 0
164 182 0
163 181 0
139 152 0
136 150 0
159 179 0
137 158 0
143 163 0
178 197 0
145 164 0
111 130 0
141 159 0
155 176 0
142 162 0
143 161 0
150 172 0
153 172 0
143 159 0
141 160 0
158 180 0
145 166 0
157 176 0
151 170 0
135 157 0
133 149 0
140 158 0
165 185 0
142 162 0
142 165 0
151 175 0
146 167 0
144 165 0
126 147 0
129 148 0
144 164 0
151 170 0
142 162 0
138 158 0
155 173 0
153 172 0
152 169 0
122 145 0
158 180 0
142 156 0
141 164 0
107 121 0
148 169 0
144 166 0
164 183 0
132 152 0
138 161 0
156 178 0
130 152 0
144 164 0
139 153 0
119 134 0
148 171 0
118 134 0
125 146 0
125 147 0
158 180 0
141 160 0
160 179 0
144 165 0
132 154 0
160 180 0
141 164 0
158 180 0
125 141 0
134 153 0
143 164 0
146 166 0
122 148 0
126 145 0
154 172 0
114 134 0
102 125 0
153 174 0
133 155 0
119 138 0
132 155 0
137 160 0
130 151 0
116 137 0
122 146 0
144 165 0
115 137 0
150 172 0
141 159 0
108 133 0
120 143 0
138 158 0
145 166 0
120 138 0
118 129 0
138 159 0
145 163 0
108 131 0
132 153 0
142 165 0
135 157 0
140 159 0
145 169 0
156 180 0
143 168 0
134 153 0
145 163 0
138 159 0
131 149 0
143 169 0
113 138 0
137 158 0
118 139 0
127 144 0
161 182 0
144 163 0
110 131 0
159 182 0
147 169 0
128 149 0
146 162 0
136 160 0
141 162 0
123 146 0
128 142 0
99 119 0
134 153 0
133 151 0
131 152 0
126 148 0
132 152 0
138 160 0
147 170 0
148 168 0
141 165 0
138 159 0
158 180 0
152 172 0
147 168 0
97 115 0
111 124 0
123 141 0
126 149 0
125 149 0
155 174 0
129 151 0
133 156 0
137 155 0
121 142 0
140 159 0
126 146 0
134 158 0
130 153 0
134 153 0
129 144 0
127 144 0
112 133 0
134 154 0
139 160 0
149 171 0
153 171 0
110 127 0
155 179 0
140 156 0
135 160 0
121 143 0
141 157 0
144 166 0
148 167 0
127 141 0
153 175 0
128 149 0
141 158 0
147 160 0
132 152 0
119 139 0
122 135 0
154 173 0
129 134 0
147 170 0
164 183 0
140 161 0
143 158 0
138 157 0
140 156 0
138 160 0
134 151 0
146 169 0
160 182 0
161 175 0
135 150 0
155 161 0
138 158 0
160 181 0
140 156 0
159 179 0
140 159 0
121 134 0
148 167 0
132 149 0
123 145 0
143 163 0
134 152 0
158 174 0
151 165 0
134 147 0
131 150 0
145 161 0
142 164 0
159 173 0
141 157 0
121 127 0
152 169 0
155 171 0
152 160 0
158 168 0
158 180 0
143 155 0
144 157 0
145 160 0
120 133 0
150 159 0
152 162 0
159 178 0
143 162 0
139 151 0
171 189 0
127 139 0
169 185 0
136 152 0
153 163 0
177 192 0
144 153 0
148 157 0
132 145 0
125 126 0
143 163 0
149 155 0
158 173 0
136 139 0
144 163 0
116 120 0
111 117 0
147 160 0
157 174 0
146 162 0
151 159 0
148 156 0
136 152 0
160 167 0
120 133 0
165 181 0
148 161 0
139 146 0
167 177 0
143 158 0
127 140 0
135 149 0
158 160 0
163 180 0
139 145 0
159 171 0
158 172 0
122 130 0
159 165 0
144 150 0
122 126 0
155 163 0
159 168 0
140 134 0
146 158 0
167 178 0
151 166 0
134 128 0
154 162 0
159 162 0
144 154 0
137 137 0
148 151 0
148 151 0
156 161 0
144 152 0
162 171 0
135 137 0
145 146 0
143 142 0
128 133 0
163 174 0
157 166 0
169 180 0
170 183 0
143 143 0
149 149 0
141 137 0
161 172 0
166 172 0
152 156 0
157 166 0
133 136 0
141 140 0
154 170 0
150 158 0
154 167 0
166 173 0
134 134 0
145 145 0
162 167 0
158 168 0
138 144 0
151 157 0
157 159 0
163 171 0
160 161 0
148 146 0
160 163 0
151 158 0
142 141 0
161 164 0
155 161 0
156 156 0
152 157 0
165 183 0
157 164 0
161 163 0
159 157 0
158 167 0
169 184 0
170 182 0
150 154 0
160 181 0
159 177 0
163 181 0
169 185 0
172 191 0
172 190 0
167 187 0
153 171 0
164 181 0
150 167 0
159 178 0
164 184 0
162 182 0
165 181 0
167 186 0
165 181 0
159 177 0
163 182 0
150 168 0
156 177 0
154 173 0
154 171 0
131 146 0
155 175 0
167 186 0
143 157 0
161 180 0
162 178 0
145 163 0
159 177 0
150 169 0
171 188 0
141 159 0
159 176 0
158 177 0
145 163 0
142 157 0
158 177 0
140 157 0
156 175 0
162 180 0
140 158 0
169 184 0
140 155 0
142 160 0
159 178 0
141 160 0
147 165 0
123 139 0
145 161 0
179 197 0
146 163 0
168 189 0
167 186 0
158 178 0
151 166 0
141 159 0
155 169 0
156 173 0
160 176 0
159 179 0
165 186 0
152 169 0
150 166 0
151 169 0
159 179 0
131 144 0
134 153 0
154 172 0
166 186 0
148 165 0
148 165 0
163 183 0
156 175 0
150 169 0
150 165 0
157 176 0
153 172 0
138 152 0
149 169 0
119 136 0
145 165 0
142 161 0
154 174 0
171 188 0
155 174 0
147 165 0
147 167 0
146 165 0
109 128 0
149 166 0
170 193 0
155 174 0
127 149 0
163 184 0
133 152 0
114 133 0
142 163 0
163 183 0
110 129 0
128 147 0
139 161 0
154 174 0
154 172 0
138 159 0
158 178 0
155 172 0
160 176 0
123 144 0
148 168 0
153 174 0
140 160 0
143 164 0
146 167 0
153 174 0
161 183 0
159 179 0
143 160 0
157 181 0
150 168 0
154 173 0
164 183 0
166 190 0
137 158 0
155 176 0
149 173 0
126 144 0
146 163 0
111 133 0
129 148 0
158 179 0
166 188 0
167 189 0
158 179 0
132 154 0
135 153 0
154 179 0
156 177 0
142 161 0
121 141 0
137 158 0
151 172 0
149 169 0
149 172 0
142 160 0
168 193 0
127 147 0
164 186 0
151 170 0
127 149 0
150 172 0
131 151 0
152 173 0
119 141 0
134 153 0
136 153 0
151 173 0
149 169 0
132 150 0
159 180 0
156 176 0
124 146 0
135 156 0
121 142 0
143 162 0
156 178 0
133 149 0
133 152 0
128 151 0
138 162 0
149 165 0
157 179 0
140 161 0
125 141 0
131 154 0
113 133 0
123 140 0
160 180 0
155 177 0
153 175 0
144 165 0
107 127 0
142 162 0
154 176 0
146 168 0
143 157 0
134 158 0
144 163 0
159 183 0
165 185 0
116 132 0
157 177 0
149 171 0
153 174 0
127 146 0
138 160 0
150 168 0
149 171 0
162 184 0
136 157 0
129 149 0
155 179 0
151 175 0
146 171 0
130 148 0
146 168 0
126 147 0
151 173 0
142 163 0
125 147 0
142 162 0
157 176 0
137 158 0
153 169 0
124 147 0
140 160 0
143 169 0
110 132 0
120 141 0
143 166 0
156 174 0
140 162 0
140 155 0
155 173 0
144 165 0
144 164 0
134 156 0
136 156 0
83 96 0
127 149 0
160 182 0
133 151 0
154 170 0
163 184 0
144 160 0
136 161 0
142 160 0
134 156 0
159 179 0
147 169 0
132 150 0
144 156 0
128 149 0
110 124 0
148 166 0
141 155 0
134 156 0
136 157 0
139 160 0
135 152 0
160 178 0
142 163 0
151 165 0
156 178 0
165 185 0
155 171 0
148 162 0
160 180 0
144 169 0
158 176 0
107 119 0
143 168 0
159 178 0
123 140 0
150 174 0
150 171 0
139 160 0
132 148 0
132 149 0
159 176 0
145 164 0
139 155 0
172 195 0
134 152 0
134 159 0
163 175 0
164 178 0
160 179 0
140 151 0
141 157 0
143 152 0
111 127 0
150 166 0
157 179 0
141 150 0
141 159 0
154 176 0
142 154 0
154 158 0
152 169 0
150 167 0
143 159 0
153 174 0
152 168 0
153 158 0
142 147 0
150 168 0
151 171 0
130 144 0
147 164 0
166 179 0
155 171 0
142 146 0
132 146 0
134 144 0
158 177 0
144 155 0
139 144 0
160 175 0
149 161 0
141 156 0
153 169 0
140 144 0
175 188 0
151 164 0
150 163 0
138 159 0
150 161 0
138 154 0
159 177 0
168 184 0
143 158 0
129 134 0
138 145 0
152 168 0
138 141 0
165 173 0
132 136 0
120 136 0
158 165 0
155 172 0
146 147 0
134 141 0
158 172 0
153 160 0
150 159 0
150 153 0
125 126 0
172 183 0
157 172 0
147 157 0
165 175 0
149 157 0
154 153 0
144 154 0
154 160 0
125 125 0
139 138 0
142 143 0
163 172 0
151 153 0
162 171 0
172 191 0
159 166 0
153 156 0
134 133 0
169 177 0
140 133 0
151 160 0
159 173 0
140 143 0
147 146 0
141 141 0
158 160 0
135 130 0
144 150 0
161 173 0
143 149 0
159 158 0
149 154 0
162 170 0
146 148 0
163 172 0
143 151 0
152 150 0
156 157 0
134 144 0
134 125 0
160 167 0
157 160 0
161 171 0
160 168 0
152 153 0
154 156 0
159 171 0
162 174 0
162 156 0
165 169 0
166 174 0
164 173 0
155 158 0
138 154 0
160 168 0
148 150 0
164 173 0
167 184 0
159 168 0
158 162 0
162 172 0
172 187 0
157 175 0
166 187 0
163 185 0
152 172 0
166 182 0
158 176 0
160 180 0
146 163 0
149 167 0
167 186 0
154 172 0
164 185 0
163 184 0
166 184 0
166 189 0
166 185 0
157 175 0
170 191 0
144 164 0
141 158 0
166 185 0
151 168 0
157 175 0
155 169 0
170 189 0
150 168 0
163 180 0
161 178 0
170 188 0
148 166 0
171 190 0
154 174 0
147 164 0
165 181 0
156 177 0
163 181 0
133 150 0
151 171 0
119 134 0
136 154 0
174 193 0
166 184 0
155 173 0
135 151 0
128 147 0
152 170 0
173 193 0
152 169 0
149 167 0
154 173 0
149 168 0
172 192 0
161 185 0
150 167 0
153 170 0
137 155 0
155 173 0
146 166 0
139 159 0
138 157 0
163 185 0
146 166 0
133 150 0
150 167 0
163 184 0
156 175 0
156 174 0
182 200 0
168 190 0
167 188 0
153 170 0
157 175 0
150 169 0
120 140 0
163 184 0
141 161 0
155 175 0
137 155 0
163 182 0
153 174 0
152 171 0
150 172 0
129 148 0
133 154 0
152 172 0
145 166 0
151 174 0
138 160 0
146 164 0
151 173 0
141 161 0
159 183 0
140 162 0
132 151 0
128 145 0
152 175 0
150 171 0
134 154 0
131 151 0
151 169 0
170 191 0
152 174 0
135 155 0
145 165 0
137 158 0
154 177 0
148 167 0
144 164 0
142 163 0
153 172 0
161 183 0
135 156 0
144 165 0
155 176 0
152 171 0
148 166 0
161 184 0
132 151 0
141 163 0
152 173 0
134 152 0
134 150 0
133 150 0
140 162 0
159 180 0
123 143 0
134 153 0
169 189 0
165 187 0
149 172 0
170 192 0
140 162 0
165 189 0
156 183 0
142 163 0
131 155 0
157 177 0
124 140 0
152 173 0
149 174 0
142 163 0
144 166 0
131 151 0
135 158 0
135 155 0
150 171 0
161 183 0
150 175 0
108 132 0
135 153 0
145 168 0
147 165 0
163 184 0
137 154 0
152 174 0
130 151 0
155 176 0
167 189 0
140 162 0
144 162 0
143 166 0
149 170 0
140 165 0
159 180 0
124 150 0
151 173 0
161 185 0
152 177 0
143 160 0
141 160 0
137 159 0
63 82 0
154 177 0
155 179 0
134 152 0
125 147 0
137 152 0
150 171 0
133 155 0
163 182 0
152 171 0
138 160 0
125 145 0
125 146 0
154 174 0
154 176 0
154 178 0
152 175 0
151 166 0
134 153 0
106 125 0
135 158 0
145 166 0
153 170 0
130 152 0
166 187 0
110 133 0
128 152 0
138 160 0
142 159 0
157 179 0
142 159 0
156 179 0
120 144 0
116 137 0
129 146 0
147 171 0
154 174 0
152 173 0
162 182 0
126 145 0
149 165 0
155 176 0
141 161 0
119 140 0
123 142 0
151 170 0
161 179 0
126 144 0
147 162 0
134 156 0
143 167 0
143 168 0
144 169 0
133 156 0
151 172 0
155 175 0
141 157 0
150 165 0
156 177 0
133 145 0
152 175 0
152 170 0
153 171 0
123 143 0
142 160 0
153 178 0
119 135 0
136 156 0
145 161 0
139 151 0
178 197 0
125 143 0
150 172 0
128 149 0
141 159 0
156 178 0
153 175 0
159 182 0
155 173 0
155 173 0
158 182 0
139 158 0
135 148 0
142 162 0
117 134 0
131 152 0
154 175 0
125 142 0
139 154 0
158 173 0
149 166 0
128 143 0
135 157 0
164 177 0
152 165 0
149 169 0
158 180 0
130 152 0
171 189 0
87 98 0
131 150 0
130 138 0
148 163 0
110 126 0
154 172 0
169 188 0
145 169 0
145 167 0
124 135 0
155 172 0
143 157 0
150 160 0
124 146 0
147 163 0
150 169 0
151 169 0
152 172 0
154 169 0
137 154 0
158 178 0
148 159 0
150 163 0
135 150 0
127 136 0
162 176 0
141 151 0
159 178 0
167 185 0
134 152 0
163 180 0
144 150 0
122 137 0
153 168 0
136 150 0
131 141 0
144 159 0
167 182 0
130 130 0
165 177 0
163 177 0
141 158 0
153 166 0
130 130 0
152 160 0
153 162 0
132 141 0
163 178 0
153 170 0
167 183 0
142 157 0
150 153 0
147 166 0
160 173 0
144 153 0
151 165 0
145 157 0
154 161 0
129 142 0
172 192 0
137 149 0
161 178 0
160 167 0
147 154 0
154 157 0
132 130 0
171 188 0
139 137 0
149 157 0
134 126 0
132 135 0
157 158 0
153 161 0
142 148 0
136 148 0
136 145 0
143 151 0
154 161 0
133 136 0
155 161 0
121 127 0
140 151 0
161 177 0
142 142 0
149 162 0
140 138 0
163 163 0
153 163 0
170 184 0
154 154 0
155 157 0
160 173 0
142 151 0
165 173 0
148 146 0
150 149 0
160 168 0
156 167 0
159 161 0
146 144 0
150 150 0
155 157 0
152 151 0
164 167 0
152 161 0
160 156 0
139 140 0
151 161 0
154 163 0
165 177 0
156 163 0
147 137 0
170 184 0
161 167 0
172 183 0
150 154 0
147 151 0
162 173 0
152 161 0
162 171 0
159 164 0
152 159 0
156 166 0
167 174 0
163 169 0
167 176 0
154 160 0
143 142 0
154 157 0
169 177 0
151 169 0
162 179 0
175 195 0
148 162 0
158 175 0
154 174 0
163 182 0
147 164 0
159 176 0
166 184 0
161 178 0
156 175 0
158 178 0
151 171 0
162 181 0
162 183 0
168 188 0
163 183 0
146 164 0
167 185 0
170 191 0
167 186 0
151 167 0
155 174 0
161 180 0
151 168 0
153 173 0
163 183 0
151 171 0
153 169 0
153 173 0
145 166 0
144 160 0
152 172 0
165 184 0
145 160 0
151 164 0
143 156 0
142 159 0
169 188 0
155 173 0
162 179 0
158 175 0
143 161 0
156 176 0
131 147 0
143 160 0
143 161 0
151 171 0
159 177 0
146 160 0
151 169 0
151 170 0
145 161 0
143 156 0
143 159 0
162 181 0
153 174 0
153 170 0
145 161 0
138 154 0
153 172 0
147 165 0
170 191 0
134 151 0
115 133 0
115 131 0
162 182 0
150 169 0
139 155 0
153 172 0
145 161 0
136 151 0
153 173 0
145 164 0
160 183 0
145 164 0
128 146 0
148 166 0
144 164 0
149 166 0
173 194 0
153 173 0
158 179 0
144 166 0
136 159 0
141 156 0
134 154 0
145 162 0
139 157 0
165 188 0
148 167 0
117 132 0
144 166 0
142 163 0
141 156 0
139 158 0
139 159 0
159 175 0
106 125 0
153 174 0
157 181 0
130 153 0
149 171 0
150 172 0
155 176 0
110 131 0
151 170 0
161 181 0
123 139 0
148 168 0
163 181 0
148 167 0
151 172 0
146 165 0
158 179 0
150 170 0
136 157 0
153 177 0
138 161 0
146 170 0
136 157 0
167 189 0
134 154 0
167 189 0
131 152 0
159 180 0
142 164 0
139 162 0
125 146 0
145 168 0
173 192 0
144 166 0
147 167 0
145 166 0
158 178 0
138 158 0
124 143 0
159 179 0
138 160 0
157 181 0
141 164 0
170 192 0
154 177 0
143 165 0
141 162 0
136 159 0
155 175 0
139 161 0
157 181 0
130 152 0
153 173 0
162 184 0
156 177 0
165 184 0
137 156 0
132 154 0
111 133 0
107 127 0
131 150 0
157 179 0
153 169 0
137 157 0
158 181 0
126 143 0
145 168 0
141 163 0
141 161 0
143 164 0
129 153 0
155 179 0
145 166 0
135 158 0
157 180 0
139 163 0
139 161 0
152 174 0
164 185 0
141 158 0
151 171 0
161 186 0
169 195 0
147 171 0
128 150 0
155 178 0
152 174 0
156 177 0
166 189 0
136 156 0
137 159 0
140 155 0
117 135 0
132 154 0
149 170 0
134 159 0
140 155 0
166 187 0
136 156 0
79 97 0
129 147 0
120 145 0
136 156 0
153 177 0
147 169 0
138 161 0
139 161 0
143 156 0
144 169 0
140 158 0
142 163 0
165 184 0
136 157 0
160 182 0
146 165 0
164 184 0
137 155 0
137 160 0
169 185 0
134 152 0
164 188 0
125 145 0
152 171 0
155 171 0
156 175 0
144 167 0
142 163 0
166 190 0
141 161 0
126 148 0
147 163 0
153 174 0
140 161 0
155 177 0
111 124 0
140 158 0
126 149 0
129 144 0
156 177 0
138 158 0
152 170 0
143 160 0
145 168 0
137 153 0
162 180 0
147 159 0
168 187 0
122 146 0
145 163 0
138 155 0
133 153 0
158 181 0
134 155 0
136 153 0
123 143 0
152 173 0
136 158 0
174 194 0
144 167 0
142 160 0
162 186 0
148 166 0
140 161 0
156 172 0
162 179 0
170 189 0
151 169 0
162 182 0
146 167 0
146 168 0
143 158 0
126 145 0
135 151 0
151 173 0
145 154 0
151 170 0
137 154 0
154 175 0
147 166 0
160 181 0
135 153 0
107 124 0
134 153 0
153 173 0
137 155 0
131 150 0
134 146 0
111 130 0
140 154 0
139 148 0
155 170 0
132 153 0
166 188 0
154 170 0
142 163 0
140 161 0
139 154 0
155 169 0
158 174 0
133 145 0
150 158 0
159 171 0
153 171 0
163 176 0
153 165 0
113 121 0
172 190 0
145 158 0
167 185 0
160 180 0
145 157 0
148 158 0
141 156 0
122 119 0
142 156 0
138 151 0
134 147 0
134 148 0
144 158 0
135 151 0
130 139 0
160 170 0
142 151 0
160 174 0
159 171 0
129 143 0
158 173 0
151 163 0
150 163 0
117 130 0
160 183 0
149 156 0
168 187 0
140 141 0
143 163 0
163 172 0
154 166 0
138 138 0
156 164 0
160 166 0
145 149 0
156 162 0
133 139 0
146 160 0
161 163 0
163 175 0
176 192 0
167 174 0
159 161 0
155 165 0
151 167 0
133 140 0
158 163 0
166 179 0
161 178 0
147 163 0
150 160 0
155 161 0
159 162 0
145 150 0
152 158 0
168 182 0
141 144 0
122 122 0
154 164 0
153 160 0
132 135 0
158 168 0
159 174 0
152 158 0
133 143 0
158 168 0
166 179 0
163 171 0
152 157 0
160 166 0
147 156 0
149 157 0
156 163 0
141 152 0
156 161 0
163 172 0
157 160 0
147 150 0
153 154 0
167 184 0
161 177 0
157 167 0
146 148 0
168 176 0
161 170 0
151 155 0
156 161 0
156 168 0
155 167 0
169 179 0
155 164 0
153 163 0
154 153 0
175 191 0
162 172 0
159 178 0
152 173 0
153 170 0
164 178 0
156 174 0
170 192 0
158 175 0
164 181 0
147 167 0
157 176 0
157 175 0
162 181 0
152 170 0
159 174 0
162 178 0
158 175 0
156 175 0
161 179 0
145 164 0
146 165 0
166 186 0
166 184 0
150 168 0
154 172 0
161 180 0
165 185 0
167 185 0
146 164 0
153 173 0
162 181 0
143 160 0
162 175 0
146 164 0
146 163 0
156 174 0
157 176 0
171 191 0
142 161 0
153 170 0
131 150 0
159 179 0
163 180 0
162 180 0
162 179 0
155 172 0
169 187 0
170 189 0
155 173 0
174 194 0
158 178 0
162 185 0
162 180 0
152 169 0
141 159 0
162 179 0
146 163 0
146 165 0
163 178 0
137 153 0
142 156 0
155 174 0
150 169 0
128 144 0
159 178 0
152 171 0
176 196 0
151 168 0
129 149 0
154 169 0
134 150 0
163 183 0
144 165 0
158 178 0
161 179 0
149 169 0
154 176 0
154 176 0
148 164 0
165 185 0
169 188 0
173 191 0
160 181 0
150 167 0
128 148 0
160 182 0
173 194 0
131 149 0
158 177 0
150 168 0
158 181 0
148 166 0
154 175 0
140 162 0
143 163 0
146 165 0
156 174 0
161 178 0
153 174 0
139 158 0
153 172 0
148 171 0
160 178 0
161 179 0
150 170 0
151 169 0
151 171 0
147 168 0
153 174 0
159 179 0
154 177 0
138 161 0
153 173 0
147 170 0
147 171 0
151 173 0
147 168 0
157 178 0
142 162 0
146 167 0
167 188 0
137 160 0
146 169 0
161 180 0
145 164 0
117 141 0
115 131 0
144 166 0
147 166 0
164 182 0
148 166 0
162 185 0
143 167 0
139 160 0
129 152 0
132 152 0
126 152 0
131 151 0
124 143 0
159 179 0
158 181 0
155 175 0
157 178 0
111 133 0
151 173 0
136 155 0
134 158 0
149 173 0
146 168 0
131 148 0
142 165 0
147 164 0
132 153 0
155 172 0
131 154 0
137 155 0
140 159 0
150 167 0
148 171 0
152 171 0
101 123 0
162 183 0
135 149 0
165 185 0
151 172 0
116 137 0
154 178 0
145 165 0
147 168 0
140 160 0
117 136 0
138 160 0
140 160 0
135 157 0
138 159 0
160 179 0
156 179 0
151 172 0
155 176 0
157 178 0
155 179 0
145 168 0
147 169 0
146 165 0
111 130 0
142 167 0
124 145 0
127 147 0
140 160 0
147 170 0
125 143 0
134 159 0
127 151 0
139 160 0
138 162 0
124 144 0
97 110 0
136 155 0
135 156 0
126 147 0
152 168 0
151 169 0
147 159 0
149 172 0
156 179 0
141 162 0
152 173 0
131 147 0
113 131 0
134 154 0
158 178 0
125 143 0
126 146 0
132 152 0
152 171 0
147 169 0
163 183 0
145 164 0
120 136 0
149 170 0
156 179 0
142 167 0
136 157 0
144 166 0
116 134 0
142 162 0
157 177 0
133 151 0
134 158 0
144 163 0
145 162 0
156 179 0
143 162 0
144 168 0
161 185 0
145 164 0
142 159 0
138 156 0
148 171 0
142 162 0
136 159 0
96 120 0
153 177 0
151 170 0
127 146 0
135 155 0
132 154 0
169 192 0
136 158 0
145 154 0
152 174 0
135 155 0
137 161 0
164 182 0
139 154 0
140 160 0
140 162 0
134 151 0
149 166 0
153 169 0
138 153 0
144 161 0
157 181 0
144 162 0
156 178 0
135 155 0
158 181 0
137 146 0
139 161 0
145 164 0
176 195 0
115 131 0
161 185 0
125 138 0
126 146 0
147 161 0
116 131 0
138 152 0
161 176 0
133 147 0
147 167 0
139 154 0
170 182 0
147 163 0
155 170 0
147 163 0
143 167 0
153 170 0
140 144 0
131 143 0
160 181 0
158 175 0
163 183 0
148 168 0
150 163 0
152 177 0
105 120 0
151 163 0
148 163 0
165 182 0
162 179 0
149 162 0
174 194 0
149 172 0
143 149 0
148 162 0
152 161 0
147 157 0
148 164 0
149 164 0
127 147 0
161 176 0
158 180 0
133 140 0
101 109 0
131 146 0
158 168 0
146 159 0
157 168 0
124 131 0
149 146 0
143 151 0
130 138 0
152 164 0
143 143 0
147 160 0
146 154 0
153 169 0
138 148 0
126 138 0
145 150 0
162 182 0
150 171 0
145 159 0
142 156 0
169 185 0
125 139 0
161 174 0
167 186 0
137 144 0
149 150 0
164 188 0
167 177 0
154 169 0
151 163 0
137 152 0
168 184 0
140 144 0
158 167 0
160 169 0
160 169 0
165 180 0
142 145 0
143 147 0
155 150 0
144 140 0
157 162 0
157 171 0
173 182 0
156 164 0
142 141 0
139 152 0
177 193 0
163 175 0
140 147 0
163 172 0
158 157 0
158 163 0
150 152 0
158 167 0
175 190 0
148 158 0
167 180 0
151 159 0
163 170 0
139 142 0
148 146 0
153 164 0
135 141 0
165 179 0
148 160 0
152 159 0
150 152 0
160 176 0
174 190 0
143 146 0
182 198 0
155 161 0
157 161 0
145 154 0
144 152 0
148 150 0
157 164 0
165 180 0
160 172 0
137 133 0
164 170 0
166 181 0
170 181 0
166 178 0
145 147 0
165 184 0
159 180 0
153 170 0
165 183 0
158 175 0
160 179 0
153 168 0
148 166 0
163 182 0
163 181 0
156 175 0
152 174 0
166 182 0
150 170 0
158 177 0
140 156 0
149 169 0
164 180 0
147 167 0
175 195 0
168 185 0
145 161 0
169 187 0
160 180 0
156 177 0
155 171 0
151 170 0
164 183 0
147 164 0
150 162 0
157 176 0
158 179 0
153 174 0
149 166 0
159 178 0
156 177 0
155 174 0
140 155 0
158 178 0
169 189 0
167 187 0
159 176 0
137 154 0
170 189 0
146 164 0
153 172 0
170 189 0
149 167 0
157 176 0
125 145 0
140 160 0
134 152 0
163 183 0
144 164 0
140 159 0
138 158 0
135 154 0
143 160 0
156 175 0
146 167 0
167 185 0
141 156 0
154 174 0
132 149 0
156 178 0
152 168 0
149 171 0
162 182 0
164 184 0
152 172 0
151 171 0
152 169 0
169 189 0
157 177 0
133 153 0
132 152 0
170 190 0
124 143 0
138 158 0
146 165 0
151 172 0
139 160 0
149 165 0
165 189 0
163 185 0
150 171 0
135 154 0
154 170 0
149 170 0
125 143 0
148 168 0
156 180 0
146 165 0
154 173 0
138 159 0
171 194 0
141 160 0
143 161 0
155 174 0
172 192 0
161 182 0
170 192 0
149 170 0
125 148 0
143 164 0
148 169 0
136 154 0
156 176 0
145 165 0
140 160 0
161 183 0
172 194 0
153 178 0
160 182 0
138 159 0
140 162 0
137 157 0
143 162 0
157 176 0
122 146 0
130 148 0
133 153 0
139 158 0
151 175 0
157 179 0
158 179 0
128 150 0
148 171 0
141 161 0
134 157 0
147 167 0
153 174 0
148 168 0
160 182 0
133 153 0
143 162 0
119 136 0
149 170 0
152 173 0
144 166 0
159 180 0
149 172 0
158 180 0
158 181 0
144 163 0
164 186 0
124 142 0
171 190 0
162 183 0
156 178 0
159 182 0
142 163 0
138 158 0
146 167 0
143 168 0
150 169 0
157 178 0
147 168 0
146 169 0
164 184 0
153 170 0
139 161 0
148 170 0
157 177 0
158 176 0
141 165 0
144 166 0
138 156 0
139 160 0
150 170 0
154 179 0
145 165 0
128 150 0
147 168 0
159 182 0
152 174 0
156 175 0
117 140 0
129 152 0
126 142 0
164 187 0
139 163 0
146 164 0
127 148 0
139 159 0
121 140 0
132 156 0
133 154 0
128 150 0
147 162 0
136 158 0
137 159 0
150 170 0
139 161 0
146 163 0
166 185 0
155 179 0
151 170 0
153 174 0
141 156 0
161 182 0
141 159 0
169 189 0
152 172 0
118 137 0
136 158 0
128 146 0
158 178 0
160 182 0
122 140 0
128 148 0
140 159 0
133 148 0
116 135 0
137 158 0
155 176 0
158 179 0
149 170 0
141 166 0
129 147 0
146 164 0
157 180 0
110 131 0
161 183 0
154 178 0
127 151 0
123 147 0
144 168 0
159 183 0
143 164 0
163 188 0
129 152 0
148 172 0
166 186 0
135 153 0
139 157 0
137 158 0
165 183 0
141 158 0
166 181 0
149 170 0
146 164 0
153 170 0
138 156 0
142 163 0
171 194 0
121 143 0
165 185 0
157 176 0
162 180 0
148 162 0
131 151 0
165 189 0
132 153 0
150 174 0
137 153 0
150 173 0
119 132 0
113 131 0
140 164 0
142 158 0
149 163 0
138 159 0
122 143 0
162 182 0
148 169 0
113 127 0
151 170 0
140 159 0
162 179 0
110 129 0
152 172 0
153 169 0
164 184 0
135 143 0
133 148 0
133 149 0
145 164 0
150 159 0
147 166 0
148 168 0
165 184 0
165 175 0
158 174 0
134 147 0
130 147 0
165 184 0
149 167 0
131 149 0
163 183 0
154 169 0
152 171 0
151 166 0
164 188 0
158 169 0
154 173 0
158 173 0
134 150 0
149 168 0
148 165 0
152 168 0
140 148 0
143 158 0
165 188 0
154 172 0
154 165 0
148 159 0
149 163 0
163 183 0
134 148 0
153 173 0
162 178 0
153 170 0
155 167 0
146 164 0
151 154 0
159 171 0
165 173 0
145 158 0
152 160 0
150 153 0
150 166 0
134 144 0
150 160 0
172 183 0
157 169 0
145 160 0
155 166 0
155 167 0
136 144 0
164 181 0
162 171 0
152 160 0
162 168 0
137 142 0
156 167 0
134 151 0
159 172 0
156 170 0
155 171 0
145 153 0
159 180 0
144 151 0
135 140 0
154 167 0
156 172 0
147 159 0
172 186 0
136 141 0
156 157 0
147 166 0
136 138 0
160 169 0
164 169 0
154 160 0
154 159 0
147 158 0
138 142 0
138 145 0
145 161 0
145 145 0
169 179 0
158 169 0
153 161 0
164 177 0
134 134 0
149 160 0
153 161 0
160 166 0
158 178 0
154 157 0
149 162 0
159 167 0
176 192 0
160 169 0
168 178 0
162 170 0
163 176 0
147 149 0
153 158 0
164 182 0
157 159 0
161 174 0
164 175 0
130 131 0
168 177 0
144 146 0
158 170 0
154 158 0
153 164 0
153 161 0
156 164 0
162 172 0
142 141 0
164 174 0
151 162 0
154 163 0
162 165 0
171 174 0
181 195 0
173 192 0
163 183 0
155 174 0
164 181 0
160 179 0
170 189 0
161 183 0
165 183 0
167 189 0
172 193 0
144 161 0
157 174 0
169 190 0
158 174 0
155 174 0
160 178 0
168 187 0
166 187 0
156 174 0
152 169 0
154 173 0
134 155 0
152 169 0
151 170 0
156 174 0
155 174 0
170 191 0
144 162 0
155 175 0
146 164 0
155 173 0
153 173 0
160 177 0
153 171 0
155 170 0
150 169 0
158 174 0
142 158 0
170 190 0
157 176 0
159 179 0
147 167 0
145 163 0
160 184 0
172 191 0
174 195 0
150 166 0
153 171 0
165 187 0
159 179 0
161 179 0
152 172 0
130 147 0
162 177 0
146 163 0
154 173 0
140 161 0
124 143 0
157 178 0
165 187 0
154 174 0
155 172 0
145 161 0
154 171 0
160 181 0
159 177 0
148 163 0
174 194 0
151 171 0
156 175 0
158 181 0
129 150 0
151 169 0
167 187 0
103 124 0
147 167 0
161 180 0
159 178 0
165 182 0
131 151 0
158 178 0
159 179 0
160 179 0
152 174 0
167 190 0
140 160 0
172 197 0
144 164 0
156 179 0
130 149 0
148 169 0
162 182 0
142 160 0
143 168 0
135 153 0
136 155 0
136 158 0
145 164 0
150 168 0
163 181 0
167 187 0
149 170 0
152 173 0
126 148 0
150 170 0
158 180 0
166 188 0
160 182 0
157 178 0
147 171 0
128 149 0
142 160 0
162 185 0
144 169 0
155 175 0
147 168 0
143 163 0
150 169 0
146 169 0
162 185 0
151 174 0
145 166 0
125 140 0
153 173 0
157 180 0
154 177 0
152 171 0
149 171 0
149 169 0
159 177 0
148 167 0
157 174 0
143 161 0
152 175 0
133 158 0
142 164 0
142 162 0
133 154 0
151 174 0
134 157 0
123 145 0
143 164 0
152 176 0
142 163 0
140 163 0
127 148 0
161 182 0
129 149 0
137 160 0
127 150 0
135 151 0
145 167 0
150 172 0
155 176 0
134 156 0
153 178 0
131 147 0
132 155 0
140 160 0
136 159 0
170 189 0
157 180 0
145 166 0
150 171 0
149 173 0
152 172 0
170 192 0
148 167 0
114 129 0
149 171 0
127 144 0
148 164 0
155 171 0
158 180 0
158 173 0
125 147 0
160 184 0
139 160 0
132 152 0
153 177 0
163 187 0
116 138 0
102 122 0
145 167 0
148 170 0
106 125 0
150 170 0
145 165 0
140 164 0
146 167 0
171 192 0
149 171 0
158 181 0
164 181 0
139 158 0
157 180 0
155 179 0
154 176 0
124 149 0
135 156 0
131 143 0
134 157 0
117 130 0
138 157 0
165 189 0
151 170 0
141 159 0
124 143 0
142 161 0
148 166 0
157 181 0
137 152 0
144 165 0
147 169 0
157 178 0
132 154 0
160 181 0
117 139 0
131 150 0
69 91 0
140 160 0
147 170 0
163 187 0
159 179 0
136 155 0
129 149 0
147 167 0
131 152 0
137 156 0
158 181 0
144 168 0
156 178 0
147 162 0
137 154 0
147 164 0
112 129 0
152 172 0
142 158 0
149 169 0
138 154 0
154 176 0
158 172 0
147 167 0
132 149 0
162 178 0
132 148 0
103 124 0
171 191 0
155 170 0
125 148 0
138 146 0
150 172 0
153 170 0
163 180 0
136 154 0
148 165 0
146 167 0
151 171 0
115 137 0
160 185 0
149 169 0
151 161 0
134 145 0
132 153 0
143 160 0
162 184 0
130 141 0
144 167 0
167 191 0
172 192 0
136 151 0
144 160 0
145 159 0
132 155 0
132 142 0
168 190 0
149 167 0
126 147 0
152 170 0
131 148 0
145 161 0
144 163 0
154 168 0
129 144 0
165 189 0
148 157 0
151 170 0
148 164 0
147 168 0
158 177 0
146 164 0
131 136 0
121 141 0
118 134 0
151 163 0
155 173 0
159 178 0
143 160 0
147 158 0
163 183 0
160 176 0
142 157 0
160 179 0
146 164 0
149 157 0
161 177 0
159 182 0
157 173 0
164 182 0
148 160 0
156 177 0
159 167 0
156 167 0
148 159 0
147 164 0
146 161 0
159 169 0
151 165 0
112 121 0
147 169 0
162 179 0
142 154 0
141 161 0
165 181 0
119 125 0
148 163 0
160 173 0
157 174 0
149 157 0
149 166 0
157 174 0
152 164 0
158 166 0
151 161 0
145 153 0
165 173 0
161 176 0
166 174 0
152 162 0
159 178 0
159 181 0
127 137 0
170 183 0
143 152 0
145 155 0
127 138 0
164 185 0
157 170 0
154 167 0
159 169 0
144 154 0
129 130 0
165 176 0
156 172 0
151 169 0
137 141 0
164 179 0
140 140 0
157 160 0
167 180 0
134 151 0
153 158 0
158 168 0
167 176 0
138 144 0
151 165 0
163 176 0
149 159 0
140 138 0
159 165 0
151 157 0
150 153 0
163 172 0
141 147 0
157 170 0
150 157 0
153 159 0
169 181 0
160 168 0
151 161 0
154 159 0
154 166 0
147 153 0
158 165 0
160 173 0
155 160 0
155 161 0
164 180 0
159 166 0
161 178 0
170 183 0
146 160 0
148 142 0
154 160 0
169 181 0
155 165 0
159 167 0
164 181 0
172 192 0
167 174 0
143 161 0
159 177 0
142 163 0
149 168 0
169 189 0
164 182 0
162 182 0
157 175 0
171 191 0
160 178 0
153 171 0
160 178 0
160 178 0
165 185 0
156 174 0
159 180 0
137 151 0
164 186 0
166 185 0
147 163 0
157 174 0
164 184 0
154 171 0
164 182 0
162 181 0
151 172 0
165 184 0
158 176 0
165 184 0
157 176 0
163 182 0
147 166 0
168 189 0
149 168 0
135 154 0
150 170 0
155 176 0
168 188 0
154 173 0
153 175 0
143 157 0
155 174 0
157 177 0
153 171 0
149 168 0
160 176 0
147 171 0
151 170 0
136 157 0
158 177 0
122 142 0
159 178 0
144 158 0
161 183 0
171 190 0
154 172 0
152 172 0
149 166 0
152 170 0
120 137 0
162 183 0
154 174 0
152 172 0
147 165 0
158 177 0
152 164 0
154 174 0
140 160 0
147 167 0
152 172 0
141 158 0
156 176 0
146 168 0
139 161 0
149 171 0
153 172 0
174 196 0
166 187 0
147 168 0
150 171 0
145 168 0
151 169 0
163 187 0
102 119 0
134 152 0
158 179 0
137 156 0
158 181 0
160 183 0
166 189 0
140 156 0
149 171 0
145 164 0
151 175 0
157 178 0
150 173 0
149 172 0
123 141 0
157 180 0
132 153 0
137 156 0
159 179 0
154 175 0
137 158 0
157 178 0
152 174 0
144 166 0
162 180 0
163 183 0
154 176 0
159 176 0
129 149 0
141 161 0
163 180 0
131 146 0
152 174 0
166 187 0
152 174 0
152 170 0
165 183 0
161 184 0
134 155 0
148 171 0
151 172 0
152 175 0
139 161 0
154 171 0
138 158 0
176 198 0
158 178 0
156 177 0
157 179 0
152 176 0
148 170 0
128 148 0
144 166 0
146 165 0
148 165 0
164 188 0
133 152 0
146 166 0
111 131 0
138 161 0
144 168 0
165 184 0
135 158 0
143 163 0
140 163 0
144 162 0
149 172 0
126 149 0
143 166 0
162 186 0
124 143 0
136 150 0
130 149 0
157 179 0
149 169 0
135 157 0
125 144 0
124 148 0
121 141 0
126 146 0
142 164 0
162 179 0
156 180 0
146 166 0
136 155 0
138 161 0
144 167 0
159 184 0
126 143 0
172 195 0
104 128 0
147 169 0
149 165 0
164 188 0
116 134 0
159 183 0
138 161 0
151 172 0
117 124 0
163 179 0
157 177 0
159 180 0
159 180 0
147 169 0
137 158 0
153 173 0
156 175 0
139 163 0
147 170 0
118 133 0
132 155 0
158 180 0
151 169 0
156 174 0
147 171 0
149 172 0
155 176 0
138 159 0
144 163 0
136 152 0
151 172 0
149 168 0
114 137 0
132 156 0
130 152 0
124 147 0
130 150 0
132 153 0
155 166 0
138 161 0
159 176 0
145 168 0
142 164 0
166 190 0
104 127 0
135 157 0
105 127 0
158 177 0
147 165 0
158 181 0
164 183 0
145 167 0
128 147 0
134 159 0
157 180 0
132 151 0
144 168 0
138 160 0
127 144 0
149 168 0
150 169 0
128 142 0
136 157 0
142 167 0
132 154 0
133 155 0
156 179 0
143 166 0
128 143 0
131 147 0
164 187 0
152 170 0
137 159 0
155 174 0
154 173 0
136 158 0
158 181 0
140 159 0
115 123 0
134 151 0
136 143 0
151 173 0
164 187 0
134 150 0
141 160 0
140 156 0
146 163 0
155 180 0
161 187 0
154 174 0
166 189 0
162 180 0
164 179 0
164 176 0
141 159 0
158 176 0
156 180 0
163 184 0
173 197 0
131 146 0
151 169 0
146 158 0
155 163 0
157 180 0
147 161 0
147 169 0
142 162 0
140 155 0
152 177 0
119 133 0
134 156 0
156 172 0
159 176 0
151 172 0
160 180 0
151 171 0
165 181 0
158 172 0
159 173 0
151 169 0
156 170 0
147 157 0
151 164 0
158 181 0
136 155 0
156 173 0
130 143 0
161 181 0
165 178 0
159 175 0
135 150 0
133 142 0
155 166 0
148 167 0
152 166 0
135 150 0
153 165 0
137 148 0
163 178 0
164 177 0
129 127 0
166 177 0
155 175 0
141 147 0
144 162 0
140 155 0
155 173 0
140 147 0
160 174 0
148 160 0
154 165 0
162 177 0
138 153 0
132 144 0
167 178 0
146 155 0
146 160 0
131 139 0
155 173 0
153 165 0
163 180 0
138 151 0
156 170 0
144 159 0
137 151 0
165 173 0
145 157 0
155 166 0
153 167 0
155 167 0
150 163 0
160 174 0
124 136 0
151 165 0
149 147 0
151 149 0
157 170 0
147 157 0
156 172 0
162 176 0
151 169 0
157 167 0
150 158 0
160 174 0
169 176 0
141 145 0
153 160 0
172 185 0
156 164 0
166 184 0
148 151 0
166 174 0
165 177 0
162 161 0
151 157 0
146 149 0
152 165 0
169 188 0
158 161 0
143 139 0
159 167 0
145 155 0
157 172 0
161 176 0
153 160 0
168 173 0
150 161 0
159 165 0
167 181 0
142 151 0
166 169 0
172 182 0
151 162 0
167 182 0
152 163 0
155 159 0
151 149 0
148 155 0
169 181 0
132 126 0
167 178 0
167 180 0
167 181 0
148 158 0
156 166 0
162 173 0
165 176 0
154 171 0
137 153 0
170 190 0
168 187 0
156 178 0
155 173 0
153 171 0
165 183 0
161 179 0
164 184 0
165 184 0
159 178 0
151 171 0
147 165 0
155 173 0
162 182 0
166 185 0
143 158 0
138 156 0
162 182 0
154 173 0
169 188 0
163 184 0
176 195 0
164 183 0
154 175 0
162 181 0
159 176 0
166 185 0
158 179 0
149 166 0
165 182 0
146 162 0
162 184 0
172 189 0
167 189 0
151 173 0
150 169 0
154 171 0
150 164 0
172 189 0
162 179 0
154 173 0
143 159 0
165 183 0
124 140 0
162 183 0
167 185 0
156 176 0
160 176 0
164 180 0
166 186 0
142 162 0
160 179 0
158 176 0
155 172 0
147 166 0
157 173 0
159 179 0
154 174 0
142 164 0
151 173 0
156 174 0
135 153 0
148 164 0
152 174 0
145 166 0
160 182 0
150 171 0
152 168 0
155 174 0
154 177 0
155 175 0
167 185 0
149 172 0
151 170 0
165 189 0
153 174 0
130 148 0
156 175 0
165 183 0
159 180 0
154 177 0
149 171 0
166 184 0
133 153 0
143 164 0
144 158 0
151 171 0
132 151 0
126 140 0
160 179 0
150 172 0
149 170 0
168 193 0
162 182 0
146 163 0
138 158 0
147 167 0
147 171 0
164 187 0
150 170 0
116 140 0
134 152 0
163 187 0
157 177 0
140 160 0
163 184 0
160 182 0
118 135 0
132 152 0
160 178 0
148 169 0
158 183 0
144 166 0
150 171 0
145 170 0
149 167 0
174 195 0
157 179 0
145 169 0
133 155 0
164 186 0
145 167 0
164 181 0
146 168 0
154 177 0
129 152 0
146 163 0
154 175 0
137 158 0
168 186 0
132 151 0
156 177 0
147 169 0
147 167 0
144 160 0
146 167 0
115 134 0
80 100 0
119 138 0
151 172 0
138 160 0
152 174 0
154 176 0
149 168 0
150 173 0
135 157 0
159 184 0
155 176 0
174 198 0
143 162 0
160 180 0
136 159 0
147 169 0
158 181 0
156 175 0
143 169 0
119 140 0
157 179 0
146 168 0
150 175 0
141 160 0
144 166 0
127 150 0
168 189 0
118 137 0
145 163 0
146 166 0
136 158 0
130 149 0
159 181 0
134 157 0
170 193 0
147 163 0
127 148 0
116 135 0
139 163 0
137 159 0
147 170 0
135 159 0
166 190 0
159 180 0
154 179 0
148 165 0
154 176 0
136 161 0
86 107 0
154 174 0
127 147 0
143 161 0
147 170 0
119 141 0
147 171 0
158 181 0
142 166 0
142 165 0
161 177 0
144 163 0
136 157 0
138 158 0
145 167 0
169 186 0
136 155 0
135 152 0
136 158 0
121 139 0
163 182 0
143 163 0
156 180 0
163 187 0
129 147 0
133 149 0
173 197 0
170 193 0
143 167 0
131 149 0
171 193 0
138 160 0
119 139 0
151 172 0
151 172 0
138 150 0
131 153 0
130 146 0
144 158 0
140 163 0
125 146 0
149 172 0
118 141 0
147 170 0
126 145 0
148 168 0
152 166 0
121 139 0
113 135 0
170 191 0
166 189 0
147 169 0
139 153 0
151 172 0
123 139 0
127 145 0
149 170 0
123 146 0
137 155 0
122 135 0
146 169 0
123 146 0
97 112 0
158 180 0
142 164 0
154 175 0
141 165 0
144 157 0
157 177 0
120 137 0
144 167 0
155 171 0
153 172 0
149 170 0
146 169 0
142 156 0
134 149 0
135 158 0
134 155 0
163 183 0
139 162 0
139 150 0
156 177 0
121 143 0
145 165 0
146 165 0
155 173 0
129 144 0
143 162 0
140 156 0
161 178 0
154 180 0
122 141 0
164 184 0
132 149 0
152 164 0
130 144 0
144 164 0
166 178 0
152 169 0
146 162 0
129 144 0
145 166 0
149 172 0
159 169 0
157 179 0
156 168 0
146 160 0
151 169 0
138 161 0
130 145 0
156 175 0
136 153 0
161 184 0
166 186 0
152 168 0
139 152 0
149 162 0
177 196 0
175 191 0
172 190 0
164 180 0
173 196 0
151 170 0
161 174 0
156 176 0
145 152 0
152 169 0
159 174 0
165 183 0
144 160 0
163 176 0
136 144 0
152 166 0
170 175 0
157 170 0
131 143 0
166 179 0
165 185 0
159 173 0
162 178 0
163 177 0
137 134 0
154 161 0
135 148 0
164 177 0
162 178 0
147 155 0
157 170 0
148 157 0
138 148 0
172 183 0
146 158 0
135 146 0
150 173 0
151 159 0
156 166 0
146 152 0
143 153 0
133 139 0
124 129 0
165 184 0
163 171 0
157 168 0
144 155 0
155 161 0
170 182 0
157 167 0
149 157 0
163 168 0
163 175 0
154 161 0
169 184 0
161 175 0
153 166 0
153 164 0
146 149 0
140 148 0
167 178 0
150 154 0
136 145 0
164 176 0
159 171 0
151 159 0
161 165 0
166 176 0
144 154 0
169 178 0
157 163 0
165 177 0
158 163 0
145 143 0
144 151 0
151 162 0
153 160 0
145 158 0
154 170 0
153 161 0
160 170 0
170 172 0
164 179 0
150 158 0
169 181 0
143 146 0
138 136 0
166 177 0
155 159 0
148 155 0
148 150 0
160 158 0
159 159 0
159 171 0
167 182 0
172 192 0
172 194 0
163 184 0
172 189 0
166 185 0
162 182 0
161 180 0
159 179 0
170 186 0
161 179 0
161 179 0
173 193 0
166 187 0
164 185 0
151 170 0
172 188 0
174 195 0
159 176 0
177 195 0
133 153 0
165 182 0
172 187 0
159 180 0
169 189 0
150 168 0
141 156 0
167 186 0
149 168 0
154 171 0
169 191 0
164 183 0
174 194 0
146 167 0
152 172 0
175 192 0
156 175 0
166 186 0
157 178 0
157 177 0
159 177 0
142 165 0
146 166 0
149 167 0
139 156 0
162 183 0
158 175 0
139 159 0
155 173 0
142 161 0
152 174 0
145 167 0
145 160 0
166 185 0
148 168 0
164 186 0
146 165 0
157 177 0
147 167 0
167 190 0
151 169 0
143 160 0
143 161 0
162 184 0
145 166 0
124 143 0
139 155 0
145 163 0
144 166 0
152 171 0
160 179 0
142 163 0
138 159 0
147 166 0
166 189 0
142 162 0
154 173 0
161 184 0
135 155 0
147 167 0
148 167 0
149 169 0
137 158 0
147 169 0
158 179 0
151 173 0
155 176 0
133 151 0
156 177 0
105 126 0
140 160 0
141 163 0
156 178 0
123 144 0
146 167 0
164 186 0
136 156 0
162 183 0
146 165 0
139 162 0
154 174 0
161 184 0
128 151 0
164 186 0
152 176 0
166 187 0
160 183 0
137 157 0
132 156 0
151 173 0
123 141 0
145 166 0
132 152 0
101 123 0
133 153 0
169 193 0
139 160 0
139 162 0
168 188 0
157 179 0
154 176 0
127 145 0
166 190 0
134 154 0
150 171 0
159 184 0
122 140 0
151 175 0
137 159 0
145 167 0
137 159 0
138 162 0
153 177 0
141 166 0
172 195 0
137 156 0
157 179 0
135 157 0
140 160 0
133 154 0
137 158 0
142 165 0
139 162 0
150 175 0
157 179 0
146 165 0
157 182 0
143 163 0
135 156 0
141 161 0
146 167 0
134 156 0
146 169 0
136 159 0
166 189 0
158 174 0
148 168 0
140 160 0
114 138 0
145 167 0
155 180 0
158 182 0
136 158 0
134 155 0
165 187 0
150 170 0
136 158 0
139 163 0
123 140 0
157 173 0
113 134 0
136 159 0
121 142 0
163 181 0
147 168 0
129 150 0
167 188 0
129 148 0
129 151 0
137 160 0
121 142 0
156 179 0
156 176 0
156 176 0
153 173 0
155 176 0
154 177 0
154 176 0
129 151 0
167 191 0
121 139 0
160 181 0
142 162 0
123 145 0
151 166 0
139 154 0
159 179 0
139 159 0
143 166 0
154 171 0
137 159 0
144 166 0
160 186 0
143 160 0
140 159 0
150 173 0
142 163 0
142 161 0
132 151 0
142 165 0
149 168 0
127 149 0
146 167 0
144 164 0
132 152 0
148 166 0
150 166 0
163 184 0
140 160 0
155 181 0
137 155 0
144 161 0
146 165 0
149 171 0
149 169 0
143 164 0
157 177 0
140 158 0
165 185 0
151 172 0
144 167 0
121 143 0
156 175 0
129 150 0
123 147 0
139 160 0
144 168 0
140 158 0
159 176 0
127 147 0
157 181 0
151 168 0
131 152 0
169 187 0
143 159 0
123 141 0
140 161 0
145 159 0
142 159 0
160 173 0
144 167 0
127 145 0
146 169 0
115 128 0
155 170 0
123 143 0
157 179 0
147 167 0
120 142 0
155 180 0
149 170 0
124 142 0
136 153 0
134 155 0
164 186 0
131 149 0
167 185 0
173 192 0
146 164 0
155 179 0
109 120 0
166 184 0
147 163 0
164 188 0
162 175 0
139 155 0
109 128 0
137 156 0
165 182 0
142 160 0
149 169 0
143 157 0
152 173 0
112 133 0
155 171 0
151 166 0
147 166 0
136 148 0
157 174 0
140 161 0
150 171 0
143 160 0
134 152 0
154 162 0
168 184 0
161 171 0
147 163 0
137 153 0
146 162 0
135 145 0
162 181 0
143 158 0
166 175 0
151 168 0
171 189 0
158 175 0
148 168 0
150 168 0
155 169 0
153 169 0
170 185 0
151 175 0
158 169 0
132 137 0
161 174 0
143 164 0
155 167 0
169 192 0
138 154 0
156 160 0
157 170 0
142 161 0
151 161 0
159 169 0
157 170 0
147 161 0
167 183 0
139 147 0
147 160 0
158 172 0
127 145 0
132 140 0
156 166 0
156 166 0
135 148 0
144 150 0
149 161 0
155 170 0
134 148 0
156 171 0
159 167 0
133 139 0
152 164 0
154 160 0
160 178 0
147 157 0
139 146 0
162 172 0
154 165 0
153 170 0
164 178 0
175 194 0
150 166 0
157 166 0
170 181 0
160 177 0
153 169 0
150 153 0
157 174 0
163 175 0
157 167 0
147 164 0
159 172 0
157 164 0
159 165 0
158 173 0
160 170 0
156 170 0
156 161 0
159 171 0
161 169 0
161 173 0
151 166 0
140 147 0
166 178 0
146 159 0
157 166 0
126 129 0
146 153 0
161 164 0
160 161 0
165 182 0
165 165 0
147 162 0
139 151 0
157 166 0
167 175 0
149 156 0
163 179 0
152 150 0
148 155 0
157 157 0
162 172 0
153 159 0
173 187 0
156 162 0
155 161 0
158 161 0
154 157 0
159 171 0
161 175 0
159 174 0
166 185 0
175 196 0
156 174 0
163 186 0
143 162 0
166 186 0
166 184 0
164 184 0
149 165 0
156 176 0
155 175 0
153 173 0
168 189 0
165 185 0
154 173 0
169 185 0
143 162 0
161 183 0
170 190 0
154 173 0
159 178 0
157 175 0
162 180 0
155 175 0
137 156 0
147 167 0
168 187 0
170 188 0
154 174 0
148 169 0
158 177 0
164 183 0
157 176 0
144 160 0
147 163 0
160 179 0
170 190 0
133 152 0
148 168 0
148 166 0
172 192 0
153 169 0
164 187 0
147 168 0
145 165 0
140 160 0
146 167 0
167 183 0
154 173 0
167 189 0
156 174 0
139 159 0
154 176 0
153 172 0
155 174 0
146 168 0
147 167 0
167 188 0
160 180 0
169 186 0
147 169 0
150 169 0
143 161 0
157 180 0
167 189 0
157 177 0
148 170 0
151 171 0
142 162 0
154 176 0
154 175 0
166 185 0
148 167 0
162 183 0
151 170 0
162 186 0
142 166 0
132 149 0
142 163 0
144 169 0
144 161 0
137 158 0
162 182 0
152 172 0
159 181 0
166 186 0
141 159 0
137 155 0
131 153 0
156 177 0
157 177 0
168 188 0
139 157 0
152 172 0
140 159 0
166 191 0
159 177 0
120 143 0
154 174 0
141 162 0
156 177 0
135 153 0
153 175 0
158 179 0
152 175 0
155 174 0
160 183 0
139 159 0
176 199 0
143 165 0
146 169 0
137 156 0
160 178 0
124 140 0
139 161 0
148 170 0
152 173 0
120 144 0
162 184 0
159 179 0
166 189 0
118 141 0
123 144 0
145 169 0
144 161 0
135 158 0
156 177 0
156 178 0
160 180 0
138 157 0
134 151 0
150 168 0
130 151 0
140 164 0
151 174 0
147 171 0
141 161 0
157 176 0
155 177 0
165 185 0
142 164 0
123 143 0
142 159 0
151 172 0
146 170 0
155 177 0
143 164 0
156 178 0
131 143 0
153 175 0
156 176 0
135 145 0
142 162 0
136 157 0
148 170 0
165 189 0
131 145 0
153 175 0
151 178 0
167 190 0
154 169 0
147 170 0
137 159 0
142 160 0
140 154 0
148 170 0
115 137 0
135 158 0
168 195 0
128 149 0
132 151 0
145 166 0
148 169 0
143 165 0
124 144 0
126 147 0
159 179 0
176 199 0
125 146 0
137 160 0
134 156 0
171 195 0
148 162 0
156 175 0
148 170 0
126 141 0
136 155 0
108 126 0
144 162 0
130 147 0
149 160 0
142 165 0
130 153 0
145 167 0
123 143 0
135 158 0
157 180 0
113 129 0
151 170 0
134 156 0
141 164 0
139 162 0
146 168 0
137 161 0
133 154 0
113 134 0
108 128 0
145 169 0
144 159 0
145 166 0
144 168 0
157 180 0
153 177 0
146 171 0
175 195 0
156 175 0
158 175 0
155 178 0
127 149 0
151 174 0
136 155 0
137 154 0
140 151 0
151 168 0
135 154 0
150 172 0
116 137 0
144 164 0
123 141 0
165 184 0
169 191 0
145 168 0
133 150 0
146 168 0
148 171 0
172 193 0
140 160 0
145 169 0
145 165 0
156 179 0
128 149 0
128 146 0
153 176 0
156 178 0
165 188 0
173 192 0
110 126 0
132 154 0
147 167 0
145 166 0
144 157 0
136 155 0
160 182 0
143 157 0
169 192 0
144 163 0
138 156 0
130 150 0
140 154 0
149 170 0
138 157 0
149 170 0
145 162 0
137 158 0
163 182 0
138 160 0
155 164 0
138 157 0
130 146 0
158 173 0
155 174 0
151 177 0
151 168 0
150 172 0
157 178 0
139 157 0
151 170 0
170 187 0
134 153 0
153 169 0
147 170 0
143 163 0
147 165 0
143 160 0
149 167 0
168 181 0
155 170 0
129 149 0
151 172 0
136 148 0
165 188 0
164 182 0
144 163 0
154 178 0
144 164 0
156 176 0
144 163 0
144 158 0
133 141 0
158 180 0
164 184 0
157 168 0
162 180 0
153 167 0
161 182 0
153 162 0
125 140 0
151 172 0
159 173 0
144 153 0
140 151 0
148 171 0
127 136 0
159 174 0
124 129 0
146 159 0
153 164 0
166 177 0
157 170 0
135 154 0
163 172 0
151 173 0
161 172 0
160 178 0
140 140 0
153 166 0
160 174 0
156 175 0
156 172 0
152 167 0
158 175 0
170 186 0
144 154 0
148 153 0
156 173 0
146 166 0
150 165 0
168 185 0
165 189 0
130 143 0
168 173 0
151 161 0
136 141 0
141 140 0
146 163 0
135 141 0
163 177 0
149 164 0
170 184 0
168 184 0
161 178 0
141 149 0
156 175 0
133 139 0
131 136 0
154 160 0
140 149 0
155 167 0
159 165 0
145 156 0
163 172 0
157 170 0
162 168 0
151 162 0
166 185 0
172 181 0
168 182 0
164 167 0
153 161 0
157 172 0
125 133 0
169 175 0
163 175 0
148 152 0
163 168 0
151 158 0
147 158 0
159 174 0
157 164 0
167 174 0
157 160 0
141 152 0
157 164 0
158 164 0
165 180 0
165 174 0
168 184 0
164 170 0
147 157 0
163 164 0
171 186 0
153 168 0
155 159 0
167 170 0
151 154 0
161 172 0
142 147 0
160 178 0
154 166 0
142 162 0
150 171 0
164 183 0
168 188 0
159 180 0
156 177 0
155 173 0
154 172 0
168 188 0
163 183 0
168 191 0
146 164 0
169 190 0
159 179 0
161 180 0
155 174 0
170 190 0
138 160 0
167 186 0
158 178 0
159 181 0
147 166 0
155 176 0
159 178 0
152 170 0
165 187 0
147 159 0
169 192 0
165 183 0
163 182 0
143 160 0
147 168 0
164 182 0
152 171 0
154 176 0
163 185 0
166 182 0
157 173 0
176 193 0
143 161 0
170 187 0
150 171 0
144 165 0
137 158 0
148 169 0
168 187 0
151 171 0
161 180 0
150 169 0
149 170 0
157 175 0
154 176 0
170 190 0
163 182 0
169 191 0
154 173 0
161 182 0
171 191 0
149 169 0
136 154 0
149 168 0
142 159 0
138 155 0
135 154 0
165 185 0
162 179 0
162 182 0
163 186 0
126 146 0
161 183 0
161 180 0
158 176 0
153 175 0
155 172 0
157 180 0
148 164 0
160 182 0
131 153 0
158 181 0
160 184 0
148 167 0
161 184 0
158 179 0
132 154 0
156 177 0
169 189 0
164 184 0
167 191 0
145 162 0
167 187 0
157 176 0
150 170 0
170 187 0
157 179 0
164 185 0
154 177 0
148 170 0
144 165 0
170 193 0
164 182 0
170 193 0
109 127 0
136 148 0
151 168 0
147 172 0
163 185 0
169 191 0
163 185 0
139 159 0
145 167 0
132 155 0
133 155 0
155 176 0
137 158 0
125 146 0
104 123 0
147 167 0
144 165 0
137 159 0
153 176 0
160 182 0
156 180 0
149 172 0
143 161 0
159 182 0
142 162 0
159 180 0
142 161 0
142 167 0
141 166 0
151 176 0
146 169 0
147 166 0
133 160 0
137 156 0
142 165 0
133 155 0
162 183 0
147 166 0
145 169 0
145 167 0
147 169 0
139 161 0
143 168 0
162 184 0
128 145 0
129 149 0
123 145 0
142 164 0
158 178 0
160 183 0
152 171 0
151 172 0
142 162 0
148 169 0
139 158 0
114 135 0
164 187 0
147 167 0
134 155 0
161 182 0
158 182 0
123 142 0
154 173 0
143 161 0
152 171 0
145 162 0
118 139 0
157 184 0
158 181 0
123 148 0
135 154 0
150 174 0
154 176 0
174 194 0
151 172 0
146 170 0
160 181 0
150 171 0
148 167 0
156 180 0
145 168 0
147 170 0
138 161 0
156 179 0
173 197 0
175 198 0
140 162 0
126 149 0
140 158 0
135 158 0
157 180 0
150 171 0
130 156 0
140 159 0
131 151 0
153 173 0
149 168 0
142 163 0
124 146 0
156 175 0
150 169 0
164 186 0
163 188 0
142 168 0
134 153 0
156 177 0
154 173 0
142 165 0
131 156 0
167 187 0
131 150 0
117 138 0
145 166 0
121 144 0
169 192 0
144 166 0
138 159 0
180 201 0
128 148 0
137 158 0
136 152 0
100 124 0
111 130 0
152 174 0
113 131 0
127 147 0
152 171 0
130 149 0
160 176 0
122 146 0
127 145 0
148 166 0
165 187 0
140 160 0
151 171 0
168 188 0
131 151 0
147 165 0
136 152 0
122 141 0
145 163 0
165 187 0
153 177 0
163 183 0
157 175 0
147 170 0
155 170 0
144 162 0
154 174 0
157 172 0
148 169 0
142 160 0
117 131 0
139 155 0
154 172 0
156 168 0
150 165 0
154 173 0
154 170 0
150 168 0
143 158 0
159 175 0
100 114 0
158 175 0
162 183 0
106 125 0
136 158 0
158 176 0
114 133 0
134 150 0
143 163 0
159 175 0
153 169 0
155 172 0
167 185 0
152 172 0
160 181 0
165 189 0
173 191 0
124 145 0
144 159 0
163 183 0
151 170 0
154 171 0
153 166 0
164 184 0
148 167 0
140 158 0
147 167 0
164 186 0
150 169 0
137 154 0
146 156 0
128 144 0
163 183 0
136 148 0
151 170 0
126 145 0
159 177 0
145 155 0
143 163 0
121 135 0
153 168 0
149 163 0
134 158 0
167 186 0
157 173 0
164 177 0
118 135 0
137 159 0
156 176 0
151 170 0
139 153 0
153 165 0
160 175 0
150 164 0
133 147 0
168 184 0
172 190 0
160 178 0
156 171 0
153 161 0
157 174 0
147 161 0
166 185 0
148 166 0
160 179 0
165 188 0
156 174 0
156 168 0
150 163 0
137 146 0
164 184 0
165 180 0
132 150 0
139 153 0
159 178 0
164 180 0
165 182 0
158 168 0
152 164 0
140 148 0
171 189 0
146 154 0
144 156 0
148 160 0
172 188 0
165 180 0
152 168 0
162 176 0
165 179 0
171 186 0
156 171 0
167 178 0
154 172 0
153 165 0
169 188 0
156 173 0
158 164 0
166 172 0
145 156 0
144 152 0
160 169 0
168 179 0
148 152 0
159 174 0
144 155 0
165 184 0
156 169 0
174 181 0
163 175 0
169 181 0
142 150 0
159 174 0
154 162 0
146 159 0
158 169 0
130 143 0
150 163 0
149 163 0
172 189 0
144 154 0
160 168 0
148 158 0
157 174 0
158 162 0
160 167 0
159 170 0
166 172 0
166 172 0
152 159 0
161 176 0
159 168 0
168 178 0
140 152 0
150 164 0
161 178 0
158 161 0
167 180 0
152 171 0
156 178 0
165 183 0
178 197 0
143 161 0
165 187 0
150 169 0
160 177 0
140 160 0
158 181 0
172 191 0
149 168 0
167 186 0
162 183 0
142 161 0
156 176 0
162 177 0
165 181 0
153 174 0
153 175 0
147 164 0
151 168 0
153 171 0
172 192 0
137 156 0
172 193 0
144 161 0
165 189 0
164 183 0
150 169 0
144 164 0
167 186 0
143 164 0
156 172 0
146 169 0
163 184 0
138 154 0
144 162 0
147 167 0
134 152 0
137 153 0
169 189 0
151 175 0
144 163 0
154 175 0
143 163 0
154 175 0
158 175 0
164 182 0
160 183 0
152 169 0
146 164 0
160 182 0
123 140 0
167 189 0
162 182 0
156 172 0
163 179 0
167 190 0
154 175 0
152 174 0
147 168 0
147 167 0
146 162 0
165 186 0
153 177 0
155 175 0
163 186 0
153 175 0
143 167 0
137 156 0
143 166 0
163 183 0
161 180 0
172 194 0
138 158 0
132 155 0
154 176 0
145 162 0
161 182 0
143 164 0
160 178 0
169 192 0
148 171 0
136 153 0
152 170 0
140 160 0
163 188 0
140 161 0
161 184 0
144 168 0
127 149 0
138 156 0
147 171 0
157 180 0
152 171 0
160 180 0
156 178 0
162 186 0
175 196 0
154 176 0
147 169 0
162 181 0
154 175 0
144 168 0
157 178 0
151 169 0
144 165 0
147 168 0
166 187 0
144 165 0
155 178 0
171 195 0
153 173 0
156 178 0
161 185 0
154 177 0
133 156 0
163 185 0
151 174 0
157 179 0
143 161 0
170 193 0
145 167 0
161 182 0
162 181 0
142 165 0
130 152 0
135 157 0
150 177 0
126 145 0
165 188 0
148 170 0
147 169 0
136 156 0
161 181 0
156 176 0
133 155 0
159 182 0
156 179 0
147 166 0
132 152 0
134 158 0
160 183 0
149 170 0
142 163 0
151 176 0
149 171 0
135 159 0
137 158 0
148 165 0
161 182 0
162 185 0
155 175 0
145 162 0
164 182 0
139 163 0
154 174 0
169 195 0
127 150 0
135 154 0
168 185 0
124 145 0
134 158 0
142 162 0
138 161 0
152 173 0
115 133 0
162 182 0
157 180 0
145 163 0
158 182 0
173 194 0
144 165 0
157 182 0
145 166 0
139 162 0
166 188 0
157 179 0
139 161 0
157 179 0
153 176 0
142 163 0
169 192 0
149 169 0
153 177 0
151 173 0
146 165 0
163 186 0
152 174 0
132 148 0
140 158 0
157 178 0
154 176 0
121 145 0
147 167 0
150 169 0
112 134 0
145 167 0
146 165 0
136 160 0
164 186 0
138 159 0
154 175 0
153 175 0
144 160 0
140 159 0
144 164 0
148 170 0
158 178 0
142 163 0
161 175 0
163 183 0
139 157 0
127 149 0
150 171 0
166 188 0
150 170 0
147 166 0
148 167 0
155 175 0
141 160 0
164 186 0
151 173 0
134 154 0
160 186 0
151 169 0
145 166 0
133 155 0
147 168 0
160 182 0
126 144 0
140 158 0
121 144 0
124 146 0
151 169 0
138 162 0
144 164 0
161 180 0
144 164 0
168 190 0
143 168 0
155 175 0
136 153 0
162 186 0
153 177 0
150 169 0
146 163 0
153 178 0
149 169 0
148 171 0
132 155 0
152 165 0
152 173 0
151 173 0
157 176 0
136 157 0
145 165 0
131 150 0
114 133 0
148 165 0
155 174 0
158 180 0
157 176 0
163 180 0
146 166 0
171 196 0
127 137 0
150 173 0
166 188 0
132 147 0
157 178 0
141 159 0
154 175 0
146 166 0
157 180 0
164 185 0
162 181 0
148 165 0
149 166 0
145 160 0
154 177 0
157 175 0
136 157 0
149 164 0
170 186 0
163 177 0
161 175 0
157 168 0
161 181 0
137 152 0
149 162 0
140 157 0
137 157 0
156 171 0
143 166 0
116 132 0
128 145 0
155 168 0
157 176 0
135 154 0
167 189 0
162 183 0
137 157 0
131 146 0
162 179 0
138 151 0
154 171 0
162 183 0
149 166 0
150 162 0
168 186 0
153 170 0
143 159 0
173 188 0
161 173 0
157 172 0
159 178 0
139 153 0
158 173 0
118 133 0
152 159 0
164 180 0
141 162 0
148 158 0
157 169 0
160 171 0
161 175 0
145 155 0
168 173 0
155 167 0
155 176 0
169 190 0
134 147 0
152 166 0
157 176 0
140 153 0
136 150 0
110 125 0
161 169 0
134 129 0
155 175 0
163 174 0
166 180 0
163 171 0
146 151 0
142 153 0
164 163 0
149 163 0
156 176 0
148 165 0
137 147 0
164 176 0
167 182 0
155 167 0
147 165 0
153 164 0
165 181 0
158 170 0
155 165 0
152 157 0
162 181 0
158 163 0
142 151 0
136 152 0
165 173 0
165 169 0
126 128 0
145 148 0
156 165 0
160 179 0
160 169 0
156 166 0
167 177 0
160 170 0
159 169 0
166 177 0
168 178 0
159 171 0
149 163 0
163 175 0
155 167 0
139 144 0
155 154 0
163 175 0
146 157 0
140 143 0
158 169 0
147 154 0
171 187 0
166 180 0
153 162 0
167 182 0
169 188 0
165 175 0
161 165 0
156 157 0
168 183 0
143 156 0
163 171 0
164 184 0
164 184 0
169 189 0
166 185 0
169 190 0
147 168 0
144 161 0
157 174 0
163 184 0
169 190 0
144 163 0
159 177 0
151 166 0
168 188 0
155 173 0
159 179 0
171 191 0
164 181 0
147 166 0
150 170 0
147 165 0
150 170 0
169 187 0
145 166 0
170 187 0
141 160 0
172 194 0
153 172 0
118 131 0
151 169 0
158 180 0
153 173 0
161 182 0
170 189 0
163 179 0
142 162 0
165 185 0
166 186 0
144 166 0
163 184 0
151 171 0
157 178 0
161 184 0
145 164 0
156 175 0
160 178 0
174 192 0
155 174 0
174 194 0
160 178 0
137 155 0
148 170 0
159 177 0
156 177 0
159 179 0
151 171 0
146 168 0
162 182 0
160 181 0
165 186 0
159 177 0
151 169 0
146 166 0
137 157 0
150 170 0
160 182 0
161 177 0
166 189 0
167 186 0
135 154 0
158 182 0
147 167 0
157 180 0
146 164 0
162 182 0
148 171 0
162 185 0
142 159 0
152 174 0
159 181 0
158 178 0
164 188 0
143 161 0
154 176 0
162 181 0
146 168 0
144 161 0
133 152 0
167 187 0
175 195 0
146 168 0
142 164 0
161 186 0
154 175 0
140 163 0
150 172 0
152 174 0
167 185 0
136 156 0
136 157 0
154 173 0
161 181 0
161 177 0
154 178 0
150 174 0
142 160 0
123 147 0
141 161 0
145 162 0
147 164 0
169 192 0
159 184 0
161 182 0
133 153 0
148 171 0
165 188 0
163 181 0
157 174 0
150 172 0
129 152 0
152 176 0
160 183 0
152 174 0
154 172 0
155 176 0
168 188 0
145 167 0
133 154 0
148 171 0
144 162 0
138 157 0
139 159 0
146 164 0
151 173 0
147 165 0
141 165 0
139 160 0
146 165 0
140 161 0
134 150 0
138 161 0
138 155 0
152 170 0
154 175 0
127 146 0
155 175 0
154 175 0
149 172 0
162 186 0
153 177 0
143 159 0
141 165 0
122 142 0
152 172 0
137 157 0
125 142 0
130 144 0
155 177 0
157 179 0
148 170 0
164 188 0
168 189 0
109 128 0
166 186 0
158 181 0
174 197 0
136 154 0
150 173 0
118 136 0
150 175 0
142 161 0
124 148 0
113 134 0
156 178 0
114 135 0
149 172 0
151 173 0
151 172 0
129 151 0
136 153 0
135 159 0
148 165 0
135 157 0
157 179 0
158 181 0
151 174 0
131 148 0
149 170 0
117 134 0
148 168 0
156 179 0
151 174 0
144 167 0
161 181 0
148 165 0
151 170 0
149 174 0
127 147 0
146 167 0
144 163 0
157 177 0
122 137 0
151 172 0
137 157 0
155 179 0
156 179 0
159 175 0
145 169 0
168 190 0
115 138 0
116 131 0
152 174 0
144 165 0
165 179 0
164 187 0
122 144 0
140 158 0
150 172 0
127 148 0
155 176 0
171 194 0
145 170 0
136 158 0
115 128 0
145 168 0
163 187 0
142 158 0
133 156 0
138 157 0
154 177 0
143 162 0
145 167 0
143 162 0
146 170 0
160 182 0
173 197 0
146 160 0
128 147 0
163 178 0
149 165 0
142 163 0
154 177 0
155 168 0
163 181 0
162 177 0
138 159 0
146 169 0
112 130 0
136 161 0
142 163 0
155 179 0
157 177 0
156 175 0
131 153 0
132 154 0
155 176 0
143 160 0
173 197 0
141 161 0
158 180 0
149 167 0
149 167 0
120 130 0
160 182 0
162 184 0
150 166 0
138 157 0
163 184 0
143 160 0
155 177 0
149 162 0
161 180 0
174 197 0
130 145 0
158 174 0
160 169 0
164 185 0
143 164 0
155 177 0
171 189 0
133 147 0
161 180 0
174 194 0
152 170 0
151 162 0
167 181 0
152 171 0
169 187 0
137 159 0
158 173 0
111 127 0
169 185 0
143 158 0
157 178 0
144 159 0
147 164 0
164 180 0
147 161 0
160 180 0
153 169 0
165 182 0
171 186 0
155 171 0
159 177 0
165 186 0
153 172 0
155 178 0
176 199 0
161 175 0
152 164 0
145 167 0
157 178 0
160 166 0
158 170 0
157 171 0
160 177 0
152 156 0
153 173 0
125 144 0
163 179 0
151 162 0
162 180 0
171 190 0
168 186 0
140 153 0
159 176 0
160 179 0
153 173 0
170 185 0
154 169 0
152 162 0
155 170 0
160 173 0
168 188 0
148 159 0
148 161 0
168 191 0
172 183 0
142 154 0
144 148 0
157 161 0
141 160 0
135 147 0
165 181 0
134 155 0
156 164 0
139 144 0
162 181 0
139 153 0
147 156 0
165 177 0
154 165 0
168 184 0
157 163 0
160 171 0
167 176 0
148 166 0
146 154 0
145 155 0
158 171 0
156 165 0
157 169 0
166 181 0
155 167 0
172 192 0
155 169 0
145 157 0
159 162 0
154 168 0
159 169 0
152 169 0
162 176 0
146 154 0
145 153 0
158 170 0
159 168 0
146 155 0
145 152 0
148 153 0
173 190 0
155 158 0
147 156 0
167 176 0
155 171 0
155 165 0
159 166 0
151 158 0
161 172 0
168 179 0
166 177 0
162 173 0
165 180 0
163 174 0
165 175 0
166 175 0
170 183 0
170 187 0
160 166 0
172 188 0
153 159 0
163 184 0
148 167 0
149 168 0
176 196 0
153 173 0
160 181 0
158 178 0
158 179 0
160 180 0
161 180 0
148 167 0
139 157 0
144 164 0
151 171 0
140 157 0
157 178 0
160 180 0
168 190 0
158 179 0
160 181 0
161 182 0
154 173 0
168 191 0
170 187 0
165 184 0
160 179 0
155 177 0
167 189 0
155 175 0
159 177 0
167 185 0
143 162 0
161 182 0
139 160 0
169 192 0
137 157 0
160 179 0
165 187 0
165 184 0
162 181 0
147 168 0
148 165 0
157 177 0
153 171 0
150 175 0
150 171 0
159 180 0
163 182 0
159 179 0
133 151 0
153 173 0
163 183 0
149 171 0
154 177 0
172 192 0
164 188 0
141 161 0
150 168 0
147 166 0
156 174 0
154 174 0
148 168 0
156 176 0
164 188 0
172 194 0
159 180 0
144 166 0
141 161 0
153 174 0
161 182 0
158 177 0
155 174 0
147 165 0
155 176 0
141 162 0
135 154 0
146 165 0
167 189 0
159 179 0
161 181 0
166 187 0
147 167 0
156 177 0
157 176 0
167 189 0
166 189 0
165 186 0
115 135 0
158 177 0
155 173 0
163 187 0
148 168 0
171 192 0
155 176 0
157 178 0
162 182 0
167 192 0
153 175 0
148 172 0
124 144 0
147 168 0
145 166 0
170 195 0
128 149 0
157 180 0
163 184 0
147 168 0
128 146 0
161 182 0
149 171 0
135 155 0
142 162 0
169 195 0
147 168 0
134 154 0
169 191 0
149 169 0
174 198 0
140 157 0
139 159 0
131 150 0
165 186 0
141 158 0
127 149 0
129 150 0
155 177 0
157 173 0
131 149 0
159 178 0
157 176 0
119 143 0
163 185 0
148 172 0
141 164 0
148 169 0
135 158 0
156 177 0
151 167 0
146 170 0
157 179 0
163 189 0
163 182 0
168 189 0
166 189 0
146 169 0
163 184 0
143 165 0
143 161 0
154 177 0
119 138 0
157 180 0
154 174 0
165 187 0
134 156 0
122 143 0
143 168 0
157 176 0
142 163 0
145 170 0
141 159 0
133 158 0
145 164 0
162 185 0
154 179 0
164 183 0
135 157 0
155 180 0
161 185 0
164 182 0
161 183 0
149 170 0
140 158 0
152 175 0
145 167 0
153 176 0
146 159 0
137 159 0
137 155 0
142 165 0
152 171 0
146 167 0
120 140 0
135 159 0
162 185 0
97 119 0
128 146 0
135 158 0
137 160 0
129 148 0
123 149 0
153 174 0
148 170 0
145 168 0
125 147 0
148 172 0
144 166 0
125 149 0
159 180 0
173 196 0
129 150 0
138 156 0
149 165 0
167 187 0
164 187 0
139 163 0
160 183 0
163 186 0
163 188 0
136 155 0
143 167 0
148 169 0
125 146 0
158 180 0
144 157 0
172 197 0
150 171 0
129 150 0
144 165 0
120 138 0
149 168 0
161 183 0
155 179 0
167 189 0
167 187 0
136 154 0
139 159 0
125 149 0
145 164 0
139 165 0
151 177 0
164 187 0
147 167 0
147 169 0
158 177 0
156 180 0
161 184 0
158 180 0
151 173 0
158 179 0
153 172 0
132 150 0
155 178 0
171 192 0
148 168 0
132 152 0
142 164 0
153 178 0
142 165 0
148 164 0
161 185 0
136 155 0
145 165 0
149 170 0
157 180 0
148 170 0
157 176 0
164 181 0
155 177 0
153 172 0
151 169 0
152 172 0
166 182 0
150 168 0
154 172 0
159 179 0
150 170 0
162 180 0
139 151 0
129 149 0
126 147 0
167 189 0
140 161 0
142 160 0
142 165 0
139 161 0
127 144 0
163 180 0
163 184 0
153 178 0
135 153 0
169 192 0
168 187 0
160 181 0
140 152 0
151 173 0
160 178 0
156 178 0
155 176 0
148 167 0
118 129 0
132 153 0
127 148 0
159 181 0
157 178 0
152 167 0
142 161 0
143 157 0
159 173 0
150 168 0
151 167 0
163 185 0
167 188 0
142 157 0
152 168 0
168 182 0
150 167 0
156 173 0
155 171 0
151 172 0
160 171 0
165 191 0
143 157 0
160 182 0
152 161 0
150 168 0
145 158 0
173 184 0
152 170 0
164 176 0
154 174 0
171 186 0
160 181 0
146 161 0
146 158 0
152 165 0
138 158 0
167 183 0
141 157 0
121 123 0
132 150 0
137 154 0
139 148 0
149 160 0
165 175 0
144 168 0
160 173 0
146 157 0
147 161 0
152 155 0
154 162 0
163 170 0
168 187 0
168 186 0
146 156 0
160 171 0
144 164 0
136 147 0
139 149 0
154 173 0
151 165 0
167 180 0
166 181 0
142 151 0
158 171 0
167 181 0
166 178 0
143 156 0
136 148 0
151 165 0
164 172 0
163 181 0
142 152 0
164 172 0
163 180 0
164 176 0
155 159 0
169 185 0
163 180 0
146 149 0
142 156 0
170 185 0
137 137 0
155 163 0
164 168 0
154 164 0
162 168 0
157 171 0
151 159 0
161 173 0
163 179 0
151 155 0
159 172 0
159 175 0
174 183 0
146 148 0
150 160 0
168 180 0
151 158 0
158 167 0
167 178 0
145 155 0
163 160 0
159 164 0
141 144 0
168 177 0
154 162 0
156 163 0
156 161 0
173 187 0
165 168 0
172 192 0
152 172 0
166 184 0
167 187 0
164 185 0
158 177 0
161 182 0
159 180 0
137 159 0
157 175 0
165 183 0
170 191 0
153 173 0
158 179 0
171 189 0
141 161 0
156 176 0
144 163 0
170 190 0
170 189 0
155 175 0
149 170 0
166 184 0
167 186 0
162 184 0
164 184 0
156 177 0
151 170 0
150 169 0
159 178 0
148 170 0
165 185 0
156 176 0
154 173 0
164 185 0
166 184 0
171 190 0
150 172 0
159 177 0
146 166 0
122 142 0
157 177 0
138 156 0
148 168 0
157 177 0
163 180 0
142 160 0
165 186 0
140 159 0
164 185 0
151 171 0
144 165 0
156 176 0
150 167 0
153 173 0
167 189 0
157 180 0
151 175 0
148 166 0
149 168 0
157 178 0
169 190 0
166 188 0
169 188 0
140 161 0
160 179 0
138 161 0
165 188 0
166 183 0
155 178 0
153 169 0
149 173 0
151 171 0
160 180 0
163 182 0
138 155 0
153 179 0
139 158 0
152 175 0
138 159 0
150 173 0
154 173 0
142 164 0
160 181 0
154 175 0
151 168 0
159 181 0
158 180 0
143 162 0
141 161 0
143 162 0
128 149 0
157 177 0
162 180 0
145 168 0
157 176 0
161 181 0
150 170 0
124 144 0
149 172 0
148 164 0
158 180 0
174 197 0
154 174 0
147 169 0
163 184 0
153 176 0
156 179 0
140 162 0
134 154 0
157 179 0
171 194 0
150 169 0
160 183 0
149 167 0
146 168 0
164 187 0
148 171 0
157 179 0
127 149 0
154 174 0
164 188 0
157 180 0
142 165 0
167 192 0
163 185 0
158 176 0
161 182 0
135 157 0
141 163 0
149 168 0
126 145 0
131 153 0
162 187 0
133 154 0
137 160 0
148 166 0
173 197 0
151 167 0
125 145 0
128 151 0
133 151 0
126 146 0
141 158 0
137 159 0
157 180 0
151 171 0
165 186 0
146 167 0
169 190 0
147 165 0
159 177 0
145 169 0
143 165 0
154 179 0
149 170 0
142 166 0
152 176 0
137 158 0
142 163 0
164 187 0
143 163 0
152 175 0
159 181 0
123 142 0
161 182 0
111 131 0
152 175 0
121 143 0
171 192 0
159 180 0
151 172 0
163 184 0
166 189 0
141 160 0
130 155 0
160 182 0
152 174 0
147 171 0
137 154 0
142 163 0
121 141 0
148 172 0
156 174 0
115 138 0
140 161 0
146 169 0
161 181 0
154 175 0
132 148 0
144 167 0
132 155 0
161 186 0
97 112 0
147 171 0
136 151 0
159 177 0
116 136 0
168 190 0
158 180 0
136 156 0
150 169 0
164 187 0
127 143 0
164 188 0
162 180 0
142 165 0
158 180 0
139 155 0
123 143 0
150 172 0
134 157 0
100 118 0
136 160 0
154 174 0
155 179 0
158 181 0
153 171 0
121 145 0
149 170 0
118 138 0
164 187 0
163 188 0
146 164 0
133 152 0
127 144 0
140 165 0
155 174 0
146 168 0
172 193 0
143 163 0
137 159 0
155 176 0
120 141 0
158 176 0
166 186 0
155 176 0
141 162 0
128 142 0
139 159 0
139 161 0
133 150 0
150 175 0
157 181 0
143 162 0
131 153 0
150 171 0
167 194 0
142 154 0
160 180 0
132 151 0
161 180 0
153 173 0
156 178 0
162 186 0
159 182 0
157 181 0
164 185 0
155 176 0
144 164 0
160 178 0
155 179 0
172 195 0
142 165 0
125 146 0
158 181 0
142 154 0
139 157 0
127 147 0
164 187 0
156 177 0
161 184 0
114 132 0
147 156 0
153 177 0
142 167 0
128 143 0
148 165 0
145 157 0
145 161 0
144 169 0
155 175 0
161 178 0
156 173 0
162 179 0
161 173 0
158 180 0
141 162 0
134 148 0
162 180 0
140 159 0
165 184 0
158 178 0
159 173 0
152 166 0
143 160 0
159 181 0
154 162 0
157 179 0
157 178 0
163 173 0
155 173 0
165 181 0
154 178 0
155 175 0
137 156 0
157 170 0
131 138 0
141 147 0
159 173 0
150 172 0
157 176 0
160 176 0
131 146 0
130 138 0
153 174 0
155 174 0
164 176 0
146 163 0
169 181 0
149 165 0
152 169 0
164 180 0
155 172 0
156 173 0
143 159 0
154 176 0
139 151 0
143 159 0
146 160 0
148 159 0
129 145 0
156 161 0
159 172 0
160 181 0
119 122 0
155 168 0
133 143 0
163 172 0
157 175 0
140 147 0
157 168 0
145 162 0
157 172 0
144 161 0
175 188 0
172 188 0
172 190 0
144 152 0
165 181 0
145 153 0
140 147 0
131 137 0
172 193 0
163 176 0
154 162 0
160 176 0
168 182 0
159 160 0
167 182 0
151 164 0
166 183 0
163 179 0
168 183 0
150 161 0
163 181 0
154 150 0
145 156 0
159 170 0
158 172 0
164 180 0
160 175 0
155 164 0
143 148 0
172 183 0
154 167 0
152 159 0
164 177 0
152 159 0
159 171 0
139 142 0
170 185 0
171 186 0
168 186 0
150 166 0
155 173 0
151 166 0
161 168 0
163 175 0
164 187 0
163 173 0
165 173 0
163 176 0
156 166 0
174 191 0
158 166 0
154 161 0
159 166 0
160 171 0
173 184 0
127 147 0
151 171 0
146 167 0
163 182 0
171 193 0
162 182 0
162 184 0
156 175 0
171 192 0
166 187 0
154 174 0
170 191 0
146 163 0
158 179 0
148 168 0
166 188 0
154 174 0
165 185 0
172 193 0
159 176 0
157 176 0
152 170 0
166 187 0
149 169 0
144 166 0
168 188 0
150 170 0
149 168 0
169 189 0
149 170 0
159 180 0
162 180 0
153 173 0
165 185 0
146 163 0
154 177 0
167 187 0
170 189 0
155 178 0
139 159 0
164 184 0
169 191 0
166 186 0
145 168 0
157 179 0
147 167 0
165 188 0
142 165 0
158 181 0
145 163 0
151 171 0
143 162 0
167 184 0
144 166 0
153 173 0
149 168 0
166 191 0
150 170 0
145 164 0
173 195 0
162 183 0
152 172 0
150 172 0
129 147 0
162 183 0
133 154 0
171 189 0
158 178 0
136 155 0
153 174 0
157 180 0
144 164 0
120 139 0
150 171 0
150 173 0
168 190 0
149 173 0
105 122 0
136 155 0
170 190 0
113 134 0
144 165 0
147 169 0
166 186 0
151 172 0
140 162 0
142 163 0
133 151 0
150 171 0
161 181 0
154 175 0
152 171 0
151 172 0
150 173 0
138 161 0
163 185 0
155 177 0
164 187 0
161 183 0
141 166 0
170 190 0
155 176 0
145 165 0
162 184 0
132 153 0
147 166 0
153 174 0
149 173 0
155 177 0
147 167 0
153 175 0
162 183 0
146 165 0
161 182 0
166 185 0
171 194 0
158 184 0
147 171 0
170 196 0
161 187 0
163 181 0
139 158 0
156 177 0
160 180 0
151 171 0
158 182 0
110 130 0
136 156 0
151 173 0
142 163 0
138 162 0
149 172 0
153 176 0
121 141 0
168 191 0
145 167 0
141 161 0
151 173 0
149 170 0
161 186 0
141 163 0
126 150 0
157 180 0
166 190 0
166 187 0
172 195 0
158 180 0
125 147 0
137 156 0
155 170 0
140 165 0
151 172 0
175 195 0
142 165 0
159 184 0
136 156 0
133 152 0
152 172 0
107 127 0
150 170 0
137 162 0
136 158 0
145 166 0
155 180 0
135 157 0
164 188 0
125 144 0
132 151 0
122 142 0
147 170 0
146 166 0
143 164 0
164 185 0
165 188 0
137 159 0
163 183 0
134 155 0
143 166 0
151 175 0
137 158 0
156 179 0
157 176 0
123 143 0
142 158 0
162 185 0
154 170 0
151 170 0
149 164 0
142 160 0
160 182 0
169 186 0
147 169 0
162 186 0
127 144 0
147 168 0
163 186 0
152 174 0
147 170 0
139 157 0
164 187 0
144 165 0
150 166 0
138 159 0
165 188 0
155 174 0
160 179 0
148 173 0
167 192 0
152 177 0
161 180 0
144 163 0
134 158 0
144 168 0
151 169 0
156 178 0
117 132 0
151 174 0
164 186 0
166 188 0
174 194 0
153 172 0
146 169 0
136 159 0
147 166 0
116 132 0
144 164 0
139 159 0
137 159 0
123 147 0
145 169 0
164 182 0
151 173 0
126 147 0
164 180 0
146 169 0
141 159 0
163 182 0
143 163 0
140 160 0
161 182 0
168 187 0
158 177 0
157 177 0
144 163 0
134 155 0
134 156 0
158 179 0
147 166 0
162 187 0
138 154 0
140 163 0
166 185 0
137 152 0
146 158 0
142 162 0
139 153 0
150 174 0
162 181 0
144 166 0
136 155 0
142 163 0
136 149 0
157 185 0
144 163 0
140 159 0
152 168 0
116 137 0
154 176 0
163 183 0
165 188 0
154 175 0
139 153 0
125 142 0
140 161 0
160 175 0
151 168 0
175 195 0
152 174 0
154 175 0
131 145 0
160 177 0
153 168 0
150 168 0
159 170 0
150 170 0
134 154 0
149 164 0
143 158 0
141 165 0
160 185 0
153 171 0
148 168 0
169 189 0
157 174 0
176 192 0
158 177 0
152 168 0
138 159 0
162 184 0
162 184 0
155 170 0
154 172 0
165 185 0
163 183 0
162 180 0
159 171 0
148 167 0
132 143 0
153 169 0
162 183 0
151 169 0
151 171 0
144 162 0
163 186 0
142 163 0
163 172 0
171 186 0
151 176 0
149 168 0
143 156 0
173 192 0
147 165 0
137 147 0
151 165 0
173 187 0
158 171 0
150 166 0
145 159 0
137 147 0
159 178 0
163 171 0
167 184 0
168 187 0
151 165 0
158 172 0
159 165 0
158 170 0
154 173 0
142 154 0
158 173 0
167 183 0
163 178 0
172 190 0
164 174 0
149 163 0
136 152 0
159 178 0
162 172 0
169 191 0
157 168 0
168 184 0
173 190 0
145 158 0
159 173 0
160 169 0
157 170 0
162 175 0
154 170 0
157 169 0
159 172 0
156 164 0
162 172 0
152 166 0
158 172 0
144 152 0
149 157 0
144 149 0
163 181 0
158 163 0
155 164 0
155 169 0
164 165 0
169 183 0
160 174 0
159 170 0
158 163 0
160 166 0
164 180 0
153 170 0
165 172 0
161 170 0
155 162 0
147 153 0
151 157 0
153 164 0
153 166 0
164 173 0
154 159 0
155 165 0
163 175 0
148 162 0
155 165 0
149 155 0
167 183 0
148 163 0
158 165 0
154 170 0
167 182 0
165 176 0
165 179 0
164 185 0
143 162 0
169 190 0
160 181 0
161 180 0
157 177 0
163 186 0
161 179 0
163 180 0
148 165 0
136 152 0
153 174 0
141 161 0
130 150 0
153 172 0
167 189 0
161 182 0
169 192 0
155 178 0
141 160 0
143 161 0
156 177 0
156 177 0
160 181 0
162 184 0
154 172 0
147 165 0
133 152 0
155 173 0
149 169 0
169 191 0
169 189 0
144 164 0
157 176 0
145 164 0
154 173 0
175 195 0
153 176 0
152 173 0
152 168 0
160 178 0
154 174 0
147 169 0
165 187 0
166 187 0
139 160 0
161 179 0
166 186 0
160 184 0
136 156 0
152 172 0
156 176 0
161 182 0
140 163 0
134 156 0
151 173 0
167 188 0
173 195 0
150 171 0
167 183 0
154 175 0
160 183 0
150 170 0
165 187 0
168 192 0
154 177 0
149 168 0
162 184 0
147 170 0
136 159 0
165 189 0
144 162 0
154 173 0
159 181 0
164 186 0
146 167 0
165 186 0
147 170 0
159 180 0
155 176 0
150 172 0
170 188 0
163 187 0
153 175 0
144 165 0
140 161 0
119 140 0
162 187 0
140 160 0
153 176 0
170 190 0
139 156 0
131 151 0
156 179 0
165 185 0
157 177 0
165 186 0
163 185 0
136 159 0
152 171 0
152 174 0
147 171 0
143 164 0
153 174 0
163 187 0
152 175 0
165 186 0
139 159 0
169 191 0
163 187 0
168 188 0
160 182 0
152 174 0
160 182 0
135 153 0
172 194 0
132 153 0
131 148 0
141 161 0
159 180 0
163 184 0
157 182 0
135 160 0
162 187 0
150 173 0
139 160 0
151 173 0
138 160 0
125 146 0
156 178 0
154 175 0
151 172 0
141 163 0
156 176 0
143 168 0
150 171 0
134 156 0
164 188 0
117 137 0
172 194 0
161 185 0
168 190 0
153 173 0
113 128 0
155 173 0
144 163 0
167 190 0
147 173 0
154 176 0
165 188 0
162 183 0
165 187 0
156 177 0
163 187 0
156 175 0
132 156 0
164 184 0
128 152 0
130 148 0
156 178 0
134 155 0
120 145 0
160 184 0
161 182 0
144 168 0
161 184 0
128 147 0
145 164 0
136 158 0
127 148 0
146 167 0
169 191 0
138 161 0
147 166 0
158 181 0
150 169 0
138 158 0
169 191 0
157 181 0
160 180 0
156 178 0
171 191 0
146 165 0
159 180 0
156 176 0
138 160 0
147 167 0
161 183 0
141 164 0
148 170 0
130 145 0
145 167 0
159 180 0
148 166 0
137 159 0
146 170 0
159 175 0
164 184 0
151 174 0
171 191 0
150 170 0
139 160 0
145 170 0
150 170 0
160 179 0
137 156 0
141 160 0
142 161 0
138 162 0
152 175 0
153 179 0
125 146 0
136 157 0
125 150 0
159 181 0
147 168 0
138 161 0
143 165 0
133 151 0
162 186 0
154 177 0
127 150 0
151 173 0
152 176 0
165 187 0
157 171 0
149 169 0
146 168 0
146 164 0
133 154 0
153 177 0
145 167 0
152 169 0
155 176 0
154 175 0
125 148 0
155 176 0
165 188 0
140 157 0
141 164 0
117 138 0
156 177 0
151 171 0
143 162 0
147 166 0
172 197 0
131 149 0
146 170 0
172 194 0
152 173 0
155 179 0
146 170 0
142 162 0
142 162 0
140 162 0
144 162 0
152 167 0
161 179 0
159 174 0
168 190 0
149 171 0
142 159 0
153 177 0
148 169 0
155 170 0
162 186 0
144 166 0
146 163 0
160 181 0
142 164 0
144 163 0
155 177 0
146 167 0
150 168 0
126 141 0
147 169 0
141 159 0
166 188 0
143 167 0
159 181 0
153 177 0
147 168 0
151 165 0
149 167 0
136 157 0
165 186 0
162 179 0
142 162 0
153 173 0
129 149 0
162 182 0
164 185 0
122 139 0
169 185 0
138 153 0
162 184 0
165 183 0
165 184 0
143 163 0
142 156 0
124 142 0
153 165 0
156 178 0
125 143 0
156 173 0
158 181 0
160 171 0
154 169 0
145 167 0
155 169 0
139 154 0
172 186 0
139 164 0
164 180 0
161 182 0
157 167 0
143 156 0
150 165 0
127 140 0
148 170 0
148 167 0
167 178 0
169 187 0
159 175 0
156 176 0
157 170 0
158 176 0
132 147 0
151 166 0
146 159 0
164 184 0
168 180 0
170 191 0
150 154 0
155 166 0
154 166 0
160 177 0
164 181 0
150 165 0
160 176 0
160 179 0
160 179 0
160 166 0
138 153 0
153 166 0
151 165 0
177 193 0
128 140 0
164 174 0
147 160 0
123 132 0
149 167 0
165 184 0
151 160 0
168 183 0
146 150 0
145 158 0
128 140 0
148 154 0
138 147 0
157 163 0
162 179 0
137 144 0
137 145 0
158 172 0
166 178 0
169 186 0
155 165 0
147 152 0
162 169 0
152 171 0
152 165 0
152 158 0
165 176 0
156 170 0
152 167 0
159 166 0
148 159 0
158 173 0
170 182 0
170 185 0
161 167 0
170 187 0
154 166 0
163 180 0
169 181 0
162 170 0
165 180 0
154 165 0
163 179 0
162 172 0
167 184 0
158 159 0
157 170 0
157 173 0
173 187 0
155 160 0
156 160 0
157 170 0
151 166 0
174 195 0
155 178 0
167 186 0
156 174 0
163 183 0
161 179 0
111 125 0
158 178 0
170 192 0
147 166 0
170 192 0
171 190 0
147 167 0
146 163 0
159 177 0
158 176 0
151 171 0
159 180 0
165 184 0
164 179 0
152 175 0
146 165 0
158 178 0
177 197 0
143 158 0
162 179 0
167 188 0
159 176 0
156 177 0
170 191 0
152 169 0
148 168 0
153 173 0
149 168 0
163 181 0
161 180 0
163 185 0
158 178 0
154 174 0
169 190 0
145 165 0
158 174 0
139 159 0
148 166 0
166 188 0
156 176 0
152 173 0
173 193 0
164 182 0
155 176 0
143 166 0
153 177 0
160 181 0
149 172 0
148 170 0
166 187 0
147 165 0
151 172 0
150 170 0
163 181 0
148 168 0
153 174 0
167 190 0
156 177 0
169 192 0
162 182 0
164 188 0
154 175 0
160 184 0
141 162 0
153 171 0
157 176 0
164 187 0
152 174 0
159 180 0
151 172 0
147 171 0
148 167 0
163 184 0
152 169 0
142 163 0
156 178 0
170 194 0
151 169 0
157 177 0
169 191 0
154 175 0
145 165 0
171 194 0
124 144 0
144 164 0
164 185 0
145 168 0
172 196 0
146 167 0
166 189 0
163 183 0
131 149 0
123 145 0
157 180 0
146 169 0
159 182 0
137 160 0
159 177 0
166 186 0
154 169 0
143 163 0
163 185 0
137 159 0
177 199 0
162 186 0
167 192 0
163 183 0
149 173 0
146 165 0
154 178 0
157 178 0
172 197 0
163 187 0
163 186 0
129 150 0
158 179 0
140 159 0
142 165 0
174 197 0
161 182 0
148 169 0
136 158 0
166 188 0
129 152 0
158 178 0
165 187 0
137 157 0
172 196 0
162 183 0
145 166 0
160 182 0
137 159 0
157 179 0
130 151 0
152 177 0
150 174 0
133 154 0
135 160 0
143 163 0
153 171 0
133 152 0
143 166 0
148 169 0
119 141 0
156 180 0
132 152 0
141 167 0
151 170 0
140 163 0
139 163 0
156 178 0
169 191 0
152 176 0
149 171 0
163 184 0
160 184 0
150 175 0
141 163 0
165 188 0
161 184 0
145 160 0
135 158 0
161 186 0
129 152 0
130 147 0
174 195 0
151 173 0
160 183 0
156 179 0
150 173 0
167 190 0
153 175 0
142 163 0
162 186 0
164 187 0
149 171 0
140 162 0
155 178 0
153 177 0
160 183 0
131 150 0
143 167 0
134 159 0
163 186 0
144 163 0
155 179 0
155 177 0
159 181 0
154 179 0
140 159 0
145 167 0
142 162 0
150 166 0
151 166 0
155 175 0
146 168 0
142 167 0
159 181 0
157 176 0
134 159 0
148 171 0
149 170 0
165 190 0
147 166 0
133 154 0
124 147 0
171 195 0
132 151 0
166 185 0
154 173 0
132 153 0
142 162 0
150 173 0
149 172 0
153 173 0
132 155 0
153 175 0
153 173 0
153 168 0
163 178 0
141 163 0
151 167 0
147 165 0
164 186 0
149 171 0
142 164 0
146 167 0
160 186 0
156 174 0
146 165 0
145 165 0
145 169 0
124 147 0
160 186 0
147 170 0
165 188 0
143 164 0
157 177 0
122 133 0
164 188 0
142 156 0
164 187 0
158 178 0
159 182 0
153 177 0
133 156 0
162 180 0
130 145 0
155 175 0
169 192 0
173 194 0
163 184 0
148 171 0
164 180 0
151 171 0
161 181 0
160 187 0
144 159 0
146 166 0
151 172 0
162 180 0
144 166 0
135 160 0
133 149 0
151 170 0
137 150 0
138 154 0
124 148 0
142 159 0
174 191 0
157 175 0
121 145 0
156 176 0
162 183 0
142 160 0
157 172 0
158 178 0
160 181 0
146 163 0
141 160 0
139 155 0
155 175 0
151 160 0
147 161 0
155 175 0
146 166 0
168 184 0
155 171 0
133 158 0
146 169 0
157 175 0
152 169 0
163 183 0
172 193 0
161 182 0
140 160 0
169 186 0
149 168 0
154 172 0
152 172 0
164 183 0
172 187 0
138 154 0
133 154 0
139 159 0
147 170 0
153 177 0
141 153 0
160 175 0
126 137 0
153 167 0
169 188 0
163 178 0
166 186 0
152 175 0
172 190 0
162 172 0
172 196 0
172 186 0
154 170 0
150 167 0
161 182 0
175 192 0
158 172 0
149 168 0
138 150 0
154 163 0
160 176 0
138 152 0
156 162 0
133 147 0
158 174 0
120 138 0
169 187 0
161 174 0
137 147 0
161 183 0
143 155 0
162 178 0
149 157 0
154 167 0
139 151 0
154 168 0
170 187 0
158 172 0
149 170 0
157 174 0
161 174 0
155 171 0
146 153 0
158 172 0
166 185 0
157 172 0
154 172 0
147 162 0
144 159 0
154 167 0
146 150 0
158 175 0
163 181 0
147 157 0
148 154 0
117 117 0
161 174 0
154 162 0
150 167 0
160 170 0
165 181 0
162 174 0
134 145 0
153 161 0
169 188 0
149 163 0
178 190 0
173 191 0
157 169 0
150 169 0
152 166 0
160 177 0
145 157 0
164 176 0
158 167 0
165 174 0
173 190 0
154 170 0
161 171 0
173 187 0
134 140 0
161 166 0
161 170 0
145 149 0
159 169 0
156 156 0
145 146 0
154 175 0
152 169 0
159 180 0
173 191 0
169 188 0
152 171 0
160 181 0
147 168 0
162 181 0
166 186 0
177 198 0
153 174 0
154 177 0
149 171 0
167 186 0
155 174 0
158 177 0
165 186 0
158 179 0
150 171 0
154 174 0
156 176 0
165 188 0
159 179 0
167 189 0
171 192 0
169 191 0
150 168 0
154 176 0
155 174 0
158 178 0
156 175 0
150 172 0
163 184 0
142 161 0
165 188 0
168 190 0
155 174 0
150 169 0
142 161 0
150 172 0
165 188 0
169 187 0
157 179 0
148 167 0
138 160 0
166 186 0
159 184 0
149 170 0
170 191 0
161 180 0
147 169 0
161 181 0
166 186 0
161 182 0
147 167 0
159 182 0
146 167 0
141 160 0
156 177 0
159 181 0
167 188 0
132 154 0
151 172 0
141 160 0
144 166 0
142 161 0
156 176 0
156 176 0
160 180 0
131 153 0
177 197 0
149 169 0
147 166 0
148 166 0
131 145 0
158 179 0
160 182 0
160 185 0
138 158 0
146 168 0
143 163 0
165 187 0
154 178 0
144 163 0
161 184 0
163 186 0
143 162 0
150 172 0
148 166 0
145 166 0
145 164 0
160 183 0
140 161 0
148 169 0
161 182 0
157 181 0
148 168 0
168 187 0
158 183 0
178 200 0
150 174 0
155 176 0
165 186 0
160 185 0
158 179 0
160 183 0
148 166 0
136 159 0
145 167 0
153 175 0
156 179 0
133 154 0
165 187 0
155 177 0
155 173 0
154 175 0
149 173 0
159 182 0
144 161 0
154 172 0
163 186 0
144 169 0
157 181 0
168 192 0
155 179 0
154 176 0
144 166 0
150 171 0
149 170 0
126 148 0
156 182 0
130 148 0
148 168 0
167 186 0
144 167 0
165 191 0
137 159 0
150 169 0
141 162 0
153 173 0
135 158 0
148 169 0
151 172 0
147 165 0
167 193 0
161 187 0
148 169 0
125 146 0
136 159 0
133 154 0
150 171 0
170 192 0
150 169 0
160 185 0
155 179 0
145 165 0
140 160 0
150 175 0
146 163 0
154 178 0
136 155 0
136 158 0
155 174 0
122 142 0
154 175 0
149 172 0
146 170 0
126 146 0
157 179 0
153 177 0
156 179 0
153 176 0
126 148 0
168 188 0
152 175 0
170 190 0
155 176 0
126 141 0
150 174 0
145 168 0
153 175 0
152 173 0
122 145 0
154 174 0
150 172 0
150 169 0
149 171 0
117 140 0
169 191 0
136 159 0
145 170 0
147 166 0
154 178 0
145 164 0
143 163 0
137 161 0
149 167 0
152 176 0
145 170 0
132 157 0
135 153 0
153 174 0
161 186 0
154 177 0
146 166 0
141 165 0
160 182 0
142 165 0
144 162 0
146 169 0
170 192 0
143 166 0
141 160 0
136 159 0
151 162 0
157 181 0
147 168 0
164 188 0
153 178 0
152 175 0
144 166 0
176 199 0
141 163 0
129 151 0
155 175 0
142 161 0
171 193 0
143 161 0
155 173 0
138 160 0
154 175 0
148 165 0
162 180 0
153 176 0
127 147 0
140 160 0
156 179 0
157 179 0
152 173 0
143 167 0
166 190 0
151 172 0
148 167 0
136 150 0
162 184 0
149 167 0
163 184 0
109 128 0
132 150 0
137 160 0
154 171 0
167 186 0
152 174 0
145 166 0
148 169 0
147 171 0
169 192 0
159 171 0
150 172 0
152 172 0
157 176 0
160 180 0
145 165 0
135 150 0
149 166 0
152 169 0
132 153 0
140 156 0
157 174 0
139 158 0
135 153 0
162 185 0
139 157 0
142 161 0
140 158 0
175 198 0
143 158 0
152 173 0
127 148 0
168 188 0
136 148 0
153 168 0
164 180 0
128 146 0
115 131 0
158 173 0
149 173 0
126 130 0
146 165 0
151 164 0
175 198 0
149 171 0
119 127 0
169 189 0
166 184 0
167 184 0
123 141 0
174 198 0
150 172 0
129 147 0
155 176 0
136 151 0
169 188 0
160 177 0
161 184 0
152 168 0
150 168 0
171 189 0
155 177 0
145 164 0
150 171 0
138 152 0
154 175 0
165 185 0
159 177 0
150 160 0
116 135 0
164 179 0
150 169 0
145 159 0
145 161 0
149 163 0
149 167 0
142 155 0
148 166 0
148 170 0
158 172 0
143 163 0
153 169 0
150 167 0
142 158 0
150 166 0
170 192 0
147 163 0
144 163 0
149 167 0
162 179 0
138 153 0
167 183 0
142 161 0
155 175 0
142 158 0
161 174 0
148 157 0
130 149 0
145 155 0
153 168 0
160 177 0
159 178 0
150 157 0
149 159 0
158 169 0
147 159 0
153 175 0
147 155 0
151 163 0
133 144 0
157 169 0
148 156 0
160 174 0
157 169 0
148 158 0
157 166 0
161 176 0
153 171 0
158 170 0
162 171 0
157 170 0
177 189 0
157 178 0
158 165 0
170 181 0
146 146 0
170 178 0
161 183 0
155 169 0
171 186 0
164 175 0
148 156 0
156 165 0
148 153 0
151 166 0
138 158 0
141 152 0
154 160 0
158 169 0
173 190 0
159 179 0
155 165 0
171 179 0
156 169 0
156 173 0
158 164 0
156 161 0
143 151 0
166 179 0
164 182 0
159 166 0
157 166 0
162 181 0
168 189 0
149 168 0
158 181 0
161 180 0
156 175 0
144 163 0
176 197 0
154 171 0
168 191 0
178 200 0
169 186 0
158 178 0
143 162 0
134 153 0
169 192 0
161 181 0
163 183 0
159 177 0
152 174 0
167 186 0
153 173 0
166 187 0
153 172 0
171 191 0
158 178 0
160 176 0
139 157 0
154 176 0
167 189 0
155 176 0
167 187 0
139 160 0
160 183 0
158 179 0
141 158 0
160 181 0
144 164 0
174 197 0
131 149 0
155 178 0
158 174 0
151 169 0
165 187 0
157 178 0
160 182 0
171 193 0
158 180 0
157 177 0
148 169 0
164 186 0
158 178 0
173 197 0
146 163 0
147 170 0
170 191 0
158 175 0
159 181 0
149 170 0
142 162 0
152 169 0
155 177 0
157 177 0
141 161 0
157 181 0
162 181 0
155 178 0
133 150 0
147 165 0
157 178 0
177 199 0
154 175 0
154 176 0
147 170 0
147 167 0
140 158 0
160 180 0
168 188 0
172 194 0
152 174 0
131 153 0
154 177 0
166 187 0
149 173 0
154 178 0
160 180 0
154 177 0
156 177 0
139 162 0
153 176 0
132 153 0
121 138 0
138 162 0
137 154 0
141 166 0
148 168 0
173 195 0
156 177 0
148 172 0
166 187 0
151 176 0
168 187 0
145 166 0
154 174 0
154 174 0
139 159 0
156 177 0
143 163 0
155 176 0
153 175 0
154 181 0
143 164 0
158 181 0
165 188 0
164 189 0
162 183 0
162 187 0
138 158 0
146 171 0
145 164 0
134 152 0
141 162 0
146 168 0
145 166 0
166 190 0
145 167 0
159 181 0
153 177 0
150 174 0
151 174 0
177 198 0
152 174 0
135 159 0
151 171 0
164 187 0
167 189 0
133 154 0
135 160 0
158 180 0
127 147 0
151 175 0
161 183 0
159 180 0
159 181 0
145 170 0
155 178 0
162 186 0
153 176 0
138 158 0
148 166 0
166 188 0
145 167 0
146 165 0
137 156 0
155 178 0
164 183 0
155 178 0
166 194 0
127 150 0
151 172 0
146 169 0
129 150 0
154 177 0
164 187 0
131 153 0
174 198 0
147 164 0
164 188 0
142 164 0
146 166 0
170 192 0
173 197 0
158 178 0
134 155 0
150 175 0
170 196 0
143 166 0
147 169 0
131 155 0
144 167 0
125 148 0
148 166 0
161 182 0
169 188 0
145 166 0
153 176 0
130 153 0
118 134 0
153 173 0
147 164 0
155 176 0
157 182 0
175 193 0
159 178 0
129 150 0
140 163 0
144 164 0
143 166 0
162 185 0
170 190 0
150 174 0
153 176 0
144 168 0
165 188 0
152 171 0
131 146 0
150 172 0
133 156 0
143 165 0
149 168 0
146 165 0
146 167 0
175 198 0
138 160 0
165 182 0
149 173 0
153 174 0
126 145 0
135 155 0
164 189 0
160 179 0
154 175 0
152 173 0
159 172 0
163 185 0
135 160 0
140 161 0
158 178 0
162 185 0
131 151 0
154 175 0
141 159 0
162 184 0
155 175 0
139 161 0
137 156 0
159 178 0
143 166 0
136 155 0
152 165 0
154 177 0
135 153 0
141 162 0
157 175 0
139 157 0
143 164 0
159 184 0
152 170 0
114 133 0
136 153 0
151 166 0
147 169 0
160 181 0
134 155 0
137 153 0
169 192 0
171 192 0
155 170 0
126 147 0
153 174 0
137 155 0
146 164 0
129 149 0
157 180 0
149 162 0
166 188 0
147 166 0
161 176 0
142 161 0
127 146 0
170 191 0
169 190 0
174 194 0
143 167 0
161 181 0
142 161 0
165 181 0
157 177 0
168 189 0
145 162 0
161 179 0
144 155 0
169 191 0
172 189 0
159 177 0
160 181 0
139 148 0
158 176 0
152 172 0
145 160 0
159 179 0
156 171 0
156 177 0
162 181 0
127 140 0
137 155 0
145 164 0
145 166 0
147 163 0
159 177 0
158 173 0
153 169 0
162 186 0
165 183 0
131 149 0
163 180 0
154 167 0
123 138 0
169 188 0
157 177 0
151 166 0
155 171 0
154 175 0
151 169 0
155 174 0
164 182 0
146 167 0
155 166 0
150 164 0
164 184 0
141 153 0
146 160 0
147 165 0
160 174 0
159 182 0
158 175 0
154 172 0
150 166 0
165 181 0
156 172 0
159 176 0
158 176 0
148 164 0
153 176 0
144 163 0
157 174 0
145 158 0
154 163 0
154 174 0
169 185 0
150 171 0
139 150 0
154 169 0
155 165 0
146 162 0
173 193 0
163 184 0
159 181 0
161 179 0
159 179 0
161 170 0
172 193 0
151 166 0
165 182 0
165 181 0
172 183 0
159 174 0
170 189 0
150 166 0
152 171 0
171 183 0
150 159 0
160 171 0
158 169 0
163 181 0
171 183 0
159 172 0
158 176 0
168 178 0
159 182 0
154 166 0
159 175 0
157 172 0
173 190 0
164 180 0
153 163 0
147 157 0
161 177 0
169 189 0
173 187 0
157 164 0
144 154 0
147 155 0
170 185 0
153 162 0
151 164 0
163 176 0
154 161 0
168 180 0
166 181 0
155 155 0
160 173 0
156 166 0
158 171 0
165 181 0
162 175 0
160 177 0
152 166 0
146 147 0
174 187 0
173 194 0
171 193 0
151 168 0
164 182 0
160 183 0
168 188 0
170 192 0
150 169 0
158 180 0
155 174 0
161 183 0
166 187 0
150 170 0
135 157 0
168 186 0
136 156 0
152 168 0
146 165 0
145 166 0
138 155 0
168 188 0
167 188 0
165 183 0
153 174 0
152 170 0
150 170 0
177 194 0
150 170 0
155 176 0
147 167 0
162 185 0
158 182 0
148 167 0
146 166 0
145 165 0
148 162 0
154 175 0
144 164 0
164 179 0
167 186 0
150 172 0
149 172 0
149 168 0
161 182 0
160 184 0
169 190 0
150 172 0
167 189 0
152 170 0
163 184 0
157 177 0
164 186 0
120 141 0
167 191 0
164 185 0
163 181 0
149 168 0
144 165 0
154 173 0
158 178 0
160 179 0
159 182 0
162 182 0
164 185 0
164 185 0
166 188 0
161 181 0
168 188 0
150 172 0
144 162 0
175 195 0
162 186 0
161 178 0
147 168 0
165 186 0
146 165 0
151 175 0
145 169 0
159 178 0
157 180 0
154 179 0
162 187 0
168 191 0
132 148 0
160 183 0
165 186 0
161 184 0
135 158 0
150 171 0
150 170 0
171 194 0
138 161 0
163 185 0
164 183 0
154 176 0
145 162 0
150 172 0
135 155 0
142 163 0
162 183 0
158 181 0
151 172 0
142 160 0
159 181 0
169 193 0
172 192 0
156 181 0
148 168 0
154 178 0
153 174 0
151 173 0
151 172 0
147 166 0
144 165 0
133 156 0
149 173 0
154 175 0
164 188 0
157 179 0
142 165 0
165 188 0
143 164 0
120 141 0
149 169 0
160 185 0
164 188 0
142 162 0
130 151 0
166 189 0
152 178 0
163 188 0
142 166 0
156 177 0
128 146 0
106 129 0
164 187 0
143 167 0
138 158 0
136 157 0
165 188 0
153 176 0
161 183 0
165 184 0
139 160 0
137 158 0
139 160 0
134 150 0
105 126 0
174 195 0
157 178 0
160 180 0
166 186 0
159 180 0
133 158 0
165 184 0
138 154 0
151 172 0
158 178 0
154 175 0
147 171 0
114 135 0
159 181 0
171 196 0
144 163 0
138 164 0
124 147 0
169 191 0
136 155 0
166 187 0
163 187 0
155 178 0
162 184 0
146 164 0
156 179 0
137 161 0
172 196 0
155 181 0
157 177 0
133 155 0
143 168 0
153 173 0
169 192 0
132 157 0
165 184 0
133 158 0
139 156 0
153 175 0
143 165 0
146 171 0
158 179 0
144 169 0
155 169 0
156 180 0
162 185 0
144 168 0
134 154 0
154 176 0
147 171 0
140 165 0
144 168 0
148 165 0
169 191 0
161 183 0
151 171 0
136 157 0
142 162 0
166 189 0
160 182 0
175 195 0
149 174 0
152 173 0
161 182 0
144 163 0
130 154 0
157 176 0
142 163 0
160 182 0
153 175 0
143 165 0
148 168 0
175 198 0
157 176 0
137 157 0
167 187 0
146 168 0
166 184 0
155 178 0
113 135 0
123 144 0
150 171 0
174 196 0
160 185 0
136 157 0
144 161 0
154 180 0
153 176 0
149 169 0
145 168 0
154 174 0
139 158 0
144 163 0
173 193 0
140 155 0
165 185 0
141 162 0
120 141 0
124 148 0
150 172 0
142 165 0
156 179 0
141 158 0
164 183 0
152 168 0
158 181 0
147 170 0
118 138 0
149 164 0
155 175 0
168 191 0
157 179 0
156 177 0
162 181 0
139 160 0
139 158 0
147 169 0
175 194 0
138 159 0
141 158 0
150 170 0
112 129 0
149 168 0
165 188 0
120 142 0
173 192 0
173 194 0
129 148 0
172 197 0
155 170 0
168 189 0
151 170 0
144 162 0
157 175 0
141 165 0
177 199 0
138 158 0
156 181 0
152 173 0
145 164 0
145 160 0
160 181 0
148 163 0
160 177 0
152 175 0
132 145 0
165 184 0
155 179 0
134 152 0
160 173 0
169 181 0
154 178 0
149 161 0
152 173 0
138 159 0
138 156 0
155 178 0
160 175 0
142 162 0
150 172 0
152 167 0
135 154 0
167 188 0
154 174 0
129 144 0
142 151 0
145 161 0
140 158 0
170 188 0
140 150 0
166 187 0
136 148 0
159 174 0
150 163 0
156 174 0
169 190 0
159 178 0
147 161 0
158 175 0
165 181 0
167 186 0
168 184 0
139 148 0
153 170 0
170 189 0
152 170 0
134 145 0
148 155 0
162 183 0
168 183 0
158 169 0
165 176 0
154 172 0
170 188 0
148 156 0
170 184 0
160 179 0
145 158 0
153 173 0
136 154 0
138 141 0
140 156 0
159 175 0
160 175 0
172 197 0
154 167 0
164 183 0
145 164 0
161 174 0
165 179 0
167 183 0
154 177 0
138 156 0
165 182 0
153 162 0
170 189 0
135 153 0
152 163 0
154 172 0
155 167 0
154 167 0
165 184 0
145 153 0
154 168 0
157 174 0
161 173 0
156 170 0
155 173 0
150 160 0
156 175 0
149 163 0
154 169 0
159 180 0
162 175 0
148 161 0
164 173 0
168 186 0
154 172 0
154 174 0
160 177 0
153 169 0
165 171 0
166 178 0
152 162 0
156 171 0
161 173 0
171 180 0
174 187 0
162 173 0
161 169 0
175 191 0
162 172 0
169 189 0
166 187 0
140 155 0
155 176 0
164 184 0
170 193 0
159 180 0
171 191 0
165 187 0
164 182 0
159 180 0
161 185 0
158 177 0
166 186 0
156 175 0
164 184 0
145 163 0
153 173 0
162 183 0
165 185 0
162 183 0
158 178 0
170 187 0
157 177 0
160 182 0
167 189 0
158 177 0
159 178 0
171 193 0
163 185 0
161 180 0
157 179 0
172 192 0
169 189 0
162 186 0
151 168 0
151 171 0
122 140 0
143 161 0
161 177 0
168 187 0
159 179 0
139 157 0
141 161 0
158 177 0
176 194 0
140 164 0
165 184 0
171 193 0
163 183 0
153 172 0
172 195 0
136 156 0
156 178 0
164 184 0
166 189 0
158 182 0
159 181 0
143 164 0
157 177 0
139 156 0
130 154 0
167 186 0
152 174 0
155 172 0
133 154 0
146 169 0
143 165 0
152 169 0
168 192 0
149 172 0
135 155 0
166 186 0
150 171 0
146 170 0
162 184 0
170 194 0
148 170 0
148 168 0
168 192 0
169 191 0
143 166 0
146 170 0
169 193 0
167 190 0
160 183 0
149 172 0
155 181 0
155 177 0
157 178 0
165 187 0
155 179 0
172 195 0
138 157 0
166 189 0
162 182 0
151 174 0
152 175 0
156 177 0
160 182 0
128 152 0
147 169 0
138 161 0
145 168 0
148 170 0
164 188 0
171 193 0
154 176 0
154 178 0
150 170 0
152 175 0
135 160 0
154 174 0
167 189 0
152 173 0
157 179 0
142 161 0
152 175 0
148 172 0
129 153 0
157 182 0
168 190 0
161 182 0
148 169 0
172 189 0
161 181 0
169 194 0
150 170 0
160 180 0
171 191 0
152 178 0
163 186 0
150 168 0
169 194 0
168 191 0
148 170 0
153 176 0
124 148 0
156 180 0
163 188 0
142 167 0
171 191 0
145 169 0
167 189 0
156 177 0
159 182 0
154 173 0
136 161 0
163 185 0
150 174 0
146 168 0
144 162 0
170 191 0
170 190 0
157 175 0
151 177 0
164 185 0
149 171 0
140 160 0
143 164 0
154 179 0
136 159 0
147 166 0
141 166 0
145 166 0
150 176 0
138 160 0
156 179 0
165 188 0
149 172 0
157 175 0
161 185 0
153 174 0
158 179 0
132 156 0
151 173 0
157 181 0
139 161 0
154 176 0
146 169 0
157 176 0
152 171 0
145 167 0
168 194 0
149 174 0
159 184 0
155 178 0
124 145 0
160 179 0
122 141 0
136 159 0
149 172 0
123 148 0
144 167 0
142 166 0
156 180 0
168 186 0
174 198 0
135 154 0
142 167 0
121 144 0
152 172 0
175 195 0
161 185 0
160 185 0
143 167 0
142 160 0
140 161 0
159 183 0
176 197 0
127 146 0
165 188 0
157 179 0
146 168 0
168 194 0
145 163 0
127 148 0
170 189 0
162 183 0
153 178 0
144 167 0
159 178 0
139 159 0
144 162 0
148 170 0
163 187 0
131 154 0
142 163 0
160 180 0
156 180 0
133 150 0
154 175 0
159 182 0
165 187 0
154 174 0
145 167 0
137 156 0
137 152 0
156 175 0
125 142 0
150 169 0
133 156 0
151 174 0
153 174 0
164 183 0
164 189 0
152 170 0
157 179 0
159 175 0
158 179 0
150 169 0
145 160 0
149 165 0
163 180 0
155 174 0
146 166 0
153 175 0
152 172 0
129 148 0
145 169 0
142 159 0
140 161 0
163 176 0
156 174 0
163 187 0
153 173 0
156 180 0
149 168 0
136 156 0
136 158 0
153 176 0
157 171 0
140 154 0
140 162 0
158 177 0
152 175 0
152 168 0
154 176 0
161 175 0
144 163 0
155 175 0
172 187 0
146 163 0
131 149 0
165 185 0
152 174 0
125 143 0
134 153 0
168 189 0
156 176 0
112 131 0
134 155 0
151 167 0
152 171 0
163 185 0
154 167 0
153 169 0
151 175 0
159 174 0
137 155 0
160 179 0
155 174 0
152 169 0
144 165 0
148 163 0
156 177 0
133 148 0
135 156 0
148 165 0
148 160 0
152 172 0
146 168 0
132 149 0
164 188 0
163 171 0
164 184 0
139 154 0
152 170 0
172 196 0
153 174 0
152 167 0
160 179 0
148 160 0
162 182 0
155 166 0
158 176 0
152 172 0
141 153 0
157 168 0
146 163 0
142 148 0
163 179 0
165 186 0
171 190 0
145 166 0
170 184 0
164 177 0
163 183 0
171 191 0
157 172 0
143 157 0
151 163 0
162 182 0
161 172 0
146 159 0
162 180 0
165 183 0
149 151 0
166 186 0
129 139 0
153 172 0
167 182 0
150 158 0
147 151 0
147 171 0
171 181 0
155 170 0
168 177 0
169 188 0
145 164 0
135 147 0
162 174 0
165 187 0
167 183 0
169 189 0
139 155 0
159 179 0
141 158 0
157 167 0
159 167 0
165 173 0
157 170 0
154 173 0
154 165 0
158 177 0
157 171 0
137 147 0
161 181 0
155 160 0
157 174 0
166 184 0
152 160 0
150 156 0
150 158 0
160 176 0
160 164 0
168 178 0
161 175 0
177 193 0
135 140 0
162 172 0
152 165 0
147 162 0
146 158 0
135 140 0
143 145 0
161 169 0
147 159 0
166 182 0
159 167 0
172 192 0
169 188 0
172 191 0
174 193 0
161 180 0
159 181 0
148 167 0
161 182 0
169 189 0
153 172 0
164 187 0
172 193 0
162 184 0
167 185 0
155 172 0
167 189 0
168 189 0
147 162 0
162 183 0
156 176 0
163 181 0
149 169 0
143 165 0
157 177 0
155 177 0
153 173 0
150 170 0
155 177 0
154 172 0
161 183 0
157 178 0
160 180 0
166 184 0
153 173 0
176 198 0
153 171 0
172 194 0
161 179 0
147 167 0
128 145 0
162 184 0
169 192 0
153 175 0
162 182 0
162 182 0
157 179 0
160 179 0
139 158 0
152 171 0
163 186 0
149 166 0
166 186 0
172 193 0
155 176 0
135 154 0
165 187 0
165 189 0
146 170 0
168 192 0
152 171 0
165 187 0
168 191 0
151 172 0
129 149 0
148 171 0
147 170 0
158 177 0
134 153 0
165 187 0
155 178 0
152 174 0
157 178 0
167 190 0
147 167 0
156 178 0
144 166 0
154 178 0
164 187 0
156 177 0
157 178 0
159 177 0
170 193 0
149 170 0
134 156 0
147 170 0
170 191 0
158 180 0
147 168 0
163 185 0
168 191 0
169 190 0
146 167 0
133 155 0
143 163 0
165 182 0
156 174 0
151 171 0
165 187 0
171 196 0
154 178 0
163 186 0
150 168 0
142 166 0
151 171 0
149 169 0
152 173 0
156 176 0
137 156 0
140 162 0
147 169 0
150 167 0
137 157 0
162 180 0
168 191 0
154 176 0
165 189 0
151 176 0
132 153 0
139 161 0
148 170 0
152 175 0
155 178 0
154 173 0
161 181 0
141 163 0
152 178 0
128 146 0
155 177 0
165 191 0
140 160 0
148 173 0
128 146 0
158 179 0
151 168 0
158 182 0
114 135 0
157 179 0
139 156 0
153 176 0
154 176 0
152 176 0
152 172 0
153 174 0
162 185 0
163 188 0
122 137 0
138 160 0
133 155 0
151 173 0
162 187 0
157 179 0
152 168 0
131 152 0
165 187 0
153 177 0
137 159 0
132 157 0
154 173 0
153 176 0
144 165 0
165 188 0
138 162 0
145 167 0
146 168 0
162 187 0
149 171 0
141 160 0
117 139 0
143 167 0
159 181 0
150 175 0
146 167 0
152 175 0
116 138 0
153 178 0
153 178 0
136 158 0
169 191 0
146 167 0
129 150 0
149 174 0
143 163 0
156 179 0
160 177 0
136 156 0
123 146 0
146 165 0
169 191 0
168 190 0
157 178 0
151 168 0
138 156 0
153 176 0
151 172 0
129 149 0
156 175 0
151 173 0
160 181 0
143 167 0
141 163 0
150 175 0
98 123 0
151 172 0
154 179 0
137 160 0
154 178 0
146 169 0
153 176 0
136 159 0
151 170 0
137 153 0
159 183 0
152 177 0
146 169 0
157 176 0
115 134 0
163 183 0
145 166 0
123 144 0
124 144 0
142 163 0
153 178 0
146 169 0
157 180 0
131 144 0
164 188 0
101 124 0
167 190 0
155 179 0
145 161 0
149 171 0
158 178 0
160 183 0
144 168 0
151 172 0
140 160 0
170 192 0
155 174 0
142 167 0
158 174 0
135 158 0
146 170 0
157 181 0
162 184 0
144 165 0
152 171 0
134 154 0
163 185 0
156 171 0
151 172 0
119 137 0
141 162 0
139 158 0
101 123 0
151 174 0
113 123 0
141 166 0
156 175 0
127 145 0
150 170 0
142 166 0
158 179 0
146 168 0
150 172 0
166 182 0
171 193 0
149 172 0
146 164 0
146 168 0
160 180 0
132 150 0
156 178 0
137 155 0
158 176 0
143 161 0
168 190 0
138 157 0
165 182 0
161 182 0
159 170 0
149 169 0
162 181 0
153 174 0
155 171 0
171 186 0
136 156 0
153 171 0
147 168 0
122 133 0
153 162 0
148 165 0
148 165 0
162 177 0
158 173 0
145 165 0
173 191 0
132 144 0
151 169 0
159 181 0
160 172 0
149 160 0
171 192 0
154 166 0
147 168 0
156 175 0
149 166 0
167 183 0
145 160 0
133 153 0
172 193 0
143 153 0
136 152 0
149 164 0
160 181 0
128 145 0
167 187 0
136 156 0
127 148 0
151 175 0
160 183 0
133 155 0
161 183 0
165 178 0
121 139 0
143 159 0
139 154 0
176 199 0
162 179 0
162 176 0
138 156 0
158 178 0
129 147 0
149 163 0
161 182 0
157 175 0
155 171 0
134 155 0
160 175 0
133 143 0
147 169 0
161 182 0
145 162 0
160 170 0
152 168 0
158 178 0
167 178 0
153 171 0
150 164 0
151 158 0
162 171 0
168 191 0
167 189 0
146 160 0
155 175 0
160 180 0
168 186 0
152 166 0
151 160 0
145 167 0
164 184 0
147 161 0
164 174 0
157 174 0
146 166 0
125 140 0
167 188 0
134 145 0
158 177 0
153 168 0
174 190 0
160 178 0
156 169 0
160 170 0
156 168 0
173 190 0
163 176 0
159 173 0
139 141 0
168 186 0
153 168 0
164 181 0
152 167 0
143 155 0
144 153 0
160 174 0
174 194 0
167 184 0
153 165 0
148 164 0
145 154 0
143 154 0
154 163 0
167 188 0
160 171 0
163 176 0
162 176 0
158 173 0
156 157 0
157 165 0
168 184 0
158 179 0
167 186 0
162 183 0
161 180 0
154 174 0
160 180 0
164 187 0
165 183 0
152 171 0
150 170 0
124 145 0
163 183 0
166 189 0
141 161 0
168 190 0
163 183 0
129 148 0
153 171 0
173 193 0
167 190 0
172 192 0
153 171 0
155 173 0
166 188 0
158 181 0
160 180 0
154 174 0
148 168 0
162 184 0
173 197 0
160 177 0
165 185 0
161 181 0
146 164 0
172 193 0
147 170 0
166 186 0
154 176 0
166 188 0
151 172 0
152 174 0
156 174 0
164 184 0
153 170 0
157 178 0
159 178 0
150 172 0
160 183 0
160 182 0
156 178 0
172 194 0
156 178 0
125 145 0
160 182 0
142 161 0
140 159 0
160 183 0
142 160 0
150 171 0
164 188 0
154 176 0
139 161 0
153 176 0
158 178 0
155 174 0
127 150 0
163 183 0
162 183 0
149 171 0
161 182 0
160 184 0
161 182 0
133 150 0
139 156 0
150 171 0
151 173 0
158 181 0
167 187 0
164 184 0
140 162 0
159 181 0
161 187 0
160 184 0
150 170 0
145 168 0
152 174 0
162 187 0
170 190 0
147 170 0
156 178 0
148 170 0
141 159 0
177 199 0
155 180 0
161 186 0
176 198 0
144 163 0
155 178 0
154 178 0
145 161 0
141 162 0
169 192 0
167 189 0
148 173 0
165 182 0
161 184 0
141 166 0
152 171 0
123 147 0
122 140 0
143 164 0
144 167 0
167 188 0
164 184 0
123 142 0
146 168 0
153 174 0
168 193 0
148 170 0
145 167 0
154 173 0
143 167 0
123 149 0
149 169 0
147 169 0
141 163 0
159 181 0
158 179 0
164 189 0
123 144 0
135 156 0
144 161 0
137 156 0
155 175 0
123 144 0
116 137 0
109 129 0
159 182 0
163 188 0
168 191 0
154 176 0
151 172 0
151 171 0
145 163 0
141 162 0
145 163 0
156 176 0
142 163 0
138 155 0
155 174 0
156 178 0
154 175 0
157 180 0
153 174 0
149 172 0
120 138 0
146 168 0
166 185 0
171 196 0
159 181 0
145 165 0
164 184 0
154 178 0
122 147 0
149 170 0
164 180 0
132 152 0
166 187 0
136 153 0
164 187 0
157 180 0
172 194 0
162 180 0
149 174 0
149 170 0
161 183 0
173 197 0
147 169 0
139 154 0
151 176 0
153 176 0
161 186 0
134 156 0
127 148 0
120 143 0
156 172 0
138 158 0
128 147 0
161 182 0
142 162 0
136 151 0
155 178 0
150 171 0
151 167 0
170 191 0
134 158 0
158 178 0
156 176 0
160 180 0
160 181 0
115 135 0
126 143 0
132 155 0
133 156 0
163 187 0
160 182 0
111 131 0
148 170 0
143 169 0
147 169 0
141 164 0
161 180 0
156 179 0
134 154 0
157 176 0
153 174 0
144 164 0
128 150 0
167 189 0
135 154 0
149 172 0
125 141 0
153 173 0
160 181 0
145 167 0
172 193 0
142 164 0
156 177 0
158 177 0
146 165 0
162 187 0
152 173 0
164 187 0
139 159 0
121 136 0
130 150 0
159 182 0
152 174 0
144 167 0
166 190 0
153 176 0
153 174 0
152 175 0
135 154 0
149 170 0
167 188 0
161 186 0
159 181 0
160 181 0
146 162 0
153 166 0
157 180 0
171 196 0
147 166 0
146 166 0
159 180 0
135 157 0
145 162 0
150 167 0
163 187 0
164 181 0
139 152 0
163 184 0
153 175 0
165 182 0
171 190 0
153 170 0
149 171 0
150 172 0
133 149 0
159 180 0
155 180 0
153 177 0
166 182 0
137 159 0
163 188 0
136 158 0
147 162 0
147 167 0
165 185 0
130 147 0
158 179 0
155 175 0
156 179 0
147 170 0
171 193 0
162 187 0
139 155 0
148 172 0
164 185 0
156 175 0
146 162 0
143 160 0
139 152 0
167 189 0
160 186 0
166 186 0
174 198 0
166 184 0
120 140 0
156 171 0
155 180 0
165 184 0
163 187 0
167 185 0
171 191 0
153 172 0
158 174 0
128 150 0
156 173 0
152 173 0
145 160 0
156 176 0
138 158 0
154 173 0
151 172 0
134 154 0
145 160 0
145 161 0
154 170 0
145 157 0
172 190 0
147 165 0
171 190 0
176 189 0
130 144 0
155 175 0
147 165 0
175 192 0
159 177 0
158 176 0
152 163 0
161 182 0
164 180 0
177 199 0
142 158 0
148 161 0
144 159 0
133 138 0
172 194 0
167 183 0
150 168 0
156 173 0
159 169 0
144 151 0
157 178 0
159 174 0
154 171 0
176 199 0
158 176 0
159 176 0
152 167 0
128 141 0
159 171 0
159 169 0
165 186 0
148 163 0
160 174 0
166 186 0
154 172 0
147 159 0
148 159 0
168 186 0
135 142 0
155 175 0
167 189 0
167 182 0
167 185 0
152 169 0
166 181 0
156 172 0
169 188 0
164 172 0
168 186 0
158 177 0
136 142 0
148 161 0
136 149 0
153 171 0
149 160 0
174 191 0
157 168 0
169 187 0
168 178 0
159 175 0
155 170 0
166 178 0
155 169 0
172 188 0
154 171 0
167 174 0
164 175 0
156 167 0
162 177 0
148 161 0
158 172 0
156 160 0
163 184 0
157 164 0
161 175 0
160 180 0
171 192 0
164 186 0
166 188 0
154 173 0
157 182 0
170 191 0
168 190 0
151 171 0
157 175 0
159 178 0
168 188 0
133 152 0
166 186 0
146 166 0
148 165 0
138 159 0
159 183 0
167 188 0
151 169 0
171 191 0
159 179 0
170 189 0
166 184 0
158 176 0
151 171 0
173 194 0
157 178 0
149 168 0
161 181 0
145 164 0
167 184 0
152 174 0
153 175 0
160 181 0
174 196 0
161 180 0
154 176 0
136 158 0
147 168 0
153 174 0
151 172 0
137 161 0
155 178 0
153 170 0
161 181 0
155 178 0
163 184 0
163 188 0
161 184 0
147 169 0
169 190 0
151 170 0
172 193 0
139 159 0
156 179 0
155 178 0
155 175 0
146 165 0
156 176 0
157 181 0
142 163 0
163 186 0
152 170 0
164 186 0
150 172 0
154 177 0
157 180 0
159 182 0
160 182 0
163 188 0
140 163 0
157 178 0
161 181 0
147 166 0
151 170 0
145 166 0
147 171 0
159 181 0
152 175 0
156 180 0
159 179 0
155 176 0
175 198 0
160 182 0
148 169 0
135 155 0
156 175 0
151 172 0
164 187 0
146 171 0
168 188 0
163 186 0
165 185 0
160 181 0
167 189 0
152 173 0
158 178 0
132 150 0
169 195 0
164 186 0
139 158 0
114 137 0
169 188 0
157 177 0
164 183 0
157 179 0
154 175 0
142 167 0
141 164 0
138 161 0
167 185 0
144 165 0
161 184 0
164 188 0
163 183 0
164 185 0
161 181 0
166 190 0
172 195 0
154 178 0
152 174 0
147 169 0
164 186 0
161 184 0
158 179 0
152 173 0
158 182 0
151 172 0
165 189 0
158 179 0
170 191 0
147 167 0
135 153 0
154 171 0
153 174 0
153 177 0
169 193 0
157 180 0
138 160 0
155 176 0
154 178 0
148 167 0
152 172 0
151 176 0
154 177 0
175 198 0
154 176 0
151 170 0
148 169 0
136 156 0
164 187 0
161 183 0
149 173 0
150 175 0
130 152 0
160 182 0
142 166 0
155 174 0
163 183 0
146 171 0
146 167 0
151 175 0
163 183 0
151 174 0
146 170 0
138 161 0
146 168 0
145 162 0
154 172 0
166 186 0
142 165 0
156 176 0
155 175 0
122 143 0
144 161 0
145 168 0
141 163 0
133 156 0
169 195 0
152 177 0
162 182 0
156 179 0
137 160 0
157 177 0
140 161 0
178 197 0
171 195 0
128 148 0
146 168 0
142 160 0
124 143 0
158 181 0
163 188 0
138 160 0
161 183 0
143 167 0
168 190 0
166 190 0
135 158 0
151 173 0
165 189 0
134 158 0
169 192 0
154 175 0
160 184 0
150 167 0
154 171 0
153 172 0
170 194 0
127 146 0
144 167 0
126 150 0
156 175 0
154 178 0
161 176 0
147 168 0
156 176 0
145 165 0
153 176 0
153 173 0
147 164 0
157 181 0
155 171 0
139 160 0
151 173 0
158 179 0
171 192 0
144 158 0
143 165 0
140 159 0
146 168 0
152 176 0
154 173 0
155 178 0
164 189 0
169 187 0
145 168 0
151 174 0
155 175 0
154 174 0
155 169 0
163 187 0
164 184 0
143 167 0
173 194 0
126 146 0
136 157 0
158 173 0
173 194 0
161 184 0
156 169 0
132 149 0
145 167 0
150 172 0
145 160 0
129 152 0
156 180 0
136 155 0
141 163 0
150 173 0
141 160 0
148 174 0
152 175 0
137 153 0
169 185 0
148 169 0
112 134 0
171 186 0
139 157 0
152 163 0
153 169 0
163 188 0
149 167 0
159 173 0
169 188 0
121 140 0
166 188 0
145 168 0
158 180 0
154 169 0
162 176 0
123 142 0
155 173 0
143 159 0
145 164 0
150 167 0
155 180 0
166 179 0
133 152 0
153 174 0
167 182 0
142 162 0
161 183 0
164 186 0
130 143 0
165 185 0
164 178 0
168 188 0
127 138 0
173 197 0
152 177 0
146 163 0
144 164 0
160 180 0
146 164 0
154 173 0
170 189 0
166 190 0
164 187 0
156 179 0
156 173 0
132 149 0
179 194 0
162 182 0
148 167 0
143 157 0
154 174 0
164 189 0
148 168 0
130 145 0
153 171 0
144 157 0
154 170 0
145 158 0
144 161 0
133 153 0
164 182 0
160 175 0
136 158 0
163 187 0
155 176 0
156 172 0
148 164 0
171 193 0
172 190 0
154 174 0
156 171 0
159 171 0
153 172 0
173 194 0
150 154 0
139 160 0
155 167 0
162 181 0
154 177 0
171 186 0
162 174 0
165 178 0
151 169 0
150 167 0
145 161 0
170 189 0
136 152 0
168 184 0
144 160 0
139 152 0
163 179 0
136 150 0
168 186 0
153 166 0
154 170 0
138 152 0
152 155 0
166 186 0
163 178 0
160 173 0
158 170 0
163 171 0
140 156 0
151 157 0
169 185 0
158 175 0
162 177 0
165 181 0
166 182 0
158 177 0
169 176 0
155 175 0
159 178 0
164 168 0
158 174 0
154 163 0
166 183 0
168 181 0
146 153 0
172 191 0
158 171 0
149 166 0
165 182 0
162 183 0
165 182 0
158 178 0
151 161 0
150 160 0
165 187 0
175 193 0
162 177 0
156 168 0
148 159 0
164 186 0
163 183 0
161 184 0
163 184 0
163 184 0
169 187 0
170 190 0
170 189 0
154 174 0
160 182 0
163 188 0
155 177 0
133 155 0
170 188 0
158 177 0
167 184 0
158 176 0
171 196 0
147 165 0
168 188 0
166 188 0
166 184 0
166 189 0
170 190 0
146 164 0
144 164 0
171 194 0
153 178 0
152 173 0
147 172 0
170 189 0
158 176 0
162 186 0
162 184 0
138 159 0
153 172 0
150 172 0
154 177 0
168 188 0
157 178 0
134 151 0
164 183 0
136 156 0
153 175 0
155 173 0
140 162 0
153 173 0
164 188 0
157 181 0
166 187 0
165 187 0
158 179 0
134 156 0
171 191 0
149 167 0
160 185 0
159 179 0
156 179 0
171 193 0
163 186 0
162 184 0
163 185 0
148 170 0
152 175 0
135 156 0
162 183 0
166 190 0
156 177 0
166 188 0
168 192 0
151 175 0
158 178 0
129 149 0
138 163 0
157 180 0
163 184 0
156 176 0
168 189 0
140 161 0
140 158 0
149 169 0
158 180 0
163 183 0
164 186 0
145 165 0
161 185 0
164 186 0
144 160 0
162 184 0
146 170 0
153 177 0
169 190 0
158 179 0
156 178 0
151 175 0
147 170 0
150 173 0
134 153 0
162 186 0
152 176 0
148 168 0
145 168 0
172 195 0
148 168 0
131 151 0
139 160 0
161 180 0
136 160 0
151 171 0
145 170 0
161 183 0
154 177 0
163 186 0
146 169 0
164 186 0
160 183 0
138 156 0
148 172 0
157 179 0
139 160 0
140 163 0
147 168 0
161 186 0
170 192 0
128 151 0
153 177 0
169 190 0
162 183 0
163 184 0
152 171 0
164 188 0
169 190 0
153 175 0
135 157 0
155 177 0
165 185 0
154 176 0
162 187 0
155 178 0
146 168 0
153 176 0
174 193 0
132 154 0
158 180 0
152 176 0
146 170 0
133 151 0
155 178 0
127 150 0
131 155 0
164 187 0
151 172 0
160 181 0
151 171 0
155 179 0
125 149 0
145 168 0
155 179 0
163 181 0
145 167 0
145 166 0
164 186 0
151 172 0
147 168 0
138 153 0
154 177 0
147 170 0
151 171 0
140 164 0
155 176 0
157 179 0
152 177 0
143 165 0
152 174 0
123 143 0
122 146 0
128 151 0
159 178 0
162 187 0
113 136 0
159 180 0
155 178 0
166 188 0
119 138 0
144 165 0
151 171 0
155 173 0
155 165 0
160 179 0
155 176 0
163 185 0
133 156 0
158 180 0
152 173 0
159 182 0
140 162 0
144 168 0
157 180 0
136 154 0
164 188 0
159 179 0
161 185 0
158 182 0
113 134 0
146 167 0
146 166 0
157 180 0
150 172 0
153 177 0
147 170 0
160 180 0
154 179 0
156 178 0
148 168 0
151 176 0
173 193 0
166 187 0
123 148 0
159 185 0
128 147 0
155 179 0
137 157 0
159 181 0
153 175 0
119 140 0
129 147 0
151 169 0
149 166 0
153 173 0
168 187 0
142 162 0
155 177 0
158 182 0
159 184 0
138 160 0
122 144 0
141 157 0
138 161 0
144 166 0
150 171 0
155 174 0
148 171 0
156 177 0
172 197 0
162 181 0
139 156 0
144 163 0
171 193 0
160 178 0
148 172 0
160 182 0
163 185 0
164 187 0
155 176 0
132 153 0
152 167 0
177 199 0
133 155 0
147 170 0
143 167 0
165 186 0
160 179 0
152 175 0
159 181 0
155 175 0
156 179 0
164 182 0
163 181 0
143 167 0
158 180 0
140 158 0
160 180 0
156 178 0
157 177 0
151 172 0
118 134 0
162 182 0
139 155 0
161 176 0
151 165 0
165 186 0
162 179 0
174 190 0
158 177 0
164 182 0
135 159 0
142 163 0
172 193 0
164 181 0
156 179 0
154 178 0
156 172 0
160 178 0
154 171 0
181 201 0
156 180 0
168 185 0
145 166 0
164 188 0
167 184 0
160 182 0
149 168 0
167 182 0
172 192 0
149 172 0
153 164 0
156 167 0
161 181 0
160 183 0
146 164 0
168 182 0
154 173 0
164 185 0
165 187 0
162 176 0
147 164 0
158 175 0
160 175 0
156 170 0
137 153 0
144 154 0
155 174 0
149 163 0
150 164 0
147 171 0
153 160 0
156 181 0
156 173 0
157 174 0
161 182 0
165 175 0
156 175 0
128 141 0
155 163 0
170 189 0
134 152 0
157 177 0
154 174 0
144 162 0
134 152 0
153 171 0
152 164 0
156 172 0
145 167 0
163 175 0
155 166 0
167 187 0
173 189 0
125 127 0
153 169 0
156 170 0
113 119 0
149 170 0
160 167 0
154 173 0
147 158 0
162 178 0
156 172 0
160 179 0
168 168 0
142 157 0
151 166 0
156 162 0
159 173 0
154 163 0
142 150 0
156 171 0
160 174 0
154 173 0
155 166 0
172 182 0
167 180 0
145 154 0
168 181 0
139 143 0
161 175 0
161 179 0
143 159 0
131 141 0
166 179 0
170 189 0
168 186 0
155 170 0
169 191 0
145 156 0
156 176 0
170 183 0
156 162 0
157 166 0
143 155 0
164 176 0
159 173 0
172 184 0
170 190 0
163 180 0
160 177 0
150 163 0
158 165 0
164 177 0
153 167 0
168 188 0
164 185 0
156 175 0
169 192 0
157 176 0
152 172 0
151 173 0
163 185 0
164 184 0
154 174 0
154 175 0
170 194 0
173 194 0
163 189 0
148 169 0
139 157 0
160 183 0
157 177 0
149 169 0
161 183 0
168 185 0
160 179 0
145 165 0
170 191 0
159 182 0
165 184 0
163 186 0
152 175 0
176 197 0
170 193 0
159 182 0
156 177 0
144 164 0
157 179 0
159 182 0
161 183 0
136 158 0
159 180 0
156 180 0
147 166 0
165 185 0
158 180 0
156 176 0
168 190 0
166 187 0
163 186 0
155 178 0
170 186 0
165 185 0
157 176 0
156 178 0
140 162 0
170 192 0
155 171 0
149 169 0
152 176 0
165 184 0
160 181 0
152 174 0
167 191 0
163 186 0
137 159 0
148 170 0
138 161 0
153 176 0
167 190 0
154 175 0
150 172 0
154 172 0
165 184 0
152 174 0
150 172 0
169 190 0
153 172 0
141 166 0
160 183 0
142 161 0
134 159 0
164 187 0
140 161 0
170 191 0
161 181 0
142 157 0
158 178 0
163 184 0
168 190 0
162 186 0
149 170 0
164 186 0
171 192 0
156 179 0
157 180 0
159 181 0
161 183 0
156 174 0
161 185 0
158 180 0
151 175 0
161 181 0
152 176 0
145 164 0
172 193 0
155 176 0
150 174 0
165 183 0
169 192 0
137 160 0
135 158 0
149 169 0
154 178 0
160 183 0
154 178 0
156 179 0
159 180 0
143 163 0
154 174 0
144 165 0
141 161 0
150 169 0
158 183 0
166 188 0
151 171 0
142 162 0
150 172 0
143 165 0
153 172 0
142 164 0
179 200 0
173 197 0
148 173 0
154 179 0
159 182 0
148 173 0
154 176 0
139 159 0
171 194 0
149 172 0
146 170 0
167 187 0
171 190 0
144 166 0
159 180 0
152 177 0
170 192 0
148 170 0
159 181 0
108 130 0
154 178 0
157 178 0
147 166 0
161 186 0
155 176 0
160 183 0
145 168 0
148 171 0
144 164 0
169 190 0
152 172 0
105 126 0
124 149 0
151 174 0
132 148 0
161 185 0
167 189 0
153 175 0
128 150 0
151 177 0
156 178 0
160 186 0
146 170 0
155 180 0
140 160 0
146 169 0
157 180 0
153 177 0
142 166 0
164 185 0
146 169 0
139 159 0
141 164 0
148 168 0
158 177 0
130 151 0
145 168 0
131 147 0
116 140 0
146 169 0
154 177 0
131 149 0
164 186 0
163 188 0
151 173 0
155 179 0
130 153 0
155 178 0
163 185 0
144 162 0
138 160 0
170 189 0
119 140 0
155 177 0
143 159 0
166 190 0
146 166 0
143 168 0
135 157 0
158 184 0
160 183 0
157 179 0
150 172 0
134 157 0
138 160 0
150 173 0
164 188 0
165 186 0
156 178 0
151 171 0
166 190 0
149 174 0
152 174 0
172 195 0
160 179 0
147 170 0
145 166 0
146 167 0
149 170 0
156 180 0
139 163 0
152 173 0
154 178 0
135 158 0
158 180 0
139 160 0
139 159 0
153 170 0
149 171 0
164 174 0
156 176 0
153 177 0
166 187 0
140 155 0
152 175 0
145 166 0
140 160 0
165 189 0
153 167 0
138 157 0
163 183 0
171 191 0
121 147 0
152 177 0
158 182 0
153 177 0
144 165 0
146 166 0
163 185 0
151 174 0
162 182 0
153 171 0
151 168 0
152 166 0
144 164 0
161 184 0
139 154 0
147 161 0
123 145 0
158 175 0
161 185 0
148 168 0
139 156 0
162 182 0
144 162 0
125 142 0
173 193 0
170 188 0
156 170 0
144 165 0
167 191 0
148 170 0
155 178 0
141 160 0
116 137 0
152 173 0
163 176 0
145 166 0
156 177 0
163 187 0
161 174 0
172 195 0
151 164 0
154 173 0
168 181 0
158 182 0
162 186 0
157 178 0
161 179 0
159 174 0
138 159 0
161 181 0
137 153 0
172 193 0
171 189 0
143 168 0
163 182 0
136 147 0
134 156 0
170 186 0
154 161 0
170 185 0
162 180 0
140 156 0
165 178 0
145 159 0
152 165 0
175 188 0
170 183 0
143 164 0
142 151 0
148 168 0
171 193 0
171 189 0
161 182 0
177 198 0
146 165 0
145 164 0
164 185 0
161 183 0
132 144 0
162 180 0
168 190 0
126 144 0
136 158 0
161 179 0
156 170 0
153 166 0
147 165 0
150 171 0
169 185 0
158 171 0
161 176 0
148 161 0
171 186 0
166 190 0
168 184 0
175 198 0
139 160 0
160 175 0
159 181 0
175 195 0
160 178 0
142 157 0
163 180 0
164 180 0
160 175 0
146 167 0
161 175 0
170 185 0
163 177 0
158 175 0
155 171 0
154 169 0
167 177 0
151 169 0
165 184 0
160 174 0
131 141 0
165 180 0
170 189 0
159 175 0
162 180 0
140 152 0
150 155 0
170 179 0
165 181 0
162 184 0
162 172 0
143 154 0
166 180 0
144 157 0
168 186 0
168 181 0
170 187 0
158 171 0
146 160 0
156 175 0
158 177 0
174 184 0
154 162 0
141 156 0
155 175 0
145 159 0
146 154 0
164 174 0
173 187 0
168 182 0
169 182 0
163 185 0
163 177 0
167 185 0
162 182 0
155 173 0
168 189 0
161 182 0
158 177 0
163 182 0
162 183 0
163 184 0
171 192 0
156 175 0
157 179 0
169 189 0
150 171 0
164 184 0
150 167 0
163 186 0
169 188 0
169 190 0
158 173 0
158 181 0
161 186 0
153 172 0
170 188 0
171 192 0
142 160 0
154 176 0
168 188 0
146 166 0
166 185 0
173 194 0
151 171 0
173 192 0
173 194 0
170 191 0
164 184 0
160 184 0
164 187 0
148 169 0
149 168 0
152 174 0
133 154 0
158 179 0
161 184 0
161 179 0
137 158 0
152 173 0
156 175 0
166 188 0
144 164 0
147 162 0
161 183 0
154 177 0
161 182 0
160 182 0
157 179 0
166 186 0
152 177 0
165 186 0
143 166 0
160 177 0
123 140 0
155 175 0
152 173 0
139 162 0
159 181 0
147 170 0
161 178 0
139 161 0
152 174 0
147 169 0
160 178 0
163 179 0
156 180 0
155 176 0
149 170 0
151 174 0
162 187 0
143 166 0
140 161 0
163 184 0
154 173 0
174 197 0
163 184 0
168 192 0
147 168 0
158 184 0
155 178 0
155 178 0
162 186 0
164 185 0
160 185 0
139 158 0
141 156 0
133 153 0
153 176 0
162 187 0
154 174 0
145 166 0
157 181 0
158 182 0
145 164 0
144 163 0
164 187 0
124 145 0
158 183 0
129 151 0
165 187 0
149 171 0
159 182 0
123 147 0
141 161 0
159 183 0
150 171 0
158 183 0
149 169 0
165 187 0
165 181 0
158 179 0
143 168 0
152 173 0
159 181 0
164 187 0
154 175 0
135 157 0
170 192 0
156 180 0
151 174 0
162 183 0
127 149 0
166 189 0
177 199 0
150 170 0
130 151 0
152 172 0
126 147 0
145 169 0
125 145 0
144 167 0
157 181 0
162 187 0
169 189 0
164 188 0
151 174 0
156 175 0
143 163 0
148 172 0
162 186 0
156 175 0
146 168 0
145 169 0
164 184 0
153 178 0
169 190 0
163 187 0
162 185 0
161 183 0
148 169 0
157 173 0
150 173 0
145 166 0
146 168 0
153 177 0
168 190 0
118 137 0
141 162 0
166 185 0
145 169 0
142 166 0
142 166 0
155 174 0
135 157 0
163 187 0
146 168 0
152 177 0
145 165 0
159 184 0
168 190 0
135 157 0
165 188 0
149 173 0
155 180 0
158 180 0
154 178 0
172 193 0
133 154 0
149 170 0
143 167 0
147 166 0
152 171 0
144 165 0
164 187 0
156 180 0
125 149 0
153 175 0
139 161 0
139 157 0
162 183 0
155 178 0
139 162 0
155 175 0
146 170 0
164 189 0
140 163 0
169 192 0
126 148 0
160 182 0
156 177 0
147 168 0
156 179 0
167 192 0
147 171 0
140 159 0
135 159 0
151 171 0
147 169 0
152 177 0
149 168 0
151 176 0
158 179 0
157 177 0
181 195 0
153 179 0
144 163 0
158 176 0
161 183 0
153 175 0
134 157 0
160 182 0
163 183 0
174 197 0
126 145 0
161 186 0
147 169 0
145 169 0
152 172 0
162 183 0
169 191 0
170 192 0
152 171 0
165 182 0
122 147 0
137 148 0
157 175 0
136 157 0
153 170 0
145 165 0
169 189 0
145 153 0
171 191 0
135 152 0
163 188 0
160 175 0
140 160 0
166 188 0
120 134 0
155 179 0
157 179 0
135 157 0
146 169 0
114 133 0
160 177 0
143 162 0
164 181 0
154 178 0
136 158 0
164 188 0
156 175 0
140 156 0
150 162 0
139 161 0
171 185 0
157 176 0
135 152 0
158 177 0
142 162 0
173 194 0
166 188 0
153 173 0
148 169 0
150 172 0
161 183 0
149 169 0
147 167 0
143 167 0
163 180 0
153 174 0
154 179 0
149 167 0
160 169 0
151 173 0
169 188 0
145 159 0
169 192 0
162 185 0
162 182 0
131 147 0
152 170 0
155 180 0
147 166 0
159 181 0
155 175 0
146 162 0
154 169 0
151 168 0
152 168 0
172 193 0
124 137 0
155 179 0
167 189 0
158 173 0
142 157 0
157 175 0
165 188 0
158 177 0
164 184 0
171 189 0
147 162 0
165 179 0
140 166 0
167 187 0
154 171 0
149 155 0
151 167 0
158 177 0
164 181 0
158 173 0
148 170 0
143 158 0
172 196 0
138 156 0
157 178 0
140 156 0
150 164 0
159 174 0
140 157 0
165 184 0
149 168 0
151 167 0
149 164 0
157 169 0
148 169 0
156 174 0
170 188 0
143 154 0
147 162 0
144 161 0
159 174 0
157 177 0
155 175 0
155 173 0
154 170 0
169 188 0
139 159 0
160 180 0
156 170 0
140 144 0
140 149 0
156 175 0
162 178 0
153 162 0
164 180 0
154 170 0
166 189 0
139 148 0
152 171 0
161 179 0
170 189 0
151 168 0
169 190 0
156 171 0
153 173 0
155 173 0
162 174 0
168 187 0
145 170 0
154 165 0
162 173 0
147 160 0
164 182 0
162 184 0
164 182 0
158 173 0
157 165 0
160 174 0
168 187 0
157 170 0
160 178 0
164 182 0
129 142 0
166 186 0
178 200 0
162 179 0
158 171 0
166 182 0
159 173 0
172 186 0
160 167 0
158 166 0
168 182 0
128 141 0
157 169 0
155 175 0
150 170 0
169 191 0
159 184 0
173 194 0
159 179 0
172 192 0
143 163 0
167 187 0
174 196 0
154 176 0
161 181 0
156 178 0
159 183 0
163 186 0
165 187 0
165 184 0
160 178 0
169 190 0
168 188 0
166 185 0
150 171 0
165 188 0
172 193 0
162 184 0
164 186 0
157 181 0
120 145 0
159 181 0
158 176 0
172 195 0
140 161 0
151 171 0
155 179 0
145 167 0
163 184 0
170 193 0
134 153 0
152 172 0
163 186 0
158 179 0
171 193 0
154 177 0
160 178 0
157 179 0
144 167 0
164 185 0
160 182 0
152 174 0
161 183 0
166 188 0
156 176 0
169 192 0
156 179 0
165 186 0
148 168 0
146 170 0
163 187 0
153 177 0
163 184 0
163 183 0
166 188 0
153 174 0
168 190 0
165 186 0
158 182 0
154 174 0
174 194 0
150 171 0
151 176 0
152 175 0
152 175 0
163 187 0
151 173 0
127 149 0
157 180 0
155 175 0
155 176 0
168 191 0
155 176 0
150 172 0
143 162 0
162 185 0
154 175 0
171 196 0
157 179 0
158 181 0
138 158 0
156 178 0
134 155 0
155 177 0
160 182 0
148 171 0
155 176 0
154 176 0
153 176 0
160 185 0
141 166 0
121 142 0
159 178 0
147 170 0
149 170 0
137 159 0
138 154 0
162 187 0
147 170 0
163 186 0
166 185 0
156 177 0
131 155 0
138 160 0
166 187 0
146 170 0
133 155 0
170 192 0
151 176 0
150 173 0
151 173 0
150 173 0
138 158 0
142 161 0
149 175 0
148 168 0
153 171 0
155 175 0
125 147 0
144 164 0
143 161 0
154 178 0
162 185 0
141 161 0
168 191 0
164 185 0
170 194 0
155 180 0
166 190 0
147 171 0
157 178 0
121 137 0
170 191 0
141 162 0
148 166 0
164 188 0
178 192 0
161 187 0
148 169 0
163 184 0
154 176 0
147 168 0
143 165 0
143 168 0
171 190 0
160 184 0
164 181 0
155 178 0
148 165 0
162 181 0
156 178 0
153 176 0
156 177 0
157 180 0
143 165 0
142 162 0
152 178 0
154 175 0
123 140 0
147 166 0
162 184 0
144 161 0
155 176 0
145 169 0
165 186 0
118 139 0
144 163 0
159 183 0
158 178 0
164 185 0
153 177 0
131 155 0
163 183 0
155 172 0
159 173 0
146 169 0
152 177 0
166 189 0
163 188 0
148 166 0
152 173 0
172 196 0
153 179 0
166 186 0
150 175 0
154 173 0
149 172 0
152 177 0
143 164 0
153 174 0
155 178 0
155 174 0
157 175 0
165 189 0
154 176 0
153 171 0
141 164 0
132 155 0
150 172 0
146 168 0
165 185 0
157 179 0
157 179 0
153 172 0
156 175 0
170 193 0
146 167 0
163 188 0
144 170 0
155 174 0
162 186 0
134 154 0
143 168 0
136 158 0
169 194 0
170 192 0
155 177 0
173 194 0
164 187 0
149 164 0
155 177 0
173 194 0
167 190 0
156 176 0
155 178 0
176 199 0
150 171 0
166 189 0
135 154 0
162 178 0
163 180 0
175 194 0
134 157 0
108 121 0
158 178 0
132 149 0
159 177 0
163 184 0
144 161 0
166 190 0
128 146 0
159 181 0
158 178 0
159 181 0
155 180 0
154 175 0
134 152 0
148 164 0
153 176 0
123 148 0
163 183 0
148 167 0
153 174 0
163 185 0
146 163 0
156 178 0
123 145 0
150 171 0
159 177 0
141 156 0
134 148 0
147 167 0
167 189 0
162 184 0
150 170 0
124 148 0
144 160 0
148 166 0
148 169 0
158 177 0
162 184 0
162 181 0
161 177 0
139 154 0
131 145 0
139 160 0
172 193 0
155 179 0
165 188 0
147 161 0
151 171 0
172 189 0
157 173 0
140 161 0
157 177 0
112 130 0
167 185 0
166 177 0
155 173 0
146 158 0
169 191 0
157 176 0
170 186 0
158 175 0
131 145 0
152 175 0
147 169 0
153 175 0
155 174 0
173 197 0
161 175 0
163 183 0
162 184 0
157 178 0
167 191 0
151 173 0
164 181 0
143 155 0
154 176 0
142 155 0
160 176 0
160 165 0
161 184 0
164 186 0
152 167 0
152 170 0
140 155 0
154 171 0
164 179 0
139 154 0
159 184 0
164 182 0
164 181 0
159 176 0
156 165 0
172 193 0
156 170 0
165 186 0
168 186 0
155 172 0
149 167 0
156 175 0
151 172 0
155 172 0
153 166 0
163 187 0
157 175 0
168 191 0
161 175 0
159 182 0
173 190 0
144 161 0
165 186 0
157 174 0
171 185 0
170 185 0
145 163 0
161 182 0
153 166 0
134 151 0
169 191 0
155 169 0
144 156 0
149 165 0
173 187 0
159 181 0
116 128 0
147 155 0
141 146 0
162 177 0
160 178 0
151 168 0
147 162 0
133 150 0
151 164 0
169 181 0
152 169 0
153 165 0
151 169 0
161 178 0
163 182 0
159 167 0
154 165 0
154 164 0
174 198 0
151 162 0
166 181 0
137 146 0
153 163 0
128 142 0
170 182 0
164 170 0
164 178 0
124 133 0
156 161 0
150 165 0
160 172 0
149 161 0
173 193 0
162 173 0
171 186 0
159 177 0
163 183 0
