P3
400 225
255
204 226 255
204 226 255
204 226 255
204 226 255
204 226 255
204 226 255
204 226 255
204 226 255
204 226 255
204 226 255
204 226 255
204 226 255
204 226 255
204 226 255
204 226 255
203 226 255
203 226 255
203 226 255
203 226 255
203 226 255
203 226 255
203 226 255
203 226 255
203 225 255
203 225 255
203 225 255
203 225 255
203 225 255
203 225 255
203 225 255
203 225 255
203 225 255
202 225 255
202 225 255
202 225 255
202 225 255
202 225 255
202 225 255
202 225 255
202 225 255
202 225 255
202 225 255
202 225 255
202 225 255
202 225 255
202 225 255
202 225 255
202 225 255
201 225 255
201 225 255
201 225 255
201 225 255
201 225 255
201 224 255
201 224 255
201 224 255
201 224 255
201 224 255
201 224 255
201 224 255
201 224 255
201 224 255
200 224 255
200 224 255
200 224 255
200 224 255
200 224 255
200 224 255
200 224 255
200 224 255
200 224 255
200 224 255
200 224 255
200 224 255
200 224 255
200 224 255
200 224 255
200 224 255
199 224 255
199 224 255
199 223 255
199 223 255
199 223 255
199 223 255
199 223 255
199 223 255
199 223 255
199 223 255
199 223 255
199 223 255
199 223 255
199 223 255
198 223 255
198 223 255
198 223 255
198 223 255
198 223 255
198 223 255
198 223 255
198 223 255
198 223 255
198 223 255
198 223 255
198 223 255
198 223 255
198 223 255
197 222 255
197 222 255
197 222 255
197 222 255
197 222 255
197 222 255
197 222 255
197 222 255
197 222 255
197 222 255
197 222 255
197 222 255
197 222 255
197 222 255
197 222 255
196 222 255
196 222 255
196 222 255
196 222 255
196 222 255
196 222 255
196 222 255
196 222 255
196 222 255
196 222 255
196 222 255
196 222 255
196 222 255
196 222 255
196 221 255
196 221 255
195 221 255
195 221 255
195 221 255
195 221 255
195 221 255
195 221 255
195 221 255
195 221 255
195 221 255
195 221 255
195 221 255
195 221 255
195 221 255
195 221 255
195 221 255
195 221 255
195 221 255
195 221 255
194 221 255
194 221 255
194 221 255
194 221 255
194 221 255
194 221 255
194 221 255
194 221 255
194 221 255
194 221 255
194 221 255
194 221 255
194 221 255
194 221 255
194 221 255
194 221 255
194 221 255
194 221 255
194 221 255
194 221 255
194 221 255
194 221 255
194 220 255
194 220 255
194 220 255
194 220 255
194 220 255
194 220 255
194 220 255
194 220 255
194 220 255
194 220 255
194 220 255
193 220 255
193 220 255
193 220 255
193 220 255
193 220 255
193 220 255
193 220 255
193 220 255
193 220 255
193 220 255
193 220 255
193 220 255
193 220 255
193 220 255
193 220 255
193 220 255
193 220 255
193 220 255
193 220 255
193 220 255
193 220 255
193 220 255
193 220 255
193 220 255
193 220 255
194 220 255
194 220 255
194 220 255
194 220 255
194 220 255
194 220 255
194 220 255
194 220 255
194 220 255
194 220 255
194 221 255
194 221 255
194 221 255
194 221 255
194 221 255
194 221 255
194 221 255
194 221 255
194 221 255
194 221 255
194 221 255
194 221 255
194 221 255
194 221 255
194 221 255
194 221 255
194 221 255
194 221 255
194 221 255
194 221 255
194 221 255
194 221 255
195 221 255
195 221 255
195 221 255
195 221 255
195 221 255
195 221 255
195 221 255
195 221 255
195 221 255
195 221 255
195 221 255
195 221 255
195 221 255
195 221 255
195 221 255
195 221 255
195 221 255
195 221 255
196 221 255
196 221 255
196 222 255
196 222 255
196 222 255
196 222 255
196 222 255
196 222 255
196 222 255
196 222 255
196 222 255
196 222 255
196 222 255
196 222 255
196 222 255
196 222 255
197 222 255
197 222 255
197 222 255
197 222 255
197 222 255
197 222 255
197 222 255
197 222 255
197 222 255
197 222 255
197 222 255
197 222 255
197 222 255
197 222 255
197 223 255
198 223 255
198 223 255
198 223 255
198 223 255
198 223 255
198 223 255
198 223 255
198 223 255
198 223 255
198 223 255
198 223 255
198 223 255
198 223 255
198 223 255
199 223 255
199 223 255
199 223 255
199 223 255
199 223 255
199 223 255
199 223 255
199 223 255
199 223 255
199 223 255
199 223 255
199 223 255
199 224 255
199 224 255
200 224 255
200 224 255
200 224 255
200 224 255
200 224 255
200 224 255
200 224 255
200 224 255
200 224 255
200 224 255
200 224 255
200 224 255
200 224 255
200 224 255
200 224 255
201 224 255
201 224 255
201 224 255
201 224 255
201 224 255
201 224 255
201 224 255
201 224 255
201 224 255
201 224 255
201 225 255
201 225 255
201 225 255
201 225 255
201 225 255
202 225 255
202 225 255
202 225 255
202 225 255
202 225 255
202 225 255
202 225 255
202 225 255
202 225 255
202 225 255
202 225 255
202 225 255
202 225 255
202 225 255
202 225 255
202 225 255
203 225 255
203 225 255
203 225 255
203 225 255
203 225 255
203 225 255
203 225 255
203 225 255
203 225 255
203 226 255
203 226 255
203 226 255
203 226 255
203 226 255
203 226 255
203 226 255
203 226 255
204 226 255
204 226 255
204 226 255
204 226 255
204 226 255
204 226 255
204 226 255
204 226 255
204 226 255
204 226 255
204 226 255
204 226 255
204 226 255
204 226 255
204 226 255
204 226 255
204 226 255
204 226 255
204 226 255
204 226 255
204 226 255
204 226 255
204 226 255
204 226 255
204 226 255
204 226 255
204 226 255
204 226 255
204 226 255
204 226 255
204 226 255
204 226 255
203 226 255
203 226 255
203 226 255
203 226 255
203 226 255
203 226 255
203 226 255
203 226 255
203 225 255
203 225 255
203 225 255
203 225 255
203 225 255
203 225 255
203 225 255
203 225 255
203 225 255
203 225 255
202 225 255
202 225 255
202 225 255
202 225 255
202 225 255
202 225 255
202 225 255
202 225 255
202 225 255
202 225 255
202 225 255
202 225 255
202 225 255
202 225 255
202 225 255
202 225 255
201 225 255
201 225 255
201 225 255
201 225 255
201 224 255
201 224 255
201 224 255
201 224 255
201 224 255
201 224 255
201 224 255
201 224 255
201 224 255
201 224 255
200 224 255
200 224 255
200 224 255
200 224 255
200 224 255
200 224 255
200 224 255
200 224 255
200 224 255
200 224 255
200 224 255
200 224 255
200 224 255
200 224 255
200 224 255
199 224 255
199 223 255
199 223 255
199 223 255
199 223 255
199 223 255
199 223 255
199 223 255
199 223 255
199 223 255
199 223 255
199 223 255
199 223 255
199 223 255
198 223 255
198 223 255
198 223 255
198 223 255
198 223 255
198 223 255
198 223 255
198 223 255
198 223 255
198 223 255
198 223 255
198 223 255
198 223 255
198 223 255
197 222 255
197 222 255
197 222 255
197 222 255
197 222 255
197 222 255
197 222 255
197 222 255
197 222 255
197 222 255
197 222 255
197 222 255
197 222 255
197 222 255
196 222 255
196 222 255
196 222 255
196 222 255
196 222 255
196 222 255
196 222 255
196 222 255
196 222 255
196 222 255
196 222 255
196 222 255
196 222 255
196 222 255
196 222 255
196 221 255
196 221 255
195 221 255
195 221 255
195 221 255
195 221 255
195 221 255
195 221 255
195 221 255
195 221 255
195 221 255
195 221 255
195 221 255
195 221 255
195 221 255
195 221 255
195 221 255
195 221 255
195 221 255
195 221 255
195 221 255
194 221 255
194 221 255
194 221 255
194 221 255
194 221 255
194 221 255
194 221 255
194 221 255
194 221 255
194 221 255
194 221 255
194 221 255
194 221 255
194 221 255
194 221 255
194 221 255
194 221 255
194 221 255
194 221 255
194 221 255
194 221 255
194 221 255
194 221 255
194 221 255
194 221 255
194 220 255
194 220 255
194 220 255
194 220 255
194 220 255
194 220 255
194 220 255
194 220 255
194 220 255
194 220 255
194 220 255
194 220 255
194 220 255
194 220 255
194 220 255
194 220 255
194 220 255
194 220 255
194 220 255
194 220 255
194 220 255
194 220 255
194 220 255
194 220 255
194 220 255
194 220 255
194 220 255
194 220 255
194 220 255
194 220 255
194 220 255
194 220 255
194 220 255
194 220 255
194 221 255
194 221 255
194 221 255
194 221 255
194 221 255
194 221 255
194 221 255
194 221 255
194 221 255
194 221 255
194 221 255
194 221 255
194 221 255
194 221 255
194 221 255
194 221 255
194 221 255
194 221 255
194 221 255
194 221 255
194 221 255
194 221 255
194 221 255
194 221 255
194 221 255
195 221 255
195 221 255
195 221 255
195 221 255
195 221 255
195 221 255
195 221 255
195 221 255
195 221 255
195 221 255
195 221 255
195 221 255
195 221 255
195 221 255
195 221 255
195 221 255
195 221 255
195 221 255
195 221 255
196 221 255
196 221 255
196 222 255
196 222 255
196 222 255
196 222 255
196 222 255
196 222 255
196 222 255
196 222 255
196 222 255
196 222 255
196 222 255
196 222 255
196 222 255
196 222 255
197 222 255
197 222 255
197 222 255
197 222 255
197 222 255
197 222 255
197 222 255
197 222 255
197 222 255
197 222 255
197 222 255
197 222 255
197 222 255
197 222 255
197 223 255
198 223 255
198 223 255
198 223 255
198 223 255
198 223 255
198 223 255
198 223 255
198 223 255
198 223 255
198 223 255
198 223 255
198 223 255
198 223 255
198 223 255
199 223 255
199 223 255
199 223 255
199 223 255
199 223 255
199 223 255
199 223 255
199 223 255
199 223 255
199 223 255
199 223 255
199 223 255
199 224 255
199 224 255
199 224 255
200 224 255
200 224 255
200 224 255
200 224 255
200 224 255
200 224 255
200 224 255
200 224 255
200 224 255
200 224 255
200 224 255
200 224 255
200 224 255
200 224 255
201 224 255
201 224 255
201 224 255
201 224 255
201 224 255
201 224 255
201 224 255
201 224 255
201 224 255
201 224 255
201 225 255
201 225 255
201 225 255
201 225 255
201 225 255
202 225 255
202 225 255
202 225 255
202 225 255
202 225 255
202 225 255
202 225 255
202 225 255
202 225 255
202 225 255
202 225 255
202 225 255
202 225 255
202 225 255
202 225 255
202 225 255
203 225 255
203 225 255
203 225 255
203 225 255
203 225 255
203 225 255
203 225 255
203 225 255
203 225 255
203 226 255
203 226 255
203 226 255
203 226 255
203 226 255
203 226 255
203 226 255
203 226 255
204 226 255
204 226 255
204 226 255
204 226 255
204 226 255
204 226 255
204 226 255
204 226 255
204 226 255
204 226 255
204 226 255
204 226 255
204 226 255
204 226 255
204 226 255
204 226 255
204 226 255
205 226 255
205 226 255
204 226 255
204 226 255
204 226 255
204 226 255
204 226 255
204 226 255
204 226 255
204 226 255
204 226 255
204 226 255
204 226 255
204 226 255
204 226 255
204 226 255
204 226 255
204 226 255
204 226 255
204 226 255
203 226 255
203 226 255
203 226 255
203 226 255
203 226 255
203 226 255
203 226 255
203 225 255
203 225 255
203 225 255
203 225 255
203 225 255
203 225 255
203 225 255
203 225 255
203 225 255
202 225 255
202 225 255
202 225 255
202 225 255
202 225 255
202 225 255
202 225 255
202 225 255
202 225 255
202 225 255
202 225 255
202 225 255
202 225 255
202 225 255
202 225 255
202 225 255
201 225 255
201 225 255
201 225 255
201 225 255
201 225 255
201 224 255
201 224 255
201 224 255
201 224 255
201 224 255
201 224 255
201 224 255
201 224 255
201 224 255
201 224 255
200 224 255
200 224 255
200 224 255
200 224 255
200 224 255
200 224 255
200 224 255
200 224 255
200 224 255
200 224 255
200 224 255
200 224 255
200 224 255
200 224 255
199 224 255
199 224 255
199 224 255
199 223 255
199 223 255
199 223 255
199 223 255
199 223 255
199 223 255
199 223 255
199 223 255
199 223 255
199 223 255
199 223 255
199 223 255
198 223 255
198 223 255
198 223 255
198 223 255
198 223 255
198 223 255
198 223 255
198 223 255
198 223 255
198 223 255
198 223 255
198 223 255
198 223 255
198 223 255
197 223 255
197 222 255
197 222 255
197 222 255
197 222 255
197 222 255
197 222 255
197 222 255
197 222 255
197 222 255
197 222 255
197 222 255
197 222 255
197 222 255
197 222 255
196 222 255
196 222 255
196 222 255
196 222 255
196 222 255
196 222 255
196 222 255
196 222 255
196 222 255
196 222 255
196 222 255
196 222 255
196 222 255
196 222 255
196 222 255
196 221 255
196 221 255
195 221 255
195 221 255
195 221 255
195 221 255
195 221 255
195 221 255
195 221 255
195 221 255
195 221 255
195 221 255
195 221 255
195 221 255
195 221 255
195 221 255
195 221 255
195 221 255
195 221 255
195 221 255
195 221 255
195 221 255
194 221 255
194 221 255
194 221 255
194 221 255
194 221 255
194 221 255
194 221 255
194 221 255
194 221 255
194 221 255
194 221 255
194 221 255
194 221 255
194 221 255
194 221 255
194 221 255
194 221 255
194 221 255
194 221 255
194 221 255
194 221 255
194 221 255
194 221 255
194 221 255
194 221 255
194 221 255
194 221 255
194 221 255
194 221 255
194 220 255
194 221 255
194 220 255
194 220 255
194 220 255
194 220 255
194 220 255
194 220 255
194 220 255
194 220 255
194 220 255
194 220 255
194 220 255
194 220 255
194 220 255
194 220 255
194 220 255
194 221 255
194 221 255
194 221 255
194 221 255
194 221 255
194 221 255
194 221 255
194 221 255
194 221 255
194 221 255
194 221 255
194 221 255
194 221 255
194 221 255
194 221 255
194 221 255
194 221 255
194 221 255
194 221 255
194 221 255
194 221 255
194 221 255
194 221 255
194 221 255
194 221 255
194 221 255
194 221 255
194 221 255
194 221 255
194 221 255
195 221 255
195 221 255
195 221 255
195 221 255
195 221 255
195 221 255
195 221 255
195 221 255
195 221 255
195 221 255
195 221 255
195 221 255
195 221 255
195 221 255
195 221 255
195 221 255
195 221 255
195 221 255
195 221 255
195 221 255
195 221 255
196 221 255
196 222 255
196 222 255
196 222 255
196 222 255
196 222 255
196 222 255
196 222 255
196 222 255
196 222 255
196 222 255
196 222 255
196 222 255
196 222 255
196 222 255
196 222 255
197 222 255
197 222 255
197 222 255
197 222 255
197 222 255
197 222 255
197 222 255
197 222 255
197 222 255
197 222 255
197 222 255
197 222 255
197 222 255
197 222 255
197 223 255
198 223 255
198 223 255
198 223 255
198 223 255
198 223 255
198 223 255
198 223 255
198 223 255
198 223 255
198 223 255
198 223 255
198 223 255
198 223 255
198 223 255
199 223 255
199 223 255
199 223 255
199 223 255
199 223 255
199 223 255
199 223 255
199 223 255
199 223 255
199 223 255
199 223 255
199 223 255
199 224 255
199 224 255
200 224 255
200 224 255
200 224 255
200 224 255
200 224 255
200 224 255
200 224 255
200 224 255
200 224 255
200 224 255
200 224 255
200 224 255
200 224 255
200 224 255
200 224 255
201 224 255
201 224 255
201 224 255
201 224 255
201 224 255
201 224 255
201 224 255
201 224 255
201 224 255
201 224 255
201 225 255
201 225 255
201 225 255
201 225 255
201 225 255
202 225 255
202 225 255
202 225 255
202 225 255
202 225 255
202 225 255
202 225 255
202 225 255
202 225 255
202 225 255
202 225 255
202 225 255
202 225 255
202 225 255
202 225 255
203 225 255
203 225 255
203 225 255
203 225 255
203 225 255
203 225 255
203 225 255
203 225 255
203 225 255
203 225 255
203 226 255
203 226 255
203 226 255
203 226 255
203 226 255
203 226 255
203 226 255
204 226 255
204 226 255
204 226 255
204 226 255
204 226 255
204 226 255
204 226 255
204 226 255
204 226 255
204 226 255
204 226 255
204 226 255
204 226 255
204 226 255
204 226 255
204 226 255
204 226 255
204 226 255
205 226 255
205 226 255
205 226 255
205 226 255
205 226 255
205 226 255
205 226 255
204 226 255
204 226 255
204 226 255
204 226 255
204 226 255
204 226 255
204 226 255
204 226 255
204 226 255
204 226 255
204 226 255
204 226 255
204 226 255
204 226 255
204 226 255
204 226 255
204 226 255
203 226 255
203 226 255
203 226 255
203 226 255
203 226 255
203 226 255
203 226 255
203 226 255
203 225 255
203 225 255
203 225 255
203 225 255
203 225 255
203 225 255
203 225 255
203 225 255
203 225 255
202 225 255
202 225 255
202 225 255
202 225 255
202 225 255
202 225 255
202 225 255
202 225 255
202 225 255
202 225 255
202 225 255
202 225 255
202 225 255
202 225 255
202 225 255
201 225 255
201 225 255
201 225 255
201 225 255
201 225 255
201 224 255
201 224 255
201 224 255
201 224 255
201 224 255
201 224 255
201 224 255
201 224 255
201 224 255
201 224 255
200 224 255
200 224 255
200 224 255
200 224 255
200 224 255
200 224 255
200 224 255
200 224 255
200 224 255
200 224 255
200 224 255
200 224 255
200 224 255
200 224 255
200 224 255
199 224 255
199 224 255
199 223 255
199 223 255
199 223 255
199 223 255
199 223 255
199 223 255
199 223 255
199 223 255
199 223 255
199 223 255
199 223 255
199 223 255
198 223 255
198 223 255
198 223 255
198 223 255
198 223 255
198 223 255
198 223 255
198 223 255
198 223 255
198 223 255
198 223 255
198 223 255
198 223 255
198 223 255
197 223 255
197 222 255
197 222 255
197 222 255
197 222 255
197 222 255
197 222 255
197 222 255
197 222 255
197 222 255
197 222 255
197 222 255
197 222 255
197 222 255
197 222 255
196 222 255
196 222 255
196 222 255
196 222 255
196 222 255
196 222 255
196 222 255
196 222 255
196 222 255
196 222 255
196 222 255
196 222 255
196 222 255
196 222 255
196 222 255
196 222 255
196 221 255
195 221 255
195 221 255
195 221 255
195 221 255
195 221 255
195 221 255
195 221 255
195 221 255
195 221 255
195 221 255
195 221 255
195 221 255
195 221 255
195 221 255
195 221 255
195 221 255
195 221 255
195 221 255
195 221 255
195 221 255
195 221 255
194 221 255
194 221 255
194 221 255
194 221 255
194 221 255
194 221 255
194 221 255
194 221 255
194 221 255
194 221 255
194 221 255
194 221 255
194 221 255
194 221 255
194 221 255
194 221 255
194 221 255
194 221 255
194 221 255
194 221 255
194 221 255
194 221 255
194 221 255
194 221 255
194 221 255
194 221 255
194 221 255
194 221 255
194 221 255
194 221 255
194 221 255
194 221 255
194 221 255
194 221 255
194 221 255
194 221 255
194 221 255
194 221 255
194 221 255
194 221 255
194 221 255
194 221 255
194 221 255
194 221 255
194 221 255
194 221 255
194 221 255
194 221 255
194 221 255
194 221 255
194 221 255
194 221 255
194 221 255
194 221 255
194 221 255
194 221 255
194 221 255
194 221 255
194 221 255
194 221 255
194 221 255
194 221 255
194 221 255
194 221 255
194 221 255
194 221 255
194 221 255
194 221 255
194 221 255
194 221 255
195 221 255
195 221 255
195 221 255
195 221 255
195 221 255
195 221 255
195 221 255
195 221 255
195 221 255
195 221 255
195 221 255
195 221 255
195 221 255
195 221 255
195 221 255
195 221 255
195 221 255
195 221 255
195 221 255
195 221 255
195 221 255
196 221 255
196 221 255
196 222 255
196 222 255
196 222 255
196 222 255
196 222 255
196 222 255
196 222 255
196 222 255
196 222 255
196 222 255
196 222 255
196 222 255
196 222 255
196 222 255
197 222 255
197 222 255
197 222 255
197 222 255
197 222 255
197 222 255
197 222 255
197 222 255
197 222 255
197 222 255
197 222 255
197 222 255
197 222 255
197 222 255
197 222 255
197 223 255
198 223 255
198 223 255
198 223 255
198 223 255
198 223 255
198 223 255
198 223 255
198 223 255
198 223 255
198 223 255
198 223 255
198 223 255
198 223 255
198 223 255
199 223 255
199 223 255
199 223 255
199 223 255
199 223 255
199 223 255
199 223 255
199 223 255
199 223 255
199 223 255
199 223 255
199 223 255
199 224 255
199 224 255
199 224 255
200 224 255
200 224 255
200 224 255
200 224 255
200 224 255
200 224 255
200 224 255
200 224 255
200 224 255
200 224 255
200 224 255
200 224 255
200 224 255
200 224 255
201 224 255
201 224 255
201 224 255
201 224 255
201 224 255
201 224 255
201 224 255
201 224 255
201 224 255
201 224 255
201 224 255
201 225 255
201 225 255
201 225 255
201 225 255
202 225 255
202 225 255
202 225 255
202 225 255
202 225 255
202 225 255
202 225 255
202 225 255
202 225 255
202 225 255
202 225 255
202 225 255
202 225 255
202 225 255
202 225 255
202 225 255
203 225 255
203 225 255
203 225 255
203 225 255
203 225 255
203 225 255
203 225 255
203 225 255
203 226 255
203 226 255
203 226 255
203 226 255
203 226 255
203 226 255
203 226 255
203 226 255
204 226 255
204 226 255
204 226 255
204 226 255
204 226 255
204 226 255
204 226 255
204 226 255
204 226 255
204 226 255
204 226 255
204 226 255
204 226 255
204 226 255
204 226 255
204 226 255
204 226 255
204 226 255
205 226 255
205 226 255
205 226 255
205 226 255
205 226 255
205 226 255
205 226 255
205 226 255
205 226 255
205 226 255
205 226 255
204 226 255
204 226 255
204 226 255
204 226 255
204 226 255
204 226 255
204 226 255
204 226 255
204 226 255
204 226 255
204 226 255
204 226 255
204 226 255
204 226 255
204 226 255
204 226 255
204 226 255
203 226 255
203 226 255
203 226 255
203 226 255
203 226 255
203 226 255
203 226 255
203 226 255
203 225 255
203 225 255
203 225 255
203 225 255
203 225 255
203 225 255
203 225 255
203 225 255
203 225 255
202 225 255
202 225 255
202 225 255
202 225 255
202 225 255
202 225 255
202 225 255
202 225 255
202 225 255
202 225 255
202 225 255
202 225 255
202 225 255
202 225 255
202 225 255
201 225 255
201 225 255
201 225 255
201 225 255
201 224 255
201 224 255
201 224 255
201 224 255
201 224 255
201 224 255
201 224 255
201 224 255
201 224 255
201 224 255
201 224 255
201 224 255
200 224 255
200 224 255
200 224 255
200 224 255
200 224 255
200 224 255
200 224 255
200 224 255
200 224 255
200 224 255
200 224 255
200 224 255
200 224 255
199 224 255
199 224 255
199 224 255
199 223 255
199 223 255
199 223 255
199 223 255
199 223 255
199 223 255
199 223 255
199 223 255
199 223 255
199 223 255
199 223 255
199 223 255
198 223 255
198 223 255
198 223 255
198 223 255
198 223 255
198 223 255
198 223 255
198 223 255
198 223 255
198 223 255
198 223 255
198 223 255
198 223 255
198 223 255
198 223 255
197 222 255
197 222 255
197 222 255
197 222 255
197 222 255
197 222 255
197 222 255
197 222 255
197 222 255
197 222 255
197 222 255
197 222 255
197 222 255
197 222 255
197 222 255
196 222 255
196 222 255
196 222 255
196 222 255
196 222 255
196 222 255
196 222 255
196 222 255
196 222 255
196 222 255
196 222 255
196 222 255
196 222 255
196 222 255
196 222 255
196 221 255
196 221 255
195 221 255
195 221 255
195 221 255
195 221 255
195 221 255
195 221 255
195 221 255
195 221 255
195 221 255
195 221 255
195 221 255
195 221 255
195 221 255
195 221 255
195 221 255
195 221 255
195 221 255
195 221 255
195 221 255
195 221 255
195 221 255
195 221 255
194 221 255
194 221 255
194 221 255
194 221 255
194 221 255
194 221 255
194 221 255
194 221 255
194 221 255
194 221 255
194 221 255
194 221 255
194 221 255
194 221 255
194 221 255
194 221 255
194 221 255
194 221 255
194 221 255
194 221 255
194 221 255
194 221 255
194 221 255
194 221 255
194 221 255
194 221 255
194 221 255
194 221 255
194 221 255
194 221 255
194 221 255
194 221 255
194 221 255
194 221 255
194 221 255
194 221 255
194 221 255
194 221 255
194 221 255
194 221 255
194 221 255
194 221 255
194 221 255
194 221 255
194 221 255
194 221 255
194 221 255
194 221 255
194 221 255
194 221 255
194 221 255
194 221 255
194 221 255
194 221 255
194 221 255
194 221 255
194 221 255
194 221 255
194 221 255
194 221 255
194 221 255
194 221 255
195 221 255
195 221 255
195 221 255
195 221 255
195 221 255
195 221 255
195 221 255
195 221 255
195 221 255
195 221 255
195 221 255
195 221 255
195 221 255
195 221 255
195 221 255
195 221 255
195 221 255
195 221 255
195 221 255
195 221 255
195 221 255
195 221 255
195 221 255
196 221 255
196 222 255
196 222 255
196 222 255
196 222 255
196 222 255
196 222 255
196 222 255
196 222 255
196 222 255
196 222 255
196 222 255
196 222 255
196 222 255
196 222 255
196 222 255
196 222 255
197 222 255
197 222 255
197 222 255
197 222 255
197 222 255
197 222 255
197 222 255
197 222 255
197 222 255
197 222 255
197 222 255
197 222 255
197 222 255
197 222 255
197 223 255
198 223 255
198 223 255
198 223 255
198 223 255
198 223 255
198 223 255
198 223 255
198 223 255
198 223 255
198 223 255
198 223 255
198 223 255
198 223 255
198 223 255
199 223 255
199 223 255
199 223 255
199 223 255
199 223 255
199 223 255
199 223 255
199 223 255
199 223 255
199 223 255
199 223 255
199 223 255
199 224 255
199 224 255
200 224 255
200 224 255
200 224 255
200 224 255
200 224 255
200 224 255
200 224 255
200 224 255
200 224 255
200 224 255
200 224 255
200 224 255
200 224 255
200 224 255
200 224 255
201 224 255
201 224 255
201 224 255
201 224 255
201 224 255
201 224 255
201 224 255
201 224 255
201 224 255
201 224 255
201 225 255
201 225 255
201 225 255
201 225 255
201 225 255
202 225 255
202 225 255
202 225 255
202 225 255
202 225 255
202 225 255
202 225 255
202 225 255
202 225 255
202 225 255
202 225 255
202 225 255
202 225 255
202 225 255
202 225 255
203 225 255
203 225 255
203 225 255
203 225 255
203 225 255
203 225 255
203 225 255
203 225 255
203 225 255
203 226 255
203 226 255
203 226 255
203 226 255
203 226 255
203 226 255
203 226 255
203 226 255
204 226 255
204 226 255
204 226 255
204 226 255
204 226 255
204 226 255
204 226 255
204 226 255
204 226 255
204 226 255
204 226 255
204 226 255
204 226 255
204 226 255
204 226 255
204 226 255
204 226 255
205 226 255
205 226 255
205 226 255
205 226 255
205 226 255
205 226 255
205 226 255
205 227 255
205 227 255
205 226 255
205 226 255
205 226 255
205 226 255
205 226 255
205 226 255
205 226 255
205 226 255
204 226 255
204 226 255
204 226 255
204 226 255
204 226 255
204 226 255
204 226 255
204 226 255
204 226 255
204 226 255
204 226 255
204 226 255
204 226 255
204 226 255
204 226 255
204 226 255
204 226 255
203 226 255
203 226 255
203 226 255
203 226 255
203 226 255
203 226 255
203 225 255
203 225 255
203 225 255
203 225 255
203 225 255
203 225 255
203 225 255
203 225 255
203 225 255
203 225 255
202 225 255
202 225 255
202 225 255
202 225 255
202 225 255
202 225 255
202 225 255
202 225 255
202 225 255
202 225 255
202 225 255
202 225 255
202 225 255
202 225 255
202 225 255
202 225 255
201 225 255
201 225 255
201 225 255
201 225 255
201 224 255
201 224 255
201 224 255
201 224 255
201 224 255
201 224 255
201 224 255
201 224 255
201 224 255
201 224 255
200 224 255
200 224 255
200 224 255
200 224 255
200 224 255
200 224 255
200 224 255
200 224 255
200 224 255
200 224 255
200 224 255
200 224 255
200 224 255
200 224 255
200 224 255
199 224 255
199 224 255
199 223 255
199 223 255
199 223 255
199 223 255
199 223 255
199 223 255
199 223 255
199 223 255
199 223 255
199 223 255
199 223 255
199 223 255
198 223 255
198 223 255
198 223 255
198 223 255
198 223 255
198 223 255
198 223 255
198 223 255
198 223 255
198 223 255
198 223 255
198 223 255
198 223 255
198 223 255
198 223 255
197 222 255
197 222 255
197 222 255
197 222 255
197 222 255
197 222 255
197 222 255
197 222 255
197 222 255
197 222 255
197 222 255
197 222 255
197 222 255
197 222 255
197 222 255
196 222 255
196 222 255
196 222 255
196 222 255
196 222 255
196 222 255
196 222 255
196 222 255
196 222 255
196 222 255
196 222 255
196 222 255
196 222 255
196 222 255
196 222 255
196 222 255
196 221 255
196 221 255
195 221 255
195 221 255
195 221 255
195 221 255
195 221 255
195 221 255
195 221 255
195 221 255
195 221 255
195 221 255
195 221 255
195 221 255
195 221 255
195 221 255
195 221 255
195 221 255
195 221 255
195 221 255
195 221 255
195 221 255
195 221 255
195 221 255
195 221 255
194 221 255
194 221 255
194 221 255
194 221 255
194 221 255
194 221 255
194 221 255
194 221 255
194 221 255
194 221 255
194 221 255
194 221 255
194 221 255
194 221 255
194 221 255
194 221 255
194 221 255
194 221 255
194 221 255
194 221 255
194 221 255
194 221 255
194 221 255
194 221 255
194 221 255
194 221 255
194 221 255
194 221 255
194 221 255
194 221 255
194 221 255
194 221 255
194 221 255
194 221 255
194 221 255
194 221 255
194 221 255
194 221 255
194 221 255
194 221 255
194 221 255
194 221 255
194 221 255
194 221 255
194 221 255
194 221 255
194 221 255
194 221 255
194 221 255
194 221 255
194 221 255
194 221 255
194 221 255
194 221 255
195 221 255
195 221 255
195 221 255
195 221 255
195 221 255
195 221 255
195 221 255
195 221 255
195 221 255
195 221 255
195 221 255
195 221 255
195 221 255
195 221 255
195 221 255
195 221 255
195 221 255
195 221 255
195 221 255
195 221 255
195 221 255
195 221 255
195 221 255
196 221 255
196 221 255
196 222 255
196 222 255
196 222 255
196 222 255
196 222 255
196 222 255
196 222 255
196 222 255
196 222 255
196 222 255
196 222 255
196 222 255
196 222 255
196 222 255
196 222 255
196 222 255
197 222 255
197 222 255
197 222 255
197 222 255
197 222 255
197 222 255
197 222 255
197 222 255
197 222 255
197 222 255
197 222 255
197 222 255
197 222 255
197 222 255
197 222 255
198 223 255
198 223 255
198 223 255
198 223 255
198 223 255
198 223 255
198 223 255
198 223 255
198 223 255
198 223 255
198 223 255
198 223 255
198 223 255
198 223 255
198 223 255
199 223 255
199 223 255
199 223 255
199 223 255
199 223 255
199 223 255
199 223 255
199 223 255
199 223 255
199 223 255
199 223 255
199 223 255
199 224 255
199 224 255
200 224 255
200 224 255
200 224 255
200 224 255
200 224 255
200 224 255
200 224 255
200 224 255
200 224 255
200 224 255
200 224 255
200 224 255
200 224 255
200 224 255
200 224 255
201 224 255
201 224 255
201 224 255
201 224 255
201 224 255
201 224 255
201 224 255
201 224 255
201 224 255
201 224 255
201 225 255
201 225 255
201 225 255
201 225 255
202 225 255
202 225 255
202 225 255
202 225 255
202 225 255
202 225 255
202 225 255
202 225 255
202 225 255
202 225 255
202 225 255
202 225 255
202 225 255
202 225 255
202 225 255
202 225 255
203 225 255
203 225 255
203 225 255
203 225 255
203 225 255
203 225 255
203 225 255
203 225 255
203 225 255
203 226 255
203 226 255
203 226 255
203 226 255
203 226 255
203 226 255
203 226 255
203 226 255
204 226 255
204 226 255
204 226 255
204 226 255
204 226 255
204 226 255
204 226 255
204 226 255
204 226 255
204 226 255
204 226 255
204 226 255
204 226 255
204 226 255
204 226 255
204 226 255
204 226 255
205 226 255
205 226 255
205 226 255
205 226 255
205 226 255
205 226 255
205 226 255
205 226 255
205 227 255
205 227 255
205 227 255
205 227 255
205 227 255
205 227 255
205 226 255
205 226 255
205 226 255
205 226 255
205 226 255
205 226 255
205 226 255
204 226 255
204 226 255
204 226 255
204 226 255
204 226 255
204 226 255
204 226 255
204 226 255
204 226 255
204 226 255
204 226 255
204 226 255
204 226 255
204 226 255
204 226 255
204 226 255
204 226 255
203 226 255
203 226 255
203 226 255
203 226 255
203 226 255
203 226 255
203 226 255
203 226 255
203 225 255
203 225 255
203 225 255
203 225 255
203 225 255
203 225 255
203 225 255
203 225 255
203 225 255
202 225 255
202 225 255
202 225 255
202 225 255
202 225 255
202 225 255
202 225 255
202 225 255
202 225 255
202 225 255
202 225 255
202 225 255
202 225 255
202 225 255
202 225 255
201 225 255
201 225 255
201 225 255
201 225 255
201 224 255
201 224 255
201 224 255
201 224 255
201 224 255
201 224 255
201 224 255
201 224 255
201 224 255
201 224 255
200 224 255
200 224 255
200 224 255
200 224 255
200 224 255
200 224 255
200 224 255
200 224 255
200 224 255
200 224 255
200 224 255
200 224 255
200 224 255
200 224 255
199 224 255
199 224 255
199 224 255
199 223 255
199 223 255
199 223 255
199 223 255
199 223 255
199 223 255
199 223 255
199 223 255
199 223 255
199 223 255
199 223 255
199 223 255
198 223 255
198 223 255
198 223 255
198 223 255
198 223 255
198 223 255
198 223 255
198 223 255
198 223 255
198 223 255
198 223 255
198 223 255
198 223 255
198 223 255
198 223 255
197 222 255
197 222 255
197 222 255
197 222 255
197 222 255
197 222 255
197 222 255
197 222 255
197 222 255
197 222 255
197 222 255
197 222 255
197 222 255
197 222 255
197 222 255
197 222 255
196 222 255
196 222 255
196 222 255
196 222 255
196 222 255
196 222 255
196 222 255
196 222 255
196 222 255
196 222 255
196 222 255
196 222 255
196 222 255
196 222 255
196 222 255
196 222 255
196 221 255
195 221 255
195 221 255
195 221 255
195 221 255
195 221 255
195 221 255
195 221 255
195 221 255
195 221 255
195 221 255
195 221 255
195 221 255
195 221 255
195 221 255
195 221 255
195 221 255
195 221 255
195 221 255
195 221 255
195 221 255
195 221 255
195 221 255
195 221 255
195 221 255
195 221 255
195 221 255
194 221 255
194 221 255
194 221 255
194 221 255
194 221 255
194 221 255
194 221 255
194 221 255
194 221 255
194 221 255
194 221 255
194 221 255
194 221 255
194 221 255
194 221 255
194 221 255
194 221 255
194 221 255
194 221 255
194 221 255
194 221 255
194 221 255
194 221 255
194 221 255
194 221 255
194 221 255
194 221 255
194 221 255
194 221 255
194 221 255
194 221 255
194 221 255
194 221 255
194 221 255
194 221 255
194 221 255
194 221 255
194 221 255
194 221 255
194 221 255
194 221 255
194 221 255
194 221 255
194 221 255
195 221 255
195 221 255
195 221 255
195 221 255
195 221 255
195 221 255
195 221 255
195 221 255
195 221 255
195 221 255
195 221 255
195 221 255
195 221 255
195 221 255
195 221 255
195 221 255
195 221 255
195 221 255
195 221 255
195 221 255
195 221 255
195 221 255
195 221 255
195 221 255
195 221 255
195 221 255
196 221 255
196 221 255
196 222 255
196 222 255
196 222 255
196 222 255
196 222 255
196 222 255
196 222 255
196 222 255
196 222 255
196 222 255
196 222 255
196 222 255
196 222 255
196 222 255
196 222 255
196 222 255
197 222 255
197 222 255
197 222 255
197 222 255
197 222 255
197 222 255
197 222 255
197 222 255
197 222 255
197 222 255
197 222 255
197 222 255
197 222 255
197 222 255
197 222 255
198 223 255
198 223 255
198 223 255
198 223 255
198 223 255
198 223 255
198 223 255
198 223 255
198 223 255
198 223 255
198 223 255
198 223 255
198 223 255
198 223 255
198 223 255
199 223 255
199 223 255
199 223 255
199 223 255
199 223 255
199 223 255
199 223 255
199 223 255
199 223 255
199 223 255
199 223 255
199 223 255
199 224 255
199 224 255
200 224 255
200 224 255
200 224 255
200 224 255
200 224 255
200 224 255
200 224 255
200 224 255
200 224 255
200 224 255
200 224 255
200 224 255
200 224 255
200 224 255
200 224 255
201 224 255
201 224 255
201 224 255
201 224 255
201 224 255
201 224 255
201 224 255
201 224 255
201 224 255
201 224 255
201 225 255
201 225 255
201 225 255
201 225 255
202 225 255
202 225 255
202 225 255
202 225 255
202 225 255
202 225 255
202 225 255
202 225 255
202 225 255
202 225 255
202 225 255
202 225 255
202 225 255
202 225 255
202 225 255
202 225 255
203 225 255
203 225 255
203 225 255
203 225 255
203 225 255
203 225 255
203 225 255
203 225 255
203 225 255
203 226 255
203 226 255
203 226 255
203 226 255
203 226 255
203 226 255
203 226 255
204 226 255
204 226 255
204 226 255
204 226 255
204 226 255
204 226 255
204 226 255
204 226 255
204 226 255
204 226 255
204 226 255
204 226 255
204 226 255
204 226 255
204 226 255
204 226 255
204 226 255
204 226 255
205 226 255
205 226 255
205 226 255
205 226 255
205 226 255
205 226 255
205 226 255
205 227 255
205 227 255
205 227 255
205 227 255
205 227 255
205 227 255
205 227 255
205 227 255
205 227 255
205 227 255
205 226 255
205 226 255
205 226 255
205 226 255
205 226 255
205 226 255
205 226 255
205 226 255
204 226 255
204 226 255
204 226 255
204 226 255
204 226 255
204 226 255
204 226 255
204 226 255
204 226 255
204 226 255
204 226 255
204 226 255
204 226 255
204 226 255
204 226 255
204 226 255
204 226 255
204 226 255
203 226 255
203 226 255
203 226 255
203 226 255
203 226 255
203 226 255
203 226 255
203 225 255
203 225 255
203 225 255
203 225 255
203 225 255
203 225 255
203 225 255
203 225 255
203 225 255
202 225 255
202 225 255
202 225 255
202 225 255
202 225 255
202 225 255
202 225 255
202 225 255
202 225 255
202 225 255
202 225 255
202 225 255
202 225 255
202 225 255
202 225 255
201 225 255
201 225 255
201 225 255
201 225 255
201 225 255
201 224 255
201 224 255
201 224 255
201 224 255
201 224 255
201 224 255
201 224 255
201 224 255
201 224 255
200 224 255
200 224 255
200 224 255
200 224 255
200 224 255
200 224 255
200 224 255
200 224 255
200 224 255
200 224 255
200 224 255
200 224 255
200 224 255
200 224 255
200 224 255
199 224 255
199 224 255
199 223 255
199 223 255
199 223 255
199 223 255
199 223 255
199 223 255
199 223 255
199 223 255
199 223 255
199 223 255
199 223 255
199 223 255
198 223 255
198 223 255
198 223 255
198 223 255
198 223 255
198 223 255
198 223 255
198 223 255
198 223 255
198 223 255
198 223 255
198 223 255
198 223 255
198 223 255
198 223 255
197 223 255
197 222 255
197 222 255
197 222 255
197 222 255
197 222 255
197 222 255
197 222 255
197 222 255
197 222 255
197 222 255
197 222 255
197 222 255
197 222 255
197 222 255
197 222 255
196 222 255
196 222 255
196 222 255
196 222 255
196 222 255
196 222 255
196 222 255
196 222 255
196 222 255
196 222 255
196 222 255
196 222 255
196 222 255
196 222 255
196 222 255
196 222 255
196 221 255
196 221 255
195 221 255
195 221 255
195 221 255
195 221 255
195 221 255
195 221 255
195 221 255
195 221 255
195 221 255
195 221 255
195 221 255
195 221 255
195 221 255
195 221 255
195 221 255
195 221 255
195 221 255
195 221 255
195 221 255
195 221 255
195 221 255
195 221 255
195 221 255
195 221 255
195 221 255
195 221 255
195 221 255
195 221 255
195 221 255
195 221 255
194 221 255
194 221 255
194 221 255
194 221 255
194 221 255
194 221 255
194 221 255
194 221 255
194 221 255
194 221 255
194 221 255
194 221 255
194 221 255
194 221 255
194 221 255
194 221 255
194 221 255
194 221 255
194 221 255
194 221 255
194 221 255
194 221 255
194 221 255
194 221 255
194 221 255
194 221 255
194 221 255
194 221 255
194 221 255
194 221 255
195 221 255
194 221 255
195 221 255
195 221 255
195 221 255
195 221 255
195 221 255
195 221 255
195 221 255
195 221 255
195 221 255
195 221 255
195 221 255
195 221 255
195 221 255
195 221 255
195 221 255
195 221 255
195 221 255
195 221 255
195 221 255
195 221 255
195 221 255
195 221 255
195 221 255
195 221 255
195 221 255
195 221 255
195 221 255
195 221 255
196 221 255
196 221 255
196 222 255
196 222 255
196 222 255
196 222 255
196 222 255
196 222 255
196 222 255
196 222 255
196 222 255
196 222 255
196 222 255
196 222 255
196 222 255
196 222 255
196 222 255
196 222 255
197 222 255
197 222 255
197 222 255
197 222 255
197 222 255
197 222 255
197 222 255
197 222 255
197 222 255
197 222 255
197 222 255
197 222 255
197 222 255
197 222 255
197 222 255
197 223 255
198 223 255
198 223 255
198 223 255
198 223 255
198 223 255
198 223 255
198 223 255
198 223 255
198 223 255
198 223 255
198 223 255
198 223 255
198 223 255
198 223 255
198 223 255
199 223 255
199 223 255
199 223 255
199 223 255
199 223 255
199 223 255
199 223 255
199 223 255
199 223 255
199 223 255
199 223 255
199 223 255
199 224 255
199 224 255
200 224 255
200 224 255
200 224 255
200 224 255
200 224 255
200 224 255
200 224 255
200 224 255
200 224 255
200 224 255
200 224 255
200 224 255
200 224 255
200 224 255
201 224 255
201 224 255
201 224 255
201 224 255
201 224 255
201 224 255
201 224 255
201 224 255
201 224 255
201 224 255
201 225 255
201 225 255
201 225 255
201 225 255
201 225 255
202 225 255
202 225 255
202 225 255
202 225 255
202 225 255
202 225 255
202 225 255
202 225 255
202 225 255
202 225 255
202 225 255
202 225 255
202 225 255
202 225 255
202 225 255
203 225 255
203 225 255
203 225 255
203 225 255
203 225 255
203 225 255
203 225 255
203 225 255
203 225 255
203 226 255
203 226 255
203 226 255
203 226 255
203 226 255
203 226 255
203 226 255
204 226 255
204 226 255
204 226 255
204 226 255
204 226 255
204 226 255
204 226 255
204 226 255
204 226 255
204 226 255
204 226 255
204 226 255
204 226 255
204 226 255
204 226 255
204 226 255
204 226 255
204 226 255
205 226 255
205 226 255
205 226 255
205 226 255
205 226 255
205 226 255
205 226 255
205 227 255
205 227 255
205 227 255
205 227 255
205 227 255
205 227 255
205 227 255
205 227 255
205 227 255
205 227 255
205 227 255
205 227 255
205 227 255
205 227 255
205 227 255
205 227 255
205 226 255
205 226 255
205 226 255
205 226 255
205 226 255
205 226 255
205 226 255
204 226 255
204 226 255
204 226 255
204 226 255
204 226 255
204 226 255
204 226 255
204 226 255
204 226 255
204 226 255
204 226 255
204 226 255
204 226 255
204 226 255
204 226 255
204 226 255
204 226 255
204 226 255
203 226 255
203 226 255
203 226 255
203 226 255
203 226 255
203 226 255
203 226 255
203 225 255
203 225 255
203 225 255
203 225 255
203 225 255
203 225 255
203 225 255
203 225 255
203 225 255
202 225 255
202 225 255
202 225 255
202 225 255
202 225 255
202 225 255
202 225 255
202 225 255
202 225 255
202 225 255
202 225 255
202 225 255
202 225 255
202 225 255
202 225 255
201 225 255
201 225 255
201 225 255
201 225 255
201 225 255
201 224 255
201 224 255
201 224 255
201 224 255
201 224 255
201 224 255
201 224 255
201 224 255
201 224 255
201 224 255
200 224 255
200 224 255
200 224 255
200 224 255
200 224 255
200 224 255
200 224 255
200 224 255
200 224 255
200 224 255
200 224 255
200 224 255
200 224 255
200 224 255
199 224 255
199 224 255
199 223 255
199 223 255
199 223 255
199 223 255
199 223 255
199 223 255
199 223 255
199 223 255
199 223 255
199 223 255
199 223 255
199 223 255
198 223 255
198 223 255
198 223 255
198 223 255
198 223 255
198 223 255
198 223 255
198 223 255
198 223 255
198 223 255
198 223 255
198 223 255
198 223 255
198 223 255
198 223 255
197 223 255
197 222 255
197 222 255
197 222 255
197 222 255
197 222 255
197 222 255
197 222 255
197 222 255
197 222 255
197 222 255
197 222 255
197 222 255
197 222 255
197 222 255
197 222 255
197 222 255
196 222 255
196 222 255
196 222 255
196 222 255
196 222 255
196 222 255
196 222 255
196 222 255
196 222 255
196 222 255
196 222 255
196 222 255
196 222 255
196 222 255
196 222 255
196 222 255
196 222 255
196 221 255
195 221 255
195 221 255
195 221 255
195 221 255
195 221 255
195 221 255
195 221 255
195 221 255
195 221 255
195 221 255
195 221 255
195 221 255
195 221 255
195 221 255
195 221 255
195 221 255
195 221 255
195 221 255
195 221 255
195 221 255
195 221 255
195 221 255
195 221 255
195 221 255
195 221 255
195 221 255
195 221 255
195 221 255
195 221 255
195 221 255
195 221 255
195 221 255
195 221 255
195 221 255
195 221 255
195 221 255
195 221 255
195 221 255
195 221 255
195 221 255
195 221 255
195 221 255
195 221 255
195 221 255
195 221 255
195 221 255
195 221 255
195 221 255
195 221 255
195 221 255
195 221 255
195 221 255
195 221 255
195 221 255
195 221 255
195 221 255
195 221 255
195 221 255
195 221 255
195 221 255
195 221 255
195 221 255
195 221 255
195 221 255
195 221 255
195 221 255
195 221 255
195 221 255
195 221 255
195 221 255
195 221 255
195 221 255
195 221 255
195 221 255
195 221 255
195 221 255
195 221 255
195 221 255
195 221 255
195 221 255
195 221 255
195 221 255
195 221 255
196 221 255
196 221 255
196 222 255
196 222 255
196 222 255
196 222 255
196 222 255
196 222 255
196 222 255
196 222 255
196 222 255
196 222 255
196 222 255
196 222 255
196 222 255
196 222 255
196 222 255
196 222 255
196 222 255
197 222 255
197 222 255
197 222 255
197 222 255
197 222 255
197 222 255
197 222 255
197 222 255
197 222 255
197 222 255
197 222 255
197 222 255
197 222 255
197 222 255
197 222 255
197 222 255
197 223 255
198 223 255
198 223 255
198 223 255
198 223 255
198 223 255
198 223 255
198 223 255
198 223 255
198 223 255
198 223 255
198 223 255
198 223 255
198 223 255
198 223 255
198 223 255
199 223 255
199 223 255
199 223 255
199 223 255
199 223 255
199 223 255
199 223 255
199 223 255
199 223 255
199 223 255
199 223 255
199 223 255
199 224 255
199 224 255
200 224 255
200 224 255
200 224 255
200 224 255
200 224 255
200 224 255
200 224 255
200 224 255
200 224 255
200 224 255
200 224 255
200 224 255
200 224 255
200 224 255
201 224 255
201 224 255
201 224 255
201 224 255
201 224 255
201 224 255
201 224 255
201 224 255
201 224 255
201 224 255
201 224 255
201 225 255
201 225 255
201 225 255
201 225 255
202 225 255
202 225 255
202 225 255
202 225 255
202 225 255
202 225 255
202 225 255
202 225 255
202 225 255
202 225 255
202 225 255
202 225 255
202 225 255
202 225 255
202 225 255
202 225 255
203 225 255
203 225 255
203 225 255
203 225 255
203 225 255
203 225 255
203 225 255
203 225 255
203 226 255
203 226 255
203 226 255
203 226 255
203 226 255
203 226 255
203 226 255
204 226 255
204 226 255
204 226 255
204 226 255
204 226 255
204 226 255
204 226 255
204 226 255
204 226 255
204 226 255
204 226 255
204 226 255
204 226 255
204 226 255
204 226 255
204 226 255
204 226 255
204 226 255
205 226 255
205 226 255
205 226 255
205 226 255
205 226 255
205 226 255
205 226 255
205 227 255
205 227 255
205 227 255
205 227 255
205 227 255
205 227 255
205 227 255
205 227 255
205 227 255
206 227 255
205 227 255
205 227 255
205 227 255
205 227 255
205 227 255
205 227 255
205 227 255
205 227 255
205 227 255
205 227 255
205 226 255
205 226 255
205 226 255
205 226 255
205 226 255
205 226 255
205 226 255
205 226 255
204 226 255
204 226 255
204 226 255
204 226 255
204 226 255
204 226 255
204 226 255
204 226 255
204 226 255
204 226 255
204 226 255
204 226 255
204 226 255
204 226 255
204 226 255
204 226 255
204 226 255
203 226 255
203 226 255
203 226 255
203 226 255
203 226 255
203 226 255
203 226 255
203 225 255
203 225 255
203 225 255
203 225 255
203 225 255
203 225 255
203 225 255
203 225 255
203 225 255
202 225 255
202 225 255
202 225 255
202 225 255
202 225 255
202 225 255
202 225 255
202 225 255
202 225 255
202 225 255
202 225 255
202 225 255
202 225 255
202 225 255
202 225 255
201 225 255
201 225 255
201 225 255
201 225 255
201 225 255
201 224 255
201 224 255
201 224 255
201 224 255
201 224 255
201 224 255
201 224 255
201 224 255
201 224 255
201 224 255
200 224 255
200 224 255
200 224 255
200 224 255
200 224 255
200 224 255
200 224 255
200 224 255
200 224 255
200 224 255
200 224 255
200 224 255
200 224 255
200 224 255
199 224 255
199 224 255
199 224 255
199 223 255
199 223 255
199 223 255
199 223 255
199 223 255
199 223 255
199 223 255
199 223 255
199 223 255
199 223 255
199 223 255
199 223 255
198 223 255
198 223 255
198 223 255
198 223 255
198 223 255
198 223 255
198 223 255
198 223 255
198 223 255
198 223 255
198 223 255
198 223 255
198 223 255
198 223 255
198 223 255
197 222 255
197 222 255
197 222 255
197 222 255
197 222 255
197 222 255
197 222 255
197 222 255
197 222 255
197 222 255
197 222 255
197 222 255
197 222 255
197 222 255
197 222 255
197 222 255
196 222 255
196 222 255
196 222 255
196 222 255
196 222 255
196 222 255
196 222 255
196 222 255
196 222 255
196 222 255
196 222 255
196 222 255
196 222 255
196 222 255
196 222 255
196 222 255
196 222 255
196 222 255
196 221 255
196 221 255
195 221 255
195 221 255
195 221 255
195 221 255
195 221 255
195 221 255
195 221 255
195 221 255
195 221 255
195 221 255
195 221 255
195 221 255
195 221 255
195 221 255
195 221 255
195 221 255
195 221 255
195 221 255
195 221 255
195 221 255
195 221 255
195 221 255
195 221 255
195 221 255
195 221 255
195 221 255
195 221 255
195 221 255
195 221 255
195 221 255
195 221 255
195 221 255
195 221 255
195 221 255
195 221 255
195 221 255
195 221 255
195 221 255
195 221 255
195 221 255
195 221 255
195 221 255
195 221 255
195 221 255
195 221 255
195 221 255
195 221 255
195 221 255
195 221 255
195 221 255
195 221 255
195 221 255
195 221 255
195 221 255
195 221 255
195 221 255
195 221 255
195 221 255
195 221 255
195 221 255
195 221 255
195 221 255
195 221 255
195 221 255
195 221 255
195 221 255
195 221 255
195 221 255
195 221 255
195 221 255
195 221 255
195 221 255
195 221 255
195 221 255
195 221 255
195 221 255
196 221 255
196 221 255
196 222 255
196 222 255
196 222 255
196 222 255
196 222 255
196 222 255
196 222 255
196 222 255
196 222 255
196 222 255
196 222 255
196 222 255
196 222 255
196 222 255
196 222 255
196 222 255
196 222 255
196 222 255
197 222 255
197 222 255
197 222 255
197 222 255
197 222 255
197 222 255
197 222 255
197 222 255
197 222 255
197 222 255
197 222 255
197 222 255
197 222 255
197 222 255
197 222 255
197 222 255
197 223 255
198 223 255
198 223 255
198 223 255
198 223 255
198 223 255
198 223 255
198 223 255
198 223 255
198 223 255
198 223 255
198 223 255
198 223 255
198 223 255
198 223 255
199 223 255
199 223 255
199 223 255
199 223 255
199 223 255
199 223 255
199 223 255
199 223 255
199 223 255
199 223 255
199 223 255
199 223 255
199 224 255
199 224 255
199 224 255
200 224 255
200 224 255
200 224 255
200 224 255
200 224 255
200 224 255
200 224 255
200 224 255
200 224 255
200 224 255
200 224 255
200 224 255
200 224 255
200 224 255
201 224 255
201 224 255
201 224 255
201 224 255
201 224 255
201 224 255
201 224 255
201 224 255
201 224 255
201 224 255
201 224 255
201 225 255
201 225 255
201 225 255
202 225 255
202 225 255
202 225 255
202 225 255
202 225 255
202 225 255
202 225 255
202 225 255
202 225 255
202 225 255
202 225 255
202 225 255
202 225 255
202 225 255
202 225 255
202 225 255
203 225 255
203 225 255
203 225 255
203 225 255
203 225 255
203 225 255
203 225 255
203 225 255
203 225 255
203 226 255
203 226 255
203 226 255
203 226 255
203 226 255
203 226 255
203 226 255
204 226 255
204 226 255
204 226 255
204 226 255
204 226 255
204 226 255
204 226 255
204 226 255
204 226 255
204 226 255
204 226 255
204 226 255
204 226 255
204 226 255
204 226 255
204 226 255
204 226 255
205 226 255
205 226 255
205 226 255
205 226 255
205 226 255
205 226 255
205 226 255
205 226 255
205 227 255
205 227 255
205 227 255
205 227 255
205 227 255
205 227 255
205 227 255
205 227 255
205 227 255
205 227 255
205 227 255
206 227 255
206 227 255
206 227 255
205 227 255
205 227 255
205 227 255
205 227 255
205 227 255
205 227 255
205 227 255
205 227 255
205 227 255
205 227 255
205 227 255
205 226 255
205 226 255
205 226 255
205 226 255
205 226 255
205 226 255
205 226 255
204 226 255
204 226 255
204 226 255
204 226 255
204 226 255
204 226 255
204 226 255
204 226 255
204 226 255
204 226 255
204 226 255
204 226 255
204 226 255
204 226 255
204 226 255
204 226 255
204 226 255
203 226 255
203 226 255
203 226 255
203 226 255
203 226 255
203 226 255
203 226 255
203 225 255
203 225 255
203 225 255
203 225 255
203 225 255
203 225 255
203 225 255
203 225 255
203 225 255
203 225 255
202 225 255
202 225 255
202 225 255
202 225 255
202 225 255
202 225 255
202 225 255
202 225 255
202 225 255
202 225 255
202 225 255
202 225 255
202 225 255
202 225 255
202 225 255
201 225 255
201 225 255
201 225 255
201 225 255
201 224 255
201 224 255
201 224 255
201 224 255
201 224 255
201 224 255
201 224 255
201 224 255
201 224 255
201 224 255
200 224 255
200 224 255
200 224 255
200 224 255
200 224 255
200 224 255
200 224 255
200 224 255
200 224 255
200 224 255
200 224 255
200 224 255
200 224 255
200 224 255
200 224 255
199 224 255
199 224 255
199 223 255
199 223 255
199 223 255
199 223 255
199 223 255
199 223 255
199 223 255
199 223 255
199 223 255
199 223 255
199 223 255
199 223 255
198 223 255
198 223 255
198 223 255
198 223 255
198 223 255
198 223 255
198 223 255
198 223 255
198 223 255
198 223 255
198 223 255
198 223 255
198 223 255
198 223 255
198 223 255
197 223 255
197 222 255
197 222 255
197 222 255
197 222 255
197 222 255
197 222 255
197 222 255
197 222 255
197 222 255
197 222 255
197 222 255
197 222 255
197 222 255
197 222 255
197 222 255
197 222 255
196 222 255
196 222 255
196 222 255
196 222 255
196 222 255
196 222 255
196 222 255
196 222 255
196 222 255
196 222 255
196 222 255
196 222 255
196 222 255
196 222 255
196 222 255
196 222 255
196 222 255
196 222 255
196 221 255
196 221 255
196 221 255
195 221 255
195 221 255
195 221 255
195 221 255
195 221 255
195 221 255
195 221 255
195 221 255
195 221 255
195 221 255
195 221 255
195 221 255
195 221 255
195 221 255
195 221 255
195 221 255
195 221 255
195 221 255
195 221 255
195 221 255
195 221 255
195 221 255
195 221 255
195 221 255
195 221 255
195 221 255
195 221 255
195 221 255
195 221 255
195 221 255
195 221 255
195 221 255
195 221 255
195 221 255
195 221 255
195 221 255
195 221 255
195 221 255
195 221 255
195 221 255
195 221 255
195 221 255
195 221 255
195 221 255
195 221 255
195 221 255
195 221 255
195 221 255
195 221 255
195 221 255
195 221 255
195 221 255
195 221 255
195 221 255
195 221 255
195 221 255
195 221 255
195 221 255
195 221 255
195 221 255
195 221 255
195 221 255
195 221 255
195 221 255
195 221 255
195 221 255
195 221 255
195 221 255
196 221 255
196 221 255
196 222 255
196 222 255
196 222 255
196 222 255
196 222 255
196 222 255
196 222 255
196 222 255
196 222 255
196 222 255
196 222 255
196 222 255
196 222 255
196 222 255
196 222 255
196 222 255
196 222 255
196 222 255
196 222 255
196 222 255
197 222 255
197 222 255
197 222 255
197 222 255
197 222 255
197 222 255
197 222 255
197 222 255
197 222 255
197 222 255
197 222 255
197 222 255
197 222 255
197 222 255
197 222 255
197 222 255
198 223 255
198 223 255
198 223 255
198 223 255
198 223 255
198 223 255
198 223 255
198 223 255
198 223 255
198 223 255
198 223 255
198 223 255
198 223 255
198 223 255
198 223 255
199 223 255
199 223 255
199 223 255
199 223 255
199 223 255
199 223 255
199 223 255
199 223 255
199 223 255
199 223 255
199 223 255
199 223 255
199 224 255
199 224 255
199 224 255
200 224 255
200 224 255
200 224 255
200 224 255
200 224 255
200 224 255
200 224 255
200 224 255
200 224 255
200 224 255
200 224 255
200 224 255
200 224 255
200 224 255
201 224 255
201 224 255
201 224 255
201 224 255
201 224 255
201 224 255
201 224 255
201 224 255
201 224 255
201 224 255
201 225 255
201 225 255
201 225 255
201 225 255
201 225 255
202 225 255
202 225 255
202 225 255
202 225 255
202 225 255
202 225 255
202 225 255
202 225 255
202 225 255
202 225 255
202 225 255
202 225 255
202 225 255
202 225 255
202 225 255
203 225 255
203 225 255
203 225 255
203 225 255
203 225 255
203 225 255
203 225 255
203 225 255
203 225 255
203 226 255
203 226 255
203 226 255
203 226 255
203 226 255
203 226 255
203 226 255
204 226 255
204 226 255
204 226 255
204 226 255
204 226 255
204 226 255
204 226 255
204 226 255
204 226 255
204 226 255
204 226 255
204 226 255
204 226 255
204 226 255
204 226 255
204 226 255
204 226 255
205 226 255
205 226 255
205 226 255
205 226 255
205 226 255
205 226 255
205 226 255
205 227 255
205 227 255
205 227 255
205 227 255
205 227 255
205 227 255
205 227 255
205 227 255
205 227 255
205 227 255
205 227 255
206 227 255
206 227 255
206 227 255
206 227 255
206 227 255
206 227 255
206 227 255
206 227 255
205 227 255
205 227 255
205 227 255
205 227 255
205 227 255
205 227 255
205 227 255
205 227 255
205 227 255
205 227 255
205 227 255
205 227 255
205 226 255
205 226 255
205 226 255
205 226 255
205 226 255
205 226 255
205 226 255
204 226 255
204 226 255
204 226 255
204 226 255
204 226 255
204 226 255
204 226 255
204 226 255
204 226 255
204 226 255
204 226 255
204 226 255
204 226 255
204 226 255
204 226 255
204 226 255
204 226 255
203 226 255
203 226 255
203 226 255
203 226 255
203 226 255
203 226 255
203 225 255
203 225 255
203 225 255
203 225 255
203 225 255
203 225 255
203 225 255
203 225 255
203 225 255
203 225 255
202 225 255
202 225 255
202 225 255
202 225 255
202 225 255
202 225 255
202 225 255
202 225 255
202 225 255
202 225 255
202 225 255
202 225 255
202 225 255
202 225 255
202 225 255
201 225 255
201 225 255
201 225 255
201 225 255
201 224 255
201 224 255
201 224 255
201 224 255
201 224 255
201 224 255
201 224 255
201 224 255
201 224 255
201 224 255
201 224 255
200 224 255
200 224 255
200 224 255
200 224 255
200 224 255
200 224 255
200 224 255
200 224 255
200 224 255
200 224 255
200 224 255
200 224 255
200 224 255
200 224 255
199 224 255
199 224 255
199 223 255
199 223 255
199 223 255
199 223 255
199 223 255
199 223 255
199 223 255
199 223 255
199 223 255
199 223 255
199 223 255
199 223 255
198 223 255
198 223 255
198 223 255
198 223 255
198 223 255
198 223 255
198 223 255
198 223 255
198 223 255
198 223 255
198 223 255
198 223 255
198 223 255
198 223 255
198 223 255
197 223 255
197 222 255
197 222 255
197 222 255
197 222 255
197 222 255
197 222 255
197 222 255
197 222 255
197 222 255
197 222 255
197 222 255
197 222 255
197 222 255
197 222 255
197 222 255
197 222 255
197 222 255
196 222 255
196 222 255
196 222 255
196 222 255
196 222 255
196 222 255
196 222 255
196 222 255
196 222 255
196 222 255
196 222 255
196 222 255
196 222 255
196 222 255
196 222 255
196 222 255
196 222 255
196 222 255
196 222 255
196 222 255
196 221 255
196 221 255
195 221 255
195 221 255
195 221 255
195 221 255
195 221 255
195 221 255
195 221 255
195 221 255
195 221 255
195 221 255
195 221 255
195 221 255
195 221 255
195 221 255
195 221 255
195 221 255
195 221 255
195 221 255
195 221 255
195 221 255
195 221 255
195 221 255
195 221 255
195 221 255
195 221 255
195 221 255
195 221 255
195 221 255
195 221 255
195 221 255
195 221 255
195 221 255
195 221 255
195 221 255
195 221 255
195 221 255
195 221 255
195 221 255
195 221 255
195 221 255
195 221 255
195 221 255
195 221 255
195 221 255
195 221 255
195 221 255
195 221 255
195 221 255
195 221 255
195 221 255
195 221 255
195 221 255
195 221 255
195 221 255
195 221 255
195 221 255
195 221 255
195 221 255
195 221 255
195 221 255
196 221 255
196 221 255
196 222 255
196 222 255
196 222 255
196 222 255
196 222 255
196 222 255
196 222 255
196 222 255
196 222 255
196 222 255
196 222 255
196 222 255
196 222 255
196 222 255
196 222 255
196 222 255
196 222 255
196 222 255
196 222 255
196 222 255
196 222 255
197 222 255
197 222 255
197 222 255
197 222 255
197 222 255
197 222 255
197 222 255
197 222 255
197 222 255
197 222 255
197 222 255
197 222 255
197 222 255
197 222 255
197 222 255
197 222 255
198 223 255
198 223 255
198 223 255
198 223 255
198 223 255
198 223 255
198 223 255
198 223 255
198 223 255
198 223 255
198 223 255
198 223 255
198 223 255
198 223 255
198 223 255
198 223 255
199 223 255
199 223 255
199 223 255
199 223 255
199 223 255
199 223 255
199 223 255
199 223 255
199 223 255
199 223 255
199 223 255
199 223 255
199 224 255
199 224 255
200 224 255
200 224 255
200 224 255
200 224 255
200 224 255
200 224 255
200 224 255
200 224 255
200 224 255
200 224 255
200 224 255
200 224 255
200 224 255
200 224 255
200 224 255
201 224 255
201 224 255
201 224 255
201 224 255
201 224 255
201 224 255
201 224 255
201 224 255
201 224 255
201 224 255
201 225 255
201 225 255
201 225 255
201 225 255
202 225 255
202 225 255
202 225 255
202 225 255
202 225 255
202 225 255
202 225 255
202 225 255
202 225 255
202 225 255
202 225 255
202 225 255
202 225 255
202 225 255
202 225 255
203 225 255
203 225 255
203 225 255
203 225 255
203 225 255
203 225 255
203 225 255
203 225 255
203 225 255
203 226 255
203 226 255
203 226 255
203 226 255
203 226 255
203 226 255
203 226 255
204 226 255
204 226 255
204 226 255
204 226 255
204 226 255
204 226 255
204 226 255
204 226 255
204 226 255
204 226 255
204 226 255
204 226 255
204 226 255
204 226 255
204 226 255
204 226 255
204 226 255
205 226 255
205 226 255
205 226 255
205 226 255
205 226 255
205 226 255
205 226 255
205 227 255
205 227 255
205 227 255
205 227 255
205 227 255
205 227 255
205 227 255
205 227 255
205 227 255
205 227 255
205 227 255
205 227 255
206 227 255
206 227 255
206 227 255
206 227 255
206 227 255
206 227 255
206 227 255
206 227 255
206 227 255
206 227 255
206 227 255
206 227 255
206 227 255
205 227 255
205 227 255
205 227 255
205 227 255
205 227 255
205 227 255
205 227 255
205 227 255
205 227 255
205 227 255
205 227 255
205 226 255
205 226 255
205 226 255
205 226 255
205 226 255
205 226 255
205 226 255
204 226 255
204 226 255
204 226 255
204 226 255
204 226 255
204 226 255
204 226 255
204 226 255
204 226 255
204 226 255
204 226 255
204 226 255
204 226 255
204 226 255
204 226 255
204 226 255
204 226 255
203 226 255
203 226 255
203 226 255
203 226 255
203 226 255
203 226 255
203 226 255
203 225 255
203 225 255
203 225 255
203 225 255
203 225 255
203 225 255
203 225 255
203 225 255
203 225 255
202 225 255
202 225 255
202 225 255
202 225 255
202 225 255
202 225 255
202 225 255
202 225 255
202 225 255
202 225 255
202 225 255
202 225 255
202 225 255
202 225 255
202 225 255
201 225 255
201 225 255
201 225 255
201 225 255
201 224 255
201 224 255
201 224 255
201 224 255
201 224 255
201 224 255
201 224 255
201 224 255
201 224 255
201 224 255
201 224 255
200 224 255
200 224 255
200 224 255
200 224 255
200 224 255
200 224 255
200 224 255
200 224 255
200 224 255
200 224 255
200 224 255
200 224 255
200 224 255
200 224 255
199 224 255
199 224 255
199 223 255
199 223 255
199 223 255
199 223 255
199 223 255
199 223 255
199 223 255
199 223 255
199 223 255
199 223 255
199 223 255
199 223 255
199 223 255
198 223 255
198 223 255
198 223 255
198 223 255
198 223 255
198 223 255
198 223 255
198 223 255
198 223 255
198 223 255
198 223 255
198 223 255
198 223 255
198 223 255
198 223 255
197 222 255
197 222 255
197 222 255
197 222 255
197 222 255
197 222 255
197 222 255
197 222 255
197 222 255
197 222 255
197 222 255
197 222 255
197 222 255
197 222 255
197 222 255
197 222 255
197 222 255
197 222 255
196 222 255
196 222 255
196 222 255
196 222 255
196 222 255
196 222 255
196 222 255
196 222 255
196 222 255
196 222 255
196 222 255
196 222 255
196 222 255
196 222 255
196 222 255
196 222 255
196 222 255
196 222 255
196 222 255
196 222 255
196 221 255
196 221 255
196 221 255
196 221 255
195 221 255
195 221 255
195 221 255
195 221 255
195 221 255
195 221 255
195 221 255
195 221 255
195 221 255
195 221 255
195 221 255
195 221 255
195 221 255
195 221 255
195 221 255
195 221 255
195 221 255
195 221 255
195 221 255
195 221 255
195 221 255
195 221 255
195 221 255
195 221 255
195 221 255
195 221 255
195 221 255
195 221 255
195 221 255
195 221 255
195 221 255
195 221 255
195 221 255
195 221 255
195 221 255
195 221 255
195 221 255
195 221 255
195 221 255
195 221 255
195 221 255
195 221 255
195 221 255
195 221 255
195 221 255
195 221 255
195 221 255
195 221 255
195 221 255
195 221 255
196 221 255
196 221 255
196 222 255
196 222 255
196 222 255
196 222 255
196 222 255
196 222 255
196 222 255
196 222 255
196 222 255
196 222 255
196 222 255
196 222 255
196 222 255
196 222 255
196 222 255
196 222 255
196 222 255
196 222 255
196 222 255
196 222 255
196 222 255
196 222 255
196 222 255
197 222 255
197 222 255
197 222 255
197 222 255
197 222 255
197 222 255
197 222 255
197 222 255
197 222 255
197 222 255
197 222 255
197 222 255
197 222 255
197 222 255
197 222 255
197 222 255
197 223 255
198 223 255
198 223 255
198 223 255
198 223 255
198 223 255
198 223 255
198 223 255
198 223 255
198 223 255
198 223 255
198 223 255
198 223 255
198 223 255
198 223 255
198 223 255
199 223 255
199 223 255
199 223 255
199 223 255
199 223 255
199 223 255
199 223 255
199 223 255
199 223 255
199 223 255
199 223 255
199 223 255
199 223 255
199 224 255
199 224 255
200 224 255
200 224 255
200 224 255
200 224 255
200 224 255
200 224 255
200 224 255
200 224 255
200 224 255
200 224 255
200 224 255
200 224 255
200 224 255
200 224 255
201 224 255
201 224 255
201 224 255
201 224 255
201 224 255
201 224 255
201 224 255
201 224 255
201 224 255
201 224 255
201 225 255
201 225 255
201 225 255
201 225 255
201 225 255
202 225 255
202 225 255
202 225 255
202 225 255
202 225 255
202 225 255
202 225 255
202 225 255
202 225 255
202 225 255
202 225 255
202 225 255
202 225 255
202 225 255
202 225 255
203 225 255
203 225 255
203 225 255
203 225 255
203 225 255
203 225 255
203 225 255
203 225 255
203 225 255
203 226 255
203 226 255
203 226 255
203 226 255
203 226 255
203 226 255
203 226 255
203 226 255
204 226 255
204 226 255
204 226 255
204 226 255
204 226 255
204 226 255
204 226 255
204 226 255
204 226 255
204 226 255
204 226 255
204 226 255
204 226 255
204 226 255
204 226 255
204 226 255
205 226 255
205 226 255
205 226 255
205 226 255
205 226 255
205 226 255
205 226 255
205 227 255
205 227 255
205 227 255
205 227 255
205 227 255
205 227 255
205 227 255
205 227 255
205 227 255
205 227 255
205 227 255
206 227 255
206 227 255
206 227 255
206 227 255
206 227 255
206 227 255
206 227 255
206 227 255
206 227 255
206 227 255
206 227 255
206 227 255
206 227 255
206 227 255
206 227 255
206 227 255
206 227 255
206 227 255
205 227 255
205 227 255
205 227 255
205 227 255
205 227 255
205 227 255
205 227 255
205 227 255
205 227 255
205 227 255
205 227 255
205 226 255
205 226 255
205 226 255
205 226 255
205 226 255
205 226 255
205 226 255
205 226 255
204 226 255
204 226 255
204 226 255
204 226 255
204 226 255
204 226 255
204 226 255
204 226 255
204 226 255
204 226 255
204 226 255
204 226 255
204 226 255
204 226 255
204 226 255
204 226 255
203 226 255
203 226 255
203 226 255
203 226 255
203 226 255
203 226 255
203 226 255
203 226 255
203 225 255
203 225 255
203 225 255
203 225 255
203 225 255
203 225 255
203 225 255
203 225 255
202 225 255
202 225 255
202 225 255
202 225 255
202 225 255
202 225 255
202 225 255
202 225 255
202 225 255
202 225 255
202 225 255
202 225 255
202 225 255
202 225 255
202 225 255
202 225 255
201 225 255
201 225 255
201 225 255
201 225 255
201 224 255
201 224 255
201 224 255
201 224 255
201 224 255
201 224 255
201 224 255
201 224 255
201 224 255
201 224 255
200 224 255
200 224 255
200 224 255
200 224 255
200 224 255
200 224 255
200 224 255
200 224 255
200 224 255
200 224 255
200 224 255
200 224 255
200 224 255
200 224 255
199 224 255
199 224 255
199 224 255
199 223 255
199 223 255
199 223 255
199 223 255
199 223 255
199 223 255
199 223 255
199 223 255
199 223 255
199 223 255
199 223 255
199 223 255
198 223 255
198 223 255
198 223 255
198 223 255
198 223 255
198 223 255
198 223 255
198 223 255
198 223 255
198 223 255
198 223 255
198 223 255
198 223 255
198 223 255
198 223 255
197 223 255
197 222 255
197 222 255
197 222 255
197 222 255
197 222 255
197 222 255
197 222 255
197 222 255
197 222 255
197 222 255
197 222 255
197 222 255
197 222 255
197 222 255
197 222 255
197 222 255
197 222 255
197 222 255
196 222 255
196 222 255
196 222 255
196 222 255
196 222 255
196 222 255
196 222 255
196 222 255
196 222 255
196 222 255
196 222 255
196 222 255
196 222 255
196 222 255
196 222 255
196 222 255
196 222 255
196 222 255
196 222 255
196 222 255
196 222 255
196 222 255
196 222 255
196 222 255
196 221 255
196 221 255
196 221 255
195 221 255
195 221 255
195 221 255
195 221 255
195 221 255
195 221 255
195 221 255
195 221 255
195 221 255
195 221 255
195 221 255
195 221 255
195 221 255
195 221 255
195 221 255
195 221 255
195 221 255
195 221 255
195 221 255
195 221 255
195 221 255
195 221 255
195 221 255
195 221 255
195 221 255
195 221 255
195 221 255
195 221 255
195 221 255
195 221 255
195 221 255
195 221 255
195 221 255
195 221 255
195 221 255
195 221 255
195 221 255
195 221 255
196 221 255
196 221 255
196 221 255
196 221 255
196 222 255
196 222 255
196 222 255
196 222 255
196 222 255
196 222 255
196 222 255
196 222 255
196 222 255
196 222 255
196 222 255
196 222 255
196 222 255
196 222 255
196 222 255
196 222 255
196 222 255
196 222 255
196 222 255
196 222 255
196 222 255
196 222 255
196 222 255
197 222 255
197 222 255
197 222 255
197 222 255
197 222 255
197 222 255
197 222 255
197 222 255
197 222 255
197 222 255
197 222 255
197 222 255
197 222 255
197 222 255
197 222 255
197 222 255
197 222 255
197 222 255
198 223 255
198 223 255
198 223 255
198 223 255
198 223 255
198 223 255
198 223 255
198 223 255
198 223 255
198 223 255
198 223 255
198 223 255
198 223 255
198 223 255
198 223 255
198 223 255
199 223 255
199 223 255
199 223 255
199 223 255
199 223 255
199 223 255
199 223 255
199 223 255
199 223 255
199 223 255
199 223 255
199 223 255
199 224 255
199 224 255
199 224 255
200 224 255
200 224 255
200 224 255
200 224 255
200 224 255
200 224 255
200 224 255
200 224 255
200 224 255
200 224 255
200 224 255
200 224 255
200 224 255
200 224 255
201 224 255
201 224 255
201 224 255
201 224 255
201 224 255
201 224 255
201 224 255
201 224 255
201 224 255
201 224 255
201 225 255
201 225 255
201 225 255
201 225 255
202 225 255
202 225 255
202 225 255
202 225 255
202 225 255
202 225 255
202 225 255
202 225 255
202 225 255
202 225 255
202 225 255
202 225 255
202 225 255
202 225 255
202 225 255
202 225 255
203 225 255
203 225 255
203 225 255
203 225 255
203 225 255
203 225 255
203 225 255
203 225 255
203 225 255
203 226 255
203 226 255
203 226 255
203 226 255
203 226 255
203 226 255
203 226 255
204 226 255
204 226 255
204 226 255
204 226 255
204 226 255
204 226 255
204 226 255
204 226 255
204 226 255
204 226 255
204 226 255
204 226 255
204 226 255
204 226 255
204 226 255
204 226 255
205 226 255
205 226 255
205 226 255
205 226 255
205 226 255
205 226 255
205 226 255
205 226 255
205 227 255
205 227 255
205 227 255
205 227 255
205 227 255
205 227 255
205 227 255
205 227 255
205 227 255
205 227 255
206 227 255
206 227 255
206 227 255
206 227 255
206 227 255
206 227 255
206 227 255
206 227 255
206 227 255
206 227 255
206 227 255
206 227 255
206 227 255
206 227 255
206 227 255
206 227 255
206 227 255
206 227 255
206 227 255
206 227 255
206 227 255
206 227 255
206 227 255
206 227 255
205 227 255
205 227 255
205 227 255
205 227 255
205 227 255
205 227 255
205 227 255
205 227 255
205 227 255
205 227 255
205 227 255
205 226 255
205 226 255
205 226 255
205 226 255
205 226 255
205 226 255
205 226 255
205 226 255
204 226 255
204 226 255
204 226 255
204 226 255
204 226 255
204 226 255
204 226 255
204 226 255
204 226 255
204 226 255
204 226 255
204 226 255
204 226 255
204 226 255
204 226 255
204 226 255
203 226 255
203 226 255
203 226 255
203 226 255
203 226 255
203 226 255
203 226 255
203 225 255
203 225 255
203 225 255
203 225 255
203 225 255
203 225 255
203 225 255
203 225 255
203 225 255
202 225 255
202 225 255
202 225 255
202 225 255
202 225 255
202 225 255
202 225 255
202 225 255
202 225 255
202 225 255
202 225 255
202 225 255
202 225 255
202 225 255
201 225 255
201 225 255
201 225 255
201 225 255
201 225 255
201 224 255
201 224 255
201 224 255
201 224 255
201 224 255
201 224 255
201 224 255
201 224 255
201 224 255
201 224 255
200 224 255
200 224 255
200 224 255
200 224 255
200 224 255
200 224 255
200 224 255
200 224 255
200 224 255
200 224 255
200 224 255
200 224 255
200 224 255
200 224 255
200 224 255
199 224 255
199 224 255
199 223 255
199 223 255
199 223 255
199 223 255
199 223 255
199 223 255
199 223 255
199 223 255
199 223 255
199 223 255
199 223 255
199 223 255
198 223 255
198 223 255
198 223 255
198 223 255
198 223 255
198 223 255
198 223 255
198 223 255
198 223 255
198 223 255
198 223 255
198 223 255
198 223 255
198 223 255
198 223 255
198 223 255
198 223 255
197 222 255
197 222 255
197 222 255
197 222 255
197 222 255
197 222 255
197 222 255
197 222 255
197 222 255
197 222 255
197 222 255
197 222 255
197 222 255
197 222 255
197 222 255
197 222 255
197 222 255
197 222 255
196 222 255
196 222 255
196 222 255
196 222 255
196 222 255
196 222 255
196 222 255
196 222 255
196 222 255
196 222 255
196 222 255
196 222 255
196 222 255
196 222 255
196 222 255
196 222 255
196 222 255
196 222 255
196 222 255
196 222 255
196 222 255
196 222 255
196 222 255
196 222 255
196 222 255
196 222 255
196 222 255
196 221 255
196 221 255
196 221 255
196 221 255
196 221 255
196 221 255
195 221 255
195 221 255
195 221 255
195 221 255
195 221 255
195 221 255
195 221 255
195 221 255
195 221 255
195 221 255
195 221 255
195 221 255
195 221 255
195 221 255
195 221 255
195 221 255
195 221 255
195 221 255
195 221 255
195 221 255
195 221 255
196 221 255
196 221 255
196 221 255
196 221 255
196 221 255
196 222 255
196 222 255
196 222 255
196 222 255
196 222 255
196 222 255
196 222 255
196 222 255
196 222 255
196 222 255
196 222 255
196 222 255
196 222 255
196 222 255
196 222 255
196 222 255
196 222 255
196 222 255
196 222 255
196 222 255
196 222 255
196 222 255
196 222 255
196 222 255
196 222 255
196 222 255
196 222 255
197 222 255
197 222 255
197 222 255
197 222 255
197 222 255
197 222 255
197 222 255
197 222 255
197 222 255
197 222 255
197 222 255
197 222 255
197 222 255
197 222 255
197 222 255
197 222 255
197 222 255
197 222 255
197 223 255
198 223 255
198 223 255
198 223 255
198 223 255
198 223 255
198 223 255
198 223 255
198 223 255
198 223 255
198 223 255
198 223 255
198 223 255
198 223 255
198 223 255
198 223 255
199 223 255
199 223 255
199 223 255
199 223 255
199 223 255
199 223 255
199 223 255
199 223 255
199 223 255
199 223 255
199 223 255
199 223 255
199 223 255
199 224 255
199 224 255
199 224 255
200 224 255
200 224 255
200 224 255
200 224 255
200 224 255
200 224 255
200 224 255
200 224 255
200 224 255
200 224 255
200 224 255
200 224 255
200 224 255
200 224 255
201 224 255
201 224 255
201 224 255
201 224 255
201 224 255
201 224 255
201 224 255
201 224 255
201 224 255
201 224 255
201 225 255
201 225 255
201 225 255
201 225 255
201 225 255
202 225 255
202 225 255
202 225 255
202 225 255
202 225 255
202 225 255
202 225 255
202 225 255
202 225 255
202 225 255
202 225 255
202 225 255
202 225 255
202 225 255
203 225 255
203 225 255
203 225 255
203 225 255
203 225 255
203 225 255
203 225 255
203 225 255
203 225 255
203 226 255
203 226 255
203 226 255
203 226 255
203 226 255
203 226 255
203 226 255
204 226 255
204 226 255
204 226 255
204 226 255
204 226 255
204 226 255
204 226 255
204 226 255
204 226 255
204 226 255
204 226 255
204 226 255
204 226 255
204 226 255
204 226 255
204 226 255
204 226 255
205 226 255
205 226 255
205 226 255
205 226 255
205 226 255
205 226 255
205 226 255
205 227 255
205 227 255
205 227 255
205 227 255
205 227 255
205 227 255
205 227 255
205 227 255
205 227 255
205 227 255
205 227 255
206 227 255
206 227 255
206 227 255
206 227 255
206 227 255
206 227 255
206 227 255
206 227 255
206 227 255
206 227 255
206 227 255
206 227 255
206 227 255
206 227 255
206 227 255
206 227 255
206 227 255
206 227 255
206 227 255
206 227 255
206 227 255
206 227 255
206 227 255
206 227 255
206 227 255
206 227 255
206 227 255
206 227 255
206 227 255
205 227 255
205 227 255
205 227 255
205 227 255
205 227 255
205 227 255
205 227 255
205 227 255
205 227 255
205 227 255
205 227 255
205 226 255
205 226 255
205 226 255
205 226 255
205 226 255
205 226 255
205 226 255
204 226 255
204 226 255
204 226 255
204 226 255
204 226 255
204 226 255
204 226 255
204 226 255
204 226 255
204 226 255
204 226 255
204 226 255
204 226 255
204 226 255
204 226 255
204 226 255
203 226 255
203 226 255
203 226 255
203 226 255
203 226 255
203 226 255
203 226 255
203 225 255
203 225 255
203 225 255
203 225 255
203 225 255
203 225 255
203 225 255
203 225 255
203 225 255
202 225 255
202 225 255
202 225 255
202 225 255
202 225 255
202 225 255
202 225 255
202 225 255
202 225 255
202 225 255
202 225 255
202 225 255
202 225 255
202 225 255
202 225 255
201 225 255
201 225 255
201 225 255
201 225 255
201 224 255
201 224 255
201 224 255
201 224 255
201 224 255
201 224 255
201 224 255
201 224 255
201 224 255
201 224 255
200 224 255
200 224 255
200 224 255
200 224 255
200 224 255
200 224 255
200 224 255
200 224 255
200 224 255
200 224 255
200 224 255
200 224 255
200 224 255
200 224 255
200 224 255
199 224 255
199 224 255
199 223 255
199 223 255
199 223 255
199 223 255
199 223 255
199 223 255
199 223 255
199 223 255
199 223 255
199 223 255
199 223 255
199 223 255
199 223 255
198 223 255
198 223 255
198 223 255
198 223 255
198 223 255
198 223 255
198 223 255
198 223 255
198 223 255
198 223 255
198 223 255
198 223 255
198 223 255
198 223 255
198 223 255
198 223 255
197 223 255
197 222 255
197 222 255
197 222 255
197 222 255
197 222 255
197 222 255
197 222 255
197 222 255
197 222 255
197 222 255
197 222 255
197 222 255
197 222 255
197 222 255
197 222 255
197 222 255
197 222 255
197 222 255
197 222 255
196 222 255
196 222 255
196 222 255
196 222 255
196 222 255
196 222 255
196 222 255
196 222 255
196 222 255
196 222 255
196 222 255
196 222 255
196 222 255
196 222 255
196 222 255
196 222 255
196 222 255
196 222 255
196 222 255
196 222 255
196 222 255
196 222 255
196 222 255
196 222 255
196 222 255
196 222 255
196 222 255
196 222 255
196 222 255
196 222 255
196 222 255
196 222 255
196 222 255
196 222 255
196 222 255
196 222 255
196 221 255
196 222 255
196 221 255
196 222 255
196 222 255
196 222 255
196 222 255
196 222 255
196 222 255
196 222 255
196 222 255
196 222 255
196 222 255
196 222 255
196 222 255
196 222 255
196 222 255
196 222 255
196 222 255
196 222 255
196 222 255
196 222 255
196 222 255
196 222 255
196 222 255
196 222 255
196 222 255
196 222 255
196 222 255
196 222 255
196 222 255
196 222 255
196 222 255
196 222 255
196 222 255
196 222 255
196 222 255
196 222 255
196 222 255
196 222 255
196 222 255
196 222 255
197 222 255
197 222 255
197 222 255
197 222 255
197 222 255
197 222 255
197 222 255
197 222 255
197 222 255
197 222 255
197 222 255
197 222 255
197 222 255
197 222 255
197 222 255
197 222 255
197 222 255
197 222 255
197 222 255
197 222 255
198 223 255
198 223 255
198 223 255
198 223 255
198 223 255
198 223 255
198 223 255
198 223 255
198 223 255
198 223 255
198 223 255
198 223 255
198 223 255
198 223 255
198 223 255
198 223 255
199 223 255
199 223 255
199 223 255
199 223 255
199 223 255
199 223 255
199 223 255
199 223 255
199 223 255
199 223 255
199 223 255
199 223 255
199 223 255
199 224 255
199 224 255
200 224 255
200 224 255
200 224 255
200 224 255
200 224 255
200 224 255
200 224 255
200 224 255
200 224 255
200 224 255
200 224 255
200 224 255
200 224 255
200 224 255
200 224 255
201 224 255
201 224 255
201 224 255
201 224 255
201 224 255
201 224 255
201 224 255
201 224 255
201 224 255
201 225 255
201 225 255
201 225 255
201 225 255
201 225 255
202 225 255
202 225 255
202 225 255
202 225 255
202 225 255
202 225 255
202 225 255
202 225 255
202 225 255
202 225 255
202 225 255
202 225 255
202 225 255
202 225 255
203 225 255
203 225 255
203 225 255
203 225 255
203 225 255
203 225 255
203 225 255
203 225 255
203 225 255
203 226 255
203 226 255
203 226 255
203 226 255
203 226 255
203 226 255
203 226 255
203 226 255
204 226 255
204 226 255
204 226 255
204 226 255
204 226 255
204 226 255
204 226 255
204 226 255
204 226 255
204 226 255
204 226 255
204 226 255
204 226 255
204 226 255
204 226 255
204 226 255
205 226 255
205 226 255
205 226 255
205 226 255
205 226 255
205 226 255
205 226 255
205 227 255
205 227 255
205 227 255
205 227 255
205 227 255
205 227 255
205 227 255
205 227 255
205 227 255
205 227 255
205 227 255
206 227 255
206 227 255
206 227 255
206 227 255
206 227 255
206 227 255
206 227 255
206 227 255
206 227 255
206 227 255
206 227 255
206 227 255
206 227 255
206 227 255
206 227 255
206 227 255
206 227 255
206 227 255
206 227 255
206 227 255
206 227 255
206 227 255
206 227 255
206 227 255
206 227 255
206 227 255
206 227 255
206 227 255
206 227 255
206 227 255
206 227 255
206 227 255
206 227 255
206 227 255
205 227 255
205 227 255
205 227 255
205 227 255
205 227 255
205 227 255
205 227 255
205 227 255
205 227 255
205 227 255
205 227 255
205 227 255
205 226 255
205 226 255
205 226 255
205 226 255
205 226 255
205 226 255
204 226 255
204 226 255
204 226 255
204 226 255
204 226 255
204 226 255
204 226 255
204 226 255
204 226 255
204 226 255
204 226 255
204 226 255
204 226 255
204 226 255
204 226 255
204 226 255
204 226 255
203 226 255
203 226 255
203 226 255
203 226 255
203 226 255
203 226 255
203 225 255
203 225 255
203 225 255
203 225 255
203 225 255
203 225 255
203 225 255
203 225 255
203 225 255
203 225 255
202 225 255
202 225 255
202 225 255
202 225 255
202 225 255
202 225 255
202 225 255
202 225 255
202 225 255
202 225 255
202 225 255
202 225 255
202 225 255
202 225 255
202 225 255
201 225 255
201 225 255
201 225 255
201 224 255
201 224 255
201 224 255
201 224 255
201 224 255
201 224 255
201 224 255
201 224 255
201 224 255
201 224 255
201 224 255
200 224 255
200 224 255
200 224 255
200 224 255
200 224 255
200 224 255
200 224 255
200 224 255
200 224 255
200 224 255
200 224 255
200 224 255
200 224 255
200 224 255
199 224 255
199 224 255
199 223 255
199 223 255
199 223 255
199 223 255
199 223 255
199 223 255
199 223 255
199 223 255
199 223 255
199 223 255
199 223 255
199 223 255
199 223 255
199 223 255
198 223 255
198 223 255
198 223 255
198 223 255
198 223 255
198 223 255
198 223 255
198 223 255
198 223 255
198 223 255
198 223 255
198 223 255
198 223 255
198 223 255
198 223 255
198 223 255
197 223 255
197 222 255
197 222 255
197 222 255
197 222 255
197 222 255
197 222 255
197 222 255
197 222 255
197 222 255
197 222 255
197 222 255
197 222 255
197 222 255
197 222 255
197 222 255
197 222 255
197 222 255
197 222 255
197 222 255
197 222 255
196 222 255
196 222 255
196 222 255
196 222 255
196 222 255
196 222 255
196 222 255
196 222 255
196 222 255
196 222 255
196 222 255
196 222 255
196 222 255
196 222 255
196 222 255
196 222 255
196 222 255
196 222 255
196 222 255
196 222 255
196 222 255
196 222 255
196 222 255
196 222 255
196 222 255
196 222 255
196 222 255
196 222 255
196 222 255
196 222 255
196 222 255
196 222 255
196 222 255
196 222 255
196 222 255
196 222 255
196 222 255
196 222 255
196 222 255
196 222 255
196 222 255
196 222 255
196 222 255
196 222 255
196 222 255
196 222 255
196 222 255
196 222 255
196 222 255
196 222 255
196 222 255
196 222 255
196 222 255
196 222 255
196 222 255
196 222 255
196 222 255
196 222 255
196 222 255
196 222 255
196 222 255
196 222 255
196 222 255
196 222 255
196 222 255
196 222 255
196 222 255
196 222 255
196 222 255
196 222 255
196 222 255
197 222 255
197 222 255
197 222 255
197 222 255
197 222 255
197 222 255
197 222 255
197 222 255
197 222 255
197 222 255
197 222 255
197 222 255
197 222 255
197 222 255
197 222 255
197 222 255
197 222 255
197 222 255
197 222 255
197 223 255
198 223 255
198 223 255
198 223 255
198 223 255
198 223 255
198 223 255
198 223 255
198 223 255
198 223 255
198 223 255
198 223 255
198 223 255
198 223 255
198 223 255
198 223 255
198 223 255
198 223 255
199 223 255
199 223 255
199 223 255
199 223 255
199 223 255
199 223 255
199 223 255
199 223 255
199 223 255
199 223 255
199 223 255
199 223 255
199 224 255
199 224 255
199 224 255
200 224 255
200 224 255
200 224 255
200 224 255
200 224 255
200 224 255
200 224 255
200 224 255
200 224 255
200 224 255
200 224 255
200 224 255
200 224 255
200 224 255
201 224 255
201 224 255
201 224 255
201 224 255
201 224 255
201 224 255
201 224 255
201 224 255
201 224 255
201 224 255
201 224 255
201 225 255
201 225 255
201 225 255
202 225 255
202 225 255
202 225 255
202 225 255
202 225 255
202 225 255
202 225 255
202 225 255
202 225 255
202 225 255
202 225 255
202 225 255
202 225 255
202 225 255
202 225 255
202 225 255
203 225 255
203 225 255
203 225 255
203 225 255
203 225 255
203 225 255
203 225 255
203 225 255
203 226 255
203 226 255
203 226 255
203 226 255
203 226 255
203 226 255
203 226 255
203 226 255
204 226 255
204 226 255
204 226 255
204 226 255
204 226 255
204 226 255
204 226 255
204 226 255
204 226 255
204 226 255
204 226 255
204 226 255
204 226 255
204 226 255
204 226 255
204 226 255
205 226 255
205 226 255
205 226 255
205 226 255
205 226 255
205 226 255
205 227 255
205 227 255
205 227 255
205 227 255
205 227 255
205 227 255
205 227 255
205 227 255
205 227 255
205 227 255
205 227 255
205 227 255
206 227 255
206 227 255
206 227 255
206 227 255
206 227 255
206 227 255
206 227 255
206 227 255
206 227 255
206 227 255
206 227 255
206 227 255
206 227 255
206 227 255
206 227 255
206 227 255
206 227 255
206 227 255
207 227 255
207 227 255
206 227 255
206 227 255
206 227 255
206 227 255
206 227 255
206 227 255
206 227 255
206 227 255
206 227 255
206 227 255
206 227 255
206 227 255
206 227 255
206 227 255
206 227 255
206 227 255
206 227 255
206 227 255
206 227 255
205 227 255
205 227 255
205 227 255
205 227 255
205 227 255
205 227 255
205 227 255
205 227 255
205 227 255
205 227 255
205 227 255
205 226 255
205 226 255
205 226 255
205 226 255
205 226 255
205 226 255
205 226 255
204 226 255
204 226 255
204 226 255
204 226 255
204 226 255
204 226 255
204 226 255
204 226 255
204 226 255
204 226 255
204 226 255
204 226 255
204 226 255
204 226 255
204 226 255
204 226 255
203 226 255
203 226 255
203 226 255
203 226 255
203 226 255
203 226 255
203 226 255
203 225 255
203 225 255
203 225 255
203 225 255
203 225 255
203 225 255
203 225 255
203 225 255
203 225 255
202 225 255
202 225 255
202 225 255
202 225 255
202 225 255
202 225 255
202 225 255
202 225 255
202 225 255
202 225 255
202 225 255
202 225 255
202 225 255
202 225 255
202 225 255
201 225 255
201 225 255
201 225 255
201 225 255
201 224 255
201 224 255
201 224 255
201 224 255
201 224 255
201 224 255
201 224 255
201 224 255
201 224 255
201 224 255
201 224 255
200 224 255
200 224 255
200 224 255
200 224 255
200 224 255
200 224 255
200 224 255
200 224 255
200 224 255
200 224 255
200 224 255
200 224 255
200 224 255
200 224 255
199 224 255
199 224 255
199 223 255
199 223 255
199 223 255
199 223 255
199 223 255
199 223 255
199 223 255
199 223 255
199 223 255
199 223 255
199 223 255
199 223 255
199 223 255
198 223 255
198 223 255
198 223 255
198 223 255
198 223 255
198 223 255
198 223 255
198 223 255
198 223 255
198 223 255
198 223 255
198 223 255
198 223 255
198 223 255
198 223 255
198 223 255
198 223 255
197 222 255
197 222 255
197 222 255
197 222 255
197 222 255
197 222 255
197 222 255
197 222 255
197 222 255
197 222 255
197 222 255
197 222 255
197 222 255
197 222 255
197 222 255
197 222 255
197 222 255
197 222 255
197 222 255
197 222 255
197 222 255
197 222 255
196 222 255
196 222 255
196 222 255
196 222 255
196 222 255
196 222 255
196 222 255
196 222 255
196 222 255
196 222 255
196 222 255
196 222 255
196 222 255
196 222 255
196 222 255
196 222 255
196 222 255
196 222 255
196 222 255
196 222 255
196 222 255
196 222 255
196 222 255
196 222 255
196 222 255
196 222 255
196 222 255
196 222 255
196 222 255
196 222 255
196 222 255
196 222 255
196 222 255
196 222 255
196 222 255
196 222 255
196 222 255
196 222 255
196 222 255
196 222 255
196 222 255
196 222 255
196 222 255
196 222 255
196 222 255
196 222 255
196 222 255
196 222 255
196 222 255
196 222 255
196 222 255
196 222 255
196 222 255
196 222 255
196 222 255
196 222 255
196 222 255
196 222 255
196 222 255
196 222 255
196 222 255
197 222 255
196 222 255
197 222 255
197 222 255
197 222 255
197 222 255
197 222 255
197 222 255
197 222 255
197 222 255
197 222 255
197 222 255
197 222 255
197 222 255
197 222 255
197 222 255
197 222 255
197 222 255
197 222 255
197 222 255
197 222 255
197 222 255
197 223 255
198 223 255
198 223 255
198 223 255
198 223 255
198 223 255
198 223 255
198 223 255
198 223 255
198 223 255
198 223 255
198 223 255
198 223 255
198 223 255
198 223 255
198 223 255
198 223 255
198 223 255
199 223 255
199 223 255
199 223 255
199 223 255
199 223 255
199 223 255
199 223 255
199 223 255
199 223 255
199 223 255
199 223 255
199 223 255
199 224 255
199 224 255
199 224 255
200 224 255
200 224 255
200 224 255
200 224 255
200 224 255
200 224 255
200 224 255
200 224 255
200 224 255
200 224 255
200 224 255
200 224 255
200 224 255
200 224 255
200 224 255
201 224 255
201 224 255
201 224 255
201 224 255
201 224 255
201 224 255
201 224 255
201 224 255
201 224 255
201 224 255
201 225 255
201 225 255
201 225 255
201 225 255
202 225 255
202 225 255
202 225 255
202 225 255
202 225 255
202 225 255
202 225 255
202 225 255
202 225 255
202 225 255
202 225 255
202 225 255
202 225 255
202 225 255
202 225 255
203 225 255
203 225 255
203 225 255
203 225 255
203 225 255
203 225 255
203 225 255
203 225 255
203 225 255
203 226 255
203 226 255
203 226 255
203 226 255
203 226 255
203 226 255
203 226 255
204 226 255
204 226 255
204 226 255
204 226 255
204 226 255
204 226 255
204 226 255
204 226 255
204 226 255
204 226 255
204 226 255
204 226 255
204 226 255
204 226 255
204 226 255
204 226 255
205 226 255
205 226 255
205 226 255
205 226 255
205 226 255
205 226 255
205 226 255
205 227 255
205 227 255
205 227 255
205 227 255
205 227 255
205 227 255
205 227 255
205 227 255
205 227 255
205 227 255
205 227 255
206 227 255
206 227 255
206 227 255
206 227 255
206 227 255
206 227 255
206 227 255
206 227 255
206 227 255
206 227 255
206 227 255
206 227 255
206 227 255
206 227 255
206 227 255
206 227 255
206 227 255
206 227 255
206 227 255
207 227 255
207 227 255
207 227 255
207 227 255
207 227 255
207 227 255
207 227 255
206 227 255
206 227 255
206 227 255
206 227 255
206 227 255
206 227 255
206 227 255
206 227 255
206 227 255
206 227 255
206 227 255
206 227 255
206 227 255
206 227 255
206 227 255
206 227 255
206 227 255
206 227 255
206 227 255
205 227 255
205 227 255
205 227 255
205 227 255
205 227 255
205 227 255
205 227 255
205 227 255
205 227 255
205 227 255
205 227 255
205 226 255
205 226 255
205 226 255
205 226 255
205 226 255
205 226 255
204 226 255
204 226 255
204 226 255
204 226 255
204 226 255
204 226 255
204 226 255
204 226 255
204 226 255
204 226 255
204 226 255
204 226 255
204 226 255
204 226 255
204 226 255
204 226 255
204 226 255
203 226 255
203 226 255
203 226 255
203 226 255
203 226 255
203 226 255
203 226 255
203 225 255
203 225 255
203 225 255
203 225 255
203 225 255
203 225 255
203 225 255
203 225 255
202 225 255
202 225 255
202 225 255
202 225 255
202 225 255
202 225 255
202 225 255
202 225 255
202 225 255
202 225 255
202 225 255
202 225 255
202 225 255
202 225 255
202 225 255
201 225 255
201 225 255
201 225 255
201 225 255
201 225 255
201 224 255
201 224 255
201 224 255
201 224 255
201 224 255
201 224 255
201 224 255
201 224 255
201 224 255
201 224 255
200 224 255
200 224 255
200 224 255
200 224 255
200 224 255
200 224 255
200 224 255
200 224 255
200 224 255
200 224 255
200 224 255
200 224 255
200 224 255
200 224 255
200 224 255
199 224 255
199 224 255
199 223 255
199 223 255
199 223 255
199 223 255
199 223 255
199 223 255
199 223 255
199 223 255
199 223 255
199 223 255
199 223 255
199 223 255
199 223 255
198 223 255
198 223 255
198 223 255
198 223 255
198 223 255
198 223 255
198 223 255
198 223 255
198 223 255
198 223 255
198 223 255
198 223 255
198 223 255
198 223 255
198 223 255
198 223 255
198 223 255
198 223 255
197 222 255
197 222 255
197 222 255
197 222 255
197 222 255
197 222 255
197 222 255
197 222 255
197 222 255
197 222 255
197 222 255
197 222 255
197 222 255
197 222 255
197 222 255
197 222 255
197 222 255
197 222 255
197 222 255
197 222 255
197 222 255
197 222 255
196 222 255
197 222 255
196 222 255
196 222 255
196 222 255
196 222 255
196 222 255
196 222 255
196 222 255
196 222 255
196 222 255
196 222 255
196 222 255
196 222 255
196 222 255
196 222 255
196 222 255
196 222 255
196 222 255
196 222 255
196 222 255
196 222 255
196 222 255
196 222 255
196 222 255
196 222 255
196 222 255
196 222 255
196 222 255
196 222 255
196 222 255
196 222 255
196 222 255
196 222 255
196 222 255
196 222 255
196 222 255
196 222 255
196 222 255
196 222 255
196 222 255
196 222 255
196 222 255
196 222 255
196 222 255
196 222 255
196 222 255
196 222 255
196 222 255
196 222 255
196 222 255
196 222 255
196 222 255
197 222 255
197 222 255
197 222 255
197 222 255
197 222 255
197 222 255
197 222 255
197 222 255
197 222 255
197 222 255
197 222 255
197 222 255
197 222 255
197 222 255
197 222 255
197 222 255
197 222 255
197 222 255
197 222 255
197 222 255
197 222 255
197 222 255
197 222 255
197 223 255
198 223 255
198 223 255
198 223 255
198 223 255
198 223 255
198 223 255
198 223 255
198 223 255
198 223 255
198 223 255
198 223 255
198 223 255
198 223 255
198 223 255
198 223 255
198 223 255
198 223 255
199 223 255
199 223 255
199 223 255
199 223 255
199 223 255
199 223 255
199 223 255
199 223 255
199 223 255
199 223 255
199 223 255
199 223 255
199 223 255
199 224 255
199 224 255
200 224 255
200 224 255
200 224 255
200 224 255
200 224 255
200 224 255
200 224 255
200 224 255
200 224 255
200 224 255
200 224 255
200 224 255
200 224 255
200 224 255
200 224 255
201 224 255
201 224 255
201 224 255
201 224 255
201 224 255
201 224 255
201 224 255
201 224 255
201 224 255
201 224 255
201 225 255
201 225 255
201 225 255
201 225 255
201 225 255
202 225 255
202 225 255
202 225 255
202 225 255
202 225 255
202 225 255
202 225 255
202 225 255
202 225 255
202 225 255
202 225 255
202 225 255
202 225 255
202 225 255
202 225 255
203 225 255
203 225 255
203 225 255
203 225 255
203 225 255
203 225 255
203 225 255
203 225 255
203 225 255
203 226 255
203 226 255
203 226 255
203 226 255
203 226 255
203 226 255
204 226 255
204 226 255
204 226 255
204 226 255
204 226 255
204 226 255
204 226 255
204 226 255
204 226 255
204 226 255
204 226 255
204 226 255
204 226 255
204 226 255
204 226 255
204 226 255
204 226 255
205 226 255
205 226 255
205 226 255
205 226 255
205 226 255
205 226 255
205 226 255
205 227 255
205 227 255
205 227 255
205 227 255
205 227 255
205 227 255
205 227 255
205 227 255
205 227 255
205 227 255
205 227 255
206 227 255
206 227 255
206 227 255
206 227 255
206 227 255
206 227 255
206 227 255
206 227 255
206 227 255
206 227 255
206 227 255
206 227 255
206 227 255
206 227 255
206 227 255
206 227 255
206 227 255
206 227 255
206 227 255
207 227 255
207 227 255
207 227 255
207 227 255
207 228 255
207 228 255
207 227 255
207 227 255
207 227 255
207 227 255
207 227 255
206 227 255
206 227 255
206 227 255
206 227 255
206 227 255
206 227 255
206 227 255
206 227 255
206 227 255
206 227 255
206 227 255
206 227 255
206 227 255
206 227 255
206 227 255
206 227 255
206 227 255
206 227 255
206 227 255
206 227 255
205 227 255
205 227 255
205 227 255
205 227 255
205 227 255
205 227 255
205 227 255
205 227 255
205 227 255
205 226 255
205 226 255
205 226 255
205 226 255
205 226 255
205 226 255
205 226 255
205 226 255
204 226 255
204 226 255
204 226 255
204 226 255
204 226 255
204 226 255
204 226 255
204 226 255
204 226 255
204 226 255
204 226 255
204 226 255
204 226 255
204 226 255
204 226 255
204 226 255
203 226 255
203 226 255
203 226 255
203 226 255
203 226 255
203 226 255
203 226 255
203 225 255
203 225 255
203 225 255
203 225 255
203 225 255
203 225 255
203 225 255
203 225 255
203 225 255
202 225 255
202 225 255
202 225 255
202 225 255
202 225 255
202 225 255
202 225 255
202 225 255
202 225 255
202 225 255
202 225 255
202 225 255
202 225 255
202 225 255
201 225 255
201 225 255
201 225 255
201 225 255
201 224 255
201 224 255
201 224 255
201 224 255
201 224 255
201 224 255
201 224 255
201 224 255
201 224 255
201 224 255
201 224 255
200 224 255
200 224 255
200 224 255
200 224 255
200 224 255
200 224 255
200 224 255
200 224 255
200 224 255
200 224 255
200 224 255
200 224 255
200 224 255
200 224 255
200 224 255
199 224 255
199 224 255
199 223 255
199 223 255
199 223 255
199 223 255
199 223 255
199 223 255
199 223 255
199 223 255
199 223 255
199 223 255
199 223 255
199 223 255
199 223 255
199 223 255
198 223 255
198 223 255
198 223 255
198 223 255
198 223 255
198 223 255
198 223 255
198 223 255
198 223 255
198 223 255
198 223 255
198 223 255
198 223 255
198 223 255
198 223 255
198 223 255
198 223 255
198 223 255
197 222 255
197 222 255
197 222 255
197 222 255
197 222 255
197 222 255
197 222 255
197 222 255
197 222 255
197 222 255
197 222 255
197 222 255
197 222 255
197 222 255
197 222 255
197 222 255
197 222 255
197 222 255
197 222 255
197 222 255
197 222 255
197 222 255
197 222 255
197 222 255
197 222 255
197 222 255
197 222 255
196 222 255
196 222 255
196 222 255
196 222 255
196 222 255
196 222 255
196 222 255
196 222 255
196 222 255
196 222 255
196 222 255
196 222 255
196 222 255
196 222 255
196 222 255
196 222 255
196 222 255
196 222 255
196 222 255
196 222 255
196 222 255
196 222 255
196 222 255
196 222 255
196 222 255
196 222 255
196 222 255
196 222 255
196 222 255
196 222 255
196 222 255
196 222 255
196 222 255
196 222 255
196 222 255
196 222 255
196 222 255
196 222 255
196 222 255
197 222 255
197 222 255
197 222 255
197 222 255
197 222 255
197 222 255
197 222 255
197 222 255
197 222 255
197 222 255
197 222 255
197 222 255
197 222 255
197 222 255
197 222 255
197 222 255
197 222 255
197 222 255
197 222 255
197 222 255
197 222 255
197 222 255
197 222 255
197 222 255
197 222 255
197 222 255
198 223 255
198 223 255
198 223 255
198 223 255
198 223 255
198 223 255
198 223 255
198 223 255
198 223 255
198 223 255
198 223 255
198 223 255
198 223 255
198 223 255
198 223 255
198 223 255
198 223 255
198 223 255
199 223 255
199 223 255
199 223 255
199 223 255
199 223 255
199 223 255
199 223 255
199 223 255
199 223 255
199 223 255
199 223 255
199 223 255
199 223 255
199 223 255
199 224 255
199 224 255
200 224 255
200 224 255
200 224 255
200 224 255
200 224 255
200 224 255
200 224 255
200 224 255
200 224 255
200 224 255
200 224 255
200 224 255
200 224 255
200 224 255
200 224 255
201 224 255
201 224 255
201 224 255
201 224 255
201 224 255
201 224 255
201 224 255
201 224 255
201 224 255
201 224 255
201 225 255
201 225 255
201 225 255
201 225 255
201 225 255
202 225 255
202 225 255
202 225 255
202 225 255
202 225 255
202 225 255
202 225 255
202 225 255
202 225 255
202 225 255
202 225 255
202 225 255
202 225 255
202 225 255
202 225 255
203 225 255
203 225 255
203 225 255
203 225 255
203 225 255
203 225 255
203 225 255
203 225 255
203 226 255
203 226 255
203 226 255
203 226 255
203 226 255
203 226 255
203 226 255
204 226 255
204 226 255
204 226 255
204 226 255
204 226 255
204 226 255
204 226 255
204 226 255
204 226 255
204 226 255
204 226 255
204 226 255
204 226 255
204 226 255
204 226 255
204 226 255
205 226 255
205 226 255
205 226 255
205 226 255
205 226 255
205 226 255
205 226 255
205 227 255
205 227 255
205 227 255
205 227 255
205 227 255
205 227 255
205 227 255
205 227 255
205 227 255
205 227 255
205 227 255
206 227 255
206 227 255
206 227 255
206 227 255
206 227 255
206 227 255
206 227 255
206 227 255
206 227 255
206 227 255
206 227 255
206 227 255
206 227 255
206 227 255
206 227 255
206 227 255
206 227 255
206 227 255
207 227 255
207 227 255
207 227 255
207 227 255
207 227 255
207 227 255
207 228 255
207 228 255
207 228 255
207 228 255
207 228 255
207 228 255
207 228 255
207 227 255
207 227 255
207 227 255
207 227 255
207 227 255
206 227 255
206 227 255
206 227 255
206 227 255
206 227 255
206 227 255
206 227 255
206 227 255
206 227 255
206 227 255
206 227 255
206 227 255
206 227 255
206 227 255
206 227 255
206 227 255
206 227 255
206 227 255
206 227 255
205 227 255
205 227 255
205 227 255
205 227 255
205 227 255
205 227 255
205 227 255
205 227 255
205 227 255
205 227 255
205 227 255
205 226 255
205 226 255
205 226 255
205 226 255
205 226 255
205 226 255
204 226 255
204 226 255
204 226 255
204 226 255
204 226 255
204 226 255
204 226 255
204 226 255
204 226 255
204 226 255
204 226 255
204 226 255
204 226 255
204 226 255
204 226 255
204 226 255
204 226 255
203 226 255
203 226 255
203 226 255
203 226 255
203 226 255
203 226 255
203 226 255
203 225 255
203 225 255
203 225 255
203 225 255
203 225 255
203 225 255
203 225 255
203 225 255
202 225 255
202 225 255
202 225 255
202 225 255
202 225 255
202 225 255
202 225 255
202 225 255
202 225 255
202 225 255
202 225 255
202 225 255
202 225 255
202 225 255
202 225 255
201 225 255
201 225 255
201 225 255
201 225 255
201 225 255
201 224 255
201 224 255
201 224 255
201 224 255
201 224 255
201 224 255
201 224 255
201 224 255
201 224 255
200 224 255
200 224 255
200 224 255
200 224 255
200 224 255
200 224 255
200 224 255
200 224 255
200 224 255
200 224 255
200 224 255
200 224 255
200 224 255
200 224 255
200 224 255
200 224 255
199 224 255
199 224 255
199 223 255
199 223 255
199 223 255
199 223 255
199 223 255
199 223 255
199 223 255
199 223 255
199 223 255
199 223 255
199 223 255
199 223 255
199 223 255
199 223 255
198 223 255
198 223 255
198 223 255
198 223 255
198 223 255
198 223 255
198 223 255
198 223 255
198 223 255
198 223 255
198 223 255
198 223 255
198 223 255
198 223 255
198 223 255
198 223 255
198 223 255
198 223 255
197 223 255
197 222 255
197 222 255
197 222 255
197 222 255
197 222 255
197 222 255
197 222 255
197 222 255
197 222 255
197 222 255
197 222 255
197 222 255
197 222 255
197 222 255
197 222 255
197 222 255
197 222 255
197 222 255
197 222 255
197 222 255
197 222 255
197 222 255
197 222 255
197 222 255
197 222 255
197 222 255
197 222 255
197 222 255
197 222 255
197 222 255
196 222 255
196 222 255
196 222 255
196 222 255
196 222 255
196 222 255
196 222 255
196 222 255
196 222 255
196 222 255
196 222 255
196 222 255
196 222 255
196 222 255
196 222 255
196 222 255
196 222 255
196 222 255
196 222 255
196 222 255
196 222 255
196 222 255
196 222 255
197 222 255
196 222 255
197 222 255
197 222 255
197 222 255
197 222 255
197 222 255
197 222 255
197 222 255
197 222 255
197 222 255
197 222 255
197 222 255
197 222 255
197 222 255
197 222 255
197 222 255
197 222 255
197 222 255
197 222 255
197 222 255
197 222 255
197 222 255
197 222 255
197 222 255
197 222 255
197 222 255
197 222 255
197 222 255
197 222 255
197 222 255
197 223 255
198 223 255
198 223 255
198 223 255
198 223 255
198 223 255
198 223 255
198 223 255
198 223 255
198 223 255
198 223 255
198 223 255
198 223 255
198 223 255
198 223 255
198 223 255
198 223 255
198 223 255
198 223 255
199 223 255
199 223 255
199 223 255
199 223 255
199 223 255
199 223 255
199 223 255
199 223 255
199 223 255
199 223 255
199 223 255
199 223 255
199 223 255
199 223 255
199 224 255
199 224 255
199 224 255
200 224 255
200 224 255
200 224 255
200 224 255
200 224 255
200 224 255
200 224 255
200 224 255
200 224 255
200 224 255
200 224 255
200 224 255
200 224 255
200 224 255
201 224 255
201 224 255
201 224 255
201 224 255
201 224 255
201 224 255
201 224 255
201 224 255
201 224 255
201 224 255
201 224 255
201 225 255
201 225 255
201 225 255
201 225 255
202 225 255
202 225 255
202 225 255
202 225 255
202 225 255
202 225 255
202 225 255
202 225 255
202 225 255
202 225 255
202 225 255
202 225 255
202 225 255
202 225 255
202 225 255
203 225 255
203 225 255
203 225 255
203 225 255
203 225 255
203 225 255
203 225 255
203 225 255
203 226 255
203 226 255
203 226 255
203 226 255
203 226 255
203 226 255
203 226 255
203 226 255
204 226 255
204 226 255
204 226 255
204 226 255
204 226 255
204 226 255
204 226 255
204 226 255
204 226 255
204 226 255
204 226 255
204 226 255
204 226 255
204 226 255
204 226 255
204 226 255
205 226 255
205 226 255
205 226 255
205 226 255
205 226 255
205 226 255
205 226 255
205 227 255
205 227 255
205 227 255
205 227 255
205 227 255
205 227 255
205 227 255
205 227 255
205 227 255
205 227 255
206 227 255
206 227 255
206 227 255
206 227 255
206 227 255
206 227 255
206 227 255
206 227 255
206 227 255
206 227 255
206 227 255
206 227 255
206 227 255
206 227 255
206 227 255
206 227 255
206 227 255
206 227 255
206 227 255
207 227 255
207 227 255
207 227 255
207 227 255
207 228 255
207 228 255
207 228 255
207 228 255
207 228 255
207 228 255
207 228 255
207 228 255
207 228 255
207 228 255
207 228 255
207 228 255
207 228 255
207 228 255
207 227 255
207 227 255
207 227 255
207 227 255
207 227 255
206 227 255
206 227 255
206 227 255
206 227 255
206 227 255
206 227 255
206 227 255
206 227 255
206 227 255
206 227 255
206 227 255
206 227 255
206 227 255
206 227 255
206 227 255
206 227 255
206 227 255
206 227 255
206 227 255
205 227 255
205 227 255
205 227 255
205 227 255
205 227 255
205 227 255
205 227 255
205 227 255
205 227 255
205 227 255
205 226 255
205 226 255
205 226 255
205 226 255
205 226 255
205 226 255
205 226 255
204 226 255
204 226 255
204 226 255
204 226 255
204 226 255
204 226 255
204 226 255
204 226 255
204 226 255
204 226 255
204 226 255
204 226 255
204 226 255
204 226 255
204 226 255
204 226 255
203 226 255
203 226 255
203 226 255
203 226 255
203 226 255
203 226 255
203 226 255
203 225 255
203 225 255
203 225 255
203 225 255
203 225 255
203 225 255
203 225 255
203 225 255
203 225 255
202 225 255
202 225 255
202 225 255
202 225 255
202 225 255
202 225 255
202 225 255
202 225 255
202 225 255
202 225 255
202 225 255
202 225 255
202 225 255
202 225 255
201 225 255
201 225 255
201 225 255
201 225 255
201 225 255
201 224 255
201 224 255
201 224 255
201 224 255
201 224 255
201 224 255
201 224 255
201 224 255
201 224 255
201 224 255
200 224 255
200 224 255
200 224 255
200 224 255
200 224 255
200 224 255
200 224 255
200 224 255
200 224 255
200 224 255
200 224 255
200 224 255
200 224 255
200 224 255
200 224 255
199 224 255
199 224 255
199 223 255
199 223 255
199 223 255
199 223 255
199 223 255
199 223 255
199 223 255
199 223 255
199 223 255
199 223 255
199 223 255
199 223 255
199 223 255
199 223 255
199 223 255
198 223 255
198 223 255
198 223 255
198 223 255
198 223 255
198 223 255
198 223 255
198 223 255
198 223 255
198 223 255
198 223 255
198 223 255
198 223 255
198 223 255
198 223 255
198 223 255
198 223 255
198 223 255
198 223 255
197 223 255
197 222 255
197 222 255
197 222 255
197 222 255
197 222 255
197 222 255
197 222 255
197 222 255
197 222 255
197 222 255
197 222 255
197 222 255
197 222 255
197 222 255
197 222 255
197 222 255
197 222 255
197 222 255
197 222 255
197 222 255
197 222 255
197 222 255
197 222 255
197 222 255
197 222 255
197 222 255
197 222 255
197 222 255
197 222 255
197 222 255
197 222 255
197 222 255
197 222 255
197 222 255
197 222 255
197 222 255
197 222 255
197 222 255
197 222 255
197 222 255
197 222 255
197 222 255
197 222 255
197 222 255
197 222 255
197 222 255
197 222 255
197 222 255
197 222 255
197 222 255
197 222 255
197 222 255
197 222 255
197 222 255
197 222 255
197 222 255
197 222 255
197 222 255
197 222 255
197 222 255
197 222 255
197 222 255
197 222 255
197 222 255
197 222 255
197 222 255
197 222 255
197 222 255
197 222 255
197 222 255
197 222 255
197 222 255
197 222 255
197 222 255
197 222 255
197 222 255
197 223 255
198 223 255
198 223 255
198 223 255
198 223 255
198 223 255
198 223 255
198 223 255
198 223 255
198 223 255
198 223 255
198 223 255
198 223 255
198 223 255
198 223 255
198 223 255
198 223 255
198 223 255
198 223 255
198 223 255
199 223 255
199 223 255
199 223 255
199 223 255
199 223 255
199 223 255
199 223 255
199 223 255
199 223 255
199 223 255
199 223 255
199 223 255
199 223 255
199 223 255
199 224 255
199 224 255
199 224 255
200 224 255
200 224 255
200 224 255
200 224 255
200 224 255
200 224 255
200 224 255
200 224 255
200 224 255
200 224 255
200 224 255
200 224 255
200 224 255
200 224 255
200 224 255
201 224 255
201 224 255
201 224 255
201 224 255
201 224 255
201 224 255
201 224 255
201 224 255
201 224 255
201 224 255
201 225 255
201 225 255
201 225 255
201 225 255
201 225 255
202 225 255
202 225 255
202 225 255
202 225 255
202 225 255
202 225 255
202 225 255
202 225 255
202 225 255
202 225 255
202 225 255
202 225 255
202 225 255
202 225 255
202 225 255
203 225 255
203 225 255
203 225 255
203 225 255
203 225 255
203 225 255
203 225 255
203 225 255
203 226 255
203 226 255
203 226 255
203 226 255
203 226 255
203 226 255
203 226 255
204 226 255
204 226 255
204 226 255
204 226 255
204 226 255
204 226 255
204 226 255
204 226 255
204 226 255
204 226 255
204 226 255
204 226 255
204 226 255
204 226 255
204 226 255
204 226 255
205 226 255
205 226 255
205 226 255
205 226 255
205 226 255
205 226 255
205 226 255
205 227 255
205 227 255
205 227 255
205 227 255
205 227 255
205 227 255
205 227 255
205 227 255
205 227 255
205 227 255
206 227 255
206 227 255
206 227 255
206 227 255
206 227 255
206 227 255
206 227 255
206 227 255
206 227 255
206 227 255
206 227 255
206 227 255
206 227 255
206 227 255
206 227 255
206 227 255
206 227 255
206 227 255
206 227 255
207 227 255
207 227 255
207 227 255
207 227 255
207 227 255
207 228 255
207 228 255
207 228 255
207 228 255
207 228 255
207 228 255
207 228 255
207 228 255
207 228 255
207 228 255
207 228 255
207 228 255
207 228 255
207 228 255
207 228 255
207 228 255
207 228 255
207 228 255
207 228 255
207 227 255
207 227 255
207 227 255
207 227 255
207 227 255
206 227 255
206 227 255
206 227 255
206 227 255
206 227 255
206 227 255
206 227 255
206 227 255
206 227 255
206 227 255
206 227 255
206 227 255
206 227 255
206 227 255
206 227 255
206 227 255
206 227 255
206 227 255
205 227 255
205 227 255
205 227 255
205 227 255
205 227 255
205 227 255
205 227 255
205 227 255
205 227 255
205 227 255
205 226 255
205 226 255
205 226 255
205 226 255
205 226 255
205 226 255
205 226 255
204 226 255
204 226 255
204 226 255
204 226 255
204 226 255
204 226 255
204 226 255
204 226 255
204 226 255
204 226 255
204 226 255
204 226 255
204 226 255
204 226 255
204 226 255
204 226 255
203 226 255
203 226 255
203 226 255
203 226 255
203 226 255
203 226 255
203 226 255
203 225 255
203 225 255
203 225 255
203 225 255
203 225 255
203 225 255
203 225 255
203 225 255
203 225 255
202 225 255
202 225 255
202 225 255
202 225 255
202 225 255
202 225 255
202 225 255
202 225 255
202 225 255
202 225 255
202 225 255
202 225 255
202 225 255
202 225 255
202 225 255
201 225 255
201 225 255
201 225 255
201 225 255
201 224 255
201 224 255
201 224 255
201 224 255
201 224 255
201 224 255
201 224 255
201 224 255
201 224 255
201 224 255
201 224 255
200 224 255
200 224 255
200 224 255
200 224 255
200 224 255
200 224 255
200 224 255
200 224 255
200 224 255
200 224 255
200 224 255
200 224 255
200 224 255
200 224 255
200 224 255
199 224 255
199 224 255
199 223 255
199 223 255
199 223 255
199 223 255
199 223 255
199 223 255
199 223 255
199 223 255
199 223 255
199 223 255
199 223 255
199 223 255
199 223 255
199 223 255
199 223 255
198 223 255
198 223 255
198 223 255
198 223 255
198 223 255
198 223 255
198 223 255
198 223 255
198 223 255
198 223 255
198 223 255
198 223 255
198 223 255
198 223 255
198 223 255
198 223 255
198 223 255
198 223 255
198 223 255
198 223 255
197 223 255
197 222 255
197 222 255
197 222 255
197 222 255
197 222 255
197 222 255
197 222 255
197 222 255
197 222 255
197 222 255
197 222 255
197 222 255
197 222 255
197 222 255
197 222 255
197 222 255
197 222 255
197 222 255
197 222 255
197 222 255
197 222 255
197 222 255
197 222 255
197 222 255
197 222 255
197 222 255
197 222 255
197 222 255
197 222 255
197 222 255
197 222 255
197 222 255
197 222 255
197 222 255
197 222 255
197 222 255
197 222 255
197 222 255
197 222 255
197 222 255
197 222 255
197 222 255
197 222 255
197 222 255
197 222 255
197 222 255
197 222 255
197 222 255
197 222 255
197 222 255
197 222 255
197 222 255
197 222 255
197 222 255
197 222 255
197 222 255
197 222 255
197 222 255
197 222 255
197 222 255
197 222 255
197 222 255
197 222 255
197 222 255
197 222 255
197 222 255
197 222 255
197 222 255
198 223 255
198 223 255
198 223 255
198 223 255
198 223 255
198 223 255
198 223 255
198 223 255
198 223 255
198 223 255
198 223 255
198 223 255
198 223 255
198 223 255
198 223 255
198 223 255
198 223 255
198 223 255
198 223 255
198 223 255
198 223 255
198 223 255
199 223 255
199 223 255
199 223 255
199 223 255
199 223 255
199 223 255
199 223 255
199 223 255
199 223 255
199 223 255
199 223 255
199 223 255
199 223 255
199 223 255
199 224 255
199 224 255
200 224 255
200 224 255
200 224 255
200 224 255
200 224 255
200 224 255
200 224 255
200 224 255
200 224 255
200 224 255
200 224 255
200 224 255
200 224 255
200 224 255
200 224 255
200 224 255
201 224 255
201 224 255
201 224 255
201 224 255
201 224 255
201 224 255
201 224 255
201 224 255
201 224 255
201 224 255
201 225 255
201 225 255
201 225 255
201 225 255
201 225 255
202 225 255
202 225 255
202 225 255
202 225 255
202 225 255
202 225 255
202 225 255
202 225 255
202 225 255
202 225 255
202 225 255
202 225 255
202 225 255
202 225 255
203 225 255
203 225 255
203 225 255
203 225 255
203 225 255
203 225 255
203 225 255
203 225 255
203 225 255
203 226 255
203 226 255
203 226 255
203 226 255
203 226 255
203 226 255
204 226 255
204 226 255
204 226 255
204 226 255
204 226 255
204 226 255
204 226 255
204 226 255
204 226 255
204 226 255
204 226 255
204 226 255
204 226 255
204 226 255
204 226 255
204 226 255
204 226 255
205 226 255
205 226 255
205 226 255
205 226 255
205 226 255
205 226 255
205 227 255
205 227 255
205 227 255
205 227 255
205 227 255
205 227 255
205 227 255
205 227 255
205 227 255
205 227 255
206 227 255
206 227 255
206 227 255
206 227 255
206 227 255
206 227 255
206 227 255
206 227 255
206 227 255
206 227 255
206 227 255
206 227 255
206 227 255
206 227 255
206 227 255
206 227 255
206 227 255
206 227 255
206 227 255
207 227 255
207 227 255
207 227 255
207 227 255
207 227 255
207 228 255
207 228 255
207 228 255
207 228 255
207 228 255
207 228 255
207 228 255
207 228 255
207 228 255
207 228 255
207 228 255
207 228 255
207 228 255
207 228 255
207 228 255
207 228 255
207 228 255
207 228 255
207 228 255
207 228 255
207 228 255
207 228 255
207 228 255
207 228 255
207 228 255
207 227 255
207 227 255
207 227 255
207 227 255
207 227 255
206 227 255
206 227 255
206 227 255
206 227 255
206 227 255
206 227 255
206 227 255
206 227 255
206 227 255
206 227 255
206 227 255
206 227 255
206 227 255
206 227 255
206 227 255
206 227 255
206 227 255
206 227 255
205 227 255
205 227 255
205 227 255
205 227 255
205 227 255
205 227 255
205 227 255
205 227 255
205 227 255
205 227 255
205 227 255
205 226 255
205 226 255
205 226 255
205 226 255
205 226 255
205 226 255
204 226 255
204 226 255
204 226 255
204 226 255
204 226 255
204 226 255
204 226 255
204 226 255
204 226 255
204 226 255
204 226 255
204 226 255
204 226 255
204 226 255
204 226 255
204 226 255
203 226 255
203 226 255
203 226 255
203 226 255
203 226 255
203 226 255
203 226 255
203 225 255
203 225 255
203 225 255
203 225 255
203 225 255
203 225 255
203 225 255
203 225 255
202 225 255
202 225 255
202 225 255
202 225 255
202 225 255
202 225 255
202 225 255
202 225 255
202 225 255
202 225 255
202 225 255
202 225 255
202 225 255
202 225 255
202 225 255
201 225 255
201 225 255
201 225 255
201 225 255
201 225 255
201 224 255
201 224 255
201 224 255
201 224 255
201 224 255
201 224 255
201 224 255
201 224 255
201 224 255
201 224 255
200 224 255
200 224 255
200 224 255
200 224 255
200 224 255
200 224 255
200 224 255
200 224 255
200 224 255
200 224 255
200 224 255
200 224 255
200 224 255
200 224 255
200 224 255
200 224 255
199 224 255
199 224 255
199 224 255
199 223 255
199 223 255
199 223 255
199 223 255
199 223 255
199 223 255
199 223 255
199 223 255
199 223 255
199 223 255
199 223 255
199 223 255
199 223 255
199 223 255
198 223 255
198 223 255
198 223 255
198 223 255
198 223 255
198 223 255
198 223 255
198 223 255
198 223 255
198 223 255
198 223 255
198 223 255
198 223 255
198 223 255
198 223 255
198 223 255
198 223 255
198 223 255
198 223 255
198 223 255
198 223 255
198 223 255
197 222 255
197 223 255
197 222 255
197 222 255
197 222 255
197 222 255
197 222 255
197 222 255
197 222 255
197 222 255
197 222 255
197 222 255
197 222 255
197 222 255
197 222 255
197 222 255
197 222 255
197 222 255
197 222 255
197 222 255
197 222 255
197 222 255
197 222 255
197 222 255
197 222 255
197 222 255
197 222 255
197 222 255
197 222 255
197 222 255
197 222 255
197 222 255
197 222 255
197 222 255
197 222 255
197 222 255
197 222 255
197 222 255
197 222 255
197 222 255
197 222 255
197 222 255
197 222 255
197 222 255
197 222 255
197 222 255
197 222 255
197 222 255
197 222 255
197 222 255
197 222 255
197 222 255
197 222 255
197 222 255
197 222 255
197 222 255
197 222 255
197 222 255
197 222 255
198 223 255
197 223 255
198 223 255
198 223 255
198 223 255
198 223 255
198 223 255
198 223 255
198 223 255
198 223 255
198 223 255
198 223 255
198 223 255
198 223 255
198 223 255
198 223 255
198 223 255
198 223 255
198 223 255
198 223 255
198 223 255
198 223 255
198 223 255
199 223 255
199 223 255
199 223 255
199 223 255
199 223 255
199 223 255
199 223 255
199 223 255
199 223 255
199 223 255
199 223 255
199 223 255
199 223 255
199 223 255
199 224 255
199 224 255
199 224 255
199 224 255
200 224 255
200 224 255
200 224 255
200 224 255
200 224 255
200 224 255
200 224 255
200 224 255
200 224 255
200 224 255
200 224 255
200 224 255
200 224 255
200 224 255
200 224 255
201 224 255
201 224 255
201 224 255
201 224 255
201 224 255
201 224 255
201 224 255
201 224 255
201 224 255
201 224 255
201 225 255
201 225 255
201 225 255
201 225 255
201 225 255
202 225 255
202 225 255
202 225 255
202 225 255
202 225 255
202 225 255
202 225 255
202 225 255
202 225 255
202 225 255
202 225 255
202 225 255
202 225 255
202 225 255
202 225 255
203 225 255
203 225 255
203 225 255
203 225 255
203 225 255
203 225 255
203 225 255
203 225 255
203 226 255
203 226 255
203 226 255
203 226 255
203 226 255
203 226 255
203 226 255
204 226 255
204 226 255
204 226 255
204 226 255
204 226 255
204 226 255
204 226 255
204 226 255
204 226 255
204 226 255
204 226 255
204 226 255
204 226 255
204 226 255
204 226 255
204 226 255
205 226 255
205 226 255
205 226 255
205 226 255
205 226 255
205 226 255
205 226 255
205 227 255
205 227 255
205 227 255
205 227 255
205 227 255
205 227 255
205 227 255
205 227 255
205 227 255
205 227 255
206 227 255
206 227 255
206 227 255
206 227 255
206 227 255
206 227 255
206 227 255
206 227 255
206 227 255
206 227 255
206 227 255
206 227 255
206 227 255
206 227 255
206 227 255
206 227 255
206 227 255
206 227 255
206 227 255
207 227 255
207 227 255
207 227 255
207 227 255
207 228 255
207 228 255
207 228 255
207 228 255
207 228 255
207 228 255
207 228 255
207 228 255
207 228 255
207 228 255
207 228 255
207 228 255
207 228 255
207 228 255
208 228 255
207 228 255
207 228 255
207 228 255
207 228 255
207 228 255
207 228 255
207 228 255
207 228 255
207 228 255
207 228 255
207 228 255
207 228 255
207 228 255
207 228 255
207 228 255
207 228 255
207 227 255
207 227 255
207 227 255
207 227 255
206 227 255
206 227 255
206 227 255
206 227 255
206 227 255
206 227 255
206 227 255
206 227 255
206 227 255
206 227 255
206 227 255
206 227 255
206 227 255
206 227 255
206 227 255
206 227 255
206 227 255
206 227 255
205 227 255
205 227 255
205 227 255
205 227 255
205 227 255
205 227 255
205 227 255
205 227 255
205 227 255
205 227 255
205 227 255
205 226 255
205 226 255
205 226 255
205 226 255
205 226 255
205 226 255
205 226 255
204 226 255
204 226 255
204 226 255
204 226 255
204 226 255
204 226 255
204 226 255
204 226 255
204 226 255
204 226 255
204 226 255
204 226 255
204 226 255
204 226 255
204 226 255
204 226 255
203 226 255
203 226 255
203 226 255
203 226 255
203 226 255
203 226 255
203 226 255
203 225 255
203 225 255
203 225 255
203 225 255
203 225 255
203 225 255
203 225 255
203 225 255
202 225 255
202 225 255
202 225 255
202 225 255
202 225 255
202 225 255
202 225 255
202 225 255
202 225 255
202 225 255
202 225 255
202 225 255
202 225 255
202 225 255
202 225 255
201 225 255
201 225 255
201 225 255
201 225 255
201 225 255
201 224 255
201 224 255
201 224 255
201 224 255
201 224 255
201 224 255
201 224 255
201 224 255
201 224 255
201 224 255
200 224 255
200 224 255
200 224 255
200 224 255
200 224 255
200 224 255
200 224 255
200 224 255
200 224 255
200 224 255
200 224 255
200 224 255
200 224 255
200 224 255
200 224 255
200 224 255
199 224 255
199 224 255
199 223 255
199 223 255
199 223 255
199 223 255
199 223 255
199 223 255
199 223 255
199 223 255
199 223 255
199 223 255
199 223 255
199 223 255
199 223 255
199 223 255
199 223 255
198 223 255
198 223 255
198 223 255
198 223 255
198 223 255
198 223 255
198 223 255
198 223 255
198 223 255
198 223 255
198 223 255
198 223 255
198 223 255
198 223 255
198 223 255
198 223 255
198 223 255
198 223 255
198 223 255
198 223 255
198 223 255
198 223 255
198 223 255
198 223 255
197 223 255
197 222 255
197 222 255
197 222 255
197 222 255
197 222 255
197 222 255
197 222 255
197 222 255
197 222 255
197 222 255
197 222 255
197 222 255
197 222 255
197 222 255
197 222 255
197 222 255
197 222 255
197 222 255
197 222 255
197 222 255
197 222 255
197 222 255
197 222 255
197 222 255
197 222 255
197 222 255
197 222 255
197 222 255
197 222 255
197 222 255
197 222 255
197 222 255
197 222 255
197 222 255
197 222 255
197 222 255
197 222 255
197 222 255
197 222 255
197 222 255
197 222 255
197 222 255
197 222 255
197 222 255
197 222 255
197 222 255
197 222 255
197 223 255
197 223 255
198 223 255
198 223 255
198 223 255
198 223 255
198 223 255
198 223 255
198 223 255
198 223 255
198 223 255
198 223 255
198 223 255
198 223 255
198 223 255
198 223 255
198 223 255
198 223 255
198 223 255
198 223 255
198 223 255
198 223 255
198 223 255
198 223 255
198 223 255
198 223 255
199 223 255
199 223 255
199 223 255
199 223 255
199 223 255
199 223 255
199 223 255
199 223 255
199 223 255
199 223 255
199 223 255
199 223 255
199 223 255
199 223 255
199 223 255
199 224 255
199 224 255
200 224 255
200 224 255
200 224 255
200 224 255
200 224 255
200 224 255
200 224 255
200 224 255
200 224 255
200 224 255
200 224 255
200 224 255
200 224 255
200 224 255
200 224 255
200 224 255
201 224 255
201 224 255
201 224 255
201 224 255
201 224 255
201 224 255
201 224 255
201 224 255
201 224 255
201 224 255
201 225 255
201 225 255
201 225 255
201 225 255
201 225 255
202 225 255
202 225 255
202 225 255
202 225 255
202 225 255
202 225 255
202 225 255
202 225 255
202 225 255
202 225 255
202 225 255
202 225 255
202 225 255
202 225 255
202 225 255
203 225 255
203 225 255
203 225 255
203 225 255
203 225 255
203 225 255
203 225 255
203 225 255
203 226 255
203 226 255
203 226 255
203 226 255
203 226 255
203 226 255
203 226 255
204 226 255
204 226 255
204 226 255
204 226 255
204 226 255
204 226 255
204 226 255
204 226 255
204 226 255
204 226 255
204 226 255
204 226 255
204 226 255
204 226 255
204 226 255
204 226 255
205 226 255
205 226 255
205 226 255
205 226 255
205 226 255
205 226 255
205 226 255
205 227 255
205 227 255
205 227 255
205 227 255
205 227 255
205 227 255
205 227 255
205 227 255
205 227 255
205 227 255
206 227 255
206 227 255
206 227 255
206 227 255
206 227 255
206 227 255
206 227 255
206 227 255
206 227 255
206 227 255
206 227 255
206 227 255
206 227 255
206 227 255
206 227 255
206 227 255
206 227 255
206 227 255
206 227 255
207 227 255
207 227 255
207 227 255
207 227 255
207 227 255
207 228 255
207 228 255
207 228 255
207 228 255
207 228 255
207 228 255
207 228 255
207 228 255
207 228 255
207 228 255
207 228 255
207 228 255
207 228 255
207 228 255
207 228 255
208 228 255
208 228 255
208 228 255
208 228 255
208 228 255
207 228 255
207 228 255
207 228 255
207 228 255
207 228 255
207 228 255
207 228 255
207 228 255
207 228 255
207 228 255
207 228 255
207 228 255
207 228 255
207 228 255
207 228 255
207 228 255
207 227 255
207 227 255
207 227 255
207 227 255
206 227 255
206 227 255
206 227 255
206 227 255
206 227 255
206 227 255
206 227 255
206 227 255
206 227 255
206 227 255
206 227 255
206 227 255
206 227 255
206 227 255
206 227 255
206 227 255
206 227 255
206 227 255
205 227 255
205 227 255
205 227 255
205 227 255
205 227 255
205 227 255
205 227 255
205 227 255
205 227 255
205 227 255
205 227 255
205 226 255
205 226 255
205 226 255
205 226 255
205 226 255
205 226 255
204 226 255
204 226 255
204 226 255
204 226 255
204 226 255
204 226 255
204 226 255
204 226 255
204 226 255
204 226 255
204 226 255
204 226 255
204 226 255
204 226 255
204 226 255
204 226 255
204 226 255
203 226 255
203 226 255
203 226 255
203 226 255
203 226 255
203 226 255
203 225 255
203 225 255
203 225 255
203 225 255
203 225 255
203 225 255
203 225 255
203 225 255
202 225 255
202 225 255
202 225 255
202 225 255
202 225 255
202 225 255
202 225 255
202 225 255
202 225 255
202 225 255
202 225 255
202 225 255
202 225 255
202 225 255
202 225 255
201 225 255
201 225 255
201 225 255
201 225 255
201 225 255
201 224 255
201 224 255
201 224 255
201 224 255
201 224 255
201 224 255
201 224 255
201 224 255
201 224 255
201 224 255
200 224 255
200 224 255
200 224 255
200 224 255
200 224 255
200 224 255
200 224 255
200 224 255
200 224 255
200 224 255
200 224 255
200 224 255
200 224 255
200 224 255
200 224 255
200 224 255
200 224 255
199 224 255
199 224 255
199 224 255
199 223 255
199 223 255
199 223 255
199 223 255
199 223 255
199 223 255
199 223 255
199 223 255
199 223 255
199 223 255
199 223 255
199 223 255
199 223 255
199 223 255
199 223 255
198 223 255
198 223 255
198 223 255
198 223 255
198 223 255
198 223 255
198 223 255
198 223 255
198 223 255
198 223 255
198 223 255
198 223 255
198 223 255
198 223 255
198 223 255
198 223 255
198 223 255
198 223 255
198 223 255
198 223 255
198 223 255
198 223 255
198 223 255
198 223 255
198 223 255
198 223 255
198 223 255
198 223 255
197 223 255
197 223 255
197 222 255
197 222 255
197 222 255
197 222 255
197 222 255
197 222 255
197 222 255
197 222 255
197 222 255
197 222 255
197 222 255
197 222 255
197 222 255
197 222 255
197 222 255
197 222 255
197 222 255
197 222 255
197 222 255
197 222 255
197 222 255
197 222 255
197 222 255
197 222 255
197 222 255
197 222 255
197 222 255
197 222 255
197 222 255
197 222 255
197 222 255
198 223 255
198 223 255
198 223 255
198 223 255
198 223 255
198 223 255
198 223 255
198 223 255
198 223 255
198 223 255
198 223 255
198 223 255
198 223 255
198 223 255
198 223 255
198 223 255
198 223 255
198 223 255
198 223 255
198 223 255
198 223 255
198 223 255
198 223 255
198 223 255
198 223 255
198 223 255
198 223 255
198 223 255
198 223 255
199 223 255
199 223 255
199 223 255
199 223 255
199 223 255
199 223 255
199 223 255
199 223 255
199 223 255
199 223 255
199 223 255
199 223 255
199 223 255
199 223 255
199 223 255
199 223 255
199 224 255
199 224 255
200 224 255
200 224 255
200 224 255
200 224 255
200 224 255
200 224 255
200 224 255
200 224 255
200 224 255
200 224 255
200 224 255
200 224 255
200 224 255
200 224 255
200 224 255
200 224 255
201 224 255
201 224 255
201 224 255
201 224 255
201 224 255
201 224 255
201 224 255
201 224 255
201 224 255
201 224 255
201 224 255
201 225 255
201 225 255
201 225 255
201 225 255
201 225 255
202 225 255
202 225 255
202 225 255
202 225 255
202 225 255
202 225 255
202 225 255
202 225 255
202 225 255
202 225 255
202 225 255
202 225 255
202 225 255
202 225 255
203 225 255
203 225 255
203 225 255
203 225 255
203 225 255
203 225 255
203 225 255
203 225 255
203 225 255
203 226 255
203 226 255
203 226 255
203 226 255
203 226 255
203 226 255
203 226 255
204 226 255
204 226 255
204 226 255
204 226 255
204 226 255
204 226 255
204 226 255
204 226 255
204 226 255
204 226 255
204 226 255
204 226 255
204 226 255
204 226 255
204 226 255
205 226 255
205 226 255
205 226 255
205 226 255
205 226 255
205 226 255
205 226 255
205 227 255
205 227 255
205 227 255
205 227 255
205 227 255
205 227 255
205 227 255
205 227 255
205 227 255
205 227 255
206 227 255
206 227 255
206 227 255
206 227 255
206 227 255
206 227 255
206 227 255
206 227 255
206 227 255
206 227 255
206 227 255
206 227 255
206 227 255
206 227 255
206 227 255
206 227 255
206 227 255
206 227 255
206 227 255
207 227 255
207 227 255
207 227 255
207 227 255
207 228 255
207 228 255
207 228 255
207 228 255
207 228 255
207 228 255
207 228 255
207 228 255
207 228 255
207 228 255
207 228 255
207 228 255
207 228 255
207 228 255
207 228 255
207 228 255
208 228 255
208 228 255
208 228 255
208 228 255
208 228 255
208 228 255
208 228 255
208 228 255
208 228 255
208 228 255
208 228 255
207 228 255
207 228 255
207 228 255
207 228 255
207 228 255
207 228 255
207 228 255
207 228 255
207 228 255
207 228 255
207 228 255
207 228 255
207 228 255
207 228 255
207 228 255
207 228 255
207 227 255
207 227 255
207 227 255
207 227 255
206 227 255
206 227 255
206 227 255
206 227 255
206 227 255
206 227 255
206 227 255
206 227 255
206 227 255
206 227 255
206 227 255
206 227 255
206 227 255
206 227 255
206 227 255
206 227 255
206 227 255
206 227 255
205 227 255
205 227 255
205 227 255
205 227 255
205 227 255
205 227 255
205 227 255
205 227 255
205 227 255
205 227 255
205 226 255
205 226 255
205 226 255
205 226 255
205 226 255
205 226 255
205 226 255
204 226 255
204 226 255
204 226 255
204 226 255
204 226 255
204 226 255
204 226 255
204 226 255
204 226 255
204 226 255
204 226 255
204 226 255
204 226 255
204 226 255
204 226 255
204 226 255
203 226 255
203 226 255
203 226 255
203 226 255
203 226 255
203 226 255
203 226 255
203 225 255
203 225 255
203 225 255
203 225 255
203 225 255
203 225 255
203 225 255
203 225 255
203 225 255
202 225 255
202 225 255
202 225 255
202 225 255
202 225 255
202 225 255
202 225 255
202 225 255
202 225 255
202 225 255
202 225 255
202 225 255
202 225 255
202 225 255
201 225 255
201 225 255
201 225 255
201 225 255
201 225 255
201 224 255
201 224 255
201 224 255
201 224 255
201 224 255
201 224 255
201 224 255
201 224 255
201 224 255
201 224 255
201 224 255
200 224 255
200 224 255
200 224 255
200 224 255
200 224 255
200 224 255
200 224 255
200 224 255
200 224 255
200 224 255
200 224 255
200 224 255
200 224 255
200 224 255
200 224 255
199 224 255
199 224 255
199 224 255
199 224 255
199 223 255
199 223 255
199 223 255
199 223 255
199 223 255
199 223 255
199 223 255
199 223 255
199 223 255
199 223 255
199 223 255
199 223 255
199 223 255
199 223 255
199 223 255
199 223 255
198 223 255
198 223 255
198 223 255
198 223 255
198 223 255
198 223 255
198 223 255
198 223 255
198 223 255
198 223 255
198 223 255
198 223 255
198 223 255
198 223 255
198 223 255
198 223 255
198 223 255
198 223 255
198 223 255
198 223 255
198 223 255
198 223 255
198 223 255
198 223 255
198 223 255
198 223 255
198 223 255
198 223 255
198 223 255
198 223 255
198 223 255
198 223 255
198 223 255
198 223 255
198 223 255
197 223 255
197 223 255
198 223 255
197 223 255
198 223 255
198 223 255
197 222 255
197 223 255
198 223 255
197 222 255
197 222 255
198 223 255
197 223 255
198 223 255
198 223 255
198 223 255
198 223 255
198 223 255
198 223 255
198 223 255
198 223 255
198 223 255
198 223 255
198 223 255
198 223 255
198 223 255
198 223 255
198 223 255
198 223 255
198 223 255
198 223 255
198 223 255
198 223 255
198 223 255
198 223 255
198 223 255
198 223 255
198 223 255
198 223 255
198 223 255
198 223 255
198 223 255
198 223 255
198 223 255
198 223 255
198 223 255
198 223 255
198 223 255
199 223 255
199 223 255
199 223 255
199 223 255
199 223 255
199 223 255
199 223 255
199 223 255
199 223 255
199 223 255
199 223 255
199 223 255
199 223 255
199 223 255
199 223 255
199 223 255
199 224 255
199 224 255
200 224 255
200 224 255
200 224 255
200 224 255
200 224 255
200 224 255
200 224 255
200 224 255
200 224 255
200 224 255
200 224 255
200 224 255
200 224 255
200 224 255
200 224 255
200 224 255
200 224 255
201 224 255
201 224 255
201 224 255
201 224 255
201 224 255
201 224 255
201 224 255
201 224 255
201 224 255
201 224 255
201 225 255
201 225 255
201 225 255
201 225 255
202 225 255
202 225 255
202 225 255
202 225 255
202 225 255
202 225 255
202 225 255
202 225 255
202 225 255
202 225 255
202 225 255
202 225 255
202 225 255
202 225 255
202 225 255
202 225 255
203 225 255
203 225 255
203 225 255
203 225 255
203 225 255
203 225 255
203 225 255
203 225 255
203 226 255
203 226 255
203 226 255
203 226 255
203 226 255
203 226 255
203 226 255
204 226 255
204 226 255
204 226 255
204 226 255
204 226 255
204 226 255
204 226 255
204 226 255
204 226 255
204 226 255
204 226 255
204 226 255
204 226 255
204 226 255
204 226 255
204 226 255
205 226 255
205 226 255
205 226 255
205 226 255
205 226 255
205 226 255
205 226 255
205 227 255
205 227 255
205 227 255
205 227 255
205 227 255
205 227 255
205 227 255
205 227 255
205 227 255
205 227 255
206 227 255
206 227 255
206 227 255
206 227 255
206 227 255
206 227 255
206 227 255
206 227 255
206 227 255
206 227 255
206 227 255
206 227 255
206 227 255
206 227 255
206 227 255
206 227 255
206 227 255
206 227 255
207 227 255
207 227 255
207 227 255
207 227 255
207 228 255
207 228 255
207 228 255
207 228 255
207 228 255
207 228 255
207 228 255
207 228 255
207 228 255
207 228 255
207 228 255
207 228 255
207 228 255
207 228 255
207 228 255
207 228 255
208 228 255
208 228 255
208 228 255
208 228 255
208 228 255
208 228 255
208 228 255
208 228 255
208 228 255
208 228 255
208 228 255
208 228 255
208 228 255
208 228 255
208 228 255
208 228 255
208 228 255
207 228 255
207 228 255
207 228 255
207 228 255
207 228 255
207 228 255
207 228 255
207 228 255
207 228 255
207 228 255
207 228 255
207 228 255
207 228 255
207 228 255
207 228 255
207 227 255
207 227 255
207 227 255
207 227 255
207 227 255
206 227 255
206 227 255
206 227 255
206 227 255
206 227 255
206 227 255
206 227 255
206 227 255
206 227 255
206 227 255
206 227 255
206 227 255
206 227 255
206 227 255
206 227 255
206 227 255
206 227 255
206 227 255
205 227 255
205 227 255
205 227 255
205 227 255
205 227 255
205 227 255
205 227 255
205 227 255
205 227 255
205 227 255
205 226 255
205 226 255
205 226 255
205 226 255
205 226 255
205 226 255
205 226 255
204 226 255
204 226 255
204 226 255
204 226 255
204 226 255
204 226 255
204 226 255
204 226 255
204 226 255
204 226 255
204 226 255
204 226 255
204 226 255
204 226 255
204 226 255
204 226 255
203 226 255
203 226 255
203 226 255
203 226 255
203 226 255
203 226 255
203 225 255
203 225 255
203 225 255
203 225 255
203 225 255
203 225 255
203 225 255
203 225 255
203 225 255
202 225 255
202 225 255
202 225 255
202 225 255
202 225 255
202 225 255
202 225 255
202 225 255
202 225 255
202 225 255
202 225 255
202 225 255
202 225 255
202 225 255
202 225 255
201 225 255
201 225 255
201 225 255
201 225 255
201 225 255
201 224 255
201 224 255
201 224 255
201 224 255
201 224 255
201 224 255
201 224 255
201 224 255
201 224 255
201 224 255
200 224 255
200 224 255
200 224 255
200 224 255
200 224 255
200 224 255
200 224 255
200 224 255
200 224 255
200 224 255
200 224 255
200 224 255
200 224 255
200 224 255
200 224 255
200 224 255
199 224 255
199 224 255
199 224 255
199 224 255
199 223 255
199 223 255
199 223 255
199 223 255
199 223 255
199 223 255
199 223 255
199 223 255
199 223 255
199 223 255
199 223 255
199 223 255
199 223 255
199 223 255
199 223 255
199 223 255
199 223 255
198 223 255
198 223 255
198 223 255
198 223 255
198 223 255
198 223 255
198 223 255
198 223 255
198 223 255
198 223 255
198 223 255
198 223 255
198 223 255
198 223 255
198 223 255
198 223 255
198 223 255
198 223 255
198 223 255
198 223 255
198 223 255
198 223 255
198 223 255
198 223 255
198 223 255
198 223 255
198 223 255
198 223 255
198 223 255
198 223 255
198 223 255
198 223 255
198 223 255
198 223 255
198 223 255
198 223 255
198 223 255
198 223 255
198 223 255
198 223 255
198 223 255
198 223 255
198 223 255
198 223 255
198 223 255
198 223 255
198 223 255
198 223 255
198 223 255
198 223 255
198 223 255
198 223 255
198 223 255
198 223 255
198 223 255
198 223 255
198 223 255
198 223 255
198 223 255
198 223 255
198 223 255
198 223 255
198 223 255
198 223 255
198 223 255
198 223 255
198 223 255
198 223 255
198 223 255
198 223 255
198 223 255
198 223 255
198 223 255
198 223 255
199 223 255
199 223 255
199 223 255
199 223 255
199 223 255
199 223 255
199 223 255
199 223 255
199 223 255
199 223 255
199 223 255
199 223 255
199 223 255
199 223 255
199 223 255
199 223 255
199 223 255
199 224 255
199 224 255
199 224 255
200 224 255
200 224 255
200 224 255
200 224 255
200 224 255
200 224 255
200 224 255
200 224 255
200 224 255
200 224 255
200 224 255
200 224 255
200 224 255
200 224 255
200 224 255
200 224 255
200 224 255
201 224 255
201 224 255
201 224 255
201 224 255
201 224 255
201 224 255
201 224 255
201 224 255
201 224 255
201 224 255
201 225 255
201 225 255
201 225 255
201 225 255
201 225 255
202 225 255
202 225 255
202 225 255
202 225 255
202 225 255
202 225 255
202 225 255
202 225 255
202 225 255
202 225 255
202 225 255
202 225 255
202 225 255
202 225 255
202 225 255
203 225 255
203 225 255
203 225 255
203 225 255
203 225 255
203 225 255
203 225 255
203 225 255
203 226 255
203 226 255
203 226 255
203 226 255
203 226 255
203 226 255
203 226 255
204 226 255
204 226 255
204 226 255
204 226 255
204 226 255
204 226 255
204 226 255
204 226 255
204 226 255
204 226 255
204 226 255
204 226 255
204 226 255
204 226 255
204 226 255
204 226 255
204 226 255
205 226 255
205 226 255
205 226 255
205 226 255
205 226 255
205 226 255
205 227 255
205 227 255
205 227 255
205 227 255
205 227 255
205 227 255
205 227 255
205 227 255
205 227 255
205 227 255
206 227 255
206 227 255
206 227 255
206 227 255
206 227 255
206 227 255
206 227 255
206 227 255
206 227 255
206 227 255
206 227 255
206 227 255
206 227 255
206 227 255
206 227 255
206 227 255
206 227 255
206 227 255
207 227 255
207 227 255
207 227 255
207 227 255
207 228 255
207 228 255
207 228 255
207 228 255
207 228 255
207 228 255
207 228 255
207 228 255
207 228 255
207 228 255
207 228 255
207 228 255
207 228 255
207 228 255
207 228 255
208 228 255
208 228 255
208 228 255
208 228 255
208 228 255
208 228 255
208 228 255
208 228 255
208 228 255
208 228 255
208 228 255
208 228 255
208 228 255
208 228 255
208 228 255
208 228 255
208 228 255
208 228 255
208 228 255
208 228 255
208 228 255
208 228 255
208 228 255
208 228 255
207 228 255
207 228 255
207 228 255
207 228 255
207 228 255
207 228 255
207 228 255
207 228 255
207 228 255
207 228 255
207 228 255
207 228 255
207 228 255
207 228 255
207 228 255
207 227 255
207 227 255
207 227 255
207 227 255
207 227 255
206 227 255
206 227 255
206 227 255
206 227 255
206 227 255
206 227 255
206 227 255
206 227 255
206 227 255
206 227 255
206 227 255
206 227 255
206 227 255
206 227 255
206 227 255
206 227 255
206 227 255
206 227 255
205 227 255
205 227 255
205 227 255
205 227 255
205 227 255
205 227 255
205 227 255
205 227 255
205 227 255
205 227 255
205 226 255
205 226 255
205 226 255
205 226 255
205 226 255
205 226 255
205 226 255
204 226 255
204 226 255
204 226 255
204 226 255
204 226 255
204 226 255
204 226 255
204 226 255
204 226 255
204 226 255
204 226 255
204 226 255
204 226 255
204 226 255
204 226 255
204 226 255
203 226 255
203 226 255
203 226 255
203 226 255
203 226 255
203 226 255
203 225 255
203 225 255
203 225 255
203 225 255
203 225 255
203 225 255
203 225 255
203 225 255
203 225 255
202 225 255
202 225 255
202 225 255
202 225 255
202 225 255
202 225 255
202 225 255
202 225 255
202 225 255
202 225 255
202 225 255
202 225 255
202 225 255
202 225 255
201 225 255
201 225 255
201 225 255
201 225 255
201 225 255
201 224 255
201 224 255
201 224 255
201 224 255
201 224 255
201 224 255
201 224 255
201 224 255
201 224 255
201 224 255
201 224 255
201 224 255
200 224 255
200 224 255
200 224 255
200 224 255
200 224 255
200 224 255
200 224 255
200 224 255
200 224 255
200 224 255
200 224 255
200 224 255
200 224 255
200 224 255
200 224 255
200 224 255
199 224 255
199 224 255
199 224 255
199 223 255
199 223 255
199 223 255
199 223 255
199 223 255
199 223 255
199 223 255
199 223 255
199 223 255
199 223 255
199 223 255
199 223 255
199 223 255
199 223 255
199 223 255
199 223 255
199 223 255
199 223 255
198 223 255
198 223 255
198 223 255
198 223 255
198 223 255
198 223 255
198 223 255
198 223 255
198 223 255
198 223 255
198 223 255
198 223 255
198 223 255
198 223 255
198 223 255
198 223 255
198 223 255
198 223 255
198 223 255
198 223 255
198 223 255
198 223 255
198 223 255
198 223 255
198 223 255
198 223 255
198 223 255
198 223 255
198 223 255
198 223 255
198 223 255
198 223 255
198 223 255
198 223 255
198 223 255
198 223 255
198 223 255
198 223 255
198 223 255
198 223 255
198 223 255
198 223 255
198 223 255
198 223 255
198 223 255
198 223 255
198 223 255
198 223 255
198 223 255
198 223 255
198 223 255
198 223 255
198 223 255
198 223 255
198 223 255
198 223 255
198 223 255
198 223 255
198 223 255
198 223 255
198 223 255
198 223 255
198 223 255
198 223 255
198 223 255
199 223 255
199 223 255
199 223 255
199 223 255
199 223 255
199 223 255
199 223 255
199 223 255
199 223 255
199 223 255
199 223 255
199 223 255
199 223 255
199 223 255
199 223 255
199 223 255
199 223 255
199 223 255
199 223 255
199 224 255
199 224 255
199 224 255
200 224 255
200 224 255
200 224 255
200 224 255
200 224 255
200 224 255
200 224 255
200 224 255
200 224 255
200 224 255
200 224 255
200 224 255
200 224 255
200 224 255
200 224 255
200 224 255
200 224 255
201 224 255
201 224 255
201 224 255
201 224 255
201 224 255
201 224 255
201 224 255
201 224 255
201 224 255
201 224 255
201 224 255
201 225 255
201 225 255
201 225 255
201 225 255
201 225 255
202 225 255
202 225 255
202 225 255
202 225 255
202 225 255
202 225 255
202 225 255
202 225 255
202 225 255
202 225 255
202 225 255
202 225 255
202 225 255
202 225 255
202 225 255
203 225 255
203 225 255
203 225 255
203 225 255
203 225 255
203 225 255
203 225 255
203 225 255
203 226 255
203 226 255
203 226 255
203 226 255
203 226 255
203 226 255
203 226 255
204 226 255
204 226 255
204 226 255
204 226 255
204 226 255
204 226 255
204 226 255
204 226 255
204 226 255
204 226 255
204 226 255
204 226 255
204 226 255
204 226 255
204 226 255
204 226 255
205 226 255
205 226 255
205 226 255
205 226 255
205 226 255
205 226 255
205 227 255
205 227 255
205 227 255
205 227 255
205 227 255
205 227 255
205 227 255
205 227 255
205 227 255
205 227 255
206 227 255
206 227 255
206 227 255
206 227 255
206 227 255
206 227 255
206 227 255
206 227 255
206 227 255
206 227 255
206 227 255
206 227 255
206 227 255
206 227 255
206 227 255
206 227 255
206 227 255
206 227 255
207 227 255
207 227 255
207 227 255
207 227 255
207 227 255
207 228 255
207 228 255
207 228 255
207 228 255
207 228 255
207 228 255
207 228 255
207 228 255
207 228 255
207 228 255
207 228 255
207 228 255
207 228 255
207 228 255
207 228 255
208 228 255
208 228 255
208 228 255
208 228 255
208 228 255
208 228 255
208 228 255
208 228 255
208 228 255
208 228 255
208 228 255
208 228 255
208 228 255
208 228 255
208 228 255
208 228 255
208 228 255
208 228 255
208 228 255
208 228 255
208 228 255
208 228 255
208 228 255
208 228 255
208 228 255
208 228 255
208 228 255
208 228 255
208 228 255
207 228 255
207 228 255
207 228 255
207 228 255
207 228 255
207 228 255
207 228 255
207 228 255
207 228 255
207 228 255
207 228 255
207 228 255
207 228 255
207 228 255
207 228 255
207 227 255
207 227 255
207 227 255
207 227 255
207 227 255
206 227 255
206 227 255
206 227 255
206 227 255
206 227 255
206 227 255
206 227 255
206 227 255
206 227 255
206 227 255
206 227 255
206 227 255
206 227 255
206 227 255
206 227 255
206 227 255
206 227 255
205 227 255
205 227 255
205 227 255
205 227 255
205 227 255
205 227 255
205 227 255
205 227 255
205 227 255
205 227 255
205 226 255
205 226 255
205 226 255
205 226 255
205 226 255
205 226 255
205 226 255
204 226 255
204 226 255
204 226 255
204 226 255
204 226 255
204 226 255
204 226 255
204 226 255
204 226 255
204 226 255
204 226 255
204 226 255
204 226 255
204 226 255
204 226 255
204 226 255
203 226 255
203 226 255
203 226 255
203 226 255
203 226 255
203 226 255
203 225 255
203 225 255
203 225 255
203 225 255
203 225 255
203 225 255
203 225 255
203 225 255
203 225 255
202 225 255
202 225 255
202 225 255
202 225 255
202 225 255
202 225 255
202 225 255
202 225 255
202 225 255
202 225 255
202 225 255
202 225 255
202 225 255
202 225 255
202 225 255
201 225 255
201 225 255
201 225 255
201 225 255
201 225 255
201 224 255
201 224 255
201 224 255
201 224 255
201 224 255
201 224 255
201 224 255
201 224 255
201 224 255
201 224 255
201 224 255
200 224 255
200 224 255
200 224 255
200 224 255
200 224 255
200 224 255
200 224 255
200 224 255
200 224 255
200 224 255
200 224 255
200 224 255
200 224 255
200 224 255
200 224 255
200 224 255
200 224 255
200 224 255
199 224 255
199 224 255
199 224 255
199 223 255
199 223 255
199 223 255
199 223 255
199 223 255
199 223 255
199 223 255
199 223 255
199 223 255
199 223 255
199 223 255
199 223 255
199 223 255
199 223 255
199 223 255
199 223 255
199 223 255
199 223 255
199 223 255
199 223 255
198 223 255
198 223 255
198 223 255
198 223 255
198 223 255
198 223 255
198 223 255
198 223 255
198 223 255
198 223 255
198 223 255
198 223 255
198 223 255
198 223 255
198 223 255
198 223 255
198 223 255
198 223 255
198 223 255
198 223 255
198 223 255
198 223 255
198 223 255
198 223 255
198 223 255
198 223 255
198 223 255
198 223 255
198 223 255
198 223 255
198 223 255
198 223 255
198 223 255
198 223 255
198 223 255
198 223 255
198 223 255
198 223 255
198 223 255
198 223 255
198 223 255
198 223 255
198 223 255
198 223 255
198 223 255
198 223 255
198 223 255
198 223 255
198 223 255
198 223 255
198 223 255
198 223 255
198 223 255
198 223 255
198 223 255
199 223 255
199 223 255
199 223 255
199 223 255
199 223 255
199 223 255
199 223 255
199 223 255
199 223 255
199 223 255
199 223 255
199 223 255
199 223 255
199 223 255
199 223 255
199 223 255
199 223 255
199 223 255
199 223 255
199 224 255
199 224 255
199 224 255
199 224 255
200 224 255
200 224 255
200 224 255
200 224 255
200 224 255
200 224 255
200 224 255
200 224 255
200 224 255
200 224 255
200 224 255
200 224 255
200 224 255
200 224 255
200 224 255
200 224 255
200 224 255
201 224 255
201 224 255
201 224 255
201 224 255
201 224 255
201 224 255
201 224 255
201 224 255
201 224 255
201 224 255
201 224 255
201 225 255
201 225 255
201 225 255
201 225 255
202 225 255
202 225 255
202 225 255
202 225 255
202 225 255
202 225 255
202 225 255
202 225 255
202 225 255
202 225 255
202 225 255
202 225 255
202 225 255
202 225 255
202 225 255
202 225 255
203 225 255
203 225 255
203 225 255
203 225 255
203 225 255
203 225 255
203 225 255
203 225 255
203 226 255
203 226 255
203 226 255
203 226 255
203 226 255
203 226 255
203 226 255
204 226 255
204 226 255
204 226 255
204 226 255
204 226 255
204 226 255
204 226 255
204 226 255
204 226 255
204 226 255
204 226 255
204 226 255
204 226 255
204 226 255
204 226 255
205 226 255
205 226 255
205 226 255
205 226 255
205 226 255
205 226 255
205 226 255
205 227 255
205 227 255
205 227 255
205 227 255
205 227 255
205 227 255
205 227 255
205 227 255
205 227 255
205 227 255
205 227 255
206 227 255
206 227 255
206 227 255
206 227 255
206 227 255
206 227 255
206 227 255
206 227 255
206 227 255
206 227 255
206 227 255
206 227 255
206 227 255
206 227 255
206 227 255
206 227 255
206 227 255
207 227 255
207 227 255
207 227 255
207 227 255
207 227 255
207 228 255
207 228 255
207 228 255
207 228 255
207 228 255
207 228 255
207 228 255
207 228 255
207 228 255
207 228 255
207 228 255
207 228 255
207 228 255
207 228 255
207 228 255
208 228 255
208 228 255
208 228 255
208 228 255
208 228 255
208 228 255
208 228 255
208 228 255
208 228 255
208 228 255
208 228 255
208 228 255
208 228 255
208 228 255
208 228 255
208 228 255
208 228 255
208 228 255
208 228 255
208 228 255
208 228 255
208 228 255
208 228 255
208 228 255
208 228 255
208 228 255
208 228 255
208 228 255
208 228 255
208 228 255
208 228 255
208 228 255
208 228 255
208 228 255
208 228 255
207 228 255
207 228 255
207 228 255
207 228 255
207 228 255
207 228 255
207 228 255
207 228 255
207 228 255
207 228 255
207 228 255
207 228 255
207 228 255
207 228 255
207 228 255
207 227 255
207 227 255
207 227 255
207 227 255
207 227 255
206 227 255
206 227 255
206 227 255
206 227 255
206 227 255
206 227 255
206 227 255
206 227 255
206 227 255
206 227 255
206 227 255
206 227 255
206 227 255
206 227 255
206 227 255
206 227 255
206 227 255
205 227 255
205 227 255
205 227 255
205 227 255
205 227 255
205 227 255
205 227 255
205 227 255
205 227 255
205 227 255
205 226 255
205 226 255
205 226 255
205 226 255
205 226 255
205 226 255
205 226 255
204 226 255
204 226 255
204 226 255
204 226 255
204 226 255
204 226 255
204 226 255
204 226 255
204 226 255
204 226 255
204 226 255
204 226 255
204 226 255
204 226 255
204 226 255
204 226 255
203 226 255
203 226 255
203 226 255
203 226 255
203 226 255
203 226 255
203 225 255
203 225 255
203 225 255
203 225 255
203 225 255
203 225 255
203 225 255
203 225 255
203 225 255
202 225 255
202 225 255
202 225 255
202 225 255
202 225 255
202 225 255
202 225 255
202 225 255
202 225 255
202 225 255
202 225 255
202 225 255
202 225 255
202 225 255
202 225 255
201 225 255
201 225 255
201 225 255
201 225 255
201 225 255
201 224 255
201 224 255
201 224 255
201 224 255
201 224 255
201 224 255
201 224 255
201 224 255
201 224 255
201 224 255
201 224 255
200 224 255
200 224 255
200 224 255
200 224 255
200 224 255
200 224 255
200 224 255
200 224 255
200 224 255
200 224 255
200 224 255
200 224 255
200 224 255
200 224 255
200 224 255
200 224 255
200 224 255
200 224 255
200 224 255
199 224 255
199 224 255
199 224 255
199 223 255
199 223 255
199 223 255
199 223 255
199 223 255
199 223 255
199 223 255
199 223 255
199 223 255
199 223 255
199 223 255
199 223 255
199 223 255
199 223 255
199 223 255
199 223 255
199 223 255
199 223 255
199 223 255
199 223 255
199 223 255
199 223 255
199 223 255
198 223 255
199 223 255
198 223 255
198 223 255
198 223 255
198 223 255
198 223 255
198 223 255
198 223 255
198 223 255
198 223 255
198 223 255
198 223 255
198 223 255
198 223 255
198 223 255
198 223 255
198 223 255
198 223 255
198 223 255
198 223 255
198 223 255
198 223 255
198 223 255
198 223 255
198 223 255
198 223 255
198 223 255
198 223 255
198 223 255
198 223 255
198 223 255
198 223 255
198 223 255
198 223 255
198 223 255
198 223 255
198 223 255
198 223 255
199 223 255
198 223 255
199 223 255
199 223 255
199 223 255
199 223 255
199 223 255
199 223 255
199 223 255
199 223 255
199 223 255
199 223 255
199 223 255
199 223 255
199 223 255
199 223 255
199 223 255
199 223 255
199 223 255
199 223 255
199 223 255
199 223 255
199 223 255
199 223 255
199 224 255
199 224 255
199 224 255
199 224 255
200 224 255
200 224 255
200 224 255
200 224 255
200 224 255
200 224 255
200 224 255
200 224 255
200 224 255
200 224 255
200 224 255
200 224 255
200 224 255
200 224 255
200 224 255
200 224 255
200 224 255
201 224 255
201 224 255
201 224 255
201 224 255
201 224 255
201 224 255
201 224 255
201 224 255
201 224 255
201 224 255
201 224 255
201 224 255
201 225 255
201 225 255
201 225 255
201 225 255
201 225 255
202 225 255
202 225 255
202 225 255
202 225 255
202 225 255
202 225 255
202 225 255
202 225 255
202 225 255
202 225 255
202 225 255
202 225 255
202 225 255
202 225 255
202 225 255
202 225 255
203 225 255
203 225 255
203 225 255
203 225 255
203 225 255
203 225 255
203 225 255
203 226 255
203 226 255
203 226 255
203 226 255
203 226 255
203 226 255
203 226 255
204 226 255
204 226 255
204 226 255
204 226 255
204 226 255
204 226 255
204 226 255
204 226 255
204 226 255
204 226 255
204 226 255
204 226 255
204 226 255
204 226 255
204 226 255
204 226 255
205 226 255
205 226 255
205 226 255
205 226 255
205 226 255
205 226 255
205 226 255
205 227 255
205 227 255
205 227 255
205 227 255
205 227 255
205 227 255
205 227 255
205 227 255
205 227 255
206 227 255
206 227 255
206 227 255
206 227 255
206 227 255
206 227 255
206 227 255
206 227 255
206 227 255
206 227 255
206 227 255
206 227 255
206 227 255
206 227 255
206 227 255
206 227 255
206 227 255
206 227 255
206 227 255
207 227 255
207 227 255
207 227 255
207 227 255
207 228 255
207 228 255
207 228 255
207 228 255
207 228 255
207 228 255
207 228 255
207 228 255
207 228 255
207 228 255
207 228 255
207 228 255
207 228 255
207 228 255
207 228 255
208 228 255
208 228 255
208 228 255
208 228 255
208 228 255
208 228 255
208 228 255
208 228 255
208 228 255
208 228 255
208 228 255
208 228 255
208 228 255
208 228 255
208 228 255
208 228 255
208 228 255
208 228 255
208 228 255
209 228 255
208 228 255
208 228 255
208 228 255
208 228 255
208 228 255
208 228 255
208 228 255
208 228 255
208 228 255
208 228 255
208 228 255
208 228 255
208 228 255
208 228 255
208 228 255
208 228 255
208 228 255
208 228 255
208 228 255
208 228 255
208 228 255
207 228 255
207 228 255
207 228 255
207 228 255
207 228 255
207 228 255
207 228 255
207 228 255
207 228 255
207 228 255
207 228 255
207 228 255
207 228 255
207 228 255
207 228 255
207 227 255
207 227 255
207 227 255
207 227 255
206 227 255
206 227 255
206 227 255
206 227 255
206 227 255
206 227 255
206 227 255
206 227 255
206 227 255
206 227 255
206 227 255
206 227 255
206 227 255
206 227 255
206 227 255
206 227 255
206 227 255
206 227 255
205 227 255
205 227 255
205 227 255
205 227 255
205 227 255
205 227 255
205 227 255
205 227 255
205 227 255
205 227 255
205 226 255
205 226 255
205 226 255
205 226 255
205 226 255
205 226 255
205 226 255
204 226 255
204 226 255
204 226 255
204 226 255
204 226 255
204 226 255
204 226 255
204 226 255
204 226 255
204 226 255
204 226 255
204 226 255
204 226 255
204 226 255
204 226 255
203 226 255
203 226 255
203 226 255
203 226 255
203 226 255
203 226 255
203 226 255
203 225 255
203 225 255
203 225 255
203 225 255
203 225 255
203 225 255
203 225 255
203 225 255
203 225 255
202 225 255
202 225 255
202 225 255
202 225 255
202 225 255
202 225 255
202 225 255
202 225 255
202 225 255
202 225 255
202 225 255
202 225 255
202 225 255
202 225 255
202 225 255
201 225 255
201 225 255
201 225 255
201 225 255
201 224 255
201 224 255
201 224 255
201 224 255
201 224 255
201 224 255
201 224 255
201 224 255
201 224 255
201 224 255
201 224 255
201 224 255
200 224 255
200 224 255
200 224 255
200 224 255
200 224 255
200 224 255
200 224 255
200 224 255
200 224 255
200 224 255
200 224 255
200 224 255
200 224 255
200 224 255
200 224 255
200 224 255
200 224 255
200 224 255
200 224 255
199 224 255
199 224 255
199 224 255
199 224 255
199 223 255
199 223 255
199 223 255
199 223 255
199 223 255
199 223 255
199 223 255
199 223 255
199 223 255
199 223 255
199 223 255
199 223 255
199 223 255
199 223 255
199 223 255
199 223 255
199 223 255
199 223 255
199 223 255
199 223 255
199 223 255
199 223 255
199 223 255
199 223 255
199 223 255
199 223 255
199 223 255
199 223 255
199 223 255
198 223 255
199 223 255
198 223 255
198 223 255
198 223 255
198 223 255
198 223 255
198 223 255
198 223 255
198 223 255
198 223 255
198 223 255
198 223 255
198 223 255
198 223 255
198 223 255
198 223 255
198 223 255
198 223 255
198 223 255
199 223 255
199 223 255
199 223 255
199 223 255
199 223 255
199 223 255
199 223 255
199 223 255
199 223 255
199 223 255
199 223 255
199 223 255
199 223 255
199 223 255
199 223 255
199 223 255
199 223 255
199 223 255
199 223 255
199 223 255
199 223 255
199 223 255
199 223 255
199 223 255
199 223 255
199 223 255
199 223 255
199 223 255
199 223 255
199 223 255
199 224 255
199 224 255
199 224 255
200 224 255
200 224 255
200 224 255
200 224 255
200 224 255
200 224 255
200 224 255
200 224 255
200 224 255
200 224 255
200 224 255
200 224 255
200 224 255
200 224 255
200 224 255
200 224 255
200 224 255
200 224 255
200 224 255
201 224 255
201 224 255
201 224 255
201 224 255
201 224 255
201 224 255
201 224 255
201 224 255
201 224 255
201 224 255
201 224 255
201 225 255
201 225 255
201 225 255
201 225 255
201 225 255
202 225 255
202 225 255
202 225 255
202 225 255
202 225 255
202 225 255
202 225 255
202 225 255
202 225 255
202 225 255
202 225 255
202 225 255
202 225 255
202 225 255
202 225 255
203 225 255
203 225 255
203 225 255
203 225 255
203 225 255
203 225 255
203 225 255
203 225 255
203 225 255
203 226 255
203 226 255
203 226 255
203 226 255
203 226 255
203 226 255
204 226 255
204 226 255
204 226 255
204 226 255
204 226 255
204 226 255
204 226 255
204 226 255
204 226 255
204 226 255
204 226 255
204 226 255
204 226 255
204 226 255
204 226 255
204 226 255
204 226 255
205 226 255
205 226 255
205 226 255
205 226 255
205 226 255
205 226 255
205 227 255
205 227 255
205 227 255
205 227 255
205 227 255
205 227 255
205 227 255
205 227 255
205 227 255
205 227 255
206 227 255
206 227 255
206 227 255
206 227 255
206 227 255
206 227 255
206 227 255
206 227 255
206 227 255
206 227 255
206 227 255
206 227 255
206 227 255
206 227 255
206 227 255
206 227 255
206 227 255
206 227 255
207 227 255
207 227 255
207 227 255
207 227 255
207 228 255
207 228 255
207 228 255
207 228 255
207 228 255
207 228 255
207 228 255
207 228 255
207 228 255
207 228 255
207 228 255
207 228 255
207 228 255
207 228 255
207 228 255
208 228 255
208 228 255
208 228 255
208 228 255
208 228 255
208 228 255
208 228 255
208 228 255
208 228 255
208 228 255
208 228 255
208 228 255
208 228 255
208 228 255
208 228 255
208 228 255
208 228 255
208 228 255
208 228 255
208 228 255
208 228 255
209 228 255
209 229 255
209 229 255
209 229 255
208 228 255
208 228 255
208 228 255
208 228 255
208 228 255
208 228 255
208 228 255
208 228 255
208 228 255
208 228 255
208 228 255
208 228 255
208 228 255
208 228 255
208 228 255
208 228 255
208 228 255
208 228 255
208 228 255
208 228 255
208 228 255
208 228 255
207 228 255
207 228 255
207 228 255
207 228 255
207 228 255
207 228 255
207 228 255
207 228 255
207 228 255
207 228 255
207 228 255
207 228 255
207 228 255
207 228 255
207 228 255
207 227 255
207 227 255
207 227 255
207 227 255
206 227 255
206 227 255
206 227 255
206 227 255
206 227 255
206 227 255
206 227 255
206 227 255
206 227 255
206 227 255
206 227 255
206 227 255
206 227 255
206 227 255
206 227 255
206 227 255
206 227 255
206 227 255
205 227 255
205 227 255
205 227 255
205 227 255
205 227 255
205 227 255
205 227 255
205 227 255
205 227 255
205 227 255
205 226 255
205 226 255
205 226 255
205 226 255
205 226 255
205 226 255
205 226 255
204 226 255
204 226 255
204 226 255
204 226 255
204 226 255
204 226 255
204 226 255
204 226 255
204 226 255
204 226 255
204 226 255
204 226 255
204 226 255
204 226 255
204 226 255
203 226 255
203 226 255
203 226 255
203 226 255
203 226 255
203 226 255
203 226 255
203 225 255
203 225 255
203 225 255
203 225 255
203 225 255
203 225 255
203 225 255
203 225 255
203 225 255
202 225 255
202 225 255
202 225 255
202 225 255
202 225 255
202 225 255
202 225 255
202 225 255
202 225 255
202 225 255
202 225 255
202 225 255
202 225 255
202 225 255
202 225 255
201 225 255
201 225 255
201 225 255
201 225 255
201 225 255
201 224 255
201 224 255
201 224 255
201 224 255
201 224 255
201 224 255
201 224 255
201 224 255
201 224 255
201 224 255
201 224 255
201 224 255
200 224 255
200 224 255
200 224 255
200 224 255
200 224 255
200 224 255
200 224 255
200 224 255
200 224 255
200 224 255
200 224 255
200 224 255
200 224 255
200 224 255
200 224 255
200 224 255
200 224 255
200 224 255
200 224 255
200 224 255
199 224 255
199 224 255
199 224 255
199 224 255
199 223 255
199 223 255
199 223 255
199 223 255
199 223 255
199 223 255
199 223 255
199 223 255
199 223 255
199 223 255
199 223 255
199 223 255
199 223 255
199 223 255
199 223 255
199 223 255
199 223 255
199 223 255
199 223 255
199 223 255
199 223 255
199 223 255
199 223 255
199 223 255
199 223 255
199 223 255
199 223 255
199 223 255
199 223 255
199 223 255
199 223 255
199 223 255
199 223 255
199 223 255
199 223 255
199 223 255
199 223 255
199 223 255
199 223 255
199 223 255
199 223 255
199 223 255
199 223 255
199 223 255
199 223 255
199 223 255
199 223 255
199 223 255
199 223 255
199 223 255
199 223 255
199 223 255
199 223 255
199 223 255
199 223 255
199 223 255
199 223 255
199 223 255
199 223 255
199 223 255
199 223 255
199 223 255
199 223 255
199 223 255
199 223 255
199 223 255
199 223 255
199 223 255
199 224 255
199 224 255
199 224 255
199 224 255
200 224 255
200 224 255
200 224 255
200 224 255
200 224 255
200 224 255
200 224 255
200 224 255
200 224 255
200 224 255
200 224 255
200 224 255
200 224 255
200 224 255
200 224 255
200 224 255
200 224 255
200 224 255
200 224 255
200 224 255
200 224 255
201 224 255
201 224 255
201 224 255
201 224 255
201 224 255
201 224 255
201 224 255
201 224 255
201 224 255
201 224 255
201 224 255
201 225 255
201 225 255
201 225 255
201 225 255
202 225 255
202 225 255
202 225 255
202 225 255
202 225 255
202 225 255
202 225 255
202 225 255
202 225 255
202 225 255
202 225 255
202 225 255
202 225 255
202 225 255
202 225 255
202 225 255
202 225 255
203 225 255
203 225 255
203 225 255
203 225 255
203 225 255
203 225 255
203 225 255
203 225 255
203 226 255
203 226 255
203 226 255
203 226 255
203 226 255
203 226 255
203 226 255
204 226 255
204 226 255
204 226 255
204 226 255
204 226 255
204 226 255
204 226 255
204 226 255
204 226 255
204 226 255
204 226 255
204 226 255
204 226 255
204 226 255
204 226 255
205 226 255
205 226 255
205 226 255
205 226 255
205 226 255
205 226 255
205 226 255
205 227 255
205 227 255
205 227 255
205 227 255
205 227 255
205 227 255
205 227 255
205 227 255
205 227 255
205 227 255
206 227 255
206 227 255
206 227 255
206 227 255
206 227 255
206 227 255
206 227 255
206 227 255
206 227 255
206 227 255
206 227 255
206 227 255
206 227 255
206 227 255
206 227 255
206 227 255
206 227 255
207 227 255
207 227 255
207 227 255
207 227 255
207 227 255
207 228 255
207 228 255
207 228 255
207 228 255
207 228 255
207 228 255
207 228 255
207 228 255
207 228 255
207 228 255
207 228 255
207 228 255
207 228 255
207 228 255
207 228 255
208 228 255
208 228 255
208 228 255
208 228 255
208 228 255
208 228 255
208 228 255
208 228 255
208 228 255
208 228 255
208 228 255
208 228 255
208 228 255
208 228 255
208 228 255
208 228 255
208 228 255
208 228 255
208 228 255
208 228 255
208 228 255
209 228 255
209 228 255
209 229 255
209 229 255
209 229 255
209 229 255
209 229 255
209 229 255
209 229 255
209 229 255
209 228 255
209 228 255
208 228 255
208 228 255
208 228 255
208 228 255
208 228 255
208 228 255
208 228 255
208 228 255
208 228 255
208 228 255
208 228 255
208 228 255
208 228 255
208 228 255
208 228 255
208 228 255
208 228 255
208 228 255
208 228 255
208 228 255
207 228 255
207 228 255
207 228 255
207 228 255
207 228 255
207 228 255
207 228 255
207 228 255
207 228 255
207 228 255
207 228 255
207 228 255
207 228 255
207 228 255
207 228 255
207 227 255
207 227 255
207 227 255
207 227 255
206 227 255
206 227 255
206 227 255
206 227 255
206 227 255
206 227 255
206 227 255
206 227 255
206 227 255
206 227 255
206 227 255
206 227 255
206 227 255
206 227 255
206 227 255
206 227 255
206 227 255
206 227 255
205 227 255
205 227 255
205 227 255
205 227 255
205 227 255
205 227 255
205 227 255
205 227 255
205 227 255
205 227 255
205 226 255
205 226 255
205 226 255
205 226 255
205 226 255
205 226 255
204 226 255
204 226 255
204 226 255
204 226 255
204 226 255
204 226 255
204 226 255
204 226 255
204 226 255
204 226 255
204 226 255
204 226 255
204 226 255
204 226 255
204 226 255
204 226 255
203 226 255
203 226 255
203 226 255
203 226 255
203 226 255
203 226 255
203 226 255
203 225 255
203 225 255
203 225 255
203 225 255
203 225 255
203 225 255
203 225 255
203 225 255
203 225 255
202 225 255
202 225 255
202 225 255
202 225 255
202 225 255
202 225 255
202 225 255
202 225 255
202 225 255
202 225 255
202 225 255
202 225 255
202 225 255
202 225 255
202 225 255
202 225 255
201 225 255
201 225 255
201 225 255
201 225 255
201 225 255
201 224 255
201 224 255
201 224 255
201 224 255
201 224 255
201 224 255
201 224 255
201 224 255
201 224 255
201 224 255
201 224 255
200 224 255
200 224 255
200 224 255
200 224 255
200 224 255
200 224 255
200 224 255
200 224 255
200 224 255
200 224 255
200 224 255
200 224 255
200 224 255
200 224 255
200 224 255
200 224 255
200 224 255
200 224 255
200 224 255
200 224 255
200 224 255
199 224 255
199 224 255
199 224 255
199 224 255
199 224 255
199 223 255
199 223 255
199 223 255
199 223 255
199 223 255
199 223 255
199 223 255
199 223 255
199 223 255
199 223 255
199 223 255
199 223 255
199 223 255
199 223 255
199 223 255
199 223 255
199 223 255
199 223 255
199 223 255
199 223 255
199 223 255
199 223 255
199 223 255
199 223 255
199 223 255
199 223 255
199 223 255
199 223 255
199 223 255
199 223 255
199 223 255
199 223 255
199 223 255
199 223 255
199 223 255
199 223 255
199 223 255
199 223 255
199 223 255
199 223 255
199 223 255
199 223 255
199 223 255
199 223 255
199 223 255
199 223 255
199 223 255
199 223 255
199 223 255
199 223 255
199 223 255
199 223 255
199 223 255
199 223 255
199 223 255
199 223 255
199 223 255
199 223 255
199 224 255
199 224 255
199 224 255
199 224 255
200 224 255
200 224 255
200 224 255
200 224 255
200 224 255
200 224 255
200 224 255
200 224 255
200 224 255
200 224 255
200 224 255
200 224 255
200 224 255
200 224 255
200 224 255
200 224 255
200 224 255
200 224 255
200 224 255
200 224 255
200 224 255
201 224 255
201 224 255
201 224 255
201 224 255
201 224 255
201 224 255
201 224 255
201 224 255
201 224 255
201 224 255
201 224 255
201 224 255
201 224 255
201 225 255
201 225 255
201 225 255
201 225 255
201 225 255
202 225 255
202 225 255
202 225 255
202 225 255
202 225 255
202 225 255
202 225 255
202 225 255
202 225 255
202 225 255
202 225 255
202 225 255
202 225 255
202 225 255
202 225 255
202 225 255
203 225 255
203 225 255
203 225 255
203 225 255
203 225 255
203 225 255
203 225 255
203 225 255
203 226 255
203 226 255
203 226 255
203 226 255
203 226 255
203 226 255
203 226 255
203 226 255
204 226 255
204 226 255
204 226 255
204 226 255
204 226 255
204 226 255
204 226 255
204 226 255
204 226 255
204 226 255
204 226 255
204 226 255
204 226 255
204 226 255
205 226 255
205 226 255
205 226 255
205 226 255
205 226 255
205 226 255
205 226 255
205 227 255
205 227 255
205 227 255
205 227 255
205 227 255
205 227 255
205 227 255
205 227 255
205 227 255
206 227 255
205 227 255
206 227 255
206 227 255
206 227 255
206 227 255
206 227 255
206 227 255
206 227 255
206 227 255
206 227 255
206 227 255
206 227 255
206 227 255
206 227 255
206 227 255
206 227 255
206 227 255
206 227 255
207 227 255
207 227 255
207 227 255
207 227 255
207 228 255
207 228 255
207 228 255
207 228 255
207 228 255
207 228 255
207 228 255
207 228 255
207 228 255
207 228 255
207 228 255
207 228 255
207 228 255
207 228 255
207 228 255
208 228 255
208 228 255
208 228 255
208 228 255
208 228 255
208 228 255
208 228 255
208 228 255
208 228 255
208 228 255
208 228 255
208 228 255
208 228 255
208 228 255
208 228 255
208 228 255
208 228 255
208 228 255
208 228 255
208 228 255
208 228 255
209 228 255
209 229 255
209 229 255
209 229 255
209 229 255
209 229 255
209 229 255
209 229 255
209 229 255
209 229 255
209 229 255
209 229 255
209 229 255
209 229 255
209 229 255
209 229 255
209 228 255
209 228 255
208 228 255
208 228 255
208 228 255
208 228 255
208 228 255
208 228 255
208 228 255
208 228 255
208 228 255
208 228 255
208 228 255
208 228 255
208 228 255
208 228 255
208 228 255
208 228 255
208 228 255
208 228 255
208 228 255
208 228 255
208 228 255
207 228 255
207 228 255
207 228 255
207 228 255
207 228 255
207 228 255
207 228 255
207 228 255
207 228 255
207 228 255
207 228 255
207 228 255
207 228 255
207 228 255
207 227 255
207 227 255
207 227 255
207 227 255
206 227 255
206 227 255
206 227 255
206 227 255
206 227 255
206 227 255
206 227 255
206 227 255
206 227 255
206 227 255
206 227 255
206 227 255
206 227 255
206 227 255
206 227 255
206 227 255
206 227 255
206 227 255
205 227 255
205 227 255
205 227 255
205 227 255
205 227 255
205 227 255
205 227 255
205 227 255
205 227 255
205 226 255
205 226 255
205 226 255
205 226 255
205 226 255
205 226 255
205 226 255
205 226 255
204 226 255
204 226 255
204 226 255
204 226 255
204 226 255
204 226 255
204 226 255
204 226 255
204 226 255
204 226 255
204 226 255
204 226 255
204 226 255
204 226 255
204 226 255
203 226 255
203 226 255
203 226 255
203 226 255
203 226 255
203 226 255
203 226 255
203 225 255
203 225 255
203 225 255
203 225 255
203 225 255
203 225 255
203 225 255
203 225 255
203 225 255
202 225 255
202 225 255
202 225 255
202 225 255
202 225 255
202 225 255
202 225 255
202 225 255
202 225 255
202 225 255
202 225 255
202 225 255
202 225 255
202 225 255
202 225 255
201 225 255
201 225 255
201 225 255
201 225 255
201 225 255
201 225 255
201 224 255
201 224 255
201 224 255
201 224 255
201 224 255
201 224 255
201 224 255
201 224 255
201 224 255
201 224 255
201 224 255
200 224 255
200 224 255
200 224 255
200 224 255
200 224 255
200 224 255
200 224 255
200 224 255
200 224 255
200 224 255
200 224 255
200 224 255
200 224 255
200 224 255
200 224 255
200 224 255
200 224 255
200 224 255
200 224 255
200 224 255
200 224 255
200 224 255
200 224 255
200 224 255
199 224 255
199 224 255
199 224 255
199 224 255
199 224 255
199 223 255
199 223 255
199 223 255
199 223 255
199 223 255
199 223 255
199 223 255
199 223 255
199 223 255
199 223 255
199 223 255
199 223 255
199 223 255
199 223 255
199 223 255
199 223 255
199 223 255
199 223 255
199 223 255
199 223 255
199 223 255
199 223 255
199 223 255
199 223 255
199 223 255
199 223 255
199 223 255
199 223 255
199 223 255
199 223 255
199 223 255
199 223 255
199 223 255
199 223 255
199 223 255
199 223 255
199 223 255
199 223 255
199 223 255
199 223 255
199 223 255
199 223 255
199 223 255
199 223 255
199 223 255
199 223 255
199 224 255
199 224 255
199 224 255
199 224 255
200 224 255
200 224 255
200 224 255
200 224 255
200 224 255
200 224 255
200 224 255
200 224 255
200 224 255
200 224 255
200 224 255
200 224 255
200 224 255
200 224 255
200 224 255
200 224 255
200 224 255
200 224 255
200 224 255
200 224 255
200 224 255
200 224 255
200 224 255
200 224 255
201 224 255
201 224 255
201 224 255
201 224 255
201 224 255
201 224 255
201 224 255
201 224 255
201 224 255
201 224 255
201 224 255
201 224 255
201 224 255
201 225 255
201 225 255
201 225 255
201 225 255
201 225 255
202 225 255
202 225 255
202 225 255
202 225 255
202 225 255
202 225 255
202 225 255
202 225 255
202 225 255
202 225 255
202 225 255
202 225 255
202 225 255
202 225 255
202 225 255
203 225 255
203 225 255
203 225 255
203 225 255
203 225 255
203 225 255
203 225 255
203 225 255
203 225 255
203 226 255
203 226 255
203 226 255
203 226 255
203 226 255
203 226 255
203 226 255
204 226 255
204 226 255
204 226 255
204 226 255
204 226 255
204 226 255
204 226 255
204 226 255
204 226 255
204 226 255
204 226 255
204 226 255
204 226 255
204 226 255
204 226 255
205 226 255
205 226 255
205 226 255
205 226 255
205 226 255
205 226 255
205 226 255
205 227 255
205 227 255
205 227 255
205 227 255
205 227 255
205 227 255
205 227 255
205 227 255
205 227 255
205 227 255
206 227 255
206 227 255
206 227 255
206 227 255
206 227 255
206 227 255
206 227 255
206 227 255
206 227 255
206 227 255
206 227 255
206 227 255
206 227 255
206 227 255
206 227 255
206 227 255
206 227 255
206 227 255
207 227 255
207 227 255
207 227 255
207 227 255
207 228 255
207 228 255
207 228 255
207 228 255
207 228 255
207 228 255
207 228 255
207 228 255
207 228 255
207 228 255
207 228 255
207 228 255
207 228 255
207 228 255
208 228 255
208 228 255
208 228 255
208 228 255
208 228 255
208 228 255
208 228 255
208 228 255
208 228 255
208 228 255
208 228 255
208 228 255
208 228 255
208 228 255
208 228 255
208 228 255
208 228 255
208 228 255
208 228 255
208 228 255
208 228 255
209 228 255
209 228 255
209 229 255
209 229 255
209 229 255
209 229 255
209 229 255
209 229 255
209 229 255
209 229 255
209 229 255
209 229 255
209 229 255
209 229 255
209 229 255
209 229 255
209 229 255
209 229 255
209 229 255
209 229 255
209 229 255
209 229 255
209 229 255
209 228 255
209 228 255
208 228 255
208 228 255
208 228 255
208 228 255
208 228 255
208 228 255
208 228 255
208 228 255
208 228 255
208 228 255
208 228 255
208 228 255
208 228 255
208 228 255
208 228 255
208 228 255
208 228 255
208 228 255
208 228 255
208 228 255
208 228 255
207 228 255
207 228 255
207 228 255
207 228 255
207 228 255
207 228 255
207 228 255
207 228 255
207 228 255
207 228 255
207 228 255
207 228 255
207 228 255
207 228 255
207 227 255
207 227 255
207 227 255
207 227 255
207 227 255
206 227 255
206 227 255
206 227 255
206 227 255
206 227 255
206 227 255
206 227 255
206 227 255
206 227 255
206 227 255
206 227 255
206 227 255
206 227 255
206 227 255
206 227 255
206 227 255
205 227 255
205 227 255
205 227 255
205 227 255
205 227 255
205 227 255
205 227 255
205 227 255
205 227 255
205 227 255
205 227 255
205 226 255
205 226 255
205 226 255
205 226 255
205 226 255
205 226 255
204 226 255
204 226 255
204 226 255
204 226 255
204 226 255
204 226 255
204 226 255
204 226 255
204 226 255
204 226 255
204 226 255
204 226 255
204 226 255
204 226 255
204 226 255
204 226 255
203 226 255
203 226 255
203 226 255
203 226 255
203 226 255
203 226 255
203 226 255
203 225 255
203 225 255
203 225 255
203 225 255
203 225 255
203 225 255
203 225 255
203 225 255
202 225 255
202 225 255
202 225 255
202 225 255
202 225 255
202 225 255
202 225 255
202 225 255
202 225 255
202 225 255
202 225 255
202 225 255
202 225 255
202 225 255
202 225 255
202 225 255
202 225 255
201 225 255
201 225 255
201 225 255
201 225 255
201 225 255
201 224 255
201 224 255
201 224 255
201 224 255
201 224 255
201 224 255
201 224 255
201 224 255
201 224 255
201 224 255
201 224 255
201 224 255
201 224 255
200 224 255
200 224 255
200 224 255
200 224 255
200 224 255
200 224 255
200 224 255
200 224 255
200 224 255
200 224 255
200 224 255
200 224 255
200 224 255
200 224 255
200 224 255
200 224 255
200 224 255
200 224 255
200 224 255
200 224 255
200 224 255
200 224 255
200 224 255
200 224 255
200 224 255
200 224 255
200 224 255
200 224 255
199 224 255
199 224 255
199 224 255
199 224 255
199 224 255
199 224 255
199 223 255
199 224 255
199 223 255
199 223 255
199 223 255
199 223 255
199 223 255
199 223 255
199 223 255
199 223 255
199 223 255
199 223 255
199 223 255
199 223 255
199 223 255
199 223 255
199 223 255
199 223 255
199 223 255
199 223 255
199 223 255
199 223 255
199 223 255
199 223 255
199 224 255
199 224 255
199 224 255
199 224 255
199 224 255
199 224 255
199 224 255
199 224 255
199 224 255
200 224 255
200 224 255
200 224 255
200 224 255
200 224 255
200 224 255
200 224 255
200 224 255
200 224 255
200 224 255
200 224 255
200 224 255
200 224 255
200 224 255
200 224 255
200 224 255
200 224 255
200 224 255
200 224 255
200 224 255
200 224 255
200 224 255
200 224 255
200 224 255
200 224 255
200 224 255
200 224 255
201 224 255
201 224 255
201 224 255
201 224 255
201 224 255
201 224 255
201 224 255
201 224 255
201 224 255
201 224 255
201 224 255
201 224 255
201 224 255
201 225 255
201 225 255
201 225 255
201 225 255
201 225 255
201 225 255
202 225 255
202 225 255
202 225 255
202 225 255
202 225 255
202 225 255
202 225 255
202 225 255
202 225 255
202 225 255
202 225 255
202 225 255
202 225 255
202 225 255
202 225 255
202 225 255
203 225 255
203 225 255
203 225 255
203 225 255
203 225 255
203 225 255
203 225 255
203 225 255
203 226 255
203 226 255
203 226 255
203 226 255
203 226 255
203 226 255
203 226 255
204 226 255
204 226 255
204 226 255
204 226 255
204 226 255
204 226 255
204 226 255
204 226 255
204 226 255
204 226 255
204 226 255
204 226 255
204 226 255
204 226 255
204 226 255
204 226 255
205 226 255
205 226 255
205 226 255
205 226 255
205 226 255
205 226 255
205 227 255
205 227 255
205 227 255
205 227 255
205 227 255
205 227 255
205 227 255
205 227 255
205 227 255
205 227 255
205 227 255
206 227 255
206 227 255
206 227 255
206 227 255
206 227 255
206 227 255
206 227 255
206 227 255
206 227 255
206 227 255
206 227 255
206 227 255
206 227 255
206 227 255
206 227 255
206 227 255
206 227 255
207 227 255
207 227 255
207 227 255
207 227 255
207 228 255
207 228 255
207 228 255
207 228 255
207 228 255
207 228 255
207 228 255
207 228 255
207 228 255
207 228 255
207 228 255
207 228 255
207 228 255
207 228 255
208 228 255
208 228 255
208 228 255
208 228 255
208 228 255
208 228 255
208 228 255
208 228 255
208 228 255
208 228 255
208 228 255
208 228 255
208 228 255
208 228 255
208 228 255
208 228 255
208 228 255
208 228 255
208 228 255
208 228 255
208 228 255
209 228 255
209 229 255
209 229 255
209 229 255
209 229 255
209 229 255
209 229 255
209 229 255
209 229 255
209 229 255
209 229 255
209 229 255
209 229 255
209 229 255
209 229 255
209 229 255
209 229 255
209 229 255
209 229 255
209 229 255
209 229 255
209 229 255
209 229 255
209 229 255
209 229 255
209 229 255
209 229 255
209 229 255
209 229 255
209 229 255
209 228 255
208 228 255
208 228 255
208 228 255
208 228 255
208 228 255
208 228 255
208 228 255
208 228 255
208 228 255
208 228 255
208 228 255
208 228 255
208 228 255
208 228 255
208 228 255
208 228 255
208 228 255
208 228 255
208 228 255
208 228 255
208 228 255
207 228 255
207 228 255
207 228 255
207 228 255
207 228 255
207 228 255
207 228 255
207 228 255
207 228 255
207 228 255
207 228 255
207 228 255
207 228 255
207 228 255
207 227 255
207 227 255
207 227 255
207 227 255
206 227 255
206 227 255
206 227 255
206 227 255
206 227 255
206 227 255
206 227 255
206 227 255
206 227 255
206 227 255
206 227 255
206 227 255
206 227 255
206 227 255
206 227 255
206 227 255
206 227 255
206 227 255
205 227 255
205 227 255
205 227 255
205 227 255
205 227 255
205 227 255
205 227 255
205 227 255
205 227 255
205 227 255
205 226 255
205 226 255
205 226 255
205 226 255
205 226 255
205 226 255
204 226 255
204 226 255
204 226 255
204 226 255
204 226 255
204 226 255
204 226 255
204 226 255
204 226 255
204 226 255
204 226 255
204 226 255
204 226 255
204 226 255
204 226 255
204 226 255
203 226 255
203 226 255
203 226 255
203 226 255
203 226 255
203 226 255
203 226 255
203 225 255
203 225 255
203 225 255
203 225 255
203 225 255
203 225 255
203 225 255
203 225 255
202 225 255
202 225 255
202 225 255
202 225 255
202 225 255
202 225 255
202 225 255
202 225 255
202 225 255
202 225 255
202 225 255
202 225 255
202 225 255
202 225 255
202 225 255
202 225 255
202 225 255
201 225 255
201 225 255
201 225 255
201 225 255
201 225 255
201 225 255
201 224 255
201 224 255
201 224 255
201 224 255
201 224 255
201 224 255
201 224 255
201 224 255
201 224 255
201 224 255
201 224 255
201 224 255
201 224 255
200 224 255
200 224 255
200 224 255
200 224 255
200 224 255
200 224 255
200 224 255
200 224 255
200 224 255
200 224 255
200 224 255
200 224 255
200 224 255
200 224 255
200 224 255
200 224 255
200 224 255
200 224 255
200 224 255
200 224 255
200 224 255
200 224 255
200 224 255
200 224 255
200 224 255
200 224 255
200 224 255
200 224 255
200 224 255
200 224 255
200 224 255
200 224 255
200 224 255
200 224 255
200 224 255
199 224 255
199 224 255
199 224 255
199 224 255
199 224 255
199 224 255
199 224 255
199 224 255
199 224 255
199 224 255
199 224 255
199 224 255
199 224 255
199 224 255
199 224 255
199 224 255
199 224 255
200 224 255
200 224 255
200 224 255
200 224 255
200 224 255
200 224 255
200 224 255
200 224 255
200 224 255
200 224 255
200 224 255
200 224 255
200 224 255
200 224 255
200 224 255
200 224 255
200 224 255
200 224 255
200 224 255
200 224 255
200 224 255
200 224 255
200 224 255
200 224 255
200 224 255
200 224 255
200 224 255
200 224 255
200 224 255
200 224 255
200 224 255
200 224 255
200 224 255
200 224 255
201 224 255
201 224 255
201 224 255
201 224 255
201 224 255
201 224 255
201 224 255
201 224 255
201 224 255
201 224 255
201 224 255
201 224 255
201 224 255
201 224 255
201 225 255
201 225 255
201 225 255
201 225 255
202 225 255
202 225 255
202 225 255
202 225 255
202 225 255
202 225 255
202 225 255
202 225 255
202 225 255
202 225 255
202 225 255
202 225 255
202 225 255
202 225 255
202 225 255
202 225 255
202 225 255
203 225 255
203 225 255
203 225 255
203 225 255
203 225 255
203 225 255
203 225 255
203 225 255
203 225 255
203 226 255
203 226 255
203 226 255
203 226 255
203 226 255
203 226 255
203 226 255
204 226 255
204 226 255
204 226 255
204 226 255
204 226 255
204 226 255
204 226 255
204 226 255
204 226 255
204 226 255
204 226 255
204 226 255
204 226 255
204 226 255
204 226 255
204 226 255
205 226 255
205 226 255
205 226 255
205 226 255
205 226 255
205 226 255
205 227 255
205 227 255
205 227 255
205 227 255
205 227 255
205 227 255
205 227 255
205 227 255
205 227 255
205 227 255
206 227 255
206 227 255
206 227 255
206 227 255
206 227 255
206 227 255
206 227 255
206 227 255
206 227 255
206 227 255
206 227 255
206 227 255
206 227 255
206 227 255
206 227 255
206 227 255
206 227 255
207 227 255
207 227 255
207 227 255
207 227 255
207 227 255
207 228 255
207 228 255
207 228 255
207 228 255
207 228 255
207 228 255
207 228 255
207 228 255
207 228 255
207 228 255
207 228 255
207 228 255
207 228 255
207 228 255
207 228 255
208 228 255
208 228 255
208 228 255
208 228 255
208 228 255
208 228 255
208 228 255
208 228 255
208 228 255
208 228 255
208 228 255
208 228 255
208 228 255
208 228 255
208 228 255
208 228 255
208 228 255
208 228 255
208 228 255
208 228 255
209 228 255
209 229 255
209 229 255
209 229 255
209 229 255
209 229 255
209 229 255
209 229 255
209 229 255
209 229 255
209 229 255
209 229 255
209 229 255
209 229 255
209 229 255
209 229 255
209 229 255
209 229 255
209 229 255
209 229 255
209 229 255
209 229 255
209 229 255
209 229 255
209 229 255
209 229 255
209 229 255
209 229 255
209 229 255
209 229 255
209 229 255
209 229 255
209 229 255
209 229 255
209 229 255
209 229 255
209 228 255
209 228 255
208 228 255
208 228 255
208 228 255
208 228 255
208 228 255
208 228 255
208 228 255
208 228 255
208 228 255
208 228 255
208 228 255
208 228 255
208 228 255
208 228 255
208 228 255
208 228 255
208 228 255
208 228 255
208 228 255
208 228 255
207 228 255
207 228 255
207 228 255
207 228 255
207 228 255
207 228 255
207 228 255
207 228 255
207 228 255
207 228 255
207 228 255
207 228 255
207 228 255
207 228 255
207 227 255
207 227 255
207 227 255
207 227 255
207 227 255
206 227 255
206 227 255
206 227 255
206 227 255
206 227 255
206 227 255
206 227 255
206 227 255
206 227 255
206 227 255
206 227 255
206 227 255
206 227 255
206 227 255
206 227 255
206 227 255
205 227 255
205 227 255
205 227 255
205 227 255
205 227 255
205 227 255
205 227 255
205 227 255
205 227 255
205 227 255
205 227 255
205 226 255
205 226 255
205 226 255
205 226 255
205 226 255
205 226 255
204 226 255
204 226 255
204 226 255
204 226 255
204 226 255
204 226 255
204 226 255
204 226 255
204 226 255
204 226 255
204 226 255
204 226 255
204 226 255
204 226 255
204 226 255
204 226 255
203 226 255
203 226 255
203 226 255
203 226 255
203 226 255
203 226 255
203 226 255
203 225 255
203 225 255
203 225 255
203 225 255
203 225 255
203 225 255
203 225 255
203 225 255
202 225 255
202 225 255
202 225 255
202 225 255
202 225 255
202 225 255
202 225 255
202 225 255
202 225 255
202 225 255
202 225 255
202 225 255
202 225 255
202 225 255
202 225 255
202 225 255
202 225 255
202 225 255
201 225 255
201 225 255
201 225 255
201 225 255
201 225 255
201 225 255
201 224 255
201 224 255
201 224 255
201 224 255
201 224 255
201 224 255
201 224 255
201 224 255
201 224 255
201 224 255
201 224 255
201 224 255
201 224 255
200 224 255
200 224 255
200 224 255
200 224 255
200 224 255
200 224 255
200 224 255
200 224 255
200 224 255
200 224 255
200 224 255
200 224 255
200 224 255
200 224 255
200 224 255
200 224 255
200 224 255
200 224 255
200 224 255
200 224 255
200 224 255
200 224 255
200 224 255
200 224 255
200 224 255
200 224 255
200 224 255
200 224 255
200 224 255
200 224 255
200 224 255
200 224 255
200 224 255
200 224 255
200 224 255
200 224 255
200 224 255
200 224 255
200 224 255
200 224 255
200 224 255
200 224 255
200 224 255
200 224 255
200 224 255
200 224 255
200 224 255
200 224 255
200 224 255
200 224 255
200 224 255
200 224 255
200 224 255
200 224 255
200 224 255
200 224 255
200 224 255
200 224 255
200 224 255
200 224 255
200 224 255
200 224 255
200 224 255
200 224 255
200 224 255
200 224 255
200 224 255
200 224 255
200 224 255
200 224 255
200 224 255
200 224 255
200 224 255
200 224 255
200 224 255
200 224 255
200 224 255
201 224 255
201 224 255
201 224 255
201 224 255
201 224 255
201 224 255
201 224 255
201 224 255
201 224 255
201 224 255
201 224 255
201 224 255
201 224 255
201 224 255
201 224 255
201 225 255
201 225 255
201 225 255
201 225 255
201 225 255
202 225 255
202 225 255
202 225 255
202 225 255
202 225 255
202 225 255
202 225 255
202 225 255
202 225 255
202 225 255
202 225 255
202 225 255
202 225 255
202 225 255
202 225 255
202 225 255
202 225 255
203 225 255
203 225 255
203 225 255
203 225 255
203 225 255
203 225 255
203 225 255
203 225 255
203 225 255
203 226 255
203 226 255
203 226 255
203 226 255
203 226 255
203 226 255
203 226 255
204 226 255
204 226 255
204 226 255
204 226 255
204 226 255
204 226 255
204 226 255
204 226 255
204 226 255
204 226 255
204 226 255
204 226 255
204 226 255
204 226 255
204 226 255
204 226 255
205 226 255
205 226 255
205 226 255
205 226 255
205 226 255
205 226 255
205 226 255
205 227 255
205 227 255
205 227 255
205 227 255
205 227 255
205 227 255
205 227 255
205 227 255
205 227 255
205 227 255
206 227 255
206 227 255
206 227 255
206 227 255
206 227 255
206 227 255
206 227 255
206 227 255
206 227 255
206 227 255
206 227 255
206 227 255
206 227 255
206 227 255
206 227 255
206 227 255
207 227 255
207 227 255
207 227 255
207 227 255
207 227 255
207 228 255
207 228 255
207 228 255
207 228 255
207 228 255
207 228 255
207 228 255
207 228 255
207 228 255
207 228 255
207 228 255
207 228 255
207 228 255
207 228 255
208 228 255
208 228 255
208 228 255
208 228 255
208 228 255
208 228 255
208 228 255
208 228 255
208 228 255
208 228 255
208 228 255
208 228 255
208 228 255
208 228 255
208 228 255
208 228 255
208 228 255
208 228 255
208 228 255
208 228 255
209 228 255
209 228 255
209 229 255
209 229 255
209 229 255
209 229 255
209 229 255
209 229 255
209 229 255
209 229 255
209 229 255
209 229 255
209 229 255
209 229 255
209 229 255
209 229 255
209 229 255
209 229 255
209 229 255
209 229 255
209 229 255
210 229 255
209 229 255
209 229 255
209 229 255
209 229 255
209 229 255
209 229 255
209 229 255
209 229 255
209 229 255
209 229 255
209 229 255
209 229 255
209 229 255
209 229 255
209 229 255
209 229 255
209 229 255
209 229 255
209 229 255
209 229 255
209 229 255
209 228 255
209 228 255
208 228 255
208 228 255
208 228 255
208 228 255
208 228 255
208 228 255
208 228 255
208 228 255
208 228 255
208 228 255
208 228 255
208 228 255
208 228 255
208 228 255
208 228 255
208 228 255
208 228 255
208 228 255
208 228 255
208 228 255
207 228 255
207 228 255
207 228 255
207 228 255
207 228 255
207 228 255
207 228 255
207 228 255
207 228 255
207 228 255
207 228 255
207 228 255
207 228 255
207 228 255
207 228 255
207 227 255
207 227 255
207 227 255
207 227 255
206 227 255
206 227 255
206 227 255
206 227 255
206 227 255
206 227 255
206 227 255
206 227 255
206 227 255
206 227 255
206 227 255
206 227 255
206 227 255
206 227 255
206 227 255
206 227 255
206 227 255
205 227 255
205 227 255
205 227 255
205 227 255
205 227 255
205 227 255
205 227 255
205 227 255
205 227 255
205 227 255
205 226 255
205 226 255
205 226 255
205 226 255
205 226 255
205 226 255
204 226 255
204 226 255
204 226 255
204 226 255
204 226 255
204 226 255
204 226 255
204 226 255
204 226 255
204 226 255
204 226 255
204 226 255
204 226 255
204 226 255
204 226 255
204 226 255
204 226 255
203 226 255
203 226 255
203 226 255
203 226 255
203 226 255
203 226 255
203 225 255
203 225 255
203 225 255
203 225 255
203 225 255
203 225 255
203 225 255
203 225 255
202 225 255
202 225 255
202 225 255
202 225 255
202 225 255
202 225 255
202 225 255
202 225 255
202 225 255
202 225 255
202 225 255
202 225 255
202 225 255
202 225 255
202 225 255
202 225 255
202 225 255
202 225 255
202 225 255
201 225 255
201 225 255
201 225 255
201 225 255
201 225 255
201 224 255
201 224 255
201 224 255
201 224 255
201 224 255
201 224 255
201 224 255
201 224 255
201 224 255
201 224 255
201 224 255
201 224 255
201 224 255
201 224 255
201 224 255
201 224 255
200 224 255
200 224 255
200 224 255
200 224 255
200 224 255
200 224 255
200 224 255
200 224 255
200 224 255
200 224 255
200 224 255
200 224 255
200 224 255
200 224 255
200 224 255
200 224 255
200 224 255
200 224 255
200 224 255
200 224 255
200 224 255
200 224 255
200 224 255
200 224 255
200 224 255
200 224 255
200 224 255
200 224 255
200 224 255
200 224 255
200 224 255
200 224 255
200 224 255
200 224 255
200 224 255
200 224 255
200 224 255
200 224 255
200 224 255
200 224 255
200 224 255
200 224 255
200 224 255
200 224 255
200 224 255
200 224 255
200 224 255
200 224 255
200 224 255
200 224 255
200 224 255
200 224 255
200 224 255
200 224 255
200 224 255
200 224 255
200 224 255
200 224 255
200 224 255
200 224 255
200 224 255
200 224 255
200 224 255
200 224 255
200 224 255
201 224 255
201 224 255
201 224 255
201 224 255
201 224 255
201 224 255
201 224 255
201 224 255
201 224 255
201 224 255
201 224 255
201 224 255
201 224 255
201 224 255
201 224 255
201 224 255
201 224 255
201 225 255
201 225 255
201 225 255
201 225 255
201 225 255
202 225 255
202 225 255
202 225 255
202 225 255
202 225 255
202 225 255
202 225 255
202 225 255
202 225 255
202 225 255
202 225 255
202 225 255
202 225 255
202 225 255
202 225 255
202 225 255
202 225 255
203 225 255
203 225 255
203 225 255
203 225 255
203 225 255
203 225 255
203 225 255
203 225 255
203 225 255
203 225 255
203 226 255
203 226 255
203 226 255
203 226 255
203 226 255
203 226 255
203 226 255
204 226 255
204 226 255
204 226 255
204 226 255
204 226 255
204 226 255
204 226 255
204 226 255
204 226 255
204 226 255
204 226 255
204 226 255
204 226 255
204 226 255
204 226 255
204 226 255
205 226 255
205 226 255
205 226 255
205 226 255
205 226 255
205 226 255
205 227 255
205 227 255
205 227 255
205 227 255
205 227 255
205 227 255
205 227 255
205 227 255
205 227 255
205 227 255
205 227 255
206 227 255
206 227 255
206 227 255
206 227 255
206 227 255
206 227 255
206 227 255
206 227 255
206 227 255
206 227 255
206 227 255
206 227 255
206 227 255
206 227 255
206 227 255
206 227 255
207 227 255
207 227 255
207 227 255
207 227 255
207 227 255
207 228 255
207 228 255
207 228 255
207 228 255
207 228 255
207 228 255
207 228 255
207 228 255
207 228 255
207 228 255
207 228 255
207 228 255
207 228 255
207 228 255
208 228 255
208 228 255
208 228 255
208 228 255
208 228 255
208 228 255
208 228 255
208 228 255
208 228 255
208 228 255
208 228 255
208 228 255
208 228 255
208 228 255
208 228 255
208 228 255
208 228 255
208 228 255
208 228 255
208 228 255
209 228 255
209 228 255
209 229 255
209 229 255
209 229 255
209 229 255
209 229 255
209 229 255
209 229 255
209 229 255
209 229 255
209 229 255
209 229 255
209 229 255
209 229 255
209 229 255
209 229 255
209 229 255
209 229 255
209 229 255
209 229 255
209 229 255
210 229 255
210 229 255
210 229 255
210 229 255
210 229 255
210 229 255
210 229 255
209 229 255
209 229 255
209 229 255
209 229 255
209 229 255
209 229 255
209 229 255
209 229 255
209 229 255
209 229 255
209 229 255
209 229 255
209 229 255
209 229 255
209 229 255
209 229 255
209 229 255
209 229 255
209 229 255
209 229 255
209 229 255
209 228 255
209 228 255
208 228 255
208 228 255
208 228 255
208 228 255
208 228 255
208 228 255
208 228 255
208 228 255
208 228 255
208 228 255
208 228 255
208 228 255
208 228 255
208 228 255
208 228 255
208 228 255
208 228 255
208 228 255
208 228 255
207 228 255
207 228 255
207 228 255
207 228 255
207 228 255
207 228 255
207 228 255
207 228 255
207 228 255
207 228 255
207 228 255
207 228 255
207 228 255
207 228 255
207 227 255
207 227 255
207 227 255
207 227 255
206 227 255
206 227 255
206 227 255
206 227 255
206 227 255
206 227 255
206 227 255
206 227 255
206 227 255
206 227 255
206 227 255
206 227 255
206 227 255
206 227 255
206 227 255
206 227 255
206 227 255
206 227 255
205 227 255
205 227 255
205 227 255
205 227 255
205 227 255
205 227 255
205 227 255
205 227 255
205 227 255
205 227 255
205 226 255
205 226 255
205 226 255
205 226 255
205 226 255
205 226 255
204 226 255
204 226 255
204 226 255
204 226 255
204 226 255
204 226 255
204 226 255
204 226 255
204 226 255
204 226 255
204 226 255
204 226 255
204 226 255
204 226 255
204 226 255
204 226 255
203 226 255
203 226 255
203 226 255
203 226 255
203 226 255
203 226 255
203 226 255
203 225 255
203 225 255
203 225 255
203 225 255
203 225 255
203 225 255
203 225 255
203 225 255
203 225 255
203 225 255
202 225 255
202 225 255
202 225 255
202 225 255
202 225 255
202 225 255
202 225 255
202 225 255
202 225 255
202 225 255
202 225 255
202 225 255
202 225 255
202 225 255
202 225 255
202 225 255
202 225 255
201 225 255
201 225 255
201 225 255
201 225 255
201 225 255
201 225 255
201 224 255
201 224 255
201 224 255
201 224 255
201 224 255
201 224 255
201 224 255
201 224 255
201 224 255
201 224 255
201 224 255
201 224 255
201 224 255
201 224 255
201 224 255
201 224 255
201 224 255
201 224 255
201 224 255
200 224 255
200 224 255
200 224 255
200 224 255
200 224 255
200 224 255
200 224 255
200 224 255
200 224 255
200 224 255
200 224 255
200 224 255
200 224 255
200 224 255
200 224 255
200 224 255
200 224 255
200 224 255
200 224 255
200 224 255
200 224 255
200 224 255
200 224 255
200 224 255
200 224 255
200 224 255
200 224 255
200 224 255
200 224 255
200 224 255
200 224 255
200 224 255
200 224 255
200 224 255
200 224 255
200 224 255
200 224 255
200 224 255
200 224 255
200 224 255
200 224 255
200 224 255
200 224 255
200 224 255
200 224 255
200 224 255
200 224 255
200 224 255
200 224 255
200 224 255
200 224 255
200 224 255
201 224 255
201 224 255
201 224 255
201 224 255
201 224 255
201 224 255
201 224 255
201 224 255
201 224 255
201 224 255
201 224 255
201 224 255
201 224 255
201 224 255
201 224 255
201 224 255
201 224 255
201 224 255
201 225 255
201 225 255
201 225 255
201 225 255
201 225 255
201 225 255
202 225 255
202 225 255
202 225 255
202 225 255
202 225 255
202 225 255
202 225 255
202 225 255
202 225 255
202 225 255
202 225 255
202 225 255
202 225 255
202 225 255
202 225 255
202 225 255
202 225 255
202 225 255
203 225 255
203 225 255
203 225 255
203 225 255
203 225 255
203 225 255
203 225 255
203 225 255
203 225 255
203 225 255
203 226 255
203 226 255
203 226 255
203 226 255
203 226 255
203 226 255
203 226 255
204 226 255
204 226 255
204 226 255
204 226 255
204 226 255
204 226 255
204 226 255
204 226 255
204 226 255
204 226 255
204 226 255
204 226 255
204 226 255
204 226 255
204 226 255
204 226 255
205 226 255
205 226 255
205 226 255
205 226 255
205 226 255
205 226 255
205 226 255
205 227 255
205 227 255
205 227 255
205 227 255
205 227 255
205 227 255
205 227 255
205 227 255
205 227 255
206 227 255
206 227 255
206 227 255
206 227 255
206 227 255
206 227 255
206 227 255
206 227 255
206 227 255
206 227 255
206 227 255
206 227 255
206 227 255
206 227 255
206 227 255
206 227 255
206 227 255
206 227 255
207 227 255
207 227 255
207 227 255
207 228 255
207 228 255
207 228 255
207 228 255
207 228 255
207 228 255
207 228 255
207 228 255
207 228 255
207 228 255
207 228 255
207 228 255
207 228 255
207 228 255
207 228 255
208 228 255
208 228 255
208 228 255
208 228 255
208 228 255
208 228 255
208 228 255
208 228 255
208 228 255
208 228 255
208 228 255
208 228 255
208 228 255
208 228 255
208 228 255
208 228 255
208 228 255
208 228 255
208 228 255
209 228 255
209 228 255
209 229 255
209 229 255
209 229 255
209 229 255
209 229 255
209 229 255
209 229 255
209 229 255
209 229 255
209 229 255
209 229 255
209 229 255
209 229 255
209 229 255
209 229 255
209 229 255
209 229 255
209 229 255
209 229 255
209 229 255
209 229 255
210 229 255
210 229 255
210 229 255
210 229 255
210 229 255
210 229 255
210 229 255
210 229 255
210 229 255
210 229 255
210 229 255
210 229 255
210 229 255
209 229 255
209 229 255
209 229 255
209 229 255
209 229 255
209 229 255
209 229 255
209 229 255
209 229 255
209 229 255
209 229 255
209 229 255
209 229 255
209 229 255
209 229 255
209 229 255
209 229 255
209 229 255
209 229 255
209 229 255
209 229 255
209 228 255
209 228 255
208 228 255
208 228 255
208 228 255
208 228 255
208 228 255
208 228 255
208 228 255
208 228 255
208 228 255
208 228 255
208 228 255
208 228 255
208 228 255
208 228 255
208 228 255
208 228 255
208 228 255
208 228 255
208 228 255
208 228 255
207 228 255
207 228 255
207 228 255
207 228 255
207 228 255
207 228 255
207 228 255
207 228 255
207 228 255
207 228 255
207 228 255
207 228 255
207 228 255
207 228 255
207 227 255
207 227 255
207 227 255
207 227 255
206 227 255
206 227 255
206 227 255
206 227 255
206 227 255
206 227 255
206 227 255
206 227 255
206 227 255
206 227 255
206 227 255
206 227 255
206 227 255
206 227 255
206 227 255
206 227 255
206 227 255
205 227 255
205 227 255
205 227 255
205 227 255
205 227 255
205 227 255
205 227 255
205 227 255
205 227 255
205 227 255
205 226 255
205 226 255
205 226 255
205 226 255
205 226 255
205 226 255
204 226 255
204 226 255
204 226 255
204 226 255
204 226 255
204 226 255
204 226 255
204 226 255
204 226 255
204 226 255
204 226 255
204 226 255
204 226 255
204 226 255
204 226 255
204 226 255
204 226 255
203 226 255
203 226 255
203 226 255
203 226 255
203 226 255
203 226 255
203 226 255
203 225 255
203 225 255
203 225 255
203 225 255
203 225 255
203 225 255
203 225 255
203 225 255
203 225 255
202 225 255
202 225 255
202 225 255
202 225 255
202 225 255
202 225 255
202 225 255
202 225 255
202 225 255
202 225 255
202 225 255
202 225 255
202 225 255
202 225 255
202 225 255
202 225 255
202 225 255
202 225 255
202 225 255
201 225 255
201 225 255
201 225 255
201 225 255
201 225 255
201 225 255
201 224 255
201 224 255
201 224 255
201 224 255
201 224 255
201 224 255
201 224 255
201 224 255
201 224 255
201 224 255
201 224 255
201 224 255
201 224 255
201 224 255
201 224 255
201 224 255
201 224 255
201 224 255
201 224 255
201 224 255
201 224 255
201 224 255
201 224 255
200 224 255
200 224 255
200 224 255
200 224 255
200 224 255
200 224 255
200 224 255
200 224 255
200 224 255
200 224 255
200 224 255
200 224 255
200 224 255
200 224 255
200 224 255
200 224 255
200 224 255
200 224 255
200 224 255
200 224 255
200 224 255
200 224 255
200 224 255
200 224 255
200 224 255
200 224 255
200 224 255
200 224 255
200 224 255
200 224 255
200 224 255
200 224 255
200 224 255
201 224 255
201 224 255
201 224 255
201 224 255
201 224 255
201 224 255
201 224 255
201 224 255
201 224 255
201 224 255
201 224 255
201 224 255
201 224 255
201 224 255
201 224 255
201 224 255
201 224 255
201 224 255
201 224 255
201 224 255
201 224 255
201 224 255
201 224 255
201 224 255
201 225 255
201 225 255
201 225 255
201 225 255
201 225 255
201 225 255
202 225 255
202 225 255
202 225 255
202 225 255
202 225 255
202 225 255
202 225 255
202 225 255
202 225 255
202 225 255
202 225 255
202 225 255
202 225 255
202 225 255
202 225 255
202 225 255
202 225 255
202 225 255
202 225 255
203 225 255
203 225 255
203 225 255
203 225 255
203 225 255
203 225 255
203 225 255
203 225 255
203 225 255
203 225 255
203 226 255
203 226 255
203 226 255
203 226 255
203 226 255
203 226 255
203 226 255
204 226 255
204 226 255
204 226 255
204 226 255
204 226 255
204 226 255
204 226 255
204 226 255
204 226 255
204 226 255
204 226 255
204 226 255
204 226 255
204 226 255
204 226 255
204 226 255
205 226 255
205 226 255
205 226 255
205 226 255
205 226 255
205 226 255
205 227 255
205 227 255
205 227 255
205 227 255
205 227 255
205 227 255
205 227 255
205 227 255
205 227 255
205 227 255
206 227 255
206 227 255
206 227 255
206 227 255
206 227 255
206 227 255
206 227 255
206 227 255
206 227 255
206 227 255
206 227 255
206 227 255
206 227 255
206 227 255
206 227 255
206 227 255
206 227 255
207 227 255
207 227 255
207 227 255
207 227 255
207 228 255
207 228 255
207 228 255
207 228 255
207 228 255
207 228 255
207 228 255
207 228 255
207 228 255
207 228 255
207 228 255
207 228 255
207 228 255
207 228 255
207 228 255
208 228 255
208 228 255
208 228 255
208 228 255
208 228 255
208 228 255
208 228 255
208 228 255
208 228 255
208 228 255
208 228 255
208 228 255
208 228 255
208 228 255
208 228 255
208 228 255
208 228 255
208 228 255
208 228 255
209 228 255
209 228 255
209 229 255
209 229 255
209 229 255
209 229 255
209 229 255
209 229 255
209 229 255
209 229 255
209 229 255
209 229 255
209 229 255
209 229 255
209 229 255
209 229 255
209 229 255
209 229 255
209 229 255
209 229 255
209 229 255
209 229 255
210 229 255
210 229 255
210 229 255
210 229 255
210 229 255
210 229 255
210 229 255
210 229 255
210 229 255
210 229 255
210 229 255
210 229 255
210 229 255
210 229 255
210 229 255
210 229 255
210 229 255
210 229 255
210 229 255
210 229 255
210 229 255
209 229 255
209 229 255
209 229 255
209 229 255
209 229 255
209 229 255
209 229 255
209 229 255
209 229 255
209 229 255
209 229 255
209 229 255
209 229 255
209 229 255
209 229 255
209 229 255
209 229 255
209 229 255
209 229 255
209 229 255
209 229 255
209 228 255
208 228 255
208 228 255
208 228 255
208 228 255
208 228 255
208 228 255
208 228 255
208 228 255
208 228 255
208 228 255
208 228 255
208 228 255
208 228 255
208 228 255
208 228 255
208 228 255
208 228 255
208 228 255
208 228 255
207 228 255
207 228 255
207 228 255
207 228 255
207 228 255
207 228 255
207 228 255
207 228 255
207 228 255
207 228 255
207 228 255
207 228 255
207 228 255
207 228 255
207 227 255
207 227 255
207 227 255
207 227 255
207 227 255
206 227 255
206 227 255
206 227 255
206 227 255
206 227 255
206 227 255
206 227 255
206 227 255
206 227 255
206 227 255
206 227 255
206 227 255
206 227 255
206 227 255
206 227 255
206 227 255
206 227 255
205 227 255
205 227 255
205 227 255
205 227 255
205 227 255
205 227 255
205 227 255
205 227 255
205 227 255
205 227 255
205 226 255
205 226 255
205 226 255
205 226 255
205 226 255
205 226 255
205 226 255
204 226 255
204 226 255
204 226 255
204 226 255
204 226 255
204 226 255
204 226 255
204 226 255
204 226 255
204 226 255
204 226 255
204 226 255
204 226 255
204 226 255
204 226 255
204 226 255
203 226 255
203 226 255
203 226 255
203 226 255
203 226 255
203 226 255
203 226 255
203 225 255
203 225 255
203 225 255
203 225 255
203 225 255
203 225 255
203 225 255
203 225 255
203 225 255
203 225 255
202 225 255
202 225 255
202 225 255
202 225 255
202 225 255
202 225 255
202 225 255
202 225 255
202 225 255
202 225 255
202 225 255
202 225 255
202 225 255
202 225 255
202 225 255
202 225 255
202 225 255
202 225 255
202 225 255
201 225 255
201 225 255
201 225 255
201 225 255
201 225 255
201 225 255
201 225 255
201 225 255
201 224 255
201 224 255
201 224 255
201 224 255
201 224 255
201 224 255
201 224 255
201 224 255
201 224 255
201 224 255
201 224 255
201 224 255
201 224 255
201 224 255
201 224 255
201 224 255
201 224 255
201 224 255
201 224 255
201 224 255
201 224 255
201 224 255
201 224 255
201 224 255
201 224 255
201 224 255
201 224 255
201 224 255
201 224 255
201 224 255
201 224 255
201 224 255
200 224 255
201 224 255
201 224 255
200 224 255
201 224 255
200 224 255
201 224 255
201 224 255
201 224 255
201 224 255
201 224 255
201 224 255
201 224 255
201 224 255
201 224 255
201 224 255
201 224 255
201 224 255
201 224 255
201 224 255
201 224 255
201 224 255
201 224 255
201 224 255
201 224 255
201 224 255
201 224 255
201 224 255
201 224 255
201 224 255
201 224 255
201 224 255
201 224 255
201 224 255
201 224 255
201 224 255
201 225 255
201 225 255
201 225 255
201 225 255
201 225 255
201 225 255
201 225 255
201 225 255
202 225 255
202 225 255
202 225 255
202 225 255
202 225 255
202 225 255
202 225 255
202 225 255
202 225 255
202 225 255
202 225 255
202 225 255
202 225 255
202 225 255
202 225 255
202 225 255
202 225 255
202 225 255
202 225 255
203 225 255
203 225 255
203 225 255
203 225 255
203 225 255
203 225 255
203 225 255
203 225 255
203 225 255
203 225 255
203 226 255
203 226 255
203 226 255
203 226 255
203 226 255
203 226 255
203 226 255
204 226 255
204 226 255
204 226 255
204 226 255
204 226 255
204 226 255
204 226 255
204 226 255
204 226 255
204 226 255
204 226 255
204 226 255
204 226 255
204 226 255
204 226 255
204 226 255
204 226 255
205 226 255
205 226 255
205 226 255
205 226 255
205 226 255
205 226 255
205 227 255
205 227 255
205 227 255
205 227 255
205 227 255
205 227 255
205 227 255
205 227 255
205 227 255
205 227 255
206 227 255
206 227 255
206 227 255
206 227 255
206 227 255
206 227 255
206 227 255
206 227 255
206 227 255
206 227 255
206 227 255
206 227 255
206 227 255
206 227 255
206 227 255
206 227 255
206 227 255
207 227 255
207 227 255
207 227 255
207 227 255
207 228 255
207 228 255
207 228 255
207 228 255
207 228 255
207 228 255
207 228 255
207 228 255
207 228 255
207 228 255
207 228 255
207 228 255
207 228 255
207 228 255
208 228 255
208 228 255
208 228 255
208 228 255
208 228 255
208 228 255
208 228 255
208 228 255
208 228 255
208 228 255
208 228 255
208 228 255
208 228 255
208 228 255
208 228 255
208 228 255
208 228 255
208 228 255
208 228 255
208 228 255
209 228 255
209 228 255
209 229 255
209 229 255
209 229 255
209 229 255
209 229 255
209 229 255
209 229 255
209 229 255
209 229 255
209 229 255
209 229 255
209 229 255
209 229 255
209 229 255
209 229 255
209 229 255
209 229 255
209 229 255
209 229 255
209 229 255
210 229 255
210 229 255
210 229 255
210 229 255
210 229 255
210 229 255
210 229 255
210 229 255
210 229 255
210 229 255
210 229 255
210 229 255
210 229 255
210 229 255
210 229 255
210 229 255
210 229 255
210 229 255
210 229 255
210 229 255
210 229 255
210 229 255
210 229 255
210 229 255
210 229 255
210 229 255
210 229 255
209 229 255
209 229 255
209 229 255
209 229 255
209 229 255
209 229 255
209 229 255
209 229 255
209 229 255
209 229 255
209 229 255
209 229 255
209 229 255
209 229 255
209 229 255
209 229 255
209 229 255
209 229 255
209 229 255
209 229 255
209 229 255
209 228 255
209 228 255
208 228 255
208 228 255
208 228 255
208 228 255
208 228 255
208 228 255
208 228 255
208 228 255
208 228 255
208 228 255
208 228 255
208 228 255
208 228 255
208 228 255
208 228 255
208 228 255
208 228 255
208 228 255
208 228 255
207 228 255
207 228 255
207 228 255
207 228 255
207 228 255
207 228 255
207 228 255
207 228 255
207 228 255
207 228 255
207 228 255
207 228 255
207 228 255
207 228 255
207 227 255
207 227 255
207 227 255
207 227 255
206 227 255
206 227 255
206 227 255
206 227 255
206 227 255
206 227 255
206 227 255
206 227 255
206 227 255
206 227 255
206 227 255
206 227 255
206 227 255
206 227 255
206 227 255
206 227 255
206 227 255
205 227 255
205 227 255
205 227 255
205 227 255
205 227 255
205 227 255
205 227 255
205 227 255
205 227 255
205 227 255
205 226 255
205 226 255
205 226 255
205 226 255
205 226 255
205 226 255
204 226 255
204 226 255
204 226 255
204 226 255
204 226 255
204 226 255
204 226 255
204 226 255
204 226 255
204 226 255
204 226 255
204 226 255
204 226 255
204 226 255
204 226 255
204 226 255
204 226 255
203 226 255
203 226 255
203 226 255
203 226 255
203 226 255
203 226 255
203 226 255
203 225 255
203 225 255
203 225 255
203 225 255
203 225 255
203 225 255
203 225 255
203 225 255
203 225 255
203 225 255
203 225 255
202 225 255
202 225 255
202 225 255
202 225 255
202 225 255
202 225 255
202 225 255
202 225 255
202 225 255
202 225 255
202 225 255
202 225 255
202 225 255
202 225 255
202 225 255
202 225 255
202 225 255
202 225 255
202 225 255
202 225 255
202 225 255
201 225 255
201 225 255
201 225 255
201 225 255
201 225 255
201 225 255
201 225 255
201 225 255
201 224 255
201 224 255
201 224 255
201 224 255
201 224 255
201 224 255
201 224 255
201 224 255
201 224 255
201 224 255
201 224 255
201 224 255
201 224 255
201 224 255
201 224 255
201 224 255
201 224 255
201 224 255
201 224 255
201 224 255
201 224 255
201 224 255
201 224 255
201 224 255
201 224 255
201 224 255
201 224 255
201 224 255
201 224 255
201 224 255
201 224 255
201 224 255
201 224 255
201 224 255
201 224 255
201 224 255
201 224 255
201 224 255
201 224 255
201 224 255
201 224 255
201 224 255
201 224 255
201 224 255
201 224 255
201 224 255
201 224 255
201 224 255
201 224 255
201 224 255
201 224 255
201 224 255
201 224 255
201 224 255
201 224 255
201 224 255
201 225 255
201 225 255
201 225 255
201 225 255
201 225 255
201 225 255
201 225 255
201 225 255
202 225 255
202 225 255
202 225 255
202 225 255
202 225 255
202 225 255
202 225 255
202 225 255
202 225 255
202 225 255
202 225 255
202 225 255
202 225 255
202 225 255
202 225 255
202 225 255
202 225 255
202 225 255
202 225 255
202 225 255
202 225 255
203 225 255
203 225 255
203 225 255
203 225 255
203 225 255
203 225 255
203 225 255
203 225 255
203 225 255
203 225 255
203 226 255
203 226 255
203 226 255
203 226 255
203 226 255
203 226 255
203 226 255
204 226 255
204 226 255
204 226 255
204 226 255
204 226 255
204 226 255
204 226 255
204 226 255
204 226 255
204 226 255
204 226 255
204 226 255
204 226 255
204 226 255
204 226 255
204 226 255
204 226 255
205 226 255
205 226 255
205 226 255
205 226 255
205 226 255
205 226 255
205 226 255
205 227 255
205 227 255
205 227 255
205 227 255
205 227 255
205 227 255
205 227 255
205 227 255
205 227 255
205 227 255
206 227 255
206 227 255
206 227 255
206 227 255
206 227 255
206 227 255
206 227 255
206 227 255
206 227 255
206 227 255
206 227 255
206 227 255
206 227 255
206 227 255
206 227 255
206 227 255
206 227 255
207 227 255
207 227 255
207 227 255
207 227 255
207 228 255
207 228 255
207 228 255
207 228 255
207 228 255
207 228 255
207 228 255
207 228 255
207 228 255
207 228 255
207 228 255
207 228 255
207 228 255
207 228 255
208 228 255
208 228 255
208 228 255
208 228 255
208 228 255
208 228 255
208 228 255
208 228 255
208 228 255
208 228 255
208 228 255
208 228 255
208 228 255
208 228 255
208 228 255
208 228 255
208 228 255
208 228 255
208 228 255
208 228 255
209 228 255
209 229 255
209 229 255
209 229 255
209 229 255
209 229 255
209 229 255
209 229 255
209 229 255
209 229 255
209 229 255
209 229 255
209 229 255
209 229 255
209 229 255
209 229 255
209 229 255
209 229 255
209 229 255
209 229 255
209 229 255
209 229 255
210 229 255
210 229 255
210 229 255
210 229 255
210 229 255
210 229 255
210 229 255
210 229 255
210 229 255
210 229 255
210 229 255
210 229 255
210 229 255
210 229 255
210 229 255
210 229 255
210 229 255
210 229 255
210 229 255
210 229 255
210 229 255
210 229 255
210 229 255
210 229 255
210 229 255
210 229 255
210 229 255
210 229 255
210 229 255
210 229 255
210 229 255
210 229 255
210 229 255
210 229 255
209 229 255
209 229 255
209 229 255
209 229 255
209 229 255
209 229 255
209 229 255
209 229 255
209 229 255
209 229 255
209 229 255
209 229 255
209 229 255
209 229 255
209 229 255
209 229 255
209 229 255
209 229 255
209 229 255
209 229 255
209 229 255
209 228 255
208 228 255
208 228 255
208 228 255
208 228 255
208 228 255
208 228 255
208 228 255
208 228 255
208 228 255
208 228 255
208 228 255
208 228 255
208 228 255
208 228 255
208 228 255
208 228 255
208 228 255
208 228 255
208 228 255
208 228 255
207 228 255
207 228 255
207 228 255
207 228 255
207 228 255
207 228 255
207 228 255
207 228 255
207 228 255
207 228 255
207 228 255
207 228 255
207 228 255
207 227 255
207 227 255
207 227 255
207 227 255
207 227 255
206 227 255
206 227 255
206 227 255
206 227 255
206 227 255
206 227 255
206 227 255
206 227 255
206 227 255
206 227 255
206 227 255
206 227 255
206 227 255
206 227 255
206 227 255
206 227 255
205 227 255
205 227 255
205 227 255
205 227 255
205 227 255
205 227 255
205 227 255
205 227 255
205 227 255
205 227 255
205 226 255
205 226 255
205 226 255
205 226 255
205 226 255
205 226 255
205 226 255
204 226 255
204 226 255
204 226 255
204 226 255
204 226 255
204 226 255
204 226 255
204 226 255
204 226 255
204 226 255
204 226 255
204 226 255
204 226 255
204 226 255
204 226 255
204 226 255
204 226 255
203 226 255
203 226 255
203 226 255
203 226 255
203 226 255
203 226 255
203 226 255
203 226 255
203 225 255
203 225 255
203 225 255
203 225 255
203 225 255
203 225 255
203 225 255
203 225 255
203 225 255
202 225 255
202 225 255
202 225 255
202 225 255
202 225 255
202 225 255
202 225 255
202 225 255
202 225 255
202 225 255
202 225 255
202 225 255
202 225 255
202 225 255
202 225 255
202 225 255
202 225 255
202 225 255
202 225 255
202 225 255
202 225 255
202 225 255
202 225 255
201 225 255
201 225 255
201 225 255
201 225 255
201 225 255
201 225 255
201 225 255
201 225 255
201 225 255
201 225 255
201 224 255
201 224 255
201 224 255
201 224 255
201 224 255
201 224 255
201 224 255
201 224 255
201 224 255
201 224 255
201 224 255
201 224 255
201 224 255
201 224 255
201 224 255
201 224 255
201 224 255
201 224 255
201 224 255
201 224 255
201 224 255
201 224 255
201 224 255
201 224 255
201 224 255
201 224 255
201 224 255
201 224 255
201 224 255
201 224 255
201 224 255
201 224 255
201 224 255
201 224 255
201 224 255
201 224 255
201 224 255
201 224 255
201 224 255
201 224 255
201 224 255
201 225 255
201 225 255
201 225 255
201 225 255
201 225 255
201 225 255
201 225 255
201 225 255
201 225 255
201 225 255
202 225 255
202 225 255
202 225 255
202 225 255
202 225 255
202 225 255
202 225 255
202 225 255
202 225 255
202 225 255
202 225 255
202 225 255
202 225 255
202 225 255
202 225 255
202 225 255
202 225 255
202 225 255
202 225 255
202 225 255
202 225 255
202 225 255
202 225 255
202 225 255
203 225 255
203 225 255
203 225 255
203 225 255
203 225 255
203 225 255
203 225 255
203 225 255
203 225 255
203 225 255
203 226 255
203 226 255
203 226 255
203 226 255
203 226 255
203 226 255
203 226 255
203 226 255
204 226 255
204 226 255
204 226 255
204 226 255
204 226 255
204 226 255
204 226 255
204 226 255
204 226 255
204 226 255
204 226 255
204 226 255
204 226 255
204 226 255
204 226 255
204 226 255
205 226 255
205 226 255
205 226 255
205 226 255
205 226 255
205 226 255
205 226 255
205 227 255
205 227 255
205 227 255
205 227 255
205 227 255
205 227 255
205 227 255
205 227 255
205 227 255
205 227 255
206 227 255
206 227 255
206 227 255
206 227 255
206 227 255
206 227 255
206 227 255
206 227 255
206 227 255
206 227 255
206 227 255
206 227 255
206 227 255
206 227 255
206 227 255
206 227 255
207 227 255
207 227 255
207 227 255
207 227 255
207 227 255
207 228 255
207 228 255
207 228 255
207 228 255
207 228 255
207 228 255
207 228 255
207 228 255
207 228 255
207 228 255
207 228 255
207 228 255
207 228 255
208 228 255
208 228 255
208 228 255
208 228 255
208 228 255
208 228 255
208 228 255
208 228 255
208 228 255
208 228 255
208 228 255
208 228 255
208 228 255
208 228 255
208 228 255
208 228 255
208 228 255
208 228 255
208 228 255
208 228 255
209 228 255
209 229 255
209 229 255
209 229 255
209 229 255
209 229 255
209 229 255
209 229 255
209 229 255
209 229 255
209 229 255
209 229 255
209 229 255
209 229 255
209 229 255
209 229 255
209 229 255
209 229 255
209 229 255
209 229 255
209 229 255
209 229 255
210 229 255
210 229 255
210 229 255
210 229 255
210 229 255
210 229 255
210 229 255
210 229 255
210 229 255
210 229 255
210 229 255
210 229 255
210 229 255
210 229 255
210 229 255
210 229 255
210 229 255
210 229 255
210 229 255
210 230 255
210 229 255
210 229 255
210 229 255
210 229 255
210 229 255
210 229 255
210 229 255
210 229 255
210 229 255
210 229 255
210 229 255
210 229 255
210 229 255
210 229 255
210 229 255
210 229 255
210 229 255
210 229 255
210 229 255
210 229 255
210 229 255
210 229 255
209 229 255
209 229 255
209 229 255
209 229 255
209 229 255
209 229 255
209 229 255
209 229 255
209 229 255
209 229 255
209 229 255
209 229 255
209 229 255
209 229 255
209 229 255
209 229 255
209 229 255
209 229 255
209 229 255
209 229 255
209 228 255
209 228 255
208 228 255
208 228 255
208 228 255
208 228 255
208 228 255
208 228 255
208 228 255
208 228 255
208 228 255
208 228 255
208 228 255
208 228 255
208 228 255
208 228 255
208 228 255
208 228 255
208 228 255
208 228 255
208 228 255
207 228 255
207 228 255
207 228 255
207 228 255
207 228 255
207 228 255
207 228 255
207 228 255
207 228 255
207 228 255
207 228 255
207 228 255
207 228 255
207 228 255
207 227 255
207 227 255
207 227 255
207 227 255
206 227 255
206 227 255
206 227 255
206 227 255
206 227 255
206 227 255
206 227 255
206 227 255
206 227 255
206 227 255
206 227 255
206 227 255
206 227 255
206 227 255
206 227 255
206 227 255
206 227 255
205 227 255
205 227 255
205 227 255
205 227 255
205 227 255
205 227 255
205 227 255
205 227 255
205 227 255
205 227 255
205 226 255
205 226 255
205 226 255
205 226 255
205 226 255
205 226 255
205 226 255
204 226 255
204 226 255
204 226 255
204 226 255
204 226 255
204 226 255
204 226 255
204 226 255
204 226 255
204 226 255
204 226 255
204 226 255
204 226 255
204 226 255
204 226 255
204 226 255
204 226 255
203 226 255
203 226 255
203 226 255
203 226 255
203 226 255
203 226 255
203 226 255
203 225 255
203 225 255
203 225 255
203 225 255
203 225 255
203 225 255
203 225 255
203 225 255
203 225 255
203 225 255
203 225 255
202 225 255
202 225 255
202 225 255
202 225 255
202 225 255
202 225 255
202 225 255
202 225 255
202 225 255
202 225 255
202 225 255
202 225 255
202 225 255
202 225 255
202 225 255
202 225 255
202 225 255
202 225 255
202 225 255
202 225 255
202 225 255
202 225 255
202 225 255
202 225 255
202 225 255
201 225 255
201 225 255
201 225 255
201 225 255
201 225 255
201 225 255
201 225 255
201 225 255
201 225 255
201 225 255
201 225 255
201 225 255
201 225 255
201 225 255
201 225 255
201 225 255
201 225 255
201 225 255
201 225 255
201 224 255
201 224 255
201 224 255
201 224 255
201 224 255
201 224 255
201 224 255
201 224 255
201 224 255
201 225 255
201 224 255
201 224 255
201 225 255
201 225 255
201 225 255
201 225 255
201 225 255
201 225 255
201 225 255
201 225 255
201 225 255
201 225 255
201 225 255
201 225 255
201 225 255
201 225 255
201 225 255
201 225 255
202 225 255
202 225 255
202 225 255
202 225 255
202 225 255
202 225 255
202 225 255
202 225 255
202 225 255
202 225 255
202 225 255
202 225 255
202 225 255
202 225 255
202 225 255
202 225 255
202 225 255
202 225 255
202 225 255
202 225 255
202 225 255
202 225 255
202 225 255
202 225 255
202 225 255
202 225 255
203 225 255
203 225 255
203 225 255
203 225 255
203 225 255
203 225 255
203 225 255
203 225 255
203 225 255
203 225 255
203 225 255
203 226 255
203 226 255
203 226 255
203 226 255
203 226 255
203 226 255
203 226 255
203 226 255
204 226 255
204 226 255
204 226 255
204 226 255
204 226 255
204 226 255
204 226 255
204 226 255
204 226 255
204 226 255
204 226 255
204 226 255
204 226 255
204 226 255
204 226 255
204 226 255
205 226 255
205 226 255
205 226 255
205 226 255
205 226 255
205 226 255
205 226 255
205 227 255
205 227 255
205 227 255
205 227 255
205 227 255
205 227 255
205 227 255
205 227 255
205 227 255
205 227 255
205 227 255
206 227 255
206 227 255
206 227 255
206 227 255
206 227 255
206 227 255
206 227 255
206 227 255
206 227 255
206 227 255
206 227 255
206 227 255
206 227 255
206 227 255
206 227 255
206 227 255
207 227 255
207 227 255
207 227 255
207 228 255
207 228 255
207 228 255
207 228 255
207 228 255
207 228 255
207 228 255
207 228 255
207 228 255
207 228 255
207 228 255
207 228 255
207 228 255
207 228 255
207 228 255
208 228 255
208 228 255
208 228 255
208 228 255
208 228 255
208 228 255
208 228 255
208 228 255
208 228 255
208 228 255
208 228 255
208 228 255
208 228 255
208 228 255
208 228 255
208 228 255
208 228 255
208 228 255
208 228 255
209 228 255
208 228 255
209 229 255
209 229 255
209 229 255
209 229 255
209 229 255
209 229 255
209 229 255
209 229 255
209 229 255
209 229 255
209 229 255
209 229 255
209 229 255
209 229 255
209 229 255
209 229 255
209 229 255
209 229 255
209 229 255
209 229 255
210 229 255
210 229 255
210 229 255
210 229 255
210 229 255
210 229 255
210 229 255
210 229 255
210 229 255
210 229 255
210 229 255
210 229 255
210 229 255
210 229 255
210 229 255
210 229 255
210 229 255
210 229 255
210 229 255
210 229 255
210 229 255
210 229 255
210 230 255
211 230 255
211 230 255
211 230 255
210 230 255
210 230 255
210 230 255
210 229 255
210 229 255
210 229 255
210 229 255
210 229 255
210 229 255
210 229 255
210 229 255
210 229 255
210 229 255
210 229 255
210 229 255
210 229 255
210 229 255
210 229 255
210 229 255
210 229 255
210 229 255
210 229 255
210 229 255
210 229 255
209 229 255
209 229 255
209 229 255
209 229 255
209 229 255
209 229 255
209 229 255
209 229 255
209 229 255
209 229 255
209 229 255
209 229 255
209 229 255
209 229 255
209 229 255
209 229 255
209 229 255
209 229 255
209 229 255
209 228 255
209 228 255
208 228 255
208 228 255
208 228 255
208 228 255
208 228 255
208 228 255
208 228 255
208 228 255
208 228 255
208 228 255
208 228 255
208 228 255
208 228 255
208 228 255
208 228 255
208 228 255
208 228 255
208 228 255
208 228 255
207 228 255
207 228 255
207 228 255
207 228 255
207 228 255
207 228 255
207 228 255
207 228 255
207 228 255
207 228 255
207 228 255
207 228 255
207 228 255
207 228 255
207 227 255
207 227 255
207 227 255
207 227 255
206 227 255
206 227 255
206 227 255
206 227 255
206 227 255
206 227 255
206 227 255
206 227 255
206 227 255
206 227 255
206 227 255
206 227 255
206 227 255
206 227 255
206 227 255
206 227 255
206 227 255
205 227 255
205 227 255
205 227 255
205 227 255
205 227 255
205 227 255
205 227 255
205 227 255
205 227 255
205 226 255
205 226 255
205 226 255
205 226 255
205 226 255
205 226 255
205 226 255
205 226 255
204 226 255
204 226 255
204 226 255
204 226 255
204 226 255
204 226 255
204 226 255
204 226 255
204 226 255
204 226 255
204 226 255
204 226 255
204 226 255
204 226 255
204 226 255
204 226 255
204 226 255
203 226 255
203 226 255
203 226 255
203 226 255
203 226 255
203 226 255
203 226 255
203 226 255
203 226 255
203 225 255
203 225 255
203 225 255
203 225 255
203 225 255
203 225 255
203 225 255
203 225 255
203 225 255
203 225 255
203 225 255
202 225 255
202 225 255
202 225 255
202 225 255
202 225 255
202 225 255
202 225 255
202 225 255
202 225 255
202 225 255
202 225 255
202 225 255
202 225 255
202 225 255
202 225 255
202 225 255
202 225 255
202 225 255
202 225 255
202 225 255
202 225 255
202 225 255
202 225 255
202 225 255
202 225 255
202 225 255
202 225 255
202 225 255
202 225 255
202 225 255
202 225 255
201 225 255
202 225 255
201 225 255
201 225 255
201 225 255
201 225 255
201 225 255
201 225 255
201 225 255
201 225 255
201 225 255
201 225 255
201 225 255
201 225 255
201 225 255
201 225 255
201 225 255
201 225 255
201 225 255
201 225 255
201 225 255
201 225 255
201 225 255
201 225 255
201 225 255
202 225 255
202 225 255
202 225 255
202 225 255
202 225 255
202 225 255
202 225 255
202 225 255
202 225 255
202 225 255
202 225 255
202 225 255
202 225 255
202 225 255
202 225 255
202 225 255
202 225 255
202 225 255
202 225 255
202 225 255
202 225 255
202 225 255
202 225 255
202 225 255
202 225 255
202 225 255
202 225 255
202 225 255
202 225 255
202 225 255
202 225 255
202 225 255
202 225 255
203 225 255
203 225 255
203 225 255
203 225 255
203 225 255
203 225 255
203 225 255
203 225 255
203 225 255
203 225 255
203 226 255
203 226 255
203 226 255
203 226 255
203 226 255
203 226 255
203 226 255
203 226 255
203 226 255
204 226 255
204 226 255
204 226 255
204 226 255
204 226 255
204 226 255
204 226 255
204 226 255
204 226 255
204 226 255
204 226 255
204 226 255
204 226 255
204 226 255
204 226 255
204 226 255
205 226 255
205 226 255
205 226 255
205 226 255
205 226 255
205 226 255
205 226 255
205 226 255
205 227 255
205 227 255
205 227 255
205 227 255
205 227 255
205 227 255
205 227 255
205 227 255
205 227 255
205 227 255
206 227 255
206 227 255
206 227 255
206 227 255
206 227 255
206 227 255
206 227 255
206 227 255
206 227 255
206 227 255
206 227 255
206 227 255
206 227 255
206 227 255
206 227 255
206 227 255
206 227 255
207 227 255
207 227 255
207 227 255
207 227 255
207 228 255
207 228 255
207 228 255
207 228 255
207 228 255
207 228 255
207 228 255
207 228 255
207 228 255
207 228 255
207 228 255
207 228 255
207 228 255
207 228 255
208 228 255
208 228 255
208 228 255
208 228 255
208 228 255
208 228 255
208 228 255
208 228 255
208 228 255
208 228 255
208 228 255
208 228 255
208 228 255
208 228 255
208 228 255
208 228 255
208 228 255
208 228 255
208 228 255
209 228 255
209 228 255
209 229 255
209 229 255
209 229 255
209 229 255
209 229 255
209 229 255
209 229 255
209 229 255
209 229 255
209 229 255
209 229 255
209 229 255
209 229 255
209 229 255
209 229 255
209 229 255
209 229 255
209 229 255
209 229 255
210 229 255
210 229 255
210 229 255
210 229 255
210 229 255
210 229 255
210 229 255
210 229 255
210 229 255
210 229 255
210 229 255
210 229 255
210 229 255
210 229 255
210 229 255
210 229 255
210 229 255
210 229 255
210 229 255
210 229 255
210 229 255
210 229 255
210 229 255
210 230 255
211 230 255
211 230 255
211 230 255
211 230 255
211 230 255
211 230 255
211 230 255
211 230 255
211 230 255
210 230 255
210 230 255
210 230 255
210 229 255
210 229 255
210 229 255
210 229 255
210 229 255
210 229 255
210 229 255
210 229 255
210 229 255
210 229 255
210 229 255
210 229 255
210 229 255
210 229 255
210 229 255
210 229 255
210 229 255
210 229 255
210 229 255
210 229 255
210 229 255
210 229 255
209 229 255
209 229 255
209 229 255
209 229 255
209 229 255
209 229 255
209 229 255
209 229 255
209 229 255
209 229 255
209 229 255
209 229 255
209 229 255
209 229 255
209 229 255
209 229 255
209 229 255
209 229 255
209 229 255
209 228 255
209 228 255
208 228 255
208 228 255
208 228 255
208 228 255
208 228 255
208 228 255
208 228 255
208 228 255
208 228 255
208 228 255
208 228 255
208 228 255
208 228 255
208 228 255
208 228 255
208 228 255
208 228 255
208 228 255
207 228 255
207 228 255
207 228 255
207 228 255
207 228 255
207 228 255
207 228 255
207 228 255
207 228 255
207 228 255
207 228 255
207 228 255
207 228 255
207 228 255
207 227 255
207 227 255
207 227 255
207 227 255
207 227 255
206 227 255
206 227 255
206 227 255
206 227 255
206 227 255
206 227 255
206 227 255
206 227 255
206 227 255
206 227 255
206 227 255
206 227 255
206 227 255
206 227 255
206 227 255
206 227 255
206 227 255
205 227 255
205 227 255
205 227 255
205 227 255
205 227 255
205 227 255
205 227 255
205 227 255
205 227 255
205 227 255
205 226 255
205 226 255
205 226 255
205 226 255
205 226 255
205 226 255
205 226 255
204 226 255
204 226 255
204 226 255
204 226 255
204 226 255
204 226 255
204 226 255
204 226 255
204 226 255
204 226 255
204 226 255
204 226 255
204 226 255
204 226 255
204 226 255
204 226 255
204 226 255
203 226 255
203 226 255
203 226 255
203 226 255
203 226 255
203 226 255
203 226 255
203 226 255
203 226 255
203 225 255
203 225 255
203 225 255
203 225 255
203 225 255
203 225 255
203 225 255
203 225 255
203 225 255
203 225 255
203 225 255
203 225 255
202 225 255
202 225 255
202 225 255
202 225 255
202 225 255
202 225 255
202 225 255
202 225 255
202 225 255
202 225 255
202 225 255
202 225 255
202 225 255
202 225 255
202 225 255
202 225 255
202 225 255
202 225 255
202 225 255
202 225 255
202 225 255
202 225 255
202 225 255
202 225 255
202 225 255
202 225 255
202 225 255
202 225 255
202 225 255
202 225 255
202 225 255
202 225 255
202 225 255
202 225 255
202 225 255
202 225 255
202 225 255
202 225 255
202 225 255
202 225 255
202 225 255
202 225 255
202 225 255
202 225 255
202 225 255
202 225 255
202 225 255
202 225 255
202 225 255
202 225 255
202 225 255
202 225 255
202 225 255
202 225 255
202 225 255
202 225 255
202 225 255
202 225 255
202 225 255
202 225 255
202 225 255
202 225 255
202 225 255
202 225 255
202 225 255
202 225 255
202 225 255
202 225 255
202 225 255
202 225 255
202 225 255
202 225 255
202 225 255
202 225 255
202 225 255
202 225 255
202 225 255
202 225 255
203 225 255
203 225 255
203 225 255
203 225 255
203 225 255
203 225 255
203 225 255
203 225 255
203 225 255
203 225 255
203 225 255
203 225 255
203 225 255
203 226 255
203 226 255
203 226 255
203 226 255
203 226 255
203 226 255
203 226 255
203 226 255
204 226 255
204 226 255
204 226 255
204 226 255
204 226 255
204 226 255
204 226 255
204 226 255
204 226 255
204 226 255
204 226 255
204 226 255
204 226 255
204 226 255
204 226 255
204 226 255
204 226 255
204 226 255
205 226 255
205 226 255
205 226 255
205 226 255
205 226 255
205 226 255
205 227 255
205 227 255
205 227 255
205 227 255
205 227 255
205 227 255
205 227 255
205 227 255
205 227 255
205 227 255
206 227 255
206 227 255
206 227 255
206 227 255
206 227 255
206 227 255
206 227 255
206 227 255
206 227 255
206 227 255
206 227 255
206 227 255
206 227 255
206 227 255
206 227 255
206 227 255
206 227 255
207 227 255
207 227 255
207 227 255
207 227 255
207 228 255
207 228 255
207 228 255
207 228 255
207 228 255
207 228 255
207 228 255
207 228 255
207 228 255
207 228 255
207 228 255
207 228 255
207 228 255
207 228 255
208 228 255
208 228 255
208 228 255
208 228 255
208 228 255
208 228 255
208 228 255
208 228 255
208 228 255
208 228 255
208 228 255
208 228 255
208 228 255
208 228 255
208 228 255
208 228 255
208 228 255
208 228 255
208 228 255
209 228 255
209 228 255
209 229 255
209 229 255
209 229 255
209 229 255
209 229 255
209 229 255
209 229 255
209 229 255
209 229 255
209 229 255
209 229 255
209 229 255
209 229 255
209 229 255
209 229 255
209 229 255
209 229 255
209 229 255
209 229 255
210 229 255
210 229 255
210 229 255
210 229 255
210 229 255
210 229 255
210 229 255
210 229 255
210 229 255
210 229 255
210 229 255
210 229 255
210 229 255
210 229 255
210 229 255
210 229 255
210 229 255
210 229 255
210 229 255
210 229 255
210 229 255
210 229 255
210 230 255
210 230 255
210 230 255
211 230 255
211 230 255
211 230 255
211 230 255
211 230 255
211 230 255
211 230 255
211 230 255
211 230 255
211 230 255
211 230 255
211 230 255
211 230 255
211 230 255
211 230 255
211 230 255
210 230 255
210 230 255
210 230 255
210 229 255
210 229 255
210 229 255
210 229 255
210 229 255
210 229 255
210 229 255
210 229 255
210 229 255
210 229 255
210 229 255
210 229 255
210 229 255
210 229 255
210 229 255
210 229 255
210 229 255
210 229 255
210 229 255
210 229 255
210 229 255
209 229 255
209 229 255
209 229 255
209 229 255
209 229 255
209 229 255
209 229 255
185 202 226
194 213 238
185 204 228
199 219 245
187 205 229
172 190 214
198 217 243
198 218 246
180 198 220
202 222 248
185 205 231
188 208 235
203 223 250
185 202 223
183 203 229
206 226 253
203 223 250
206 226 253
198 217 242
208 228 255
208 228 255
208 228 255
208 228 255
208 228 255
208 228 255
208 228 255
208 228 255
208 228 255
208 228 255
208 228 255
208 228 255
208 228 255
208 228 255
207 228 255
207 228 255
207 228 255
207 228 255
207 228 255
207 228 255
207 228 255
207 228 255
207 228 255
207 228 255
207 228 255
207 228 255
207 228 255
207 228 255
207 227 255
207 227 255
207 227 255
207 227 255
206 227 255
206 227 255
206 227 255
206 227 255
206 227 255
206 227 255
206 227 255
206 227 255
206 227 255
206 227 255
206 227 255
206 227 255
206 227 255
206 227 255
206 227 255
206 227 255
206 227 255
205 227 255
205 227 255
205 227 255
205 227 255
205 227 255
205 227 255
205 227 255
205 227 255
205 227 255
205 227 255
205 226 255
205 226 255
205 226 255
205 226 255
205 226 255
205 226 255
205 226 255
205 226 255
204 226 255
204 226 255
204 226 255
204 226 255
204 226 255
204 226 255
204 226 255
204 226 255
204 226 255
204 226 255
204 226 255
204 226 255
204 226 255
204 226 255
204 226 255
204 226 255
204 226 255
203 226 255
203 226 255
203 226 255
203 226 255
203 226 255
203 226 255
203 226 255
203 226 255
203 226 255
203 226 255
203 225 255
203 225 255
203 225 255
203 225 255
203 225 255
203 225 255
203 225 255
203 225 255
203 225 255
203 225 255
203 225 255
203 225 255
202 225 255
202 225 255
202 225 255
202 225 255
202 225 255
202 225 255
202 225 255
202 225 255
202 225 255
202 225 255
202 225 255
202 225 255
202 225 255
202 225 255
202 225 255
202 225 255
202 225 255
202 225 255
202 225 255
202 225 255
202 225 255
202 225 255
202 225 255
202 225 255
202 225 255
202 225 255
202 225 255
202 225 255
202 225 255
202 225 255
202 225 255
202 225 255
202 225 255
202 225 255
202 225 255
202 225 255
202 225 255
202 225 255
202 225 255
202 225 255
202 225 255
202 225 255
202 225 255
202 225 255
202 225 255
202 225 255
202 225 255
202 225 255
202 225 255
202 225 255
202 225 255
202 225 255
202 225 255
202 225 255
202 225 255
202 225 255
202 225 255
202 225 255
202 225 255
202 225 255
202 225 255
202 225 255
202 225 255
202 225 255
202 225 255
202 225 255
202 225 255
202 225 255
203 225 255
203 225 255
203 225 255
203 225 255
203 225 255
203 225 255
203 225 255
203 225 255
203 225 255
203 225 255
203 225 255
203 225 255
203 225 255
203 226 255
203 226 255
203 226 255
203 226 255
203 226 255
203 226 255
203 226 255
203 226 255
204 226 255
204 226 255
204 226 255
204 226 255
204 226 255
204 226 255
204 226 255
204 226 255
204 226 255
204 226 255
204 226 255
204 226 255
204 226 255
204 226 255
204 226 255
204 226 255
204 226 255
204 226 255
204 226 255
205 226 255
205 226 255
205 226 255
205 226 255
205 226 255
205 226 255
205 226 255
205 227 255
205 227 255
205 227 255
205 227 255
205 227 255
205 227 255
205 227 255
205 227 255
205 227 255
205 227 255
206 227 255
206 227 255
206 227 255
206 227 255
206 227 255
206 227 255
206 227 255
206 227 255
206 227 255
206 227 255
206 227 255
206 227 255
206 227 255
206 227 255
206 227 255
206 227 255
206 227 255
207 227 255
207 227 255
207 227 255
207 227 255
207 227 255
207 228 255
207 228 255
207 228 255
207 228 255
207 228 255
207 228 255
207 228 255
207 228 255
207 228 255
207 228 255
207 228 255
207 228 255
207 228 255
208 228 255
208 228 255
208 228 255
208 228 255
208 228 255
208 228 255
208 228 255
208 228 255
208 228 255
208 228 255
208 228 255
208 228 255
208 228 255
198 217 242
206 224 245
194 209 229
205 223 245
188 200 217
205 223 245
192 206 220
174 173 168
139 140 144
180 188 191
183 185 177
188 197 204
173 175 158
181 183 173
195 205 208
174 181 188
200 211 220
190 201 217
206 224 245
209 229 255
193 206 220
206 224 245
209 229 255
209 229 255
209 229 255
209 229 255
209 229 255
210 229 255
210 229 255
210 229 255
210 229 255
210 229 255
210 229 255
210 229 255
210 229 255
210 229 255
210 229 255
210 229 255
210 229 255
210 229 255
210 229 255
210 229 255
210 229 255
210 229 255
210 229 255
210 229 255
210 229 255
210 229 255
210 230 255
210 230 255
210 230 255
211 230 255
211 230 255
211 230 255
211 230 255
211 230 255
211 230 255
211 230 255
211 230 255
211 230 255
211 230 255
211 230 255
211 230 255
211 230 255
211 230 255
211 230 255
211 230 255
211 230 255
211 230 255
211 230 255
211 230 255
211 230 255
211 230 255
211 230 255
211 230 255
210 230 255
210 230 255
210 230 255
210 229 255
210 229 255
210 229 255
210 229 255
210 229 255
210 229 255
210 229 255
210 229 255
210 229 255
210 229 255
210 229 255
210 229 255
201 219 242
210 229 255
199 218 240
179 195 217
184 203 228
185 204 226
178 197 223
187 206 232
181 200 220
168 185 208
164 182 191
178 199 226
170 190 217
175 196 224
150 169 191
165 185 202
161 180 202
177 198 226
173 193 214
172 192 220
175 197 226
173 193 220
180 201 228
159 178 191
156 177 203
168 189 212
169 190 217
157 176 196
178 199 228
165 184 209
173 194 222
166 186 208
166 187 214
164 184 210
171 190 210
156 174 197
153 172 198
175 193 211
170 189 202
203 223 250
205 226 253
206 226 253
208 228 255
208 228 255
208 228 255
208 228 255
208 228 255
208 228 255
207 228 255
207 228 255
207 228 255
207 228 255
207 228 255
207 228 255
207 228 255
207 228 255
207 228 255
207 228 255
207 228 255
207 228 255
207 228 255
207 228 255
207 228 255
207 227 255
207 227 255
207 227 255
207 227 255
206 227 255
206 227 255
206 227 255
206 227 255
206 227 255
206 227 255
206 227 255
206 227 255
206 227 255
206 227 255
206 227 255
206 227 255
206 227 255
206 227 255
206 227 255
206 227 255
206 227 255
205 227 255
205 227 255
205 227 255
205 227 255
205 227 255
205 227 255
205 227 255
205 227 255
205 227 255
205 227 255
205 226 255
205 226 255
205 226 255
205 226 255
205 226 255
205 226 255
205 226 255
204 226 255
204 226 255
204 226 255
204 226 255
204 226 255
204 226 255
204 226 255
204 226 255
204 226 255
204 226 255
204 226 255
204 226 255
204 226 255
204 226 255
204 226 255
204 226 255
204 226 255
204 226 255
204 226 255
203 226 255
203 226 255
203 226 255
203 226 255
203 226 255
203 226 255
203 226 255
203 226 255
203 226 255
203 225 255
203 225 255
203 225 255
203 225 255
203 225 255
203 225 255
203 225 255
203 225 255
203 225 255
203 225 255
203 225 255
203 225 255
203 225 255
203 225 255
203 225 255
202 225 255
203 225 255
202 225 255
202 225 255
202 225 255
202 225 255
202 225 255
202 225 255
202 225 255
202 225 255
202 225 255
202 225 255
202 225 255
202 225 255
202 225 255
202 225 255
202 225 255
202 225 255
202 225 255
202 225 255
202 225 255
202 225 255
202 225 255
202 225 255
202 225 255
202 225 255
202 225 255
202 225 255
202 225 255
202 225 255
202 225 255
202 225 255
202 225 255
202 225 255
202 225 255
202 225 255
202 225 255
202 225 255
202 225 255
202 225 255
202 225 255
202 225 255
202 225 255
202 225 255
202 225 255
202 225 255
202 225 255
202 225 255
202 225 255
202 225 255
202 225 255
203 225 255
202 225 255
202 225 255
203 225 255
203 225 255
203 225 255
203 225 255
203 225 255
203 225 255
203 225 255
203 225 255
203 225 255
203 225 255
203 225 255
203 225 255
203 225 255
203 225 255
203 226 255
203 226 255
203 226 255
203 226 255
203 226 255
203 226 255
203 226 255
203 226 255
203 226 255
203 226 255
204 226 255
204 226 255
204 226 255
204 226 255
204 226 255
204 226 255
204 226 255
204 226 255
204 226 255
204 226 255
204 226 255
204 226 255
204 226 255
204 226 255
204 226 255
204 226 255
204 226 255
204 226 255
204 226 255
205 226 255
205 226 255
205 226 255
205 226 255
205 226 255
205 226 255
205 226 255
205 227 255
205 227 255
205 227 255
205 227 255
205 227 255
205 227 255
205 227 255
205 227 255
205 227 255
205 227 255
206 227 255
206 227 255
206 227 255
206 227 255
206 227 255
206 227 255
206 227 255
206 227 255
206 227 255
206 227 255
206 227 255
206 227 255
206 227 255
206 227 255
206 227 255
206 227 255
206 227 255
207 227 255
207 227 255
207 227 255
207 227 255
207 227 255
207 228 255
207 228 255
207 228 255
207 228 255
207 228 255
207 228 255
207 228 255
207 228 255
207 228 255
207 228 255
207 228 255
207 228 255
207 228 255
207 228 255
208 228 255
208 228 255
208 228 255
208 228 255
208 228 255
208 228 255
205 223 245
198 213 231
182 191 202
200 218 242
181 184 165
174 172 158
173 168 126
167 160 121
172 175 159
161 151 97
147 129 76
153 139 84
153 144 90
143 124 74
159 148 91
144 128 74
168 163 108
156 144 90
158 150 97
166 156 98
156 147 95
162 151 91
161 151 91
151 136 82
166 151 91
154 145 89
143 133 82
165 154 97
150 134 76
129 114 72
155 143 88
144 123 73
143 132 82
170 159 97
167 152 91
159 151 115
154 150 130
192 195 181
180 179 159
201 215 231
182 193 214
204 222 242
210 229 255
210 229 255
210 229 255
210 229 255
210 229 255
210 229 255
210 229 255
210 229 255
210 229 255
210 229 255
210 229 255
210 229 255
210 230 255
210 230 255
210 230 255
211 230 255
211 230 255
211 230 255
211 230 255
211 230 255
211 230 255
211 230 255
211 230 255
211 230 255
211 230 255
211 230 255
211 230 255
211 230 255
211 230 255
211 230 255
211 230 255
211 230 255
211 230 255
211 230 255
211 230 255
211 230 255
211 230 255
211 230 255
211 230 255
211 230 255
211 230 255
211 230 255
211 230 255
211 230 255
211 230 255
211 230 255
210 230 255
210 230 255
210 230 255
210 230 255
210 229 255
210 229 255
208 227 253
202 220 246
189 207 231
181 198 220
187 206 231
162 180 204
162 180 202
170 190 217
174 194 217
169 190 217
153 171 188
156 173 192
157 176 200
149 167 183
155 173 188
174 194 222
166 188 212
164 183 209
175 196 224
160 180 205
173 195 223
143 161 174
158 178 205
167 189 218
174 198 228
164 186 214
172 194 224
163 185 214
166 188 217
169 190 217
165 187 217
166 185 211
166 188 217
157 179 204
173 196 226
172 197 228
170 192 222
166 188 217
174 197 226
169 190 218
164 185 212
175 198 228
160 181 209
170 192 220
166 185 205
166 186 214
170 190 217
163 183 209
169 189 217
179 198 224
185 204 229
172 191 212
192 213 240
208 228 255
208 228 255
208 228 255
208 228 255
208 228 255
207 228 255
207 228 255
207 228 255
207 228 255
207 228 255
207 228 255
207 228 255
207 228 255
207 228 255
207 228 255
207 228 255
207 228 255
207 228 255
207 227 255
207 227 255
207 227 255
207 227 255
207 227 255
206 227 255
206 227 255
206 227 255
206 227 255
206 227 255
206 227 255
206 227 255
206 227 255
206 227 255
206 227 255
206 227 255
206 227 255
206 227 255
206 227 255
206 227 255
206 227 255
206 227 255
205 227 255
205 227 255
205 227 255
205 227 255
205 227 255
205 227 255
205 227 255
205 227 255
205 227 255
205 227 255
205 226 255
205 226 255
205 226 255
205 226 255
205 226 255
205 226 255
205 226 255
205 226 255
204 226 255
204 226 255
204 226 255
204 226 255
204 226 255
204 226 255
204 226 255
204 226 255
204 226 255
204 226 255
204 226 255
204 226 255
204 226 255
204 226 255
204 226 255
204 226 255
204 226 255
204 226 255
204 226 255
204 226 255
203 226 255
203 226 255
203 226 255
203 226 255
203 226 255
203 226 255
203 226 255
203 226 255
203 226 255
203 226 255
203 226 255
203 225 255
203 225 255
203 225 255
203 225 255
203 225 255
203 225 255
203 225 255
203 225 255
203 225 255
203 225 255
203 225 255
203 225 255
203 225 255
203 225 255
203 225 255
203 225 255
203 225 255
203 225 255
203 225 255
202 225 255
202 225 255
202 225 255
202 225 255
202 225 255
202 225 255
202 225 255
202 225 255
202 225 255
202 225 255
202 225 255
202 225 255
202 225 255
202 225 255
202 225 255
202 225 255
202 225 255
202 225 255
202 225 255
202 225 255
202 225 255
202 225 255
202 225 255
202 225 255
202 225 255
202 225 255
202 225 255
202 225 255
202 225 255
202 225 255
202 225 255
202 225 255
202 225 255
203 225 255
203 225 255
203 225 255
203 225 255
203 225 255
203 225 255
203 225 255
203 225 255
203 225 255
203 225 255
203 225 255
203 225 255
203 225 255
203 225 255
203 225 255
203 225 255
203 225 255
203 225 255
203 226 255
203 225 255
203 226 255
203 226 255
203 226 255
203 226 255
203 226 255
203 226 255
203 226 255
203 226 255
203 226 255
204 226 255
204 226 255
204 226 255
204 226 255
204 226 255
204 226 255
204 226 255
204 226 255
204 226 255
204 226 255
204 226 255
204 226 255
204 226 255
204 226 255
204 226 255
204 226 255
204 226 255
204 226 255
204 226 255
204 226 255
205 226 255
205 226 255
205 226 255
205 226 255
205 226 255
205 226 255
205 226 255
205 226 255
205 227 255
205 227 255
205 227 255
205 227 255
205 227 255
205 227 255
205 227 255
205 227 255
205 227 255
206 227 255
206 227 255
206 227 255
206 227 255
206 227 255
206 227 255
206 227 255
206 227 255
206 227 255
206 227 255
206 227 255
206 227 255
206 227 255
206 227 255
206 227 255
206 227 255
206 227 255
206 227 255
207 227 255
207 227 255
207 227 255
207 227 255
207 228 255
207 228 255
207 228 255
207 228 255
207 228 255
207 228 255
207 228 255
207 228 255
207 228 255
207 228 255
207 228 255
207 228 255
207 228 255
207 228 255
208 228 255
208 228 255
208 228 255
208 228 255
204 223 245
205 223 245
186 190 189
178 180 162
137 118 64
172 165 122
146 137 84
128 115 64
149 135 81
142 128 74
145 135 82
145 136 88
166 162 108
152 143 90
141 126 80
157 145 85
152 140 90
169 163 108
172 164 103
163 152 97
171 165 108
161 147 90
170 169 114
154 145 90
162 152 95
165 159 103
153 136 82
154 145 90
168 157 97
169 162 102
148 139 88
155 153 102
142 125 74
159 150 97
152 145 91
163 152 95
144 130 75
163 152 97
136 128 81
159 147 95
157 143 88
170 163 104
169 160 103
148 144 95
161 148 90
157 152 95
148 135 80
144 126 69
172 158 114
149 140 108
171 170 144
182 188 188
210 229 255
210 229 255
210 229 255
210 229 255
210 229 255
210 230 255
210 230 255
211 230 255
211 230 255
211 230 255
211 230 255
211 230 255
211 230 255
211 230 255
211 230 255
211 230 255
211 230 255
211 230 255
211 230 255
211 230 255
211 230 255
211 230 255
211 230 255
211 230 255
211 230 255
211 230 255
211 230 255
211 230 255
211 230 255
211 230 255
211 230 255
211 230 255
211 230 255
211 230 255
211 230 255
211 230 255
211 230 255
211 230 255
211 230 255
211 230 255
211 230 255
211 230 255
211 230 255
196 213 237
203 221 247
184 202 223
175 192 207
154 171 188
158 175 197
177 197 224
162 180 196
165 185 210
175 195 222
177 198 226
159 179 204
161 181 204
169 190 217
178 200 228
169 190 217
175 197 226
176 198 228
157 177 203
177 199 228
159 181 209
173 196 226
156 177 200
172 196 226
175 198 228
172 195 224
175 198 228
173 197 228
172 196 228
171 196 228
175 198 228
172 197 228
172 197 228
172 197 228
174 197 228
172 195 226
170 196 228
164 186 214
151 173 202
169 193 223
173 197 228
167 189 219
164 188 217
173 197 228
153 175 204
164 186 215
165 188 214
175 198 228
159 181 209
161 184 214
164 185 212
167 191 222
166 188 217
164 186 214
168 191 217
167 189 217
158 178 205
165 187 212
168 189 217
158 176 195
169 187 207
202 223 250
199 219 246
208 228 255
208 228 255
208 228 255
208 228 255
207 228 255
207 228 255
207 228 255
207 228 255
207 228 255
207 228 255
207 228 255
207 228 255
207 228 255
207 228 255
207 228 255
207 228 255
207 228 255
207 227 255
207 227 255
207 227 255
207 227 255
206 227 255
206 227 255
206 227 255
206 227 255
206 227 255
206 227 255
206 227 255
206 227 255
206 227 255
206 227 255
206 227 255
206 227 255
206 227 255
206 227 255
206 227 255
206 227 255
206 227 255
206 227 255
205 227 255
205 227 255
205 227 255
205 227 255
205 227 255
205 227 255
205 227 255
205 227 255
205 227 255
205 227 255
205 227 255
205 226 255
205 226 255
205 226 255
205 226 255
205 226 255
205 226 255
205 226 255
204 226 255
204 226 255
204 226 255
204 226 255
204 226 255
204 226 255
204 226 255
204 226 255
204 226 255
204 226 255
204 226 255
204 226 255
204 226 255
204 226 255
204 226 255
204 226 255
204 226 255
204 226 255
204 226 255
204 226 255
204 226 255
204 226 255
203 226 255
203 226 255
203 226 255
203 226 255
203 226 255
203 226 255
203 226 255
203 226 255
203 226 255
203 226 255
203 226 255
203 225 255
203 225 255
203 225 255
203 225 255
203 225 255
203 225 255
203 225 255
203 225 255
203 225 255
203 225 255
203 225 255
203 225 255
203 225 255
203 225 255
203 225 255
203 225 255
203 225 255
203 225 255
203 225 255
203 225 255
203 225 255
203 225 255
203 225 255
203 225 255
203 225 255
203 225 255
203 225 255
203 225 255
203 225 255
203 225 255
203 225 255
203 225 255
203 225 255
203 225 255
203 225 255
203 225 255
203 225 255
203 225 255
203 225 255
203 225 255
203 225 255
203 225 255
203 225 255
203 225 255
203 225 255
203 225 255
203 225 255
203 225 255
203 225 255
203 225 255
203 225 255
203 225 255
203 225 255
203 225 255
203 225 255
203 225 255
203 225 255
203 225 255
203 226 255
203 226 255
203 226 255
203 226 255
203 226 255
203 226 255
203 226 255
203 226 255
203 226 255
203 226 255
203 226 255
203 226 255
204 226 255
204 226 255
204 226 255
204 226 255
204 226 255
204 226 255
204 226 255
204 226 255
204 226 255
204 226 255
204 226 255
204 226 255
204 226 255
204 226 255
204 226 255
204 226 255
204 226 255
204 226 255
204 226 255
204 226 255
204 226 255
205 226 255
205 226 255
205 226 255
205 226 255
205 226 255
205 226 255
205 226 255
205 227 255
205 227 255
205 227 255
205 227 255
205 227 255
205 227 255
205 227 255
205 227 255
205 227 255
205 227 255
205 227 255
206 227 255
206 227 255
206 227 255
206 227 255
206 227 255
206 227 255
206 227 255
206 227 255
206 227 255
206 227 255
206 227 255
206 227 255
206 227 255
206 227 255
206 227 255
206 227 255
206 227 255
206 227 255
207 227 255
207 227 255
207 227 255
207 227 255
207 228 255
207 228 255
207 228 255
207 228 255
207 228 255
207 228 255
207 228 255
207 228 255
207 228 255
207 228 255
207 228 255
207 228 255
207 228 255
208 228 255
208 228 255
208 228 255
199 215 232
195 211 231
180 184 177
181 183 162
151 137 82
162 160 108
169 160 103
140 131 82
161 155 102
134 127 82
153 140 82
151 137 84
162 148 87
159 148 91
169 160 103
140 130 82
160 152 96
146 127 74
142 126 75
158 147 90
143 134 84
160 146 89
155 142 84
151 144 88
141 125 74
168 163 108
154 144 88
156 142 82
162 155 102
147 134 82
155 149 97
147 136 84
143 137 88
158 147 91
144 135 84
149 138 84
162 151 97
176 172 114
152 138 82
161 145 90
164 153 96
159 141 82
156 148 95
161 154 97
135 125 80
169 161 102
175 169 109
161 146 90
139 125 72
132 116 65
141 128 72
149 142 95
150 143 90
155 142 84
150 135 82
156 143 85
146 139 90
163 151 91
161 148 88
154 133 67
186 188 166
172 178 173
191 204 217
200 213 231
211 230 255
211 230 255
211 230 255
211 230 255
211 230 255
211 230 255
211 230 255
211 230 255
211 230 255
211 230 255
211 230 255
211 230 255
211 230 255
211 230 255
211 230 255
211 230 255
211 230 255
211 230 255
211 230 255
211 230 255
211 230 255
211 230 255
211 230 255
211 230 255
211 230 255
211 230 255
211 230 255
211 230 255
211 230 255
211 230 255
211 230 255
211 230 255
208 226 251
195 213 237
182 199 217
180 199 225
170 188 212
173 192 216
134 149 161
178 199 226
175 196 224
165 185 212
176 196 222
157 176 200
171 190 217
180 201 228
169 190 217
176 198 226
175 197 226
177 199 228
172 194 224
158 180 205
175 196 224
175 198 228
176 198 228
177 199 228
177 199 228
173 196 226
177 199 228
177 199 228
170 194 224
175 198 228
173 196 226
171 196 228
173 197 228
174 197 228
172 197 228
170 196 228
173 197 228
171 196 228
173 197 228
170 196 228
171 196 228
170 196 228
171 196 228
173 197 228
169 193 223
171 196 228
171 196 228
170 195 228
172 197 228
171 196 228
171 196 228
172 196 228
170 195 228
170 195 228
171 196 228
164 188 214
173 197 228
168 192 222
166 189 217
172 195 226
163 187 218
171 195 226
163 187 217
172 195 224
163 185 210
164 186 214
174 197 226
162 181 207
178 197 223
186 207 231
179 198 217
195 214 240
208 228 255
208 228 255
207 228 255
207 228 255
207 228 255
207 228 255
207 228 255
207 228 255
207 228 255
207 228 255
207 228 255
207 228 255
207 228 255
207 228 255
207 228 255
207 228 255
207 227 255
207 227 255
207 227 255
207 227 255
206 227 255
206 227 255
206 227 255
206 227 255
206 227 255
206 227 255
206 227 255
206 227 255
206 227 255
206 227 255
206 227 255
206 227 255
206 227 255
206 227 255
206 227 255
206 227 255
206 227 255
206 227 255
205 227 255
205 227 255
205 227 255
205 227 255
205 227 255
205 227 255
205 227 255
205 227 255
205 227 255
205 227 255
205 227 255
205 226 255
205 226 255
205 226 255
205 226 255
205 226 255
205 226 255
205 226 255
204 226 255
204 226 255
204 226 255
204 226 255
204 226 255
204 226 255
204 226 255
204 226 255
204 226 255
204 226 255
204 226 255
204 226 255
204 226 255
204 226 255
204 226 255
204 226 255
204 226 255
204 226 255
204 226 255
204 226 255
204 226 255
204 226 255
203 226 255
204 226 255
203 226 255
203 226 255
203 226 255
203 226 255
203 226 255
203 226 255
203 226 255
203 226 255
203 226 255
203 226 255
203 226 255
203 226 255
203 226 255
203 226 255
203 226 255
203 225 255
203 225 255
203 225 255
203 225 255
203 225 255
203 225 255
203 225 255
203 225 255
203 225 255
203 225 255
203 225 255
203 225 255
203 225 255
203 225 255
203 225 255
203 225 255
203 225 255
203 225 255
203 225 255
203 225 255
203 225 255
203 225 255
203 225 255
203 225 255
203 225 255
203 225 255
203 225 255
203 225 255
203 225 255
203 225 255
203 225 255
203 225 255
203 225 255
203 225 255
203 225 255
203 225 255
203 225 255
203 225 255
203 226 255
203 225 255
203 226 255
203 226 255
203 226 255
203 226 255
203 226 255
203 226 255
203 226 255
203 226 255
203 226 255
203 226 255
203 226 255
203 226 255
203 226 255
204 226 255
204 226 255
204 226 255
204 226 255
204 226 255
204 226 255
204 226 255
204 226 255
204 226 255
204 226 255
204 226 255
204 226 255
204 226 255
204 226 255
204 226 255
204 226 255
204 226 255
204 226 255
204 226 255
204 226 255
204 226 255
204 226 255
204 226 255
204 226 255
205 226 255
205 226 255
205 226 255
205 226 255
205 226 255
205 226 255
205 226 255
205 226 255
205 227 255
205 227 255
205 227 255
205 227 255
205 227 255
205 227 255
205 227 255
205 227 255
205 227 255
205 227 255
206 227 255
206 227 255
206 227 255
206 227 255
206 227 255
206 227 255
206 227 255
206 227 255
206 227 255
206 227 255
206 227 255
206 227 255
206 227 255
206 227 255
206 227 255
206 227 255
206 227 255
207 227 255
207 227 255
207 227 255
207 227 255
207 228 255
207 228 255
207 228 255
207 228 255
207 228 255
207 228 255
207 228 255
207 228 255
207 228 255
207 228 255
207 228 255
207 228 255
207 228 255
207 228 255
207 228 255
208 228 255
208 228 255
200 217 242
199 213 231
171 169 141
167 162 121
152 141 90
168 153 90
161 148 91
153 141 90
154 142 90
155 149 97
150 141 88
167 158 98
157 151 97
154 147 95
167 155 97
153 140 84
159 149 91
165 153 91
148 140 90
160 145 89
147 132 81
159 147 91
151 137 77
150 140 90
153 136 82
152 133 76
165 159 103
139 129 82
159 154 102
171 158 97
147 138 88
167 160 102
162 158 103
171 155 91
161 148 90
172 163 103
152 140 89
152 139 84
145 140 90
170 158 98
160 149 91
150 138 84
173 168 109
155 140 84
162 146 85
163 147 84
155 149 97
171 164 108
162 158 103
144 131 80
149 143 88
165 158 98
162 158 103
146 129 72
149 143 90
170 152 90
170 157 97
160 154 102
152 132 81
164 150 91
168 155 97
149 134 77
141 125 74
158 144 90
151 136 82
143 126 74
150 134 81
140 132 82
157 150 115
191 197 204
199 214 228
195 211 228
211 230 255
211 230 255
211 230 255
211 230 255
211 230 255
211 230 255
211 230 255
211 230 255
211 230 255
211 230 255
211 230 255
211 230 255
211 230 255
211 230 255
212 230 255
212 230 255
212 230 255
212 230 255
212 230 255
211 230 255
211 230 255
211 230 255
211 230 255
211 230 255
211 230 255
198 215 240
197 216 237
140 155 172
169 188 212
172 191 217
179 198 224
171 190 214
178 199 226
176 197 224
153 171 196
172 193 217
172 193 217
180 201 228
177 199 228
176 198 226
174 197 226
171 193 217
173 193 217
174 197 226
174 196 226
175 197 226
174 198 228
173 197 228
174 198 228
175 198 228
173 197 228
175 198 228
174 198 228
175 198 228
173 197 228
175 198 228
173 197 228
172 197 228
170 196 228
173 197 228
173 197 228
169 195 228
172 197 228
173 197 228
170 196 228
171 196 228
169 195 228
169 195 228
169 195 228
172 197 228
169 195 228
169 195 228
170 196 228
171 196 228
171 196 228
170 196 228
170 195 228
170 196 228
169 195 228
170 196 228
170 195 228
168 195 228
169 195 228
169 195 228
168 195 228
170 196 228
171 196 228
170 196 228
170 196 228
172 196 228
167 193 226
172 194 224
171 196 228
164 186 212
173 197 228
168 191 217
161 182 209
155 176 203
155 176 204
167 188 217
167 187 214
195 216 243
205 225 253
208 228 255
208 228 255
208 228 255
207 228 255
207 228 255
207 228 255
207 228 255
207 228 255
207 228 255
207 228 255
207 228 255
207 228 255
207 228 255
207 228 255
207 228 255
207 228 255
207 228 255
207 227 255
207 227 255
207 227 255
207 227 255
206 227 255
206 227 255
206 227 255
206 227 255
206 227 255
206 227 255
206 227 255
206 227 255
206 227 255
206 227 255
206 227 255
206 227 255
206 227 255
206 227 255
206 227 255
206 227 255
206 227 255
206 227 255
206 227 255
205 227 255
205 227 255
205 227 255
205 227 255
205 227 255
205 227 255
205 227 255
205 227 255
205 227 255
205 227 255
205 227 255
205 226 255
205 226 255
205 226 255
205 226 255
205 226 255
205 226 255
205 226 255
204 226 255
204 226 255
204 226 255
204 226 255
204 226 255
204 226 255
204 226 255
204 226 255
204 226 255
204 226 255
204 226 255
204 226 255
204 226 255
204 226 255
204 226 255
204 226 255
204 226 255
204 226 255
204 226 255
204 226 255
204 226 255
204 226 255
204 226 255
204 226 255
204 226 255
203 226 255
203 226 255
203 226 255
203 226 255
203 226 255
203 226 255
203 226 255
203 226 255
203 226 255
203 226 255
203 226 255
203 226 255
203 226 255
203 226 255
203 226 255
203 226 255
203 226 255
203 226 255
203 226 255
203 226 255
203 226 255
203 226 255
203 226 255
203 226 255
203 226 255
203 226 255
203 226 255
203 226 255
203 226 255
203 226 255
203 226 255
203 226 255
203 226 255
203 226 255
203 226 255
203 226 255
203 226 255
203 226 255
203 226 255
203 226 255
203 226 255
203 226 255
203 226 255
203 226 255
203 226 255
203 226 255
203 226 255
203 226 255
203 226 255
203 226 255
203 226 255
203 226 255
203 226 255
203 226 255
203 226 255
203 226 255
204 226 255
204 226 255
204 226 255
204 226 255
204 226 255
204 226 255
204 226 255
204 226 255
204 226 255
204 226 255
204 226 255
204 226 255
204 226 255
204 226 255
204 226 255
204 226 255
204 226 255
204 226 255
204 226 255
204 226 255
204 226 255
204 226 255
204 226 255
204 226 255
204 226 255
205 226 255
205 226 255
205 226 255
205 226 255
205 226 255
205 226 255
205 226 255
205 226 255
205 227 255
205 227 255
205 227 255
205 227 255
205 227 255
205 227 255
205 227 255
205 227 255
205 227 255
205 227 255
205 227 255
206 227 255
206 227 255
206 227 255
206 227 255
206 227 255
206 227 255
206 227 255
206 227 255
206 227 255
206 227 255
206 227 255
206 227 255
206 227 255
206 227 255
206 227 255
206 227 255
206 227 255
206 227 255
207 227 255
207 227 255
207 227 255
207 227 255
207 228 255
207 228 255
207 228 255
207 228 255
207 228 255
207 228 255
207 228 255
207 228 255
207 228 255
207 228 255
207 228 255
207 228 255
207 228 255
207 228 255
208 228 255
208 228 255
208 228 255
171 174 171
163 156 146
168 166 141
145 133 81
142 134 88
158 145 90
147 137 84
149 139 88
146 133 82
165 157 98
131 114 66
147 138 88
155 151 97
136 115 62
163 155 98
151 142 90
164 150 91
150 133 77
129 115 72
156 144 90
154 137 82
155 146 95
164 158 103
161 151 93
145 138 90
154 152 102
168 162 98
164 156 102
164 159 103
154 139 79
167 160 103
169 160 98
151 143 90
138 125 81
152 141 88
168 165 108
158 147 90
161 155 97
176 169 109
165 159 103
138 125 80
153 148 95
154 142 85
150 138 84
172 165 108
150 146 95
157 152 102
175 163 98
137 120 72
173 165 103
173 171 114
158 153 97
155 151 95
148 138 82
159 154 98
167 157 98
148 127 72
156 146 91
150 133 81
172 162 103
150 140 82
158 152 95
175 169 109
165 152 90
135 112 62
171 164 108
143 134 88
148 127 65
160 147 85
168 159 102
169 156 97
157 147 82
155 144 90
173 163 103
143 131 81
156 140 84
196 204 198
198 210 220
211 230 255
211 230 255
211 230 255
211 230 255
211 230 255
211 230 255
211 230 255
212 230 255
212 230 255
212 230 255
212 230 255
212 230 255
212 230 255
212 230 255
212 230 255
212 230 255
212 230 255
212 230 255
207 226 251
194 213 238
184 202 223
176 194 212
164 180 198
158 174 196
174 195 221
182 201 226
170 188 208
183 202 228
176 198 226
178 200 228
178 200 228
178 200 228
174 196 224
170 192 217
173 197 228
178 200 228
178 200 228
173 196 226
176 199 228
175 198 228
174 198 228
175 198 228
175 198 228
175 198 228
173 197 228
173 197 228
175 198 228
172 196 228
171 196 228
173 197 228
173 197 228
171 196 228
171 196 228
171 196 228
174 197 228
169 195 228
170 195 228
169 195 228
170 195 228
168 194 228
170 195 228
172 197 228
171 196 228
168 195 228
168 195 228
168 194 228
170 196 228
171 196 228
169 195 228
171 196 228
169 195 228
168 195 228
169 195 228
170 195 228
168 195 228
168 195 228
168 195 228
167 194 228
167 194 228
168 195 228
169 195 228
167 194 228
169 195 228
166 194 228
170 196 228
169 195 228
168 194 228
172 196 228
169 195 228
172 196 228
173 197 228
172 196 228
170 195 226
172 196 228
170 195 228
164 186 211
164 188 217
166 190 217
173 195 224
148 168 188
143 160 174
161 180 205
199 219 246
200 220 247
208 228 255
208 228 255
208 228 255
207 228 255
207 228 255
207 228 255
207 228 255
207 228 255
207 228 255
207 228 255
207 228 255
207 228 255
207 228 255
207 228 255
207 228 255
207 228 255
207 228 255
207 227 255
207 227 255
207 227 255
207 227 255
206 227 255
206 227 255
206 227 255
206 227 255
206 227 255
206 227 255
206 227 255
206 227 255
206 227 255
206 227 255
206 227 255
206 227 255
206 227 255
206 227 255
206 227 255
206 227 255
206 227 255
206 227 255
205 227 255
205 227 255
205 227 255
205 227 255
205 227 255
205 227 255
205 227 255
205 227 255
205 227 255
205 227 255
205 227 255
205 227 255
205 226 255
205 226 255
205 226 255
205 226 255
205 226 255
205 226 255
205 226 255
205 226 255
204 226 255
204 226 255
204 226 255
204 226 255
204 226 255
204 226 255
204 226 255
204 226 255
204 226 255
204 226 255
204 226 255
204 226 255
204 226 255
204 226 255
204 226 255
204 226 255
204 226 255
204 226 255
204 226 255
204 226 255
204 226 255
204 226 255
204 226 255
204 226 255
204 226 255
204 226 255
204 226 255
204 226 255
204 226 255
203 226 255
203 226 255
203 226 255
203 226 255
203 226 255
203 226 255
203 226 255
203 226 255
203 226 255
203 226 255
203 226 255
203 226 255
203 226 255
203 226 255
203 226 255
203 226 255
203 226 255
203 226 255
203 226 255
203 226 255
203 226 255
203 226 255
203 226 255
203 226 255
203 226 255
203 226 255
203 226 255
203 226 255
203 226 255
203 226 255
203 226 255
203 226 255
203 226 255
203 226 255
203 226 255
203 226 255
204 226 255
204 226 255
203 226 255
204 226 255
204 226 255
204 226 255
204 226 255
204 226 255
204 226 255
204 226 255
204 226 255
204 226 255
204 226 255
204 226 255
204 226 255
204 226 255
204 226 255
204 226 255
204 226 255
204 226 255
204 226 255
204 226 255
204 226 255
204 226 255
204 226 255
204 226 255
204 226 255
204 226 255
204 226 255
204 226 255
205 226 255
205 226 255
205 226 255
205 226 255
205 226 255
205 226 255
205 226 255
205 226 255
205 226 255
205 227 255
205 227 255
205 227 255
205 227 255
205 227 255
205 227 255
205 227 255
205 227 255
205 227 255
205 227 255
205 227 255
205 227 255
206 227 255
206 227 255
206 227 255
206 227 255
206 227 255
206 227 255
206 227 255
206 227 255
206 227 255
206 227 255
206 227 255
206 227 255
206 227 255
206 227 255
206 227 255
206 227 255
206 227 255
206 227 255
206 227 255
207 227 255
207 227 255
207 227 255
207 228 255
207 228 255
207 228 255
207 228 255
207 228 255
207 228 255
207 228 255
207 228 255
207 228 255
207 228 255
207 228 255
207 228 255
207 228 255
207 228 255
208 228 255
208 228 255
208 228 255
206 223 245
191 206 220
181 179 146
149 143 95
150 136 82
149 130 76
161 148 87
172 163 103
162 160 108
160 156 102
162 160 108
158 148 91
173 171 114
175 171 114
128 121 80
147 142 95
147 141 90
142 133 88
151 138 84
161 155 102
163 150 96
166 157 98
153 141 85
157 144 82
169 165 108
170 166 109
164 158 102
156 143 85
142 130 77
171 167 109
166 162 108
144 134 88
156 147 91
146 136 84
154 148 96
153 149 97
158 151 97
164 161 108
158 148 91
164 149 91
154 143 88
143 131 80
158 152 97
162 157 103
164 156 102
154 143 90
169 163 103
174 160 98
164 155 98
141 128 80
154 148 97
165 161 103
171 164 108
160 152 97
159 148 91
168 160 102
162 159 102
164 162 108
171 159 85
171 170 114
163 151 91
142 135 88
161 156 102
133 120 74
151 135 82
162 154 97
171 162 103
166 154 90
161 143 77
156 141 84
155 148 95
153 136 81
159 151 90
163 147 88
160 150 95
135 110 62
149 135 81
156 141 83
165 157 98
150 135 82
151 144 95
160 148 91
167 156 91
183 182 149
169 175 173
212 230 255
212 230 255
212 230 255
212 230 255
212 230 255
212 230 255
212 230 255
212 230 255
212 230 255
212 230 255
212 230 255
212 230 255
206 224 248
190 208 229
154 169 190
142 156 161
148 165 183
148 166 190
170 190 216
167 189 217
180 201 228
179 200 228
181 201 228
168 190 214
176 197 226
182 202 228
177 199 228
179 200 228
177 199 228
175 198 228
177 199 228
177 199 228
175 198 228
175 198 228
179 200 228
177 199 228
173 197 228
173 197 228
174 197 228
173 197 228
173 197 228
173 197 228
175 198 228
174 197 228
171 196 228
172 196 228
170 195 228
172 196 228
169 195 228
173 197 228
171 196 228
171 196 228
171 196 228
170 196 228
169 195 228
171 196 228
169 195 228
170 196 228
169 195 228
170 195 228
170 196 228
168 194 228
167 194 228
168 195 228
169 195 228
168 195 228
167 194 228
168 195 228
168 194 228
168 195 228
167 194 228
167 194 228
167 194 228
167 194 228
166 194 228
167 194 228
169 195 228
169 195 228
167 194 228
169 195 228
169 195 228
168 195 228
168 194 228
168 194 228
169 195 228
169 195 228
167 194 228
171 196 228
167 194 228
169 195 228
171 196 228
172 197 228
171 196 228
171 196 228
153 176 204
170 194 226
163 186 217
171 196 228
161 183 212
176 198 228
170 191 217
177 196 223
185 204 227
201 221 248
208 228 255
208 228 255
208 228 255
208 228 255
207 228 255
207 228 255
207 228 255
207 228 255
207 228 255
207 228 255
207 228 255
207 228 255
207 228 255
207 228 255
207 228 255
207 228 255
207 228 255
207 228 255
207 227 255
207 227 255
207 227 255
207 227 255
206 227 255
206 227 255
206 227 255
206 227 255
206 227 255
206 227 255
206 227 255
206 227 255
206 227 255
206 227 255
206 227 255
206 227 255
206 227 255
206 227 255
206 227 255
206 227 255
206 227 255
206 227 255
206 227 255
205 227 255
205 227 255
205 227 255
205 227 255
205 227 255
205 227 255
205 227 255
205 227 255
205 227 255
205 227 255
205 227 255
205 226 255
205 226 255
205 226 255
205 226 255
205 226 255
205 226 255
205 226 255
205 226 255
205 226 255
205 226 255
204 226 255
204 226 255
204 226 255
204 226 255
204 226 255
204 226 255
204 226 255
204 226 255
204 226 255
204 226 255
204 226 255
204 226 255
204 226 255
204 226 255
204 226 255
204 226 255
204 226 255
204 226 255
204 226 255
204 226 255
204 226 255
204 226 255
204 226 255
204 226 255
204 226 255
204 226 255
204 226 255
204 226 255
204 226 255
204 226 255
204 226 255
204 226 255
204 226 255
204 226 255
204 226 255
204 226 255
204 226 255
204 226 255
204 226 255
204 226 255
204 226 255
204 226 255
204 226 255
204 226 255
204 226 255
204 226 255
204 226 255
204 226 255
204 226 255
204 226 255
204 226 255
204 226 255
204 226 255
204 226 255
204 226 255
204 226 255
204 226 255
204 226 255
204 226 255
204 226 255
204 226 255
204 226 255
204 226 255
204 226 255
204 226 255
204 226 255
204 226 255
204 226 255
204 226 255
204 226 255
204 226 255
204 226 255
204 226 255
204 226 255
204 226 255
204 226 255
204 226 255
204 226 255
204 226 255
204 226 255
204 226 255
204 226 255
204 226 255
204 226 255
205 226 255
205 226 255
205 226 255
205 226 255
205 226 255
205 226 255
205 226 255
205 226 255
205 226 255
205 227 255
205 227 255
205 227 255
205 227 255
205 227 255
205 227 255
205 227 255
205 227 255
205 227 255
205 227 255
205 227 255
205 227 255
205 227 255
206 227 255
206 227 255
206 227 255
206 227 255
206 227 255
206 227 255
206 227 255
206 227 255
206 227 255
206 227 255
206 227 255
206 227 255
206 227 255
206 227 255
206 227 255
206 227 255
206 227 255
206 227 255
207 227 255
207 227 255
207 227 255
207 227 255
207 227 255
207 228 255
207 228 255
207 228 255
207 228 255
207 228 255
207 228 255
207 228 255
207 228 255
207 228 255
207 228 255
207 228 255
207 228 255
207 228 255
208 228 255
208 228 255
208 228 255
208 228 255
199 217 242
185 193 202
146 141 142
156 145 90
152 141 90
162 151 97
161 156 102
165 162 108
163 158 103
128 118 72
147 139 88
161 153 97
146 133 80
141 130 82
157 147 91
155 148 95
157 153 102
160 160 108
170 162 103
170 166 108
173 168 109
169 166 109
158 151 97
153 142 90
146 139 90
164 159 99
146 133 80
170 166 109
154 142 88
146 142 95
154 148 95
166 162 108
167 160 102
161 152 95
161 153 102
176 169 109
161 150 96
151 141 90
158 150 97
173 170 114
166 163 108
151 138 83
150 146 95
167 162 108
137 118 72
161 152 97
163 156 102
164 158 102
177 172 108
147 136 84
172 167 109
167 155 97
165 161 90
150 138 84
143 135 88
148 139 88
167 160 103
154 141 84
154 152 102
167 162 108
175 171 108
138 133 88
170 159 98
154 143 90
160 143 84
168 166 109
155 146 95
161 147 90
132 119 72
158 151 97
159 151 97
156 135 76
159 144 76
157 143 81
168 159 102
141 133 88
144 132 74
145 129 81
161 153 95
167 163 97
149 143 80
141 128 81
154 138 82
177 164 97
163 156 102
164 155 90
164 153 97
145 131 75
158 145 90
172 174 144
152 155 150
198 212 228
212 230 255
212 230 255
212 230 255
212 230 255
212 230 255
212 230 255
185 202 226
190 207 230
164 181 196
152 168 183
171 189 208
175 194 220
155 173 189
173 194 217
178 199 226
176 196 222
166 186 208
166 187 214
178 198 226
178 199 226
180 201 228
168 188 214
177 199 228
175 198 228
176 199 228
175 198 228
177 199 228
176 198 228
175 198 228
174 197 228
177 199 228
172 197 228
175 198 228
172 197 228
173 197 228
173 197 228
172 197 228
174 198 228
174 197 228
173 197 228
169 195 228
170 195 228
173 197 228
172 197 228
171 196 228
171 196 228
171 196 228
172 196 228
168 194 228
171 196 228
166 193 228
171 196 228
168 195 228
170 195 228
170 195 228
166 194 228
170 195 228
168 195 228
168 194 228
168 194 228
165 193 228
168 194 228
167 194 228
166 193 228
168 195 228
165 193 228
168 194 228
167 194 228
168 195 228
166 194 228
165 193 228
167 194 228
166 193 228
168 194 228
167 194 228
166 193 228
168 194 228
166 193 228
166 194 228
166 194 228
166 193 228
167 194 228
166 193 228
167 194 228
167 194 228
167 194 228
168 195 228
170 196 228
169 195 228
170 195 228
168 195 228
169 195 228
168 194 228
157 181 204
171 195 226
175 198 228
163 187 217
171 195 226
173 197 228
163 185 213
177 197 223
195 214 241
208 228 255
208 228 255
208 228 255
208 228 255
208 228 255
207 228 255
207 228 255
207 228 255
207 228 255
207 228 255
207 228 255
207 228 255
207 228 255
207 228 255
207 228 255
207 228 255
207 228 255
207 228 255
207 228 255
207 227 255
207 227 255
207 227 255
207 227 255
207 227 255
206 227 255
206 227 255
206 227 255
206 227 255
206 227 255
206 227 255
206 227 255
206 227 255
206 227 255
206 227 255
206 227 255
206 227 255
206 227 255
206 227 255
206 227 255
206 227 255
206 227 255
206 227 255
206 227 255
205 227 255
205 227 255
205 227 255
205 227 255
205 227 255
205 227 255
205 227 255
205 227 255
205 227 255
205 227 255
205 227 255
205 227 255
205 227 255
205 226 255
205 226 255
205 226 255
205 226 255
205 226 255
205 226 255
205 226 255
205 226 255
205 226 255
205 226 255
204 226 255
204 226 255
204 226 255
204 226 255
204 226 255
204 226 255
204 226 255
204 226 255
204 226 255
204 226 255
204 226 255
204 226 255
204 226 255
204 226 255
204 226 255
204 226 255
204 226 255
204 226 255
204 226 255
204 226 255
204 226 255
204 226 255
204 226 255
204 226 255
204 226 255
204 226 255
204 226 255
204 226 255
204 226 255
204 226 255
204 226 255
204 226 255
204 226 255
204 226 255
204 226 255
204 226 255
204 226 255
204 226 255
204 226 255
204 226 255
204 226 255
204 226 255
204 226 255
204 226 255
204 226 255
204 226 255
204 226 255
204 226 255
204 226 255
204 226 255
204 226 255
204 226 255
204 226 255
204 226 255
204 226 255
204 226 255
204 226 255
204 226 255
204 226 255
204 226 255
204 226 255
204 226 255
204 226 255
204 226 255
204 226 255
204 226 255
204 226 255
204 226 255
204 226 255
204 226 255
204 226 255
204 226 255
205 226 255
205 226 255
205 226 255
205 226 255
205 226 255
205 226 255
205 226 255
205 226 255
205 226 255
205 227 255
205 227 255
205 227 255
205 227 255
205 227 255
205 227 255
205 227 255
205 227 255
205 227 255
205 227 255
205 227 255
205 227 255
205 227 255
205 227 255
206 227 255
206 227 255
206 227 255
206 227 255
206 227 255
206 227 255
206 227 255
206 227 255
206 227 255
206 227 255
206 227 255
206 227 255
206 227 255
206 227 255
206 227 255
206 227 255
206 227 255
206 227 255
206 227 255
207 227 255
207 227 255
207 227 255
207 227 255
207 228 255
207 228 255
207 228 255
207 228 255
207 228 255
207 228 255
207 228 255
207 228 255
207 228 255
207 228 255
207 228 255
207 228 255
207 228 255
207 228 255
208 228 255
208 228 255
208 228 255
208 228 255
208 228 255
196 210 228
163 166 169
170 163 137
147 132 76
146 139 84
162 153 97
150 139 88
128 119 74
168 164 108
163 152 97
150 133 76
146 127 74
167 163 108
168 166 109
167 162 108
154 142 90
139 118 56
159 152 97
153 141 84
174 171 114
134 115 66
139 129 75
167 158 98
158 153 102
148 139 90
164 159 103
164 159 102
161 148 91
159 148 91
162 156 98
165 162 108
158 148 91
164 157 102
165 159 103
165 162 108
166 157 102
167 159 98
163 157 102
175 168 108
153 141 84
173 171 114
162 154 102
185 176 114
169 160 99
152 144 95
164 156 102
156 145 88
162 155 102
169 163 104
165 158 103
168 163 102
151 141 88
152 140 89
167 163 104
156 150 97
151 144 88
161 150 91
160 156 102
176 164 103
156 133 74
153 140 85
163 153 96
175 171 114
152 144 95
134 124 81
163 155 98
164 154 90
165 158 102
155 146 95
162 152 84
149 141 88
161 152 97
165 159 102
163 153 91
161 149 91
147 131 74
172 162 103
155 146 95
170 161 103
151 138 81
147 141 82
163 147 77
171 166 108
149 135 82
156 148 82
167 159 102
164 148 79
169 158 94
159 144 90
147 126 64
149 141 80
155 148 95
152 142 90
149 141 80
147 138 80
167 165 153
180 183 184
206 220 234
212 230 255
174 190 207
168 185 209
160 177 201
153 169 186
163 177 194
178 197 223
178 197 222
179 199 226
166 184 208
176 195 220
177 197 224
174 195 223
178 200 228
180 200 226
174 195 223
178 200 228
177 199 228
177 199 228
179 200 228
176 199 228
178 200 228
175 198 228
174 198 228
176 199 228
175 198 228
176 199 228
172 196 228
175 198 228
171 196 228
172 196 228
173 197 228
172 196 228
170 196 228
174 198 228
170 195 228
172 197 228
169 195 228
171 196 228
172 196 228
170 195 228
172 197 228
173 197 228
171 196 228
168 195 228
169 195 228
170 195 228
170 195 228
169 195 228
168 194 228
168 195 228
166 193 228
167 194 228
168 194 228
168 194 228
169 195 228
167 194 228
167 194 228
169 195 228
168 194 228
165 193 228
165 193 228
166 194 228
166 193 228
166 194 228
166 194 228
167 194 228
166 194 228
166 193 228
167 194 228
166 193 228
167 194 228
165 193 228
164 192 228
165 193 228
165 193 228
166 193 228
165 193 228
164 193 228
165 193 228
167 194 228
165 193 228
167 194 228
168 194 228
166 193 228
167 194 228
168 194 228
168 194 228
166 194 228
167 194 228
169 195 228
170 195 228
169 194 226
171 196 228
170 195 228
166 188 217
163 186 217
174 196 226
174 197 226
163 185 214
166 184 206
190 210 237
208 228 255
208 228 255
208 228 255
208 228 255
208 228 255
208 228 255
208 228 255
207 228 255
207 228 255
207 228 255
207 228 255
207 228 255
207 228 255
207 228 255
207 228 255
207 228 255
207 228 255
207 228 255
207 228 255
207 228 255
207 228 255
207 227 255
207 227 255
207 227 255
207 227 255
206 227 255
206 227 255
206 227 255
206 227 255
206 227 255
206 227 255
206 227 255
206 227 255
206 227 255
206 227 255
206 227 255
206 227 255
206 227 255
206 227 255
206 227 255
206 227 255
206 227 255
206 227 255
206 227 255
206 227 255
205 227 255
205 227 255
205 227 255
205 227 255
205 227 255
205 227 255
205 227 255
205 227 255
205 227 255
205 227 255
205 227 255
205 227 255
205 227 255
205 227 255
205 227 255
205 226 255
205 226 255
205 226 255
205 226 255
205 226 255
205 226 255
205 226 255
205 226 255
205 226 255
205 226 255
205 226 255
205 226 255
204 226 255
204 226 255
204 226 255
204 226 255
204 226 255
204 226 255
204 226 255
204 226 255
204 226 255
204 226 255
204 226 255
204 226 255
204 226 255
204 226 255
204 226 255
204 226 255
204 226 255
204 226 255
204 226 255
204 226 255
204 226 255
204 226 255
204 226 255
204 226 255
204 226 255
204 226 255
204 226 255
204 226 255
204 226 255
204 226 255
204 226 255
204 226 255
204 226 255
204 226 255
204 226 255
204 226 255
204 226 255
204 226 255
204 226 255
204 226 255
204 226 255
204 226 255
204 226 255
204 226 255
204 226 255
204 226 255
204 226 255
204 226 255
204 226 255
204 226 255
204 226 255
204 226 255
204 226 255
204 226 255
204 226 255
205 226 255
205 226 255
205 226 255
205 226 255
205 226 255
205 226 255
205 226 255
205 226 255
205 226 255
205 226 255
205 226 255
205 227 255
205 227 255
205 227 255
205 227 255
205 227 255
205 227 255
205 227 255
205 227 255
205 227 255
205 227 255
205 227 255
205 227 255
205 227 255
205 227 255
205 227 255
206 227 255
206 227 255
206 227 255
206 227 255
206 227 255
206 227 255
206 227 255
206 227 255
206 227 255
206 227 255
206 227 255
206 227 255
206 227 255
206 227 255
206 227 255
206 227 255
206 227 255
206 227 255
206 227 255
207 227 255
207 227 255
207 227 255
207 227 255
207 227 255
207 228 255
207 228 255
207 228 255
207 228 255
207 228 255
207 228 255
207 228 255
207 228 255
207 228 255
207 228 255
207 228 255
207 228 255
207 228 255
207 228 255
208 228 255
208 228 255
208 228 255
208 228 255
208 228 255
208 228 255
208 228 255
190 202 217
162 162 135
166 158 102
150 138 84
163 158 103
157 148 96
165 159 102
156 146 95
149 140 90
150 141 88
152 135 77
147 142 95
147 134 82
145 137 88
161 148 90
148 134 82
155 149 97
163 158 103
158 148 91
163 161 108
136 125 81
154 145 91
143 134 88
158 153 102
171 170 114
149 140 85
155 143 90
145 135 82
157 145 90
168 159 98
165 162 108
153 142 90
170 167 109
166 162 108
158 155 102
163 161 108
161 157 103
173 166 108
149 141 88
162 142 78
154 139 84
149 138 88
158 153 102
159 154 102
163 157 102
172 165 104
159 155 102
163 157 102
161 160 108
164 153 96
167 165 109
167 150 91
150 142 90
160 155 102
154 145 91
170 159 102
151 144 91
157 146 90
152 151 102
155 149 97
165 162 108
152 143 90
144 138 90
163 148 84
159 151 97
170 164 108
160 156 102
164 151 95
150 138 84
159 156 97
169 163 103
151 146 90
172 162 102
151 145 95
153 135 82
168 160 103
154 140 84
171 164 108
170 163 98
170 166 109
162 151 91
152 137 82
161 150 96
171 157 93
173 161 102
168 158 97
155 143 88
154 137 82
151 139 84
153 137 74
169 163 108
164 156 95
157 146 84
163 149 91
150 127 58
160 139 78
156 141 83
145 126 65
142 126 74
159 147 90
171 164 136
185 202 226
159 177 192
178 199 226
182 201 226
182 202 228
173 193 220
177 198 226
179 200 228
177 199 228
179 200 228
172 191 217
176 199 228
179 200 228
180 201 228
178 200 228
179 200 228
178 199 228
178 200 228
174 198 228
176 198 228
176 198 228
174 197 228
175 198 228
174 198 228
174 198 228
176 198 228
174 197 228
173 197 228
174 198 228
171 196 228
174 198 228
172 197 228
171 196 228
171 196 228
172 197 228
171 196 228
174 198 228
172 196 228
171 196 228
170 196 228
170 196 228
169 195 228
170 195 228
170 196 228
170 195 228
171 196 228
171 196 228
169 195 228
169 195 228
168 195 228
168 194 228
168 194 228
169 195 228
167 194 228
166 193 228
167 194 228
168 194 228
167 194 228
166 193 228
167 194 228
166 194 228
167 194 228
165 193 228
165 193 228
164 192 228
164 192 228
165 193 228
165 193 228
166 193 228
164 192 228
163 192 228
164 192 228
165 193 228
165 193 228
165 193 228
165 193 228
164 192 228
165 193 228
166 194 228
166 193 228
166 193 228
165 193 228
165 193 228
165 193 228
166 193 228
167 194 228
167 194 228
166 194 228
167 194 228
168 195 228
168 194 228
168 194 228
166 193 228
168 195 228
171 196 228
170 194 226
165 187 217
164 187 214
169 193 224
154 176 202
166 188 217
163 183 206
185 203 218
192 211 228
208 228 255
208 228 255
208 228 255
208 228 255
208 228 255
208 228 255
208 228 255
207 228 255
207 228 255
207 228 255
207 228 255
207 228 255
207 228 255
207 228 255
207 228 255
207 228 255
207 228 255
207 228 255
207 228 255
207 228 255
207 228 255
207 228 255
207 227 255
207 227 255
207 227 255
207 227 255
207 227 255
206 227 255
206 227 255
206 227 255
206 227 255
206 227 255
206 227 255
206 227 255
206 227 255
206 227 255
206 227 255
206 227 255
206 227 255
206 227 255
206 227 255
206 227 255
206 227 255
206 227 255
206 227 255
206 227 255
206 227 255
206 227 255
205 227 255
205 227 255
205 227 255
205 227 255
205 227 255
205 227 255
205 227 255
205 227 255
205 227 255
205 227 255
205 227 255
205 227 255
205 227 255
205 227 255
205 227 255
205 226 255
205 226 255
205 226 255
205 226 255
205 226 255
205 226 255
205 226 255
205 226 255
205 226 255
205 226 255
205 226 255
205 226 255
204 226 255
205 226 255
205 226 255
205 226 255
204 226 255
205 226 255
204 226 255
204 226 255
204 226 255
204 226 255
204 226 255
204 226 255
204 226 255
204 226 255
204 226 255
204 226 255
204 226 255
204 226 255
204 226 255
204 226 255
204 226 255
204 226 255
204 226 255
204 226 255
204 226 255
204 226 255
204 226 255
204 226 255
204 226 255
204 226 255
204 226 255
204 226 255
204 226 255
204 226 255
204 226 255
204 226 255
204 226 255
204 226 255
204 226 255
205 226 255
205 226 255
205 226 255
205 226 255
205 226 255
205 226 255
205 226 255
205 226 255
205 226 255
205 226 255
205 226 255
205 226 255
205 226 255
205 226 255
205 226 255
205 227 255
205 227 255
205 227 255
205 227 255
205 227 255
205 227 255
205 227 255
205 227 255
205 227 255
205 227 255
205 227 255
205 227 255
205 227 255
205 227 255
205 227 255
205 227 255
206 227 255
206 227 255
206 227 255
206 227 255
206 227 255
206 227 255
206 227 255
206 227 255
206 227 255
206 227 255
206 227 255
206 227 255
206 227 255
206 227 255
206 227 255
206 227 255
206 227 255
206 227 255
206 227 255
206 227 255
207 227 255
207 227 255
207 227 255
207 227 255
207 227 255
207 228 255
207 228 255
207 228 255
207 228 255
207 228 255
207 228 255
207 228 255
207 228 255
207 228 255
207 228 255
207 228 255
207 228 255
207 228 255
207 228 255
208 228 255
208 228 255
208 228 255
208 228 255
208 228 255
208 228 255
208 228 255
208 228 255
188 200 217
184 194 204
133 113 65
148 131 75
160 147 90
147 136 88
162 152 97
160 146 82
152 141 85
166 160 103
161 155 102
164 157 102
172 159 98
155 142 85
165 154 97
162 152 97
151 147 97
171 167 109
164 153 93
161 152 93
149 145 96
170 169 114
128 109 64
162 152 97
155 152 102
144 141 95
159 151 97
169 164 108
162 158 103
154 143 90
159 152 97
166 160 103
164 159 103
161 160 108
153 147 95
155 146 95
144 138 90
161 155 102
153 143 90
141 126 74
161 157 103
170 166 109
170 165 108
162 148 90
160 154 102
170 165 108
161 156 102
165 162 108
168 160 103
155 148 90
169 168 108
171 167 108
165 152 91
156 148 91
172 165 108
150 143 90
175 169 109
155 143 90
151 142 82
154 143 90
159 147 90
157 149 91
164 158 103
158 145 90
166 158 96
150 134 76
171 160 91
157 153 102
148 137 88
174 164 103
165 159 103
164 150 91
164 153 90
144 132 77
174 166 104
166 162 108
160 153 97
175 159 97
156 150 95
161 155 96
161 152 97
155 138 74
167 159 103
168 159 102
157 152 95
152 144 91
164 152 96
164 148 85
162 150 82
164 148 79
161 153 97
150 142 90
155 146 89
169 161 103
168 160 103
127 113 72
148 131 74
164 153 88
134 114 66
152 142 90
166 156 97
120 95 42
159 142 84
150 133 66
173 192 217
182 202 228
173 193 217
173 190 214
172 191 217
178 196 217
176 197 224
182 202 228
180 201 228
178 200 228
171 193 217
179 200 228
180 201 228
178 200 228
179 200 228
178 200 228
175 198 228
177 199 228
178 200 228
177 199 228
177 199 228
173 197 228
177 199 228
175 198 228
173 197 228
175 198 228
175 198 228
173 197 228
173 197 228
171 196 228
170 195 228
171 196 228
170 195 228
172 197 228
173 197 228
168 195 228
171 196 228
171 196 228
171 196 228
169 195 228
171 196 228
170 195 228
169 195 228
169 195 228
171 196 228
170 195 228
168 194 228
168 195 228
167 194 228
167 194 228
166 194 228
166 193 228
167 194 228
166 193 228
168 194 228
166 193 228
165 193 228
166 194 228
166 193 228
165 193 228
165 193 228
164 192 228
164 192 228
166 193 228
165 193 228
164 192 228
165 193 228
164 193 228
165 193 228
164 193 228
165 193 228
164 193 228
164 192 228
164 192 228
165 193 228
165 193 228
165 193 228
164 193 228
163 192 228
165 193 228
165 193 228
164 193 228
165 193 228
165 193 228
163 192 228
165 193 228
165 193 228
164 193 228
166 193 228
167 194 228
166 193 228
168 194 228
168 194 228
167 194 228
169 195 228
167 194 228
169 195 228
167 194 228
169 193 224
171 196 228
165 189 217
173 196 226
172 196 226
171 192 220
178 196 221
185 205 231
206 226 253
208 228 255
208 228 255
208 228 255
208 228 255
208 228 255
208 228 255
208 228 255
208 228 255
208 228 255
207 228 255
207 228 255
207 228 255
207 228 255
207 228 255
207 228 255
207 228 255
207 228 255
207 228 255
207 228 255
207 228 255
207 228 255
207 228 255
207 228 255
207 228 255
207 228 255
207 227 255
207 227 255
207 227 255
206 227 255
206 227 255
206 227 255
206 227 255
206 227 255
206 227 255
206 227 255
206 227 255
206 227 255
206 227 255
206 227 255
206 227 255
206 227 255
206 227 255
206 227 255
206 227 255
206 227 255
206 227 255
206 227 255
206 227 255
206 227 255
206 227 255
205 227 255
205 227 255
205 227 255
205 227 255
205 227 255
205 227 255
205 227 255
205 227 255
205 227 255
205 227 255
205 227 255
205 227 255
205 227 255
205 227 255
205 227 255
205 227 255
205 227 255
205 227 255
205 226 255
205 226 255
205 226 255
205 226 255
205 226 255
205 226 255
205 226 255
205 226 255
205 226 255
205 226 255
205 226 255
205 226 255
205 226 255
205 226 255
205 226 255
205 226 255
205 226 255
205 226 255
205 226 255
205 226 255
205 226 255
205 226 255
205 226 255
205 226 255
205 226 255
205 226 255
205 226 255
205 226 255
205 226 255
205 226 255
205 226 255
205 226 255
205 226 255
205 226 255
205 226 255
205 226 255
205 226 255
205 226 255
205 226 255
205 226 255
205 226 255
205 226 255
205 226 255
205 226 255
205 226 255
205 226 255
205 226 255
205 226 255
205 226 255
205 226 255
205 227 255
205 227 255
205 227 255
205 227 255
205 227 255
205 227 255
205 227 255
205 227 255
205 227 255
205 227 255
205 227 255
205 227 255
205 227 255
205 227 255
205 227 255
205 227 255
205 227 255
206 227 255
206 227 255
206 227 255
206 227 255
206 227 255
206 227 255
206 227 255
206 227 255
206 227 255
206 227 255
206 227 255
206 227 255
206 227 255
206 227 255
206 227 255
206 227 255
206 227 255
206 227 255
206 227 255
206 227 255
206 227 255
206 227 255
206 227 255
207 227 255
207 227 255
207 227 255
207 227 255
207 227 255
207 228 255
207 228 255
207 228 255
207 228 255
207 228 255
207 228 255
207 228 255
207 228 255
207 228 255
207 228 255
207 228 255
207 228 255
207 228 255
208 228 255
208 228 255
208 228 255
208 228 255
208 228 255
208 228 255
208 228 255
208 228 255
208 228 255
208 228 255
208 228 255
200 217 234
157 153 135
148 140 88
167 156 97
163 152 93
159 150 97
165 154 93
165 163 108
161 149 91
140 134 88
165 158 102
164 159 103
148 143 95
166 162 108
155 147 95
153 143 90
141 127 75
156 145 90
162 151 91
142 127 76
163 150 91
167 160 103
166 165 109
161 152 97
153 146 91
159 157 103
162 153 96
157 148 96
162 153 97
146 132 83
159 157 103
169 158 94
161 160 108
159 160 108
165 160 103
137 124 74
147 142 95
152 146 96
159 147 90
162 161 108
157 153 102
164 152 97
154 148 97
150 138 84
171 170 114
171 170 114
166 160 103
163 151 91
161 152 97
157 149 96
163 155 98
150 144 95
169 162 103
172 170 114
164 162 108
156 146 95
166 158 102
143 131 81
150 140 90
162 150 96
167 158 98
159 146 91
162 149 90
166 154 97
174 166 108
163 156 95
157 147 95
154 143 90
147 133 74
166 156 97
148 140 90
169 160 98
167 156 98
170 161 103
146 137 88
167 155 97
164 157 102
152 143 88
174 165 108
170 164 108
165 156 94
173 165 102
161 150 82
159 145 82
161 150 84
163 154 91
162 152 90
163 157 102
170 158 98
146 128 74
160 150 90
170 164 108
141 122 63
164 154 97
156 144 82
135 116 63
166 153 91
153 142 75
171 162 102
170 154 95
134 117 66
175 163 103
168 163 102
171 160 98
167 156 90
169 160 97
172 192 217
179 198 224
180 201 228
171 191 217
169 190 217
180 201 228
179 200 228
179 200 228
178 200 228
180 201 228
177 199 228
179 200 228
176 199 228
175 198 228
176 199 228
178 200 228
178 199 228
175 198 228
175 198 228
174 198 228
176 199 228
175 198 228
174 198 228
175 198 228
171 196 228
173 197 228
173 197 228
173 197 228
172 197 228
170 195 228
172 196 228
171 196 228
173 197 228
171 196 228
171 196 228
170 196 228
172 196 228
168 195 228
172 196 228
168 194 228
170 196 228
168 194 228
169 195 228
168 194 228
168 194 228
169 195 228
168 194 228
169 195 228
166 193 228
169 195 228
166 193 228
166 193 228
167 194 228
167 194 228
166 194 228
165 193 228
166 193 228
166 193 228
165 193 228
166 193 228
164 193 228
166 193 228
166 193 228
164 193 228
164 193 228
165 193 228
164 192 228
165 193 228
164 192 228
164 192 228
163 192 228
163 192 228
164 193 228
164 192 228
164 192 228
163 192 228
163 192 228
164 192 228
164 192 228
164 192 228
165 193 228
164 193 228
163 192 228
164 192 228
165 193 228
165 193 228
165 193 228
166 193 228
164 193 228
165 193 228
166 194 228
165 193 228
165 193 228
164 192 228
165 193 228
167 194 228
167 194 228
167 194 228
170 196 228
170 196 228
170 195 228
171 196 228
168 192 223
173 197 228
172 193 221
163 184 205
178 199 227
181 200 223
208 228 255
208 228 255
208 228 255
208 228 255
208 228 255
208 228 255
208 228 255
208 228 255
208 228 255
208 228 255
208 228 255
208 228 255
208 228 255
207 228 255
207 228 255
207 228 255
207 228 255
207 228 255
207 228 255
207 228 255
207 228 255
207 228 255
207 228 255
207 228 255
207 228 255
207 228 255
207 228 255
207 228 255
207 227 255
207 227 255
207 227 255
207 227 255
206 227 255
206 227 255
206 227 255
206 227 255
206 227 255
206 227 255
206 227 255
206 227 255
206 227 255
206 227 255
206 227 255
206 227 255
206 227 255
206 227 255
206 227 255
206 227 255
206 227 255
206 227 255
206 227 255
206 227 255
206 227 255
206 227 255
206 227 255
206 227 255
206 227 255
205 227 255
205 227 255
205 227 255
205 227 255
205 227 255
205 227 255
205 227 255
205 227 255
205 227 255
205 227 255
205 227 255
205 227 255
205 227 255
205 227 255
205 227 255
205 227 255
205 227 255
205 227 255
205 227 255
205 227 255
205 227 255
205 227 255
205 227 255
205 227 255
205 227 255
205 227 255
205 226 255
205 227 255
205 226 255
205 226 255
205 226 255
205 226 255
205 226 255
205 226 255
205 226 255
205 226 255
205 226 255
205 226 255
205 226 255
205 226 255
205 226 255
205 226 255
205 227 255
205 226 255
205 226 255
205 227 255
205 227 255
205 227 255
205 227 255
205 227 255
205 227 255
205 227 255
205 227 255
205 227 255
205 227 255
205 227 255
205 227 255
205 227 255
205 227 255
205 227 255
205 227 255
205 227 255
205 227 255
205 227 255
205 227 255
205 227 255
205 227 255
205 227 255
205 227 255
205 227 255
206 227 255
206 227 255
206 227 255
206 227 255
206 227 255
206 227 255
206 227 255
206 227 255
206 227 255
206 227 255
206 227 255
206 227 255
206 227 255
206 227 255
206 227 255
206 227 255
206 227 255
206 227 255
206 227 255
206 227 255
206 227 255
206 227 255
206 227 255
206 227 255
206 227 255
207 227 255
207 227 255
207 227 255
207 227 255
207 227 255
207 228 255
207 228 255
207 228 255
207 228 255
207 228 255
207 228 255
207 228 255
207 228 255
207 228 255
207 228 255
207 228 255
207 228 255
207 228 255
207 228 255
207 228 255
208 228 255
208 228 255
208 228 255
208 228 255
208 228 255
208 228 255
208 228 255
208 228 255
208 228 255
208 228 255
208 228 255
208 228 255
173 180 177
170 162 121
170 164 108
158 145 90
137 129 82
147 139 89
154 148 97
158 140 83
136 127 81
162 158 103
140 130 82
167 160 103
154 154 105
150 131 75
165 152 87
157 149 97
172 170 114
155 144 90
161 157 103
145 126 74
154 132 68
168 161 103
170 166 109
160 156 102
161 151 97
172 166 108
168 163 104
157 152 97
158 150 97
166 160 103
160 150 95
174 168 109
159 157 103
162 153 97
159 150 97
172 162 103
170 162 103
165 159 102
164 158 102
144 139 90
165 159 103
170 161 99
157 153 102
165 161 108
156 144 90
163 161 108
168 159 102
167 163 108
172 165 104
173 170 108
163 158 103
154 139 84
167 158 102
149 139 88
170 169 114
167 163 108
171 165 108
163 158 103
159 153 102
177 172 114
165 156 102
175 169 109
153 144 90
173 170 114
173 162 103
181 174 114
161 157 102
170 164 102
165 163 108
159 148 91
169 163 104
168 163 108
175 172 114
168 165 109
154 141 88
140 129 81
139 130 80
170 162 103
167 160 97
166 159 99
172 165 104
177 165 103
170 163 102
160 153 97
155 147 90
156 142 80
159 147 91
159 150 90
162 152 97
159 150 90
171 162 102
155 149 93
169 165 108
171 164 104
158 147 91
172 160 98
151 144 90
169 150 84
141 130 75
170 164 108
157 147 96
175 169 109
165 159 88
145 137 80
155 140 81
149 139 82
164 159 103
151 136 76
171 192 217
185 204 228
178 199 226
178 200 228
180 201 228
180 201 228
179 200 228
180 201 228
178 200 228
177 199 228
176 199 228
177 199 228
178 200 228
178 200 228
178 200 228
175 198 228
176 199 228
176 199 228
175 198 228
175 198 228
176 198 228
172 197 228
173 197 228
174 197 228
173 197 228
172 197 228
172 197 228
173 197 228
174 197 228
173 197 228
171 196 228
172 196 228
173 197 228
172 196 228
170 196 228
170 196 228
171 196 228
171 196 228
169 195 228
171 196 228
169 195 228
170 196 228
169 195 228
167 194 228
168 195 228
167 194 228
167 194 228
170 196 228
167 194 228
168 194 228
167 194 228
168 194 228
166 194 228
166 193 228
166 193 228
166 193 228
167 194 228
167 194 228
166 193 228
167 194 228
167 194 228
166 193 228
163 192 228
164 193 228
165 193 228
165 193 228
165 193 228
164 192 228
164 192 228
164 192 228
163 192 228
164 193 228
163 192 228
165 193 228
164 192 228
163 192 228
164 192 228
164 192 228
163 192 228
164 192 228
164 192 228
164 192 228
164 192 228
164 192 228
164 192 228
164 192 228
165 193 228
165 193 228
164 192 228
166 193 228
164 192 228
166 193 228
164 193 228
165 193 228
166 193 228
167 194 228
165 193 228
167 194 228
168 194 228
166 193 228
167 194 228
169 195 228
169 195 228
170 194 226
169 195 228
174 197 228
162 185 212
174 197 226
149 167 186
187 206 231
208 228 255
208 228 255
208 228 255
208 228 255
208 228 255
208 228 255
208 228 255
208 228 255
208 228 255
208 228 255
208 228 255
208 228 255
208 228 255
208 228 255
208 228 255
207 228 255
207 228 255
207 228 255
207 228 255
207 228 255
207 228 255
207 228 255
207 228 255
207 228 255
207 228 255
207 228 255
207 228 255
207 228 255
207 228 255
207 228 255
207 227 255
207 227 255
207 227 255
207 227 255
207 227 255
207 227 255
206 227 255
206 227 255
206 227 255
206 227 255
206 227 255
206 227 255
206 227 255
206 227 255
206 227 255
206 227 255
206 227 255
206 227 255
206 227 255
206 227 255
206 227 255
206 227 255
206 227 255
206 227 255
206 227 255
206 227 255
206 227 255
206 227 255
206 227 255
206 227 255
206 227 255
206 227 255
205 227 255
205 227 255
205 227 255
205 227 255
205 227 255
205 227 255
205 227 255
205 227 255
205 227 255
205 227 255
205 227 255
205 227 255
205 227 255
205 227 255
205 227 255
205 227 255
205 227 255
205 227 255
205 227 255
205 227 255
205 227 255
205 227 255
205 227 255
205 227 255
205 227 255
205 227 255
205 227 255
205 227 255
205 227 255
205 227 255
205 227 255
205 227 255
205 227 255
205 227 255
205 227 255
205 227 255
205 227 255
205 227 255
205 227 255
205 227 255
205 227 255
205 227 255
205 227 255
205 227 255
205 227 255
205 227 255
205 227 255
205 227 255
205 227 255
205 227 255
205 227 255
205 227 255
205 227 255
205 227 255
205 227 255
206 227 255
206 227 255
206 227 255
206 227 255
206 227 255
206 227 255
206 227 255
206 227 255
206 227 255
206 227 255
206 227 255
206 227 255
206 227 255
206 227 255
206 227 255
206 227 255
206 227 255
206 227 255
206 227 255
206 227 255
206 227 255
206 227 255
206 227 255
206 227 255
206 227 255
206 227 255
206 227 255
207 227 255
207 227 255
207 227 255
207 227 255
207 227 255
207 227 255
207 228 255
207 228 255
207 228 255
207 228 255
207 228 255
207 228 255
207 228 255
207 228 255
207 228 255
207 228 255
207 228 255
207 228 255
207 228 255
207 228 255
207 228 255
208 228 255
208 228 255
208 228 255
208 228 255
208 228 255
208 228 255
208 228 255
208 228 255
208 228 255
208 228 255
208 228 255
208 228 255
208 228 255
208 228 255
208 228 255
186 196 204
154 149 114
146 131 82
128 110 65
145 136 84
153 143 90
151 137 82
140 125 81
160 146 90
159 150 96
147 144 96
168 168 114
164 150 87
168 161 103
176 172 114
159 151 97
156 153 102
173 171 114
164 158 103
170 166 109
164 158 103
170 165 108
147 139 88
135 116 66
165 162 108
155 149 97
152 148 97
166 164 108
152 147 97
161 155 102
161 156 102
164 159 103
161 161 108
171 161 99
158 154 102
155 141 84
161 154 102
173 171 114
146 135 84
152 145 95
165 162 108
144 139 90
166 162 108
161 152 97
165 152 92
169 160 98
171 167 109
161 155 102
156 155 103
171 166 108
166 159 103
148 140 90
171 162 103
168 159 97
156 142 84
156 147 95
167 160 103
164 159 103
165 157 102
173 170 114
173 166 108
169 166 108
155 148 95
161 146 85
139 110 45
170 169 114
170 164 108
146 127 74
176 162 102
160 148 90
151 141 82
174 169 109
158 148 90
180 174 114
171 162 103
164 155 93
151 129 63
155 139 77
143 136 88
149 144 95
143 135 81
158 148 95
155 150 95
171 167 108
167 162 96
144 138 80
158 154 102
167 160 103
152 136 68
169 161 103
158 150 97
161 149 89
175 156 91
176 166 104
166 157 98
161 150 85
159 153 95
156 141 84
156 149 90
154 151 97
153 140 84
148 140 82
165 159 103
161 152 97
161 148 90
154 144 90
175 165 98
167 157 95
160 145 89
141 128 80
181 201 228
181 202 228
180 201 228
182 202 228
181 201 228
180 201 228
179 200 228
178 200 228
177 199 228
179 200 228
175 198 228
177 199 228
178 200 228
177 199 228
177 199 228
174 198 228
174 198 228
178 200 228
174 198 228
171 196 228
175 198 228
173 197 228
175 198 228
173 197 228
173 197 228
174 197 228
172 197 228
172 196 228
173 197 228
174 197 228
172 197 228
170 196 228
172 197 228
172 196 228
169 195 228
170 195 228
171 196 228
167 194 228
168 194 228
170 195 228
170 196 228
170 195 228
169 195 228
169 195 228
168 195 228
167 194 228
166 194 228
170 195 228
166 193 228
167 194 228
167 194 228
169 195 228
167 194 228
167 194 228
166 193 228
165 193 228
166 193 228
166 194 228
164 193 228
164 193 228
164 192 228
164 192 228
165 193 228
165 193 228
165 193 228
164 192 228
163 192 228
164 192 228
164 193 228
164 192 228
163 192 228
163 192 228
164 192 228
164 192 228
163 192 228
165 193 228
163 192 228
163 192 228
163 192 228
164 192 228
163 192 228
163 192 228
163 192 228
163 192 228
164 192 228
163 192 228
163 192 228
164 193 228
163 192 228
163 192 228
162 192 228
163 192 228
163 192 228
164 192 228
166 193 228
164 193 228
166 193 228
166 194 228
165 193 228
166 194 228
166 194 228
168 195 228
166 193 228
170 195 228
168 194 228
171 196 228
173 197 228
174 198 228
172 196 228
175 198 228
179 200 227
187 206 223
208 228 255
208 228 255
208 228 255
208 228 255
208 228 255
208 228 255
208 228 255
208 228 255
208 228 255
208 228 255
208 228 255
208 228 255
208 228 255
208 228 255
208 228 255
208 228 255
208 228 255
208 228 255
207 228 255
207 228 255
207 228 255
207 228 255
207 228 255
207 228 255
207 228 255
207 228 255
207 228 255
207 228 255
207 228 255
207 228 255
207 228 255
207 228 255
207 228 255
207 228 255
207 227 255
207 227 255
207 227 255
207 227 255
207 227 255
207 227 255
206 227 255
206 227 255
206 227 255
206 227 255
206 227 255
206 227 255
206 227 255
206 227 255
206 227 255
206 227 255
206 227 255
206 227 255
206 227 255
206 227 255
206 227 255
206 227 255
206 227 255
206 227 255
206 227 255
206 227 255
206 227 255
206 227 255
206 227 255
206 227 255
206 227 255
206 227 255
206 227 255
206 227 255
206 227 255
205 227 255
206 227 255
205 227 255
206 227 255
206 227 255
205 227 255
205 227 255
205 227 255
205 227 255
205 227 255
164 187 228
152 176 221
108 135 198
138 162 214
124 150 206
63 99 171
63 100 181
61 98 171
64 101 181
62 97 163
61 95 171
64 101 181
88 118 181
62 98 171
63 100 181
164 186 228
138 162 206
152 175 221
175 198 236
205 227 255
205 227 255
205 227 255
205 227 255
206 227 255
205 227 255
206 227 255
206 227 255
206 227 255
206 227 255
206 227 255
206 227 255
206 227 255
206 227 255
206 227 255
206 227 255
206 227 255
206 227 255
206 227 255
206 227 255
206 227 255
206 227 255
206 227 255
206 227 255
206 227 255
206 227 255
206 227 255
206 227 255
206 227 255
206 227 255
206 227 255
206 227 255
206 227 255
206 227 255
206 227 255
206 227 255
206 227 255
206 227 255
207 227 255
207 227 255
207 227 255
207 227 255
207 227 255
207 227 255
207 228 255
207 228 255
207 228 255
207 228 255
207 228 255
207 228 255
207 228 255
207 228 255
207 228 255
207 228 255
207 228 255
207 228 255
207 228 255
207 228 255
207 228 255
207 228 255
207 228 255
208 228 255
208 228 255
208 228 255
208 228 255
208 228 255
208 228 255
208 228 255
208 228 255
208 228 255
208 228 255
208 228 255
208 228 255
208 228 255
208 228 255
208 228 255
208 228 255
205 221 243
182 193 214
164 155 112
152 141 82
145 130 74
133 127 82
162 152 97
170 161 103
165 156 98
160 151 97
150 143 95
168 161 103
153 142 88
167 160 103
155 152 102
160 151 97
156 153 103
158 155 102
171 167 109
167 162 104
165 164 108
166 164 108
157 152 98
146 142 95
160 154 102
156 149 95
159 155 105
158 149 95
155 141 88
158 153 102
157 150 97
173 171 114
164 162 108
166 159 103
164 156 98
160 160 108
167 162 104
149 147 97
156 146 91
170 163 103
153 146 95
173 168 109
154 147 95
156 141 84
177 172 114
175 167 108
163 161 108
163 158 103
151 140 89
160 150 91
164 153 97
157 150 97
161 154 97
161 154 98
163 158 103
165 156 102
174 163 99
172 167 109
167 161 103
166 157 98
169 161 103
167 164 108
163 157 102
169 165 108
158 143 84
158 147 95
160 152 97
167 160 103
159 145 90
164 159 103
171 167 109
156 148 90
166 160 103
170 169 114
170 164 104
160 147 83
152 141 90
160 152 97
139 129 82
168 166 109
166 158 97
167 153 91
160 151 96
165 157 97
162 147 78
176 172 114
172 161 103
177 170 109
175 164 103
169 161 91
169 159 91
145 132 74
161 152 97
168 155 97
158 150 90
168 163 104
160 148 91
162 157 97
155 141 89
167 150 85
151 141 90
160 147 90
165 159 91
130 114 62
139 127 72
156 141 75
173 164 103
153 140 82
156 150 96
169 159 102
153 137 82
153 141 74
150 130 66
180 201 228
183 202 228
182 202 228
181 201 228
181 201 228
178 200 228
180 201 228
177 199 228
180 201 228
177 199 228
176 198 228
175 198 228
175 198 228
175 198 228
177 199 228
175 198 228
172 197 228
174 197 228
176 199 228
176 199 228
176 198 228
175 198 228
173 197 228
173 197 228
173 197 228
175 198 228
173 197 228
171 196 228
172 197 228
173 197 228
174 197 228
169 195 228
170 196 228
171 196 228
171 196 228
172 196 228
171 196 228
170 195 228
168 195 228
170 195 228
169 195 228
169 195 228
169 195 228
169 195 228
169 195 228
169 195 228
168 194 228
166 194 228
165 193 228
167 194 228
166 193 228
166 193 228
167 194 228
166 193 228
166 193 228
166 193 228
165 193 228
166 193 228
166 194 228
166 193 228
165 193 228
164 192 228
166 193 228
165 193 228
163 192 228
164 192 228
164 193 228
165 193 228
164 192 228
164 192 228
164 192 228
163 192 228
164 193 228
163 192 228
164 192 228
163 192 228
163 192 228
163 192 228
163 192 228
163 192 228
163 192 228
163 192 228
163 192 228
163 192 228
163 192 228
163 192 228
163 192 228
163 192 228
164 192 228
164 192 228
163 192 228
164 192 228
163 192 228
163 192 228
164 193 228
165 193 228
164 192 228
164 193 228
166 194 228
165 193 228
167 194 228
166 194 228
169 195 228
169 195 228
167 194 228
167 194 228
171 196 228
170 196 228
159 181 209
172 197 228
158 179 206
176 199 228
163 183 211
174 191 215
209 228 255
208 228 255
208 228 255
208 228 255
208 228 255
208 228 255
208 228 255
208 228 255
208 228 255
208 228 255
208 228 255
208 228 255
208 228 255
208 228 255
208 228 255
208 228 255
208 228 255
208 228 255
208 228 255
208 228 255
208 228 255
207 228 255
207 228 255
207 228 255
207 228 255
207 228 255
207 228 255
207 228 255
207 228 255
207 228 255
207 228 255
207 228 255
207 228 255
207 228 255
207 228 255
207 228 255
207 228 255
207 227 255
207 228 255
207 227 255
207 227 255
207 227 255
207 227 255
207 227 255
206 227 255
206 227 255
206 227 255
206 227 255
206 227 255
206 227 255
206 227 255
206 227 255
206 227 255
206 227 255
206 227 255
206 227 255
206 227 255
206 227 255
206 227 255
206 227 255
206 227 255
206 227 255
206 227 255
206 227 255
206 227 255
206 227 255
206 227 255
206 227 255
206 227 255
206 227 255
206 227 255
206 227 255
176 198 236
175 197 228
164 187 228
87 118 189
60 98 181
61 98 171
59 97 181
61 98 171
65 101 181
61 99 181
62 99 181
63 100 171
61 97 161
62 99 181
61 98 171
61 98 171
61 98 171
62 99 181
62 99 171
61 99 181
61 98 171
62 97 171
62 99 181
62 99 181
63 100 181
124 150 206
107 134 198
186 208 242
196 217 249
206 227 255
206 227 255
206 227 255
206 227 255
206 227 255
206 227 255
206 227 255
206 227 255
206 227 255
206 227 255
206 227 255
206 227 255
206 227 255
206 227 255
206 227 255
206 227 255
206 227 255
206 227 255
206 227 255
206 227 255
206 227 255
206 227 255
206 227 255
206 227 255
206 227 255
206 227 255
206 227 255
207 227 255
207 227 255
207 227 255
207 227 255
207 227 255
207 227 255
207 228 255
207 228 255
207 228 255
207 228 255
207 228 255
207 228 255
207 228 255
207 228 255
207 228 255
207 228 255
207 228 255
207 228 255
207 228 255
207 228 255
207 228 255
207 228 255
207 228 255
208 228 255
208 228 255
208 228 255
208 228 255
208 228 255
208 228 255
208 228 255
208 228 255
208 228 255
208 228 255
208 228 255
208 228 255
208 228 255
208 228 255
208 228 255
208 228 255
208 228 255
208 228 255
208 228 255
208 228 255
209 228 255
184 188 188
163 154 112
140 118 66
152 141 90
152 148 95
156 144 90
143 127 74
165 154 97
147 136 82
149 140 90
166 160 103
159 156 105
170 165 108
158 152 100
155 146 95
171 167 109
154 147 96
166 159 102
162 153 97
161 152 97
169 166 109
162 155 102
165 157 102
139 127 78
164 162 108
156 149 97
164 156 102
161 155 102
164 155 97
163 153 97
157 152 102
169 166 109
167 168 114
160 150 91
162 157 102
176 172 114
163 158 103
162 156 102
138 133 88
158 149 97
148 140 90
151 147 97
163 161 108
164 159 103
167 162 104
172 165 104
170 166 109
161 150 96
150 135 82
160 154 102
167 163 108
156 147 96
157 148 91
172 170 114
161 150 96
174 171 114
179 169 108
161 154 102
172 169 108
169 161 103
175 172 114
167 157 98
163 156 102
145 136 88
155 152 102
171 170 114
168 164 109
166 159 102
159 151 97
165 156 102
156 146 91
169 163 104
160 149 90
172 162 103
156 151 95
162 155 98
175 166 108
164 159 103
176 172 114
170 167 109
155 142 84
158 146 90
162 158 95
145 138 90
174 166 108
169 162 98
166 157 102
166 162 108
156 149 97
167 159 103
170 164 108
163 154 97
178 173 114
160 158 102
153 145 80
172 161 96
176 169 108
156 149 95
164 154 97
158 148 90
154 143 80
176 171 108
166 161 95
160 153 95
173 171 114
154 146 90
153 142 90
163 157 97
172 158 91
163 153 88
147 131 56
174 166 108
154 148 95
142 133 75
177 199 228
179 200 228
181 201 228
179 200 228
177 199 228
179 200 228
180 201 228
178 200 228
179 200 228
174 198 228
178 200 228
179 200 228
177 199 228
179 200 228
174 197 228
172 197 228
176 199 228
174 197 228
177 199 228
174 198 228
175 198 228
177 199 228
175 198 228
175 198 228
172 196 228
175 198 228
170 196 228
174 197 228
171 196 228
173 197 228
169 195 228
171 196 228
172 197 228
170 196 228
172 197 228
170 196 228
169 195 228
171 196 228
170 195 228
169 195 228
169 195 228
170 195 228
170 195 228
168 195 228
168 194 228
167 194 228
167 194 228
168 195 228
168 194 228
167 194 228
168 194 228
168 194 228
167 194 228
165 193 228
165 193 228
166 194 228
166 193 228
165 193 228
166 193 228
165 193 228
164 192 228
165 193 228
164 193 228
164 193 228
164 193 228
164 192 228
165 193 228
164 192 228
165 193 228
164 193 228
164 193 228
164 192 228
164 192 228
163 192 228
164 192 228
163 192 228
164 192 228
163 192 228
163 192 228
163 192 228
162 191 228
163 192 228
163 192 228
163 192 228
163 192 228
163 192 228
163 192 228
162 192 228
163 192 228
163 192 228
163 192 228
163 192 228
164 192 228
163 192 228
164 192 228
163 192 228
165 193 228
164 192 228
164 192 228
165 193 228
166 193 228
165 193 228
167 194 228
167 194 228
167 194 228
170 195 228
168 195 228
169 195 228
170 195 228
172 197 228
172 197 228
173 196 226
171 193 221
172 193 220
182 201 223
190 209 234
209 229 255
209 229 255
209 228 255
209 228 255
208 228 255
208 228 255
208 228 255
208 228 255
208 228 255
208 228 255
208 228 255
208 228 255
208 228 255
208 228 255
208 228 255
208 228 255
208 228 255
208 228 255
208 228 255
208 228 255
208 228 255
208 228 255
208 228 255
208 228 255
208 228 255
207 228 255
207 228 255
207 228 255
207 228 255
207 228 255
207 228 255
207 228 255
207 228 255
207 228 255
207 228 255
207 228 255
207 228 255
207 228 255
207 228 255
207 228 255
207 228 255
207 228 255
207 228 255
207 227 255
207 227 255
207 227 255
207 227 255
207 227 255
207 227 255
206 227 255
206 227 255
206 227 255
206 227 255
206 227 255
206 227 255
206 227 255
206 227 255
206 227 255
206 227 255
206 227 255
206 227 255
206 227 255
206 227 255
206 227 255
206 227 255
206 227 255
206 227 255
196 217 248
139 163 214
61 98 179
60 97 169
63 100 181
61 98 171
62 99 171
63 100 181
62 99 181
63 100 181
61 98 171
63 100 181
62 99 181
65 101 171
65 101 181
61 98 181
60 97 181
64 100 171
63 100 181
61 98 171
61 98 171
61 98 171
61 98 181
61 97 171
64 101 181
61 98 171
60 97 161
61 98 171
63 100 181
60 96 163
64 100 171
89 119 189
125 150 206
176 198 236
196 218 249
206 227 255
206 227 255
206 227 255
206 227 255
206 227 255
206 227 255
206 227 255
206 227 255
206 227 255
206 227 255
206 227 255
206 227 255
206 227 255
206 227 255
206 227 255
206 227 255
206 227 255
207 227 255
207 227 255
207 227 255
207 227 255
207 227 255
207 227 255
207 228 255
207 228 255
207 228 255
207 228 255
207 228 255
207 228 255
207 228 255
207 228 255
207 228 255
207 228 255
207 228 255
207 228 255
207 228 255
207 228 255
207 228 255
207 228 255
207 228 255
207 228 255
208 228 255
208 228 255
208 228 255
208 228 255
208 228 255
208 228 255
208 228 255
208 228 255
208 228 255
208 228 255
208 228 255
208 228 255
208 228 255
208 228 255
208 228 255
208 228 255
208 228 255
208 228 255
208 228 255
208 228 255
208 228 255
208 228 255
209 228 255
209 229 255
209 229 255
205 223 245
150 147 130
156 149 96
163 152 95
143 137 90
151 140 84
161 155 102
153 132 74
145 128 76
144 138 92
144 129 76
156 146 91
163 158 99
146 144 99
162 160 108
168 163 104
140 129 82
155 146 91
155 153 102
160 157 103
162 156 99
162 153 97
161 150 96
148 146 95
173 170 114
165 157 102
162 156 102
170 166 109
169 169 114
168 162 103
166 160 103
169 169 114
166 160 103
167 164 108
165 161 108
159 145 89
160 160 108
165 162 108
171 162 103
166 156 94
164 156 98
154 149 97
171 167 109
173 164 103
163 149 87
170 166 109
171 164 104
167 163 108
169 162 103
155 141 88
168 157 94
161 157 103
158 154 102
170 161 103
175 172 114
159 153 102
152 139 84
170 167 109
153 152 102
159 154 102
167 157 91
171 159 97
174 160 94
169 163 104
171 160 96
127 118 74
153 145 91
152 141 82
160 160 108
175 172 114
164 153 97
168 160 99
165 161 102
161 142 79
166 157 95
161 156 102
170 165 97
165 158 102
181 174 114
160 154 102
165 158 97
142 138 80
166 160 103
162 153 97
165 159 103
172 163 103
161 150 92
175 172 114
172 162 102
159 149 82
155 147 95
163 155 96
149 141 90
135 119 72
161 154 95
165 152 90
172 161 97
162 156 102
162 150 88
158 150 93
140 129 82
150 138 81
168 155 84
163 154 95
168 160 103
162 145 90
168 149 82
153 145 88
152 135 76
179 174 114
167 157 95
170 161 103
163 154 91
175 166 104
165 159 97
145 134 74
181 201 228
182 202 228
180 201 228
176 199 228
180 201 228
174 197 228
176 199 228
178 200 228
179 200 228
180 201 228
178 200 228
176 198 228
176 199 228
177 199 228
176 198 228
175 198 228
176 199 228
175 198 228
173 197 228
178 200 228
176 199 228
172 196 228
174 198 228
173 197 228
174 198 228
173 197 228
173 197 228
174 198 228
174 198 228
173 197 228
173 197 228
172 196 228
172 196 228
172 196 228
169 195 228
171 196 228
170 195 228
170 196 228
170 196 228
170 195 228
171 196 228
168 195 228
172 197 228
169 195 228
167 194 228
170 196 228
172 196 228
169 195 228
168 194 228
168 194 228
166 193 228
166 194 228
166 194 228
166 193 228
167 194 228
166 193 228
166 194 228
167 194 228
164 192 228
166 193 228
164 192 228
166 193 228
164 192 228
164 192 228
163 192 228
165 193 228
164 192 228
164 192 228
163 192 228
164 192 228
164 192 228
165 193 228
163 192 228
164 192 228
163 192 228
163 192 228
164 192 228
163 192 228
163 192 228
163 192 228
163 192 228
162 192 228
163 192 228
163 192 228
162 192 228
163 192 228
163 192 228
163 192 228
163 192 228
163 192 228
163 192 228
163 192 228
163 192 228
164 192 228
163 192 228
164 192 228
164 192 228
164 192 228
164 192 228
164 192 228
164 193 228
165 193 228
167 194 228
165 193 228
167 194 228
167 194 228
167 194 228
168 194 228
168 194 228
172 196 228
170 196 228
169 195 228
172 197 228
170 194 224
156 177 202
171 192 220
184 203 228
198 217 242
209 229 255
209 229 255
209 229 255
209 229 255
209 229 255
209 228 255
208 228 255
208 228 255
208 228 255
208 228 255
208 228 255
208 228 255
208 228 255
208 228 255
208 228 255
208 228 255
208 228 255
208 228 255
208 228 255
208 228 255
208 228 255
208 228 255
208 228 255
208 228 255
208 228 255
208 228 255
208 228 255
208 228 255
208 228 255
207 228 255
207 228 255
207 228 255
207 228 255
207 228 255
207 228 255
207 228 255
207 228 255
207 228 255
207 228 255
207 228 255
207 228 255
207 228 255
207 228 255
207 228 255
207 228 255
207 228 255
207 228 255
207 228 255
207 227 255
207 227 255
207 227 255
207 227 255
207 227 255
207 227 255
207 227 255
207 227 255
207 227 255
206 227 255
206 227 255
206 227 255
206 227 255
206 227 255
164 186 226
107 134 198
66 102 181
62 99 181
61 99 181
63 100 181
63 98 159
63 100 171
61 97 161
61 98 171
65 101 181
63 100 181
64 100 181
61 97 161
63 100 171
63 100 181
62 99 181
62 98 171
63 100 181
62 99 181
62 99 181
61 97 171
62 99 181
62 99 171
60 98 181
62 99 181
63 100 181
62 99 171
59 96 173
59 94 171
62 99 171
62 99 171
63 100 181
60 97 171
61 98 171
65 101 181
62 98 161
59 95 161
88 119 189
197 218 249
206 227 255
206 227 255
206 227 255
206 227 255
206 227 255
207 227 255
207 227 255
207 227 255
207 227 255
207 227 255
207 227 255
207 227 255
207 227 255
207 228 255
207 227 255
207 228 255
207 228 255
207 228 255
207 228 255
207 228 255
207 228 255
207 228 255
207 228 255
207 228 255
207 228 255
207 228 255
207 228 255
207 228 255
207 228 255
207 228 255
207 228 255
207 228 255
207 228 255
207 228 255
208 228 255
208 228 255
208 228 255
208 228 255
208 228 255
208 228 255
208 228 255
208 228 255
208 228 255
208 228 255
208 228 255
208 228 255
208 228 255
208 228 255
208 228 255
208 228 255
208 228 255
208 228 255
208 228 255
208 228 255
208 228 255
208 228 255
209 228 255
209 229 255
209 229 255
209 229 255
209 229 255
209 229 255
191 206 220
153 147 130
154 149 97
146 135 82
171 162 103
159 144 85
150 143 90
167 160 103
160 154 102
157 153 102
152 144 95
152 138 84
132 122 80
167 164 111
138 128 81
155 146 95
168 160 103
158 155 102
169 160 103
157 146 91
167 162 108
162 158 103
150 140 90
157 142 89
160 152 97
157 150 97
166 164 108
167 161 103
129 118 74
169 166 109
166 160 103
154 144 90
159 152 97
167 160 103
164 158 103
161 160 108
172 170 114
170 167 109
160 155 102
169 161 103
173 170 114
169 164 108
172 165 104
151 144 90
165 159 103
174 168 109
170 166 109
161 154 98
162 155 98
164 161 108
160 144 83
181 175 114
163 155 102
165 164 109
172 164 103
169 164 108
156 147 95
171 170 114
154 144 95
161 149 91
158 155 97
151 135 74
170 165 108
157 153 102
160 153 102
155 145 90
170 165 103
168 162 103
161 154 98
167 163 108
169 162 103
168 166 109
166 162 108
163 151 96
168 163 108
170 154 85
171 170 114
168 163 108
152 141 82
157 152 95
153 139 66
168 164 108
153 151 102
159 148 95
168 160 84
161 141 83
158 151 97
138 128 81
156 151 97
180 171 108
161 152 96
156 152 102
155 140 84
160 154 102
162 161 108
162 150 90
167 160 91
167 160 103
155 144 90
165 155 91
158 143 85
139 129 80
162 150 89
162 151 96
165 157 102
166 162 103
172 159 97
166 155 97
156 137 74
165 152 90
161 154 95
165 154 90
169 163 102
153 134 81
158 144 90
167 160 103
160 149 95
157 148 82
182 202 228
182 202 228
178 200 228
178 200 228
178 200 228
179 200 228
175 198 228
176 199 228
176 199 228
178 200 228
178 200 228
176 199 228
174 198 228
177 199 228
176 199 228
175 198 228
174 198 228
176 198 228
174 197 228
175 198 228
177 199 228
173 197 228
173 197 228
173 197 228
173 197 228
175 198 228
173 197 228
171 196 228
171 196 228
172 197 228
174 198 228
170 196 228
172 196 228
170 195 228
170 195 228
171 196 228
170 195 228
171 196 228
171 196 228
170 195 228
170 195 228
169 195 228
170 195 228
171 196 228
169 195 228
166 194 228
170 195 228
169 195 228
166 193 228
167 194 228
168 194 228
166 193 228
168 194 228
165 193 228
167 194 228
167 194 228
166 194 228
165 193 228
166 194 228
164 192 228
165 193 228
167 194 228
165 193 228
166 193 228
165 193 228
165 193 228
164 193 228
165 193 228
164 192 228
164 192 228
163 192 228
163 192 228
164 193 228
163 192 228
163 192 228
164 192 228
164 192 228
164 192 228
163 192 228
163 192 228
163 192 228
163 192 228
163 192 228
163 192 228
163 192 228
163 192 228
162 192 228
163 192 228
163 192 228
163 192 228
163 192 228
163 192 228
163 192 228
163 192 228
163 192 228
163 192 228
163 192 228
164 192 228
163 192 228
164 192 228
163 192 228
165 193 228
163 192 228
166 193 228
164 192 228
166 194 228
167 194 228
166 194 228
168 194 228
168 194 228
171 196 228
168 195 228
171 196 228
169 191 220
172 196 228
174 198 228
177 199 228
170 190 217
188 207 233
201 220 246
209 229 255
209 229 255
209 229 255
209 229 255
209 229 255
209 229 255
209 229 255
209 229 255
209 228 255
208 228 255
208 228 255
208 228 255
208 228 255
208 228 255
208 228 255
208 228 255
208 228 255
208 228 255
208 228 255
208 228 255
208 228 255
208 228 255
208 228 255
208 228 255
208 228 255
208 228 255
208 228 255
208 228 255
208 228 255
208 228 255
208 228 255
208 228 255
208 228 255
207 228 255
207 228 255
207 228 255
207 228 255
207 228 255
207 228 255
207 228 255
207 228 255
207 228 255
207 228 255
207 228 255
207 228 255
207 228 255
207 228 255
207 228 255
207 228 255
207 228 255
207 228 255
207 228 255
207 228 255
207 228 255
207 228 255
207 228 255
207 227 255
197 218 249
153 176 221
88 118 188
62 99 181
64 100 171
64 101 181
64 100 171
64 100 171
63 99 161
63 100 181
62 98 171
59 96 161
62 98 171
63 99 171
62 100 181
64 100 171
66 102 181
65 101 181
63 100 181
65 101 171
63 99 171
64 101 181
62 99 171
64 101 181
61 98 171
64 101 181
59 95 140
59 97 171
62 99 171
61 97 161
62 99 181
64 101 181
61 98 171
64 100 181
63 99 171
63 99 171
61 99 181
61 98 171
64 100 181
64 100 181
62 97 173
63 100 181
59 94 162
124 148 198
187 208 242
207 228 255
207 227 255
207 227 255
207 228 255
207 228 255
207 228 255
207 228 255
207 228 255
207 228 255
207 228 255
207 228 255
207 228 255
207 228 255
207 228 255
207 228 255
207 228 255
207 228 255
207 228 255
207 228 255
207 228 255
207 228 255
207 228 255
207 228 255
207 228 255
207 228 255
207 228 255
208 228 255
208 228 255
208 228 255
208 228 255
208 228 255
208 228 255
208 228 255
208 228 255
208 228 255
208 228 255
208 228 255
208 228 255
208 228 255
208 228 255
208 228 255
208 228 255
208 228 255
208 228 255
208 228 255
208 228 255
208 228 255
208 228 255
209 228 255
209 228 255
209 228 255
209 229 255
209 229 255
209 229 255
209 229 255
209 229 255
209 229 255
209 229 255
203 220 242
189 201 207
160 147 90
150 138 84
154 143 90
160 151 95
151 137 77
163 151 96
170 164 108
165 162 108
139 126 80
168 163 108
150 146 99
158 150 97
157 146 95
166 161 106
150 143 92
156 146 91
167 165 109
170 165 108
158 154 102
144 138 90
161 154 98
148 144 96
155 150 96
156 152 102
159 150 93
166 163 108
162 158 103
154 152 102
153 147 97
156 152 102
171 167 109
168 163 108
165 156 98
169 164 108
164 159 103
160 151 97
172 170 114
171 165 108
158 153 98
162 152 97
165 159 103
164 156 98
163 161 108
170 167 109
158 148 91
165 162 108
156 152 102
154 147 95
176 172 114
172 165 108
167 159 102
168 168 114
170 166 109
170 164 108
175 172 114
163 156 102
164 158 103
171 164 108
156 153 102
164 153 97
166 158 97
160 153 97
148 140 90
160 154 102
170 164 104
172 170 114
172 166 108
163 157 102
181 174 114
174 167 103
172 160 98
162 154 102
176 172 114
176 168 108
156 142 85
170 166 109
144 141 88
161 155 95
158 152 95
167 157 102
167 156 93
159 153 97
139 126 75
153 140 89
161 155 102
143 133 82
163 152 96
146 133 81
165 162 108
167 161 95
166 157 102
178 172 108
165 159 103
165 161 102
160 148 88
172 167 108
163 150 96
165 162 108
168 156 97
167 160 103
167 162 102
172 165 108
162 156 102
167 160 99
155 137 74
153 147 95
147 134 82
174 165 102
180 168 104
172 167 109
157 138 74
172 161 97
172 167 95
141 131 82
159 150 80
165 154 97
171 161 95
163 156 95
182 202 228
180 201 228
183 203 228
180 201 228
178 200 228
178 200 228
180 201 228
180 201 228
179 200 228
176 199 228
178 199 228
179 201 228
177 199 228
176 199 228
176 199 228
175 198 228
175 198 228
174 198 228
174 198 228
176 198 228
172 196 228
171 196 228
176 199 228
176 199 228
174 198 228
174 198 228
176 199 228
172 197 228
171 196 228
171 196 228
172 196 228
174 197 228
171 196 228
172 196 228
172 196 228
169 195 228
170 196 228
169 195 228
169 195 228
172 197 228
169 195 228
171 196 228
172 196 228
169 195 228
171 196 228
171 196 228
170 195 228
169 195 228
167 194 228
167 194 228
166 194 228
167 194 228
168 194 228
166 194 228
168 194 228
167 194 228
168 195 228
168 194 228
167 194 228
165 193 228
166 193 228
165 193 228
166 194 228
166 193 228
166 194 228
167 194 228
166 193 228
165 193 228
165 193 228
166 193 228
165 193 228
164 192 228
163 192 228
164 193 228
164 192 228
164 192 228
163 192 228
164 192 228
164 192 228
163 192 228
163 192 228
163 192 228
163 192 228
163 192 228
162 192 228
163 192 228
163 192 228
163 192 228
163 192 228
163 192 228
163 192 228
163 192 228
163 192 228
163 192 228
163 192 228
163 192 228
163 192 228
163 192 228
164 192 228
164 192 228
164 192 228
163 192 228
163 192 228
164 193 228
165 193 228
165 193 228
166 194 228
166 193 228
169 195 228
167 194 228
167 194 228
168 195 228
172 197 228
170 196 228
173 197 228
172 196 228
173 197 228
171 195 226
167 187 214
176 193 217
197 216 240
209 229 255
209 229 255
209 229 255
209 229 255
209 229 255
209 229 255
209 229 255
209 229 255
209 229 255
209 229 255
209 229 255
209 229 255
209 229 255
209 228 255
209 228 255
208 228 255
208 228 255
208 228 255
208 228 255
208 228 255
208 228 255
208 228 255
208 228 255
208 228 255
208 228 255
208 228 255
208 228 255
208 228 255
208 228 255
208 228 255
208 228 255
208 228 255
208 228 255
208 228 255
208 228 255
208 228 255
208 228 255
208 228 255
207 228 255
207 228 255
207 228 255
207 228 255
207 228 255
207 228 255
207 228 255
207 228 255
207 228 255
207 228 255
207 228 255
207 228 255
207 228 255
207 228 255
207 228 255
207 228 255
207 228 255
152 175 212
125 150 206
62 99 181
63 100 181
61 98 181
58 94 147
58 95 159
61 98 181
61 98 171
63 99 171
61 97 169
62 99 171
62 99 181
60 96 140
61 98 171
64 101 181
60 97 171
65 101 181
63 98 151
64 101 181
62 98 161
61 97 151
61 98 171
62 98 171
62 97 151
64 100 181
61 98 181
62 99 181
61 98 171
62 99 171
62 99 171
64 101 181
64 101 181
64 100 171
63 100 181
60 97 171
61 97 161
62 99 181
59 95 140
59 94 153
61 98 171
61 99 181
66 102 181
61 97 151
63 99 171
63 100 181
87 117 181
152 175 214
207 228 255
207 228 255
207 228 255
207 228 255
207 228 255
207 228 255
207 228 255
207 228 255
207 228 255
207 228 255
207 228 255
207 228 255
207 228 255
207 228 255
207 228 255
208 228 255
207 228 255
208 228 255
208 228 255
208 228 255
208 228 255
208 228 255
208 228 255
208 228 255
208 228 255
208 228 255
208 228 255
208 228 255
208 228 255
208 228 255
208 228 255
208 228 255
208 228 255
208 228 255
208 228 255
208 228 255
208 228 255
208 228 255
208 228 255
208 228 255
208 228 255
209 228 255
209 228 255
209 228 255
209 229 255
209 229 255
209 229 255
209 229 255
209 229 255
209 229 255
209 229 255
209 229 255
209 229 255
209 229 255
209 229 255
201 214 231
157 154 135
163 150 91
135 127 82
125 113 72
153 139 84
159 155 103
168 160 103
159 149 95
158 151 97
147 142 90
139 124 80
139 126 81
164 158 103
147 137 88
173 165 104
166 162 108
163 155 98
155 153 102
137 130 82
167 163 108
155 152 102
158 145 90
156 149 96
168 161 104
178 173 114
158 150 93
165 157 102
164 162 108
159 151 97
170 164 108
171 165 104
165 158 103
169 165 111
167 168 114
169 164 108
159 150 97
172 170 114
166 162 108
170 164 108
171 170 114
155 149 97
175 166 104
169 162 105
152 151 102
145 136 88
169 169 114
166 163 108
171 170 114
177 172 114
170 164 108
171 170 114
177 173 114
157 150 97
157 146 90
157 145 90
163 158 103
160 157 103
161 154 98
173 168 109
174 171 114
170 164 108
162 160 102
167 157 102
172 168 109
167 163 104
163 155 102
163 154 97
171 170 114
173 163 103
159 153 95
169 164 108
172 165 108
165 157 102
173 168 109
173 165 102
167 156 90
171 161 103
164 156 102
161 154 102
179 172 108
161 148 88
182 175 114
164 157 97
164 157 97
157 153 102
166 162 108
169 164 108
148 135 81
164 154 91
183 175 114
154 140 82
164 158 97
179 168 108
177 167 102
168 165 103
153 139 84
170 166 109
158 151 97
157 149 90
161 148 88
163 155 95
149 143 74
158 152 95
162 151 97
173 171 114
165 158 97
169 164 97
166 160 97
177 170 102
141 136 82
142 125 62
151 147 90
155 135 74
161 150 96
168 161 95
174 166 97
166 162 108
154 145 81
170 167 102
167 160 95
179 200 228
180 201 228
178 200 228
179 200 228
177 199 228
176 199 228
180 201 228
176 199 228
177 199 228
176 199 228
177 199 228
175 198 228
175 198 228
177 199 228
175 198 228
176 199 228
176 199 228
174 198 228
174 198 228
174 197 228
176 199 228
174 198 228
173 197 228
176 198 228
176 198 228
175 198 228
172 197 228
175 198 228
173 197 228
174 197 228
173 197 228
173 197 228
172 197 228
174 198 228
171 196 228
175 198 228
173 197 228
172 197 228
171 196 228
171 196 228
170 196 228
169 195 228
169 195 228
169 195 228
169 195 228
170 196 228
166 193 228
169 195 228
168 195 228
169 195 228
167 194 228
168 194 228
166 194 228
167 194 228
167 194 228
168 194 228
168 195 228
167 194 228
166 194 228
165 193 228
167 194 228
166 193 228
165 193 228
166 193 228
166 193 228
164 193 228
163 192 228
165 193 228
166 193 228
165 193 228
164 192 228
165 193 228
164 192 228
165 193 228
164 192 228
163 192 228
164 193 228
165 193 228
164 192 228
164 192 228
163 192 228
163 192 228
163 192 228
163 192 228
163 192 228
163 192 228
163 192 228
163 192 228
162 192 228
162 192 228
163 192 228
163 192 228
163 192 228
163 192 228
163 192 228
163 192 228
163 192 228
163 192 228
163 192 228
163 192 228
163 192 228
163 192 228
164 193 228
164 192 228
164 193 228
165 193 228
165 193 228
165 193 228
166 194 228
167 194 228
167 194 228
168 194 228
169 195 228
170 195 228
171 196 228
172 197 228
171 196 228
171 196 228
174 197 226
145 163 183
173 193 217
182 201 226
209 229 255
209 229 255
209 229 255
209 229 255
209 229 255
209 229 255
209 229 255
209 229 255
209 229 255
209 229 255
209 229 255
209 229 255
209 229 255
209 229 255
209 229 255
209 229 255
209 229 255
209 228 255
208 228 255
208 228 255
208 228 255
208 228 255
208 228 255
208 228 255
208 228 255
208 228 255
208 228 255
208 228 255
208 228 255
208 228 255
208 228 255
208 228 255
208 228 255
208 228 255
208 228 255
208 228 255
208 228 255
208 228 255
208 228 255
208 228 255
208 228 255
208 228 255
208 228 255
208 228 255
208 228 255
208 228 255
207 228 255
207 228 255
207 228 255
207 228 255
207 228 255
207 228 255
187 208 236
88 119 189
60 97 161
60 97 171
61 97 169
61 98 179
61 98 181
62 99 171
61 97 151
62 99 171
60 97 171
62 99 171
61 98 171
62 98 171
64 101 181
64 101 181
62 100 181
61 97 151
63 100 171
61 98 171
61 97 151
63 100 171
62 98 161
64 101 181
64 101 181
60 97 171
62 99 181
64 100 181
59 96 151
62 99 171
61 98 171
65 102 181
62 99 181
61 98 171
64 100 181
63 99 171
63 99 161
62 99 171
64 100 181
60 96 151
62 99 171
63 100 171
65 102 181
63 100 181
65 102 181
61 97 173
61 98 171
61 99 181
63 100 181
63 100 181
87 117 189
177 198 236
207 228 255
207 228 255
207 228 255
207 228 255
207 228 255
207 228 255
208 228 255
208 228 255
208 228 255
208 228 255
208 228 255
208 228 255
208 228 255
208 228 255
208 228 255
208 228 255
208 228 255
208 228 255
208 228 255
208 228 255
208 228 255
208 228 255
208 228 255
208 228 255
208 228 255
208 228 255
208 228 255
208 228 255
208 228 255
208 228 255
208 228 255
208 228 255
208 228 255
208 228 255
209 229 255
209 229 255
209 229 255
209 229 255
209 229 255
209 229 255
209 229 255
209 229 255
209 229 255
209 229 255
209 229 255
209 229 255
209 229 255
209 229 255
209 229 255
209 229 255
209 229 255
202 218 242
170 171 170
144 123 65
156 149 97
163 146 84
157 149 93
157 153 102
165 159 102
168 155 93
159 146 90
161 151 93
158 147 95
169 163 108
153 145 95
158 154 100
169 165 111
170 163 108
171 167 109
165 159 103
168 163 104
169 160 99
165 155 98
149 137 84
177 170 109
171 170 114
174 171 114
162 160 108
166 168 114
162 158 103
163 160 108
161 150 96
153 142 89
149 140 90
153 147 95
160 154 98
155 152 102
164 162 108
156 154 102
164 163 111
174 171 114
165 162 108
160 149 91
159 153 102
159 157 103
165 153 93
174 168 109
152 152 103
174 171 114
156 144 90
170 165 108
160 157 103
153 151 102
171 170 114
175 172 114
167 162 104
160 155 102
170 164 97
176 165 103
171 170 114
169 162 103
171 166 108
167 156 97
149 144 95
176 172 114
166 159 103
159 152 91
165 151 89
175 169 109
177 173 114
176 168 108
151 138 76
146 142 95
175 172 114
171 161 102
156 152 102
158 150 90
159 141 83
169 163 104
181 175 114
168 164 108
171 164 108
158 152 95
155 144 90
172 161 102
162 152 97
175 171 108
162 155 95
173 169 108
166 158 97
159 142 84
152 141 88
164 153 97
157 149 90
175 163 99
163 150 91
143 131 72
153 146 90
162 160 102
169 163 102
171 164 102
179 167 97
158 158 102
155 146 91
153 136 82
164 158 97
170 157 93
154 143 90
141 124 74
177 164 97
167 158 95
159 148 90
168 157 90
163 153 88
155 144 90
168 154 95
177 171 108
146 137 80
158 153 102
161 151 90
147 132 74
153 139 82
163 154 88
161 141 79
181 201 228
181 202 228
179 200 228
176 199 228
179 200 228
182 202 228
177 199 228
177 199 228
177 199 228
179 200 228
176 198 228
179 200 228
175 198 228
176 198 228
175 198 228
175 198 228
174 198 228
175 198 228
175 198 228
174 198 228
174 198 228
173 197 228
175 198 228
172 197 228
173 197 228
172 196 228
174 198 228
171 196 228
174 198 228
170 196 228
171 196 228
173 197 228
171 196 228
171 196 228
171 196 228
173 197 228
169 195 228
170 196 228
169 195 228
171 196 228
168 195 228
171 196 228
170 195 228
171 196 228
170 195 228
169 195 228
171 196 228
168 195 228
171 196 228
168 194 228
170 195 228
170 196 228
167 194 228
167 194 228
166 193 228
168 195 228
168 195 228
167 194 228
167 194 228
166 193 228
167 194 228
166 193 228
168 194 228
165 193 228
166 194 228
165 193 228
166 193 228
166 193 228
166 193 228
165 193 228
166 193 228
165 193 228
163 192 228
164 192 228
166 193 228
165 193 228
165 193 228
164 192 228
164 192 228
164 192 228
164 192 228
163 192 228
164 192 228
163 192 228
163 192 228
163 192 228
162 192 228
164 192 228
163 192 228
163 192 228
162 191 228
164 192 228
163 192 228
163 192 228
163 192 228
163 192 228
163 192 228
164 192 228
162 192 228
163 192 228
164 192 228
164 192 228
164 192 228
165 193 228
165 193 228
164 192 228
165 193 228
164 192 228
164 193 228
165 193 228
167 194 228
166 193 228
168 195 228
167 194 228
168 194 228
171 196 228
170 195 228
172 196 228
172 196 228
165 187 212
171 193 223
169 190 218
162 180 203
200 218 242
209 229 255
209 229 255
209 229 255
209 229 255
209 229 255
209 229 255
209 229 255
209 229 255
209 229 255
209 229 255
209 229 255
209 229 255
209 229 255
209 229 255
209 229 255
209 229 255
209 229 255
209 229 255
209 229 255
209 229 255
209 229 255
209 229 255
209 228 255
209 228 255
208 228 255
208 228 255
208 228 255
208 228 255
208 228 255
208 228 255
208 228 255
208 228 255
208 228 255
208 228 255
208 228 255
208 228 255
208 228 255
208 228 255
208 228 255
208 228 255
208 228 255
208 228 255
208 228 255
208 228 255
208 228 255
208 228 255
208 228 255
208 228 255
198 218 242
139 161 196
62 99 181
62 98 161
61 98 171
61 97 161
62 99 181
62 98 159
59 95 161
63 100 181
63 99 171
62 99 171
61 98 169
61 97 161
60 97 171
63 100 171
63 99 179
63 99 161
60 96 151
65 101 171
60 97 161
63 100 181
63 99 171
61 97 159
60 97 171
62 99 171
61 98 161
63 99 171
61 98 181
64 100 181
61 96 151
63 100 181
62 98 161
64 100 171
65 101 181
64 100 171
60 97 161
64 100 181
61 99 181
61 96 163
58 92 153
59 95 163
61 97 161
60 94 151
64 100 171
60 97 171
61 97 161
61 97 161
63 100 181
60 95 171
64 101 181
63 100 181
63 99 171
62 98 161
124 149 206
208 228 255
208 228 255
208 228 255
208 228 255
208 228 255
208 228 255
208 228 255
208 228 255
208 228 255
208 228 255
208 228 255
208 228 255
208 228 255
208 228 255
208 228 255
208 228 255
208 228 255
208 228 255
208 228 255
208 228 255
208 228 255
208 228 255
208 228 255
208 228 255
209 228 255
209 228 255
209 228 255
209 228 255
209 229 255
209 229 255
209 229 255
209 229 255
209 229 255
209 229 255
209 229 255
209 229 255
209 229 255
209 229 255
209 229 255
209 229 255
209 229 255
209 229 255
209 229 255
209 229 255
209 229 255
209 229 255
209 229 255
209 229 255
209 229 255
198 212 231
185 188 166
156 136 82
125 109 65
139 135 92
173 168 109
163 159 104
125 100 42
147 136 86
159 157 104
144 144 99
157 152 102
170 161 103
152 144 95
142 145 102
144 134 83
153 153 105
172 167 109
156 150 97
167 165 109
141 133 88
154 148 99
135 124 78
162 159 103
142 125 68
149 144 95
150 144 95
144 139 93
153 150 102
176 172 114
161 154 100
167 162 108
153 146 93
156 152 98
154 148 97
160 152 97
158 148 91
166 162 107
172 162 103
167 160 103
164 162 108
157 150 97
160 154 102
164 153 97
180 171 109
173 166 108
179 169 108
167 160 103
170 158 97
162 156 102
163 153 97
171 166 108
170 163 98
166 163 108
176 168 108
173 171 114
163 157 102
164 158 103
172 165 104
170 169 114
165 162 108
165 161 102
174 167 108
166 160 103
151 140 84
162 155 98
146 133 82
147 143 95
163 158 102
169 161 103
168 165 108
175 166 103
161 154 98
163 161 108
163 158 99
167 158 102
163 158 102
170 169 114
175 171 108
174 171 114
151 142 90
171 163 98
167 159 97
159 153 95
166 158 98
176 170 109
158 148 96
176 169 109
148 143 80
165 157 98
167 160 103
178 170 109
178 172 108
160 144 89
127 107 62
157 153 102
170 164 108
172 165 108
163 160 102
171 165 97
153 145 88
158 151 97
163 155 97
173 165 102
154 144 88
163 159 95
154 140 84
166 161 95
167 156 96
158 148 88
170 160 90
163 155 88
165 158 102
149 137 88
148 141 90
168 162 102
174 161 93
174 168 108
161 151 88
166 156 91
157 152 91
163 160 102
168 160 103
149 138 81
182 202 228
180 201 228
178 200 228
180 201 228
181 201 228
179 200 228
175 198 228
177 199 228
180 201 228
180 201 228
179 200 228
177 199 228
181 201 228
177 199 228
175 198 228
177 199 228
179 200 228
174 198 228
174 197 228
173 197 228
173 197 228
175 198 228
175 198 228
174 197 228
176 199 228
173 197 228
172 197 228
172 197 228
172 196 228
174 197 228
175 198 228
173 197 228
170 196 228
174 197 228
171 196 228
172 196 228
172 196 228
171 196 228
170 195 228
170 196 228
174 197 228
171 196 228
170 195 228
169 195 228
171 196 228
169 195 228
169 195 228
171 196 228
169 195 228
167 194 228
169 195 228
168 194 228
167 194 228
166 194 228
169 195 228
167 194 228
170 196 228
167 194 228
169 195 228
166 194 228
166 194 228
166 193 228
167 194 228
166 194 228
167 194 228
165 193 228
166 193 228
165 193 228
166 194 228
166 193 228
165 193 228
165 193 228
166 193 228
164 192 228
164 192 228
164 192 228
165 193 228
164 192 228
165 193 228
163 192 228
164 192 228
163 192 228
163 192 228
164 192 228
164 192 228
163 192 228
163 192 228
163 192 228
163 192 228
164 192 228
163 192 228
163 192 228
163 192 228
164 192 228
163 192 228
163 192 228
164 192 228
163 192 228
163 192 228
163 192 228
163 192 228
163 192 228
165 193 228
164 193 228
165 193 228
164 193 228
165 193 228
165 193 228
166 193 228
167 194 228
165 193 228
167 194 228
167 194 228
166 193 228
169 195 228
168 194 228
168 195 228
168 195 228
172 197 228
173 197 228
173 197 228
176 198 228
175 196 224
169 189 214
206 226 253
210 229 255
210 229 255
210 229 255
210 229 255
209 229 255
209 229 255
209 229 255
209 229 255
209 229 255
209 229 255
209 229 255
209 229 255
209 229 255
209 229 255
209 229 255
209 229 255
209 229 255
209 229 255
209 229 255
209 229 255
209 229 255
209 229 255
209 229 255
209 229 255
209 229 255
209 229 255
209 229 255
209 229 255
209 228 255
208 228 255
208 228 255
208 228 255
208 228 255
208 228 255
208 228 255
208 228 255
208 228 255
208 228 255
208 228 255
208 228 255
208 228 255
208 228 255
208 228 255
208 228 255
208 228 255
198 219 249
166 187 228
61 99 181
62 98 169
61 97 169
59 96 179
64 100 171
63 99 169
60 97 171
62 98 161
62 98 171
60 97 171
60 97 161
59 96 151
62 99 181
64 101 181
63 100 181
63 100 181
63 100 171
60 95 140
63 99 171
63 100 181
59 95 151
61 97 151
63 100 171
60 97 171
64 100 171
61 98 171
61 98 161
62 99 171
62 98 161
62 98 161
62 98 161
62 99 171
63 100 171
64 101 181
61 97 151
60 95 161
64 100 181
61 96 153
64 100 171
62 98 171
63 100 181
62 98 161
61 97 173
62 99 171
59 96 161
63 100 181
58 94 140
63 99 171
59 94 151
61 99 181
62 98 171
64 98 163
63 100 181
63 99 171
61 98 171
62 99 171
177 199 236
208 228 255
208 228 255
208 228 255
208 228 255
208 228 255
208 228 255
208 228 255
208 228 255
208 228 255
208 228 255
208 228 255
208 228 255
208 228 255
208 228 255
208 228 255
208 228 255
208 228 255
209 228 255
209 228 255
209 229 255
209 229 255
209 229 255
209 229 255
209 229 255
209 229 255
209 229 255
209 229 255
209 229 255
209 229 255
209 229 255
209 229 255
209 229 255
209 229 255
209 229 255
209 229 255
209 229 255
209 229 255
209 229 255
209 229 255
209 229 255
209 229 255
210 229 255
210 229 255
210 229 255
210 229 255
210 229 255
192 206 220
153 146 95
156 138 77
147 139 88
158 150 93
173 168 109
163 156 98
166 163 108
161 154 97
158 154 102
145 139 93
161 154 102
145 140 92
158 154 102
161 154 98
154 152 100
163 161 108
158 155 105
145 136 86
162 156 102
164 162 108
155 153 103
161 154 102
161 157 105
149 146 99
143 121 67
166 162 104
172 167 109
163 161 104
172 167 109
173 166 108
168 163 108
161 154 102
174 171 114
170 161 103
175 172 114
173 166 108
161 160 108
165 161 108
171 170 114
168 161 103
166 160 103
170 159 102
168 163 104
164 156 102
170 160 102
165 157 98
166 160 103
166 159 103
168 157 102
172 167 109
171 170 114
172 168 109
172 162 99
173 166 108
161 151 96
160 157 102
174 171 114
163 155 102
164 161 108
166 159 103
172 170 114
157 146 95
179 174 114
170 162 103
179 169 108
174 167 103
175 168 103
178 170 109
163 155 96
176 172 114
178 172 108
146 141 84
160 150 90
160 151 90
167 161 95
144 132 82
172 170 114
170 166 109
177 172 108
171 162 97
173 168 109
172 163 103
161 151 82
145 136 82
164 159 91
166 156 97
169 162 103
165 157 102
166 157 102
160 157 103
165 155 81
162 154 95
160 159 102
178 169 103
161 150 88
167 160 103
170 161 99
160 154 82
172 160 102
148 138 74
174 166 108
153 139 88
150 138 81
154 144 90
158 150 97
160 148 88
173 164 98
170 161 102
166 155 81
169 158 96
162 144 77
148 144 88
170 163 102
163 155 102
168 159 90
167 157 88
162 143 82
150 129 73
169 161 103
168 161 95
165 156 82
158 143 89
147 136 88
165 157 102
177 199 228
181 201 228
181 201 228
179 200 228
180 201 228
181 201 228
177 199 228
181 201 228
178 200 228
178 200 228
178 200 228
179 200 228
176 199 228
179 200 228
175 198 228
173 197 228
178 200 228
176 199 228
176 198 228
177 199 228
176 199 228
176 199 228
174 198 228
174 198 228
171 196 228
173 197 228
173 197 228
174 198 228
173 197 228
175 198 228
171 196 228
174 198 228
171 196 228
172 196 228
172 197 228
171 196 228
173 197 228
170 195 228
171 196 228
170 196 228
173 197 228
172 196 228
171 196 228
171 196 228
169 195 228
168 195 228
170 196 228
170 195 228
170 196 228
170 195 228
170 196 228
169 195 228
170 195 228
168 195 228
169 195 228
168 194 228
167 194 228
169 195 228
166 193 228
166 194 228
168 194 228
166 194 228
165 193 228
166 193 228
169 195 228
166 193 228
165 193 228
166 194 228
166 193 228
167 194 228
166 193 228
165 193 228
166 193 228
166 193 228
165 193 228
166 193 228
165 193 228
164 192 228
165 193 228
164 193 228
165 193 228
163 192 228
164 192 228
165 193 228
164 192 228
163 192 228
163 192 228
163 192 228
163 192 228
163 192 228
164 192 228
163 192 228
163 192 228
164 192 228
163 192 228
164 192 228
164 192 228
164 192 228
164 192 228
163 192 228
163 192 228
164 192 228
165 193 228
164 193 228
164 193 228
164 193 228
164 192 228
166 193 228
164 193 228
166 193 228
167 194 228
167 194 228
169 195 228
167 194 228
168 194 228
169 195 228
169 195 228
170 196 228
168 194 228
172 197 228
173 197 228
173 197 228
174 197 228
180 201 228
163 182 208
185 205 232
210 229 255
210 229 255
210 229 255
210 229 255
210 229 255
210 229 255
210 229 255
210 229 255
210 229 255
209 229 255
209 229 255
209 229 255
209 229 255
209 229 255
209 229 255
209 229 255
209 229 255
209 229 255
209 229 255
209 229 255
209 229 255
209 229 255
209 229 255
209 229 255
209 229 255
209 229 255
209 229 255
209 229 255
209 229 255
209 229 255
209 229 255
209 229 255
209 229 255
209 229 255
209 229 255
209 228 255
208 228 255
208 228 255
208 228 255
208 228 255
208 228 255
208 228 255
208 228 255
208 228 255
107 134 189
62 99 179
61 98 171
62 98 159
62 99 179
58 94 140
62 99 179
64 100 171
61 97 167
60 97 161
62 99 181
63 100 181
63 99 171
58 95 161
62 98 161
61 97 161
61 97 151
64 101 181
62 98 161
59 94 161
61 97 151
61 97 161
65 101 181
62 99 171
60 96 161
63 100 181
63 100 181
61 98 171
61 96 161
62 98 161
62 98 171
62 99 181
60 95 151
67 102 171
61 97 161
63 100 181
65 101 171
64 100 171
60 96 161
61 98 171
63 100 181
63 100 181
65 102 181
63 100 171
61 96 140
64 100 181
62 98 161
61 95 151
62 98 161
59 95 171
64 101 181
61 97 161
62 98 161
62 99 181
63 98 171
63 100 171
63 99 171
62 99 181
60 95 153
125 150 198
199 219 249
208 228 255
208 228 255
208 228 255
208 228 255
208 228 255
208 228 255
209 228 255
209 228 255
209 228 255
209 228 255
209 229 255
209 229 255
209 229 255
209 229 255
209 229 255
209 229 255
209 229 255
209 229 255
209 229 255
209 229 255
209 229 255
209 229 255
209 229 255
209 229 255
209 229 255
209 229 255
209 229 255
209 229 255
209 229 255
209 229 255
209 229 255
209 229 255
209 229 255
210 229 255
210 229 255
210 229 255
210 229 255
210 229 255
210 229 255
210 229 255
210 229 255
210 229 255
200 217 242
173 174 169
160 146 82
146 132 77
140 121 71
140 140 89
168 159 101
151 145 95
148 147 99
154 146 95
160 150 97
170 162 103
159 160 108
158 149 96
151 150 100
158 151 97
146 139 92
156 150 96
161 158 102
158 153 102
160 154 98
162 158 103
143 138 93
167 163 108
160 146 90
170 165 108
161 158 103
168 163 108
152 142 90
165 159 103
137 128 84
169 163 108
163 161 104
170 164 104
180 174 114
165 160 103
168 158 98
174 171 114
177 168 103
175 172 114
161 158 105
171 159 102
179 171 109
161 153 97
161 156 105
169 166 109
170 169 114
169 166 109
164 156 98
164 158 103
169 163 104
164 154 95
175 171 114
179 173 114
177 172 114
174 165 102
172 167 109
170 167 109
151 147 97
167 158 98
171 170 114
157 153 102
169 166 109
168 156 97
176 163 102
170 164 108
165 158 97
162 158 95
175 169 109
174 163 97
176 169 109
170 163 102
172 165 108
182 175 114
172 164 102
164 153 97
177 172 108
177 168 108
176 172 114
163 161 108
175 169 109
166 162 102
174 168 108
179 173 114
160 154 102
175 165 103
160 150 90
174 166 108
168 163 108
162 155 96
149 140 82
175 172 114
168 156 97
174 170 108
174 166 97
174 165 95
174 171 114
159 146 84
152 140 82
162 152 97
165 157 102
159 149 88
166 157 98
151 138 84
171 162 90
159 150 96
156 147 95
156 147 95
169 160 97
169 158 102
168 160 102
176 167 108
165 154 88
158 148 82
169 165 103
165 161 102
165 153 95
160 134 69
167 156 90
171 161 97
167 157 96
161 147 85
166 156 91
167 151 88
174 167 102
163 154 91
166 160 88
183 202 228
181 201 228
181 201 228
178 200 228
180 201 228
179 200 228
180 201 228
179 200 228
176 199 228
176 199 228
176 199 228
174 198 228
176 199 228
179 200 228
175 198 228
181 201 228
177 199 228
176 199 228
177 199 228
178 200 228
176 198 228
178 200 228
175 198 228
176 199 228
175 198 228
175 198 228
174 198 228
172 197 228
175 198 228
174 198 228
174 198 228
172 197 228
171 196 228
174 198 228
173 197 228
173 197 228
173 197 228
173 197 228
173 197 228
171 196 228
170 195 228
173 197 228
171 196 228
170 196 228
169 195 228
170 195 228
169 195 228
169 195 228
171 196 228
170 195 228
171 196 228
169 195 228
169 195 228
170 196 228
168 194 228
167 194 228
168 194 228
166 194 228
167 194 228
168 194 228
168 195 228
168 195 228
166 193 228
168 194 228
167 194 228
167 194 228
166 194 228
168 194 228
166 193 228
167 194 228
164 193 228
167 194 228
167 194 228
165 193 228
165 193 228
166 193 228
165 193 228
163 192 228
164 192 228
164 193 228
164 192 228
164 192 228
164 192 228
165 193 228
165 193 228
164 192 228
165 193 228
164 193 228
164 192 228
164 193 228
164 192 228
164 192 228
163 192 228
163 192 228
163 192 228
164 192 228
164 193 228
163 192 228
164 193 228
163 192 228
163 192 228
165 193 228
165 193 228
164 192 228
164 192 228
165 193 228
164 193 228
165 193 228
165 193 228
165 193 228
164 192 228
167 194 228
166 194 228
166 194 228
167 194 228
167 194 228
166 194 228
171 196 228
166 194 228
170 195 228
174 197 228
171 196 228
172 197 228
173 197 228
175 198 228
168 190 219
190 210 237
210 229 255
210 229 255
210 229 255
210 229 255
210 229 255
210 229 255
210 229 255
210 229 255
210 229 255
210 229 255
210 229 255
210 229 255
210 229 255
210 229 255
210 229 255
209 229 255
209 229 255
209 229 255
209 229 255
209 229 255
209 229 255
209 229 255
209 229 255
209 229 255
209 229 255
209 229 255
209 229 255
209 229 255
209 229 255
209 229 255
209 229 255
209 229 255
209 229 255
209 229 255
209 229 255
209 229 255
209 229 255
209 229 255
209 229 255
209 229 255
209 229 255
177 198 236
61 99 181
61 99 181
62 98 169
63 100 179
62 98 169
60 97 169
60 97 171
58 94 149
63 99 161
63 99 171
62 99 171
63 99 161
61 98 179
63 99 161
63 100 181
62 99 181
59 96 179
60 96 151
62 98 161
61 98 171
62 99 181
61 98 161
63 99 161
60 96 151
60 95 157
62 97 151
61 97 169
61 98 171
60 96 151
66 101 171
59 95 140
64 100 181
62 99 171
62 99 181
61 98 161
60 97 171
62 99 171
62 99 181
61 98 171
62 96 171
64 100 171
58 92 140
65 102 181
60 94 151
62 98 161
62 97 163
61 99 181
61 97 161
61 98 171
61 98 181
63 99 171
62 97 163
64 100 181
64 100 181
63 100 181
60 94 161
61 98 171
60 94 164
62 98 161
61 95 171
60 95 171
88 118 181
153 174 215
209 229 255
209 229 255
209 229 255
209 229 255
209 229 255
209 229 255
209 229 255
209 229 255
209 229 255
209 229 255
209 229 255
209 229 255
209 229 255
209 229 255
209 229 255
209 229 255
209 229 255
209 229 255
209 229 255
209 229 255
209 229 255
209 229 255
209 229 255
209 229 255
209 229 255
209 229 255
210 229 255
210 229 255
210 229 255
210 229 255
210 229 255
210 229 255
210 229 255
210 229 255
210 229 255
210 229 255
210 229 255
210 229 255
210 229 255
210 229 255
209 225 245
165 163 140
153 141 82
165 155 97
151 147 95
143 135 85
135 120 72
126 123 80
157 154 102
140 136 93
161 157 102
169 160 102
170 167 109
168 160 102
165 160 103
141 136 92
150 146 99
140 131 83
159 151 97
161 154 102
132 127 85
167 162 108
156 150 99
172 165 108
169 166 109
163 160 103
173 171 114
159 151 97
169 166 109
166 157 100
147 144 96
159 154 102
156 145 91
150 143 94
176 172 114
174 171 114
171 165 108
171 166 109
176 169 109
165 164 111
175 166 104
177 172 114
171 167 109
177 167 108
156 153 102
166 157 98
149 142 90
160 154 102
173 168 109
169 164 108
179 174 114
173 166 108
161 156 105
181 174 114
170 161 103
164 157 102
171 161 103
177 170 109
171 170 114
169 163 102
170 161 102
175 168 103
171 165 108
177 168 108
162 156 102
172 164 102
172 160 98
177 173 114
173 171 114
166 158 102
172 166 108
167 155 97
154 141 89
158 154 102
162 158 103
165 161 102
154 146 95
172 162 103
169 163 108
157 156 103
149 150 102
168 162 102
174 166 108
184 176 114
158 151 97
174 166 108
172 160 98
172 165 103
179 171 109
166 161 95
165 162 108
168 160 103
169 164 108
166 161 102
170 162 102
164 154 84
168 163 108
177 166 98
161 156 102
170 156 81
149 138 81
172 165 108
161 152 97
159 145 82
179 173 114
161 153 90
178 172 108
174 167 97
178 172 108
161 151 95
162 155 95
160 155 102
166 160 90
163 153 84
164 157 95
175 168 103
167 153 82
146 136 84
163 149 91
170 164 108
152 138 81
163 155 95
158 146 88
166 154 90
162 154 91
170 161 103
165 159 88
155 145 84
178 200 228
179 200 228
179 200 228
180 201 228
179 200 228
181 201 228
178 200 228
178 200 228
177 199 228
177 199 228
177 199 228
178 200 228
176 199 228
178 200 228
177 199 228
180 201 228
172 197 228
178 200 228
174 198 228
175 198 228
173 197 228
174 198 228
179 200 228
175 198 228
174 198 228
175 198 228
176 199 228
172 196 228
178 199 228
175 198 228
172 197 228
174 198 228
173 197 228
173 197 228
174 198 228
171 196 228
173 197 228
173 197 228
171 196 228
171 196 228
171 196 228
174 198 228
171 196 228
170 196 228
171 196 228
172 197 228
171 196 228
168 194 228
172 197 228
170 195 228
169 195 228
170 196 228
170 196 228
170 196 228
167 194 228
168 194 228
168 194 228
169 195 228
168 195 228
168 194 228
170 196 228
168 194 228
167 194 228
169 195 228
166 193 228
168 194 228
167 194 228
168 194 228
166 193 228
166 193 228
167 194 228
167 194 228
166 193 228
165 193 228
165 193 228
168 194 228
164 193 228
164 193 228
166 194 228
165 193 228
166 194 228
165 193 228
165 193 228
164 193 228
164 192 228
165 193 228
165 193 228
165 193 228
163 192 228
163 192 228
163 192 228
165 193 228
164 192 228
165 193 228
163 192 228
163 192 228
165 193 228
164 193 228
165 193 228
164 192 228
163 192 228
164 192 228
164 192 228
164 192 228
164 193 228
165 193 228
164 193 228
164 193 228
164 193 228
165 193 228
168 194 228
165 193 228
166 193 228
166 194 228
165 193 228
167 194 228
168 194 228
168 195 228
168 195 228
170 196 228
172 197 228
172 197 228
170 196 228
171 196 228
173 197 228
178 199 228
172 194 222
178 197 223
199 218 242
210 229 255
210 229 255
210 229 255
210 229 255
210 229 255
210 229 255
210 229 255
210 229 255
210 229 255
210 229 255
210 229 255
210 229 255
210 229 255
210 229 255
210 229 255
210 229 255
210 229 255
210 229 255
210 229 255
209 229 255
209 229 255
209 229 255
209 229 255
209 229 255
209 229 255
209 229 255
209 229 255
209 229 255
209 229 255
209 229 255
209 229 255
209 229 255
209 229 255
209 229 255
209 229 255
209 229 255
209 229 255
209 229 255
141 164 214
65 101 179
62 99 171
60 95 157
57 92 159
62 99 181
60 96 161
63 99 171
62 99 181
61 98 171
62 98 161
61 97 161
63 99 171
63 100 181
61 98 171
66 102 171
61 96 151
64 100 161
62 98 151
64 100 171
62 99 171
63 100 181
63 100 181
63 99 161
63 99 161
62 99 171
59 95 140
62 97 151
63 98 149
64 101 181
59 96 161
62 99 171
60 95 161
62 97 140
60 97 161
59 94 161
63 99 171
62 99 171
59 95 140
62 99 181
63 100 181
60 97 171
61 98 171
63 99 171
61 98 171
62 98 161
62 98 161
62 98 161
62 98 161
63 99 171
59 93 163
60 96 151
62 99 171
62 97 171
60 95 140
64 100 171
59 95 163
64 100 171
63 100 181
60 95 161
62 99 181
58 90 142
59 94 161
61 95 161
60 92 142
126 150 189
209 229 255
209 229 255
209 229 255
209 229 255
209 229 255
209 229 255
209 229 255
209 229 255
209 229 255
209 229 255
209 229 255
209 229 255
209 229 255
209 229 255
209 229 255
209 229 255
209 229 255
209 229 255
210 229 255
210 229 255
210 229 255
210 229 255
210 229 255
210 229 255
210 229 255
210 229 255
210 229 255
210 229 255
210 229 255
210 229 255
210 229 255
210 229 255
210 229 255
210 229 255
210 229 255
210 229 255
210 229 255
210 229 255
199 209 220
161 155 120
164 157 102
158 138 77
159 149 91
154 148 97
138 129 82
146 136 84
137 134 92
139 128 80
167 159 103
152 151 100
143 127 76
158 150 95
171 167 109
165 157 102
164 158 105
149 136 88
143 141 93
158 150 97
167 168 114
160 157 105
167 160 103
150 144 95
155 151 100
164 163 111
168 164 109
172 170 114
145 141 93
162 153 97
169 163 104
147 140 91
152 146 92
170 169 114
151 144 94
162 151 97
169 159 102
165 162 108
158 154 102
161 154 98
143 136 87
173 166 108
173 168 109
172 167 109
158 154 102
171 164 103
180 174 114
166 160 105
170 166 109
160 153 102
165 157 93
167 160 103
171 170 114
167 160 103
171 167 109
180 165 99
171 164 108
168 160 103
184 176 114
153 146 88
174 166 104
171 165 108
168 163 104
160 149 91
155 148 90
167 161 102
171 164 108
174 168 103
173 166 108
175 169 109
159 154 102
178 173 114
176 169 109
177 173 114
169 167 102
162 155 102
175 166 104
178 172 108
175 164 103
182 169 104
171 163 98
166 160 103
173 166 108
161 156 90
158 152 95
164 160 102
164 154 95
181 174 114
179 171 109
171 169 114
168 164 108
163 154 95
176 169 109
170 161 103
158 145 82
152 135 82
169 161 102
176 159 96
170 168 108
165 160 95
178 171 109
173 164 103
179 173 114
172 161 102
157 148 96
166 159 80
154 147 82
152 146 81
170 163 98
181 174 114
170 161 97
171 161 98
170 165 108
161 147 76
156 153 102
169 161 95
178 168 102
172 162 97
159 143 82
166 158 102
167 153 89
138 129 74
167 161 82
169 165 103
164 152 96
160 158 95
159 141 81
177 168 103
173 160 102
181 201 228
180 201 228
179 200 228
179 200 228
177 199 228
181 202 228
179 200 228
179 200 228
177 199 228
175 198 228
181 201 228
177 199 228
175 198 228
176 199 228
177 199 228
176 199 228
177 199 228
177 199 228
173 197 228
176 199 228
178 199 228
176 199 228
177 199 228
175 198 228
173 197 228
174 197 228
174 197 228
175 198 228
173 197 228
175 198 228
174 198 228
173 197 228
173 197 228
172 197 228
172 197 228
174 198 228
174 197 228
171 196 228
173 197 228
173 197 228
170 196 228
172 196 228
172 197 228
169 195 228
171 196 228
173 197 228
170 196 228
174 198 228
169 195 228
171 196 228
167 194 228
169 195 228
171 196 228
173 197 228
171 196 228
169 195 228
170 196 228
169 195 228
169 195 228
167 194 228
168 194 228
169 195 228
168 194 228
167 194 228
167 194 228
167 194 228
167 194 228
168 194 228
167 194 228
166 194 228
168 194 228
169 195 228
165 193 228
167 194 228
167 194 228
167 194 228
165 193 228
167 194 228
165 193 228
166 193 228
166 193 228
165 193 228
165 193 228
165 193 228
166 193 228
164 193 228
165 193 228
165 193 228
166 193 228
165 193 228
164 192 228
165 193 228
164 192 228
165 193 228
163 192 228
164 192 228
164 193 228
164 192 228
164 193 228
165 193 228
164 192 228
165 193 228
163 192 228
163 192 228
164 192 228
165 193 228
165 193 228
166 193 228
165 193 228
165 193 228
165 193 228
165 193 228
166 194 228
166 193 228
166 193 228
167 194 228
168 194 228
170 195 228
169 195 228
170 195 228
170 195 228
170 196 228
174 197 228
175 198 228
174 197 228
176 199 228
178 198 226
177 199 228
157 174 188
189 207 232
210 230 255
210 230 255
210 229 255
210 229 255
210 229 255
210 229 255
210 229 255
210 229 255
210 229 255
210 229 255
210 229 255
210 229 255
210 229 255
210 229 255
210 229 255
210 229 255
210 229 255
210 229 255
210 229 255
210 229 255
210 229 255
210 229 255
210 229 255
210 229 255
210 229 255
210 229 255
210 229 255
209 229 255
209 229 255
209 229 255
209 229 255
209 229 255
209 229 255
209 229 255
209 229 255
209 229 255
166 188 227
60 96 161
63 99 179
60 96 159
61 96 140
61 96 159
62 98 161
62 97 140
62 99 171
62 98 161
62 99 171
66 102 181
63 100 181
61 97 161
63 99 171
61 97 161
62 98 171
58 94 140
64 100 181
64 101 181
62 98 161
62 98 159
65 101 171
58 95 161
61 98 161
60 97 171
59 96 161
64 101 181
63 99 161
63 100 171
62 98 151
63 99 171
62 98 171
63 99 161
65 101 181
60 97 161
63 99 171
57 92 140
63 99 171
63 100 181
62 98 161
62 98 161
61 97 161
59 94 161
60 97 171
62 98 161
61 97 151
62 98 161
62 99 171
62 98 171
61 96 161
60 97 171
62 98 161
62 99 171
63 98 163
62 99 171
64 100 161
63 100 181
60 94 142
62 98 171
62 99 171
63 100 171
62 99 171
61 96 163
59 95 163
60 96 171
60 93 144
88 116 173
200 219 249
209 229 255
209 229 255
209 229 255
209 229 255
209 229 255
209 229 255
210 229 255
210 229 255
210 229 255
210 229 255
210 229 255
210 229 255
210 229 255
210 229 255
210 229 255
210 229 255
210 229 255
210 229 255
210 229 255
210 229 255
210 229 255
210 229 255
210 229 255
210 229 255
210 229 255
210 229 255
210 229 255
210 229 255
210 229 255
210 229 255
210 229 255
210 229 255
210 229 255
210 230 255
210 230 255
204 219 242
142 125 72
156 144 93
152 140 88
163 159 106
146 137 85
146 133 81
156 153 102
175 171 114
157 155 101
140 130 82
138 130 85
162 155 95
165 159 103
166 159 102
151 139 87
165 154 97
154 135 77
165 157 100
169 169 114
158 153 100
159 155 102
155 153 103
172 170 114
167 162 106
160 153 98
174 171 114
168 160 99
173 164 103
161 154 100
169 162 106
167 162 104
156 151 100
171 165 108
166 161 101
163 162 108
161 156 105
164 163 111
176 169 109
163 158 103
162 157 105
178 173 114
160 155 102
177 173 114
175 172 114
177 170 109
161 156 102
171 164 102
176 172 114
172 168 109
178 172 108
175 169 109
176 172 114
172 167 109
168 167 108
167 163 108
149 139 90
169 164 108
172 159 97
162 151 96
181 171 108
174 167 108
179 173 114
179 173 114
171 160 102
172 167 103
165 154 88
156 143 90
158 150 91
181 174 114
170 164 95
169 169 114
169 159 96
170 164 108
166 160 103
184 176 114
165 157 102
173 163 103
179 172 108
175 166 108
167 157 91
155 144 84
174 170 108
176 171 108
171 161 102
179 173 108
169 163 108
169 160 103
173 166 108
159 149 90
172 165 95
167 161 102
172 161 97
161 152 97
171 165 108
169 156 97
174 166 104
189 178 114
169 162 103
156 149 90
165 160 95
169 162 102
167 166 102
175 165 96
160 150 90
143 125 74
165 161 102
157 153 95
154 144 90
179 172 108
160 154 82
166 154 89
173 166 108
176 165 103
158 149 90
155 146 95
165 158 102
172 156 93
151 140 82
158 152 95
173 159 84
165 153 90
158 151 88
162 149 91
166 152 91
158 149 88
181 172 102
160 152 88
168 166 95
173 167 102
178 200 228
181 201 228
180 201 228
181 201 228
179 200 228
180 201 228
178 200 228
176 199 228
180 201 228
180 201 228
178 200 228
178 199 228
178 200 228
174 198 228
176 199 228
180 201 228
177 199 228
180 201 228
176 199 228
175 198 228
177 199 228
176 199 228
177 199 228
176 198 228
176 198 228
174 198 228
173 197 228
174 197 228
174 198 228
174 198 228
173 197 228
176 199 228
172 197 228
174 197 228
172 197 228
171 196 228
176 198 228
173 197 228
173 197 228
176 199 228
175 198 228
174 197 228
174 197 228
171 196 228
172 197 228
173 197 228
171 196 228
171 196 228
171 196 228
170 195 228
171 196 228
172 196 228
170 195 228
171 196 228
169 195 228
170 195 228
169 195 228
170 195 228
171 196 228
168 195 228
167 194 228
170 196 228
170 196 228
167 194 228
170 195 228
169 195 228
166 194 228
169 195 228
169 195 228
168 195 228
168 194 228
169 195 228
167 194 228
168 195 228
168 194 228
166 194 228
166 193 228
167 194 228
166 193 228
167 194 228
166 194 228
164 192 228
167 194 228
166 193 228
166 193 228
164 192 228
165 193 228
166 193 228
165 193 228
166 194 228
166 193 228
166 194 228
165 193 228
166 194 228
164 192 228
164 193 228
164 192 228
165 193 228
164 193 228
166 194 228
163 192 228
165 193 228
165 193 228
166 193 228
166 193 228
165 193 228
165 193 228
165 193 228
165 193 228
166 193 228
166 194 228
166 193 228
167 194 228
169 195 228
169 195 228
167 194 228
168 194 228
167 194 228
171 196 228
170 196 228
171 196 228
170 196 228
169 195 228
170 195 228
172 196 228
174 198 228
175 198 228
174 198 228
168 189 216
171 190 217
160 175 194
211 230 255
211 230 255
211 230 255
211 230 255
211 230 255
211 230 255
211 230 255
210 230 255
210 230 255
210 229 255
210 229 255
210 229 255
210 229 255
210 229 255
210 229 255
210 229 255
210 229 255
210 229 255
210 229 255
210 229 255
210 229 255
210 229 255
210 229 255
210 229 255
210 229 255
210 229 255
210 229 255
210 229 255
210 229 255
210 229 255
210 229 255
210 229 255
210 229 255
200 219 248
127 151 204
60 95 140
64 101 181
62 98 169
61 96 161
63 99 171
62 98 169
60 95 149
63 99 171
62 96 171
65 100 161
64 101 181
61 96 151
61 97 161
61 96 151
65 101 181
62 98 171
61 97 161
61 98 171
62 98 161
62 98 171
63 100 171
63 99 169
62 98 161
64 100 171
61 98 161
61 98 171
63 98 151
62 98 161
60 96 151
63 99 161
63 99 161
60 97 161
61 98 181
61 97 151
60 97 161
63 100 181
62 98 161
63 98 163
64 100 171
63 99 161
61 98 161
61 97 161
62 98 161
61 97 151
62 99 171
62 99 181
63 99 161
61 95 142
59 91 142
64 100 181
63 99 161
64 100 181
62 99 171
61 96 153
62 96 161
58 93 171
63 98 173
58 94 151
60 96 161
55 84 133
65 102 181
60 95 140
62 97 171
59 93 142
58 95 161
56 89 140
62 99 171
61 99 181
88 116 173
189 208 236
210 229 255
210 229 255
210 229 255
210 229 255
210 229 255
210 229 255
210 229 255
210 229 255
210 229 255
210 229 255
210 229 255
210 229 255
210 229 255
210 229 255
210 229 255
210 229 255
210 229 255
210 229 255
210 229 255
210 229 255
210 229 255
210 229 255
210 229 255
210 229 255
210 230 255
210 230 255
210 230 255
211 230 255
211 230 255
211 230 255
211 230 255
211 230 255
211 230 255
174 180 185
152 146 96
154 145 95
153 144 94
151 146 99
148 146 99
157 154 103
156 148 95
140 131 83
157 149 95
148 143 90
143 140 96
158 155 103
167 165 111
142 140 93
143 143 96
163 159 102
158 154 103
160 157 103
161 152 99
139 137 95
167 165 109
166 161 103
162 154 100
173 165 104
156 149 99
160 158 106
153 151 100
169 163 108
165 157 102
165 156 96
157 153 100
174 171 114
161 162 111
160 154 102
174 171 114
150 144 95
176 169 109
167 165 111
174 170 108
165 163 108
151 144 91
170 165 108
163 162 105
172 169 113
152 147 99
175 171 114
160 157 102
176 169 109
172 167 109
168 162 106
177 172 114
160 148 95
178 171 109
175 169 109
172 160 98
161 148 91
164 160 104
172 168 109
168 162 98
170 164 108
160 155 105
174 171 114
172 166 108
173 166 108
179 173 114
173 167 103
155 150 90
172 170 114
179 174 114
181 172 109
170 165 108
167 161 97
177 170 109
177 172 108
171 160 102
171 170 114
175 171 108
172 169 108
161 151 88
169 162 95
169 160 97
182 171 103
174 165 102
169 163 102
168 165 102
176 169 103
177 172 108
172 167 103
168 157 91
172 168 109
178 173 114
163 153 90
169 161 97
170 167 102
175 166 108
159 157 95
176 171 108
165 160 88
166 161 102
166 155 97
172 168 102
174 165 104
167 158 102
174 168 109
167 162 102
170 161 102
171 163 98
159 142 84
179 169 108
176 167 102
168 157 95
170 165 97
165 150 90
174 168 109
163 150 88
155 140 88
183 173 109
168 159 95
162 154 88
163 160 102
168 160 103
183 174 108
163 154 88
167 163 108
142 131 74
157 158 102
150 143 90
157 153 95
148 138 80
171 161 97
179 200 228
180 201 228
180 201 228
180 201 228
179 200 228
179 200 228
181 202 228
180 201 228
179 200 228
179 200 228
178 200 228
180 201 228
178 200 228
181 201 228
177 199 228
178 200 228
177 199 228
179 200 228
179 200 228
178 200 228
177 199 228
176 199 228
177 199 228
176 198 228
176 199 228
174 198 228
174 198 228
177 199 228
176 199 228
177 199 228
174 198 228
175 198 228
175 198 228
175 198 228
174 198 228
174 198 228
175 198 228
172 197 228
173 197 228
174 197 228
173 197 228
171 196 228
173 197 228
172 196 228
171 196 228
172 197 228
173 197 228
173 197 228
172 196 228
170 196 228
171 196 228
172 196 228
172 197 228
170 195 228
168 195 228
170 195 228
167 194 228
173 197 228
170 196 228
168 194 228
168 194 228
170 196 228
168 195 228
170 195 228
170 195 228
166 194 228
169 195 228
167 194 228
168 194 228
168 194 228
167 194 228
167 194 228
169 195 228
169 195 228
167 194 228
168 195 228
167 194 228
169 195 228
168 194 228
167 194 228
167 194 228
166 193 228
166 193 228
167 194 228
167 194 228
167 194 228
166 193 228
165 193 228
166 193 228
165 193 228
167 194 228
165 193 228
166 193 228
166 193 228
165 193 228
165 193 228
165 193 228
166 194 228
165 193 228
166 193 228
166 194 228
165 193 228
165 193 228
165 193 228
166 193 228
164 192 228
165 193 228
166 193 228
166 194 228
166 193 228
166 193 228
168 195 228
166 193 228
167 194 228
167 194 228
168 195 228
170 196 228
168 194 228
168 195 228
168 194 228
169 195 228
171 196 228
170 195 228
172 197 228
171 196 228
173 197 228
172 197 228
172 197 228
177 199 228
177 199 228
180 199 224
171 187 207
211 230 255
211 230 255
211 230 255
211 230 255
211 230 255
211 230 255
211 230 255
211 230 255
211 230 255
211 230 255
211 230 255
211 230 255
210 230 255
210 230 255
210 230 255
210 229 255
210 229 255
210 229 255
210 229 255
210 229 255
210 229 255
210 229 255
210 229 255
210 229 255
210 229 255
210 229 255
210 229 255
210 229 255
210 229 255
210 229 255
210 229 255
190 210 242
154 175 216
62 98 161
63 99 171
62 98 169
62 99 171
61 97 161
63 98 151
61 97 159
64 101 181
59 94 157
65 101 171
63 98 159
61 98 181
58 94 157
61 96 140
66 102 181
62 99 171
61 97 161
62 98 161
64 101 181
60 96 151
61 97 161
63 99 171
60 97 161
62 98 171
66 101 169
62 98 151
63 99 171
62 98 161
62 97 151
61 97 161
60 97 161
60 96 151
63 99 161
65 101 171
61 97 151
64 100 181
64 100 171
61 96 161
65 100 161
63 98 151
63 98 151
60 95 140
64 99 151
63 99 171
63 100 181
63 99 161
64 100 171
62 97 163
63 100 171
60 97 161
61 97 161
60 96 163
60 96 151
63 99 171
63 99 161
65 102 181
62 97 163
61 95 171
63 99 171
62 99 171
61 97 161
65 100 173
62 98 161
62 99 171
62 97 161
57 91 163
63 98 161
61 95 155
61 96 172
60 96 163
110 135 191
210 229 255
210 229 255
210 229 255
210 229 255
210 229 255
210 229 255
210 229 255
210 229 255
210 229 255
210 229 255
210 229 255
210 229 255
210 229 255
210 229 255
210 229 255
210 229 255
210 229 255
210 230 255
210 230 255
210 230 255
211 230 255
211 230 255
211 230 255
211 230 255
211 230 255
211 230 255
211 230 255
211 230 255
211 230 255
211 230 255
211 230 255
211 230 255
204 219 234
152 130 69
148 125 72
158 145 87
163 156 97
155 144 85
136 132 90
143 138 88
136 124 78
143 131 82
167 163 108
177 172 114
164 155 98
174 166 104
158 154 102
158 155 102
149 142 93
152 145 91
162 157 101
143 143 97
156 153 102
163 156 102
149 144 95
166 162 108
140 138 97
163 155 97
165 158 102
166 160 105
156 150 102
171 161 103
168 166 109
165 159 103
171 167 109
168 166 109
170 167 109
166 156 100
155 146 91
167 159 102
164 159 103
176 167 108
165 162 108
173 171 114
172 170 114
176 172 114
166 163 108
171 164 108
175 172 114
156 153 102
166 162 102
159 158 108
165 159 103
167 162 102
173 171 114
175 171 114
173 170 114
161 154 98
186 176 108
177 170 109
173 169 107
161 161 108
172 170 114
167 162 102
185 176 114
177 170 109
175 171 108
159 151 90
174 170 108
178 173 114
174 168 108
171 167 109
166 153 91
178 170 109
174 166 108
169 158 98
168 165 103
175 172 114
167 162 102
176 167 108
168 162 95
173 167 108
179 171 109
166 157 98
173 167 102
172 164 102
163 157 97
164 155 90
174 171 114
161 153 95
166 151 90
170 168 108
153 145 95
180 172 109
169 164 108
166 160 95
169 161 103
172 164 102
165 154 84
178 169 103
157 150 72
163 152 90
161 149 91
175 171 114
171 169 108
174 165 102
158 154 72
166 165 102
180 168 103
167 160 103
154 142 90
184 173 109
155 146 84
155 142 82
170 164 102
176 169 95
172 164 96
172 164 102
168 151 82
173 165 108
154 144 81
157 143 82
168 166 95
164 153 97
171 162 103
165 158 97
156 144 90
148 142 88
173 166 97
163 155 91
169 155 90
170 160 93
161 150 90
167 163 108
180 201 228
181 201 228
179 200 228
183 203 228
179 200 228
181 202 228
179 200 228
181 201 228
179 200 228
182 202 228
178 200 228
180 201 228
180 201 228
178 200 228
175 198 228
177 199 228
178 200 228
177 199 228
175 198 228
180 201 228
174 198 228
178 200 228
175 198 228
181 201 228
176 198 228
178 200 228
175 198 228
176 198 228
177 199 228
176 199 228
175 198 228
176 199 228
175 198 228
175 198 228
176 198 228
174 198 228
178 200 228
173 197 228
172 197 228
173 197 228
175 198 228
174 197 228
175 198 228
175 198 228
172 197 228
175 198 228
170 196 228
170 196 228
174 197 228
170 196 228
171 196 228
170 196 228
170 195 228
172 196 228
172 196 228
170 196 228
173 197 228
171 196 228
170 196 228
169 195 228
170 195 228
170 195 228
170 196 228
172 196 228
168 194 228
169 195 228
170 195 228
169 195 228
170 195 228
171 196 228
169 195 228
167 194 228
167 194 228
170 195 228
166 194 228
170 195 228
167 194 228
170 195 228
167 194 228
168 194 228
167 194 228
166 194 228
168 194 228
167 194 228
166 193 228
166 194 228
168 195 228
166 193 228
166 194 228
167 194 228
167 194 228
166 193 228
165 193 228
165 193 228
167 194 228
166 193 228
166 193 228
167 194 228
166 193 228
166 194 228
165 193 228
166 194 228
167 194 228
167 194 228
167 194 228
167 194 228
166 194 228
166 193 228
165 193 228
166 193 228
165 193 228
167 194 228
168 194 228
166 194 228
167 194 228
167 194 228
169 195 228
168 194 228
169 195 228
169 195 228
171 196 228
170 196 228
170 196 228
171 196 228
171 196 228
170 195 228
174 198 228
173 197 228
177 199 228
170 192 220
172 193 217
171 190 217
187 206 226
211 230 255
211 230 255
211 230 255
211 230 255
211 230 255
211 230 255
211 230 255
211 230 255
211 230 255
211 230 255
211 230 255
211 230 255
211 230 255
211 230 255
211 230 255
211 230 255
211 230 255
211 230 255
211 230 255
211 230 255
210 230 255
210 230 255
210 230 255
210 229 255
210 229 255
210 229 255
210 229 255
210 229 255
210 229 255
210 229 255
60 97 179
61 97 167
62 98 179
59 95 140
63 98 177
61 97 161
63 99 179
64 100 181
62 97 151
62 98 169
58 91 135
62 96 169
61 96 157
59 95 140
64 100 171
61 96 151
62 98 161
61 98 169
60 96 159
63 99 171
60 96 151
58 93 161
60 97 171
62 98 161
61 98 171
61 98 171
63 99 161
62 97 151
61 97 151
61 96 151
62 97 151
59 96 161
59 95 151
60 95 140
64 100 171
63 99 179
60 97 161
64 100 171
64 99 161
60 96 140
62 97 163
61 98 171
61 97 161
62 98 151
59 95 140
59 93 161
66 102 181
60 97 161
61 97 161
64 101 171
61 97 151
62 97 173
59 94 127
62 98 151
61 98 171
60 96 151
64 101 181
62 98 161
61 98 171
58 93 161
55 84 130
63 99 171
60 97 161
60 97 171
62 97 173
61 98 171
61 98 171
57 92 155
57 91 142
62 99 171
60 95 165
60 96 151
63 97 165
105 127 162
190 210 242
210 229 255
210 229 255
210 229 255
210 229 255
210 229 255
210 229 255
210 230 255
210 230 255
211 230 255
211 230 255
211 230 255
211 230 255
211 230 255
211 230 255
211 230 255
211 230 255
211 230 255
211 230 255
211 230 255
211 230 255
211 230 255
211 230 255
211 230 255
211 230 255
211 230 255
211 230 255
211 230 255
211 230 255
211 230 255
180 185 188
153 135 81
151 147 99
159 149 95
152 144 94
157 148 96
156 147 91
150 139 90
155 152 102
132 129 87
143 141 99
137 132 85
155 154 105
159 155 101
139 129 82
165 153 93
150 143 93
157 150 97
158 156 102
142 138 93
157 150 97
151 143 95
164 159 105
154 154 105
148 146 99
153 153 105
170 166 109
151 141 92
163 152 99
152 140 88
167 164 111
159 158 106
170 164 108
165 164 111
145 135 86
158 151 97
174 171 114
155 151 100
169 159 102
167 155 97
167 165 111
173 168 109
164 157 102
177 168 108
169 165 110
181 174 114
164 157 95
169 158 102
165 159 105
173 170 114
163 157 102
174 168 109
173 168 109
170 168 108
171 162 103
181 174 114
168 167 108
143 130 82
174 168 109
162 155 97
167 157 98
169 165 102
175 168 103
164 157 102
167 164 108
182 174 108
165 154 97
172 166 108
174 166 108
165 157 102
153 140 84
177 167 104
167 160 103
175 169 109
171 169 114
156 150 93
173 166 108
168 159 97
164 158 97
166 162 90
179 173 114
170 165 102
176 167 108
167 157 91
172 164 102
177 169 103
174 165 90
171 163 95
168 160 103
170 163 98
152 143 82
174 169 102
170 163 102
169 159 90
172 163 95
174 170 108
177 168 97
162 153 84
162 156 102
170 160 80
172 164 102
170 167 102
177 171 108
157 153 102
168 163 102
173 165 102
168 162 102
156 147 81
178 171 102
164 153 90
175 162 96
161 155 96
162 156 90
180 171 109
161 144 88
165 162 108
170 162 95
165 150 91
169 162 97
157 151 95
166 161 102
167 155 97
151 144 88
166 154 88
176 168 103
161 157 97
167 152 90
169 163 96
138 132 88
171 161 103
154 147 82
167 160 102
152 142 82
183 202 228
177 199 228
179 200 228
181 202 228
181 201 228
182 202 228
183 202 228
181 201 228
177 199 228
180 201 228
179 200 228
180 201 228
180 201 228
179 200 228
179 200 228
180 201 228
179 200 228
179 200 228
178 200 228
178 200 228
178 200 228
180 201 228
177 199 228
177 199 228
174 197 228
174 198 228
177 199 228
173 197 228
177 199 228
177 199 228
177 199 228
174 198 228
179 200 228
174 198 228
174 198 228
176 199 228
176 198 228
174 198 228
173 197 228
172 197 228
175 198 228
173 197 228
172 196 228
177 199 228
173 197 228
172 196 228
170 196 228
172 196 228
175 198 228
171 196 228
171 196 228
173 197 228
172 196 228
174 197 228
173 197 228
173 197 228
172 197 228
170 196 228
172 196 228
170 195 228
171 196 228
173 197 228
171 196 228
168 195 228
170 196 228
169 195 228
171 196 228
169 195 228
168 195 228
169 195 228
166 193 228
170 196 228
169 195 228
168 194 228
168 195 228
168 195 228
170 195 228
167 194 228
169 195 228
167 194 228
167 194 228
168 194 228
167 194 228
168 195 228
169 195 228
166 194 228
168 194 228
168 194 228
165 193 228
168 194 228
168 194 228
164 193 228
165 193 228
167 194 228
166 193 228
168 194 228
165 193 228
166 194 228
166 193 228
168 194 228
167 194 228
167 194 228
166 193 228
164 193 228
167 194 228
167 194 228
167 194 228
165 193 228
168 195 228
167 194 228
167 194 228
169 195 228
167 194 228
169 195 228
168 194 228
169 195 228
168 194 228
168 195 228
168 195 228
168 195 228
170 195 228
169 195 228
170 195 228
172 197 228
173 197 228
172 196 228
174 198 228
173 197 228
177 199 228
178 200 228
177 199 228
181 201 228
157 173 194
198 216 240
211 230 255
211 230 255
211 230 255
211 230 255
211 230 255
211 230 255
211 230 255
211 230 255
211 230 255
211 230 255
211 230 255
211 230 255
211 230 255
211 230 255
211 230 255
211 230 255
211 230 255
211 230 255
211 230 255
211 230 255
211 230 255
211 230 255
211 230 255
211 230 255
211 230 255
211 230 255
211 230 255
211 230 255
126 150 198
59 95 159
59 95 159
60 96 169
64 100 181
60 96 159
61 95 167
61 97 177
61 96 137
60 96 161
62 99 171
59 95 127
62 98 161
61 97 161
59 95 140
64 100 171
65 101 171
62 98 161
58 94 137
62 98 161
62 97 161
62 99 171
60 96 140
60 95 127
65 101 171
61 97 159
65 101 181
63 100 171
63 98 151
60 96 151
63 98 151
59 95 151
62 98 161
61 97 151
60 94 140
63 99 161
61 96 140
63 99 161
66 102 171
58 94 140
62 99 171
63 99 161
61 94 151
61 98 161
63 98 161
59 93 151
64 100 171
61 97 161
61 95 142
62 98 161
61 98 171
64 101 181
62 98 171
62 99 181
60 97 161
60 95 153
64 100 161
58 92 127
61 97 161
60 94 161
61 96 153
62 99 181
64 100 171
59 94 161
62 98 161
59 93 130
63 99 171
62 97 163
60 93 153
61 97 163
62 97 140
59 93 142
64 99 173
60 92 155
62 99 181
109 135 189
201 220 249
211 230 255
211 230 255
211 230 255
211 230 255
211 230 255
211 230 255
211 230 255
211 230 255
211 230 255
211 230 255
211 230 255
211 230 255
211 230 255
211 230 255
211 230 255
211 230 255
211 230 255
211 230 255
211 230 255
211 230 255
211 230 255
211 230 255
211 230 255
211 230 255
211 230 255
211 230 255
211 230 255
166 167 181
142 127 73
152 143 90
122 101 59
146 128 70
146 132 81
127 125 88
157 155 105
154 144 90
134 129 84
141 133 86
139 134 90
124 116 74
163 158 102
164 156 98
144 140 96
157 157 108
140 135 88
167 163 108
169 162 104
162 158 103
156 153 100
130 123 78
150 142 90
137 129 80
164 162 108
169 164 108
155 154 105
162 156 104
165 155 97
144 143 99
160 149 92
165 159 103
174 169 109
171 165 108
159 160 105
173 171 114
161 155 102
164 154 95
174 171 114
174 167 103
175 170 108
169 168 108
169 165 103
169 166 109
173 167 103
169 162 103
167 162 102
176 171 108
173 168 109
162 155 91
177 172 114
175 171 114
172 169 108
179 173 114
178 173 114
168 161 103
179 173 114
168 163 108
175 167 108
177 171 108
171 162 103
175 168 103
169 164 102
177 172 114
167 154 97
180 173 108
156 152 102
167 157 98
174 171 114
167 167 108
173 170 108
183 175 114
174 168 109
180 171 109
172 169 108
171 166 103
169 162 102
151 144 90
177 166 102
173 168 109
173 170 108
165 157 102
166 152 84
179 171 109
157 147 88
178 168 108
176 171 108
167 162 108
170 163 88
178 170 109
179 172 108
168 163 102
169 159 97
173 167 103
167 158 102
164 156 98
165 161 102
172 167 103
167 156 97
175 166 102
160 150 82
161 155 102
173 166 108
166 157 102
162 153 84
160 152 81
170 161 103
162 154 95
168 159 102
175 168 108
178 172 108
170 162 82
160 151 88
174 164 91
165 157 90
174 169 102
167 160 103
150 144 82
154 149 88
173 163 103
171 159 96
158 153 95
148 138 74
148 143 80
157 144 90
153 145 88
163 157 97
168 163 102
175 170 102
153 139 88
168 159 102
177 172 108
179 169 108
183 202 228
182 202 228
179 200 228
184 203 228
182 202 228
181 201 228
182 202 228
181 201 228
178 200 228
182 202 228
181 202 228
180 201 228
182 202 228
180 201 228
180 201 228
180 201 228
180 201 228
180 201 228
181 201 228
177 199 228
179 200 228
181 201 228
179 200 228
176 199 228
179 200 228
176 198 228
179 200 228
177 199 228
175 198 228
175 198 228
180 201 228
176 199 228
176 199 228
174 198 228
176 199 228
175 198 228
175 198 228
175 198 228
175 198 228
176 199 228
175 198 228
173 197 228
175 198 228
174 198 228
173 197 228
175 198 228
173 197 228
175 198 228
171 196 228
169 195 228
172 196 228
173 197 228
174 198 228
171 196 228
173 197 228
172 197 228
173 197 228
171 196 228
172 196 228
170 196 228
171 196 228
171 196 228
171 196 228
169 195 228
173 197 228
172 196 228
172 197 228
171 196 228
171 196 228
168 194 228
168 195 228
169 195 228
168 194 228
171 196 228
169 195 228
166 194 228
168 195 228
169 195 228
170 195 228
168 194 228
168 194 228
168 194 228
167 194 228
167 194 228
168 194 228
168 195 228
170 195 228
167 194 228
167 194 228
166 194 228
166 194 228
167 194 228
167 194 228
167 194 228
166 194 228
168 194 228
168 194 228
168 194 228
167 194 228
165 193 228
165 193 228
167 194 228
168 194 228
168 194 228
167 194 228
166 194 228
166 194 228
166 194 228
167 194 228
168 194 228
166 193 228
167 194 228
167 194 228
169 195 228
169 195 228
167 194 228
170 195 228
168 194 228
169 195 228
169 195 228
171 196 228
171 196 228
170 196 228
168 195 228
171 196 228
172 197 228
173 197 228
173 197 228
172 196 228
175 198 228
175 198 228
175 198 228
164 185 212
166 184 202
193 210 234
212 230 255
212 230 255
212 230 255
212 230 255
212 230 255
211 230 255
211 230 255
211 230 255
211 230 255
211 230 255
211 230 255
211 230 255
211 230 255
211 230 255
211 230 255
211 230 255
211 230 255
211 230 255
211 230 255
211 230 255
211 230 255
211 230 255
211 230 255
211 230 255
211 230 255
211 230 255
107 132 190
61 98 169
58 92 161
63 99 169
63 100 181
60 96 169
60 97 171
61 97 161
64 100 171
62 97 159
62 99 171
60 96 151
63 98 161
61 98 171
62 99 171
61 97 161
65 101 179
63 99 169
60 95 147
63 99 171
61 97 161
61 98 171
62 97 159
64 100 171
62 99 181
61 96 140
60 97 161
63 100 181
61 96 140
61 97 151
62 97 140
63 99 171
60 96 140
62 97 151
61 97 151
61 97 151
62 99 171
63 99 161
65 101 171
62 98 171
59 96 151
61 95 161
62 99 171
62 98 161
60 95 127
61 97 151
61 97 151
60 97 161
59 95 140
64 101 181
62 97 151
60 96 140
60 96 151
62 98 161
62 98 151
62 97 140
62 99 171
63 98 163
63 99 161
64 101 181
62 99 171
63 98 163
59 92 133
62 99 181
64 99 161
61 98 171
61 95 155
64 100 171
60 95 153
57 91 162
62 97 163
59 93 151
62 96 162
61 96 161
59 92 157
60 92 144
58 93 162
126 150 189
211 230 255
211 230 255
211 230 255
211 230 255
211 230 255
211 230 255
211 230 255
211 230 255
211 230 255
211 230 255
211 230 255
211 230 255
211 230 255
211 230 255
211 230 255
211 230 255
211 230 255
211 230 255
211 230 255
211 230 255
211 230 255
211 230 255
212 230 255
212 230 255
212 230 255
212 230 255
176 182 177
157 146 91
164 157 100
143 134 86
155 147 96
121 109 60
138 134 89
146 139 88
164 152 91
150 144 96
149 133 77
145 133 82
154 146 95
147 144 92
121 115 80
152 145 90
162 160 106
175 166 104
166 156 98
168 162 106
162 157 102
151 148 99
133 128 84
167 163 108
160 151 95
174 167 103
155 152 102
159 156 105
161 154 100
160 160 108
157 157 103
164 163 111
165 156 98
166 159 103
153 148 99
180 174 114
179 173 114
158 155 105
173 165 107
173 167 108
162 162 111
176 172 114
147 143 94
162 159 95
151 146 90
180 171 109
166 164 111
162 160 101
179 173 114
170 169 114
171 165 108
166 162 108
177 172 113
177 171 108
171 165 108
177 172 114
176 171 108
165 164 111
166 157 102
171 167 109
175 171 114
172 164 98
168 163 108
176 166 108
179 173 114
169 163 102
173 161 102
165 156 102
179 172 108
173 165 108
172 166 102
170 158 82
171 162 95
176 171 108
177 170 109
164 161 102
170 159 98
172 168 102
177 165 103
175 168 103
174 168 95
165 158 97
185 176 114
168 162 102
172 169 108
182 174 108
169 158 96
171 165 102
168 165 103
163 153 97
163 158 103
175 167 108
174 168 109
169 165 88
166 164 95
173 164 98
164 161 108
155 139 88
181 173 108
161 154 95
174 169 102
173 171 114
174 168 95
161 153 95
150 138 81
169 166 95
176 167 102
162 152 82
182 171 103
164 158 80
176 170 102
164 159 97
174 166 108
175 171 108
167 162 102
170 160 96
156 143 77
175 161 97
153 144 72
171 166 103
170 166 103
166 162 102
181 172 102
172 168 102
135 125 66
161 150 88
165 152 82
163 157 102
152 143 81
159 148 81
171 164 95
156 146 84
168 158 88
150 134 81
157 144 81
181 201 228
181 202 228
182 202 228
181 201 228
181 201 228
182 202 228
180 201 228
181 201 228
183 202 228
181 201 228
180 201 228
183 202 228
181 201 228
176 199 228
180 201 228
180 201 228
180 201 228
181 201 228
180 201 228
180 201 228
181 201 228
181 201 228
179 200 228
178 200 228
176 198 228
175 198 228
180 201 228
177 199 228
177 199 228
175 198 228
175 198 228
177 199 228
176 198 228
178 200 228
177 199 228
178 200 228
174 198 228
174 198 228
178 200 228
174 197 228
178 200 228
175 198 228
176 199 228
174 197 228
174 198 228
176 198 228
174 197 228
175 198 228
173 197 228
170 196 228
173 197 228
173 197 228
173 197 228
173 197 228
173 197 228
174 197 228
170 196 228
172 197 228
172 197 228
171 196 228
172 197 228
174 198 228
171 196 228
172 196 228
170 196 228
172 197 228
169 195 228
172 197 228
169 195 228
170 195 228
169 195 228
170 195 228
171 196 228
167 194 228
172 196 228
170 196 228
171 196 228
170 195 228
168 194 228
170 196 228
170 196 228
168 194 228
169 195 228
171 196 228
168 194 228
169 195 228
168 195 228
167 194 228
169 195 228
167 194 228
168 194 228
167 194 228
168 195 228
169 195 228
168 194 228
167 194 228
165 193 228
168 195 228
167 194 228
167 194 228
168 194 228
168 195 228
166 194 228
167 194 228
167 194 228
166 193 228
169 195 228
168 194 228
168 194 228
170 196 228
169 195 228
168 194 228
167 194 228
168 194 228
169 195 228
167 194 228
168 194 228
171 196 228
167 194 228
168 195 228
168 194 228
169 195 228
173 197 228
170 196 228
170 196 228
171 196 228
171 196 228
175 198 228
176 198 228
177 199 228
175 198 228
178 200 228
179 198 224
172 193 217
149 165 177
202 220 244
212 230 255
212 230 255
212 230 255
212 230 255
212 230 255
212 230 255
212 230 255
212 230 255
212 230 255
212 230 255
212 230 255
211 230 255
211 230 255
211 230 255
211 230 255
211 230 255
211 230 255
211 230 255
211 230 255
211 230 255
211 230 255
211 230 255
211 230 255
211 230 255
143 165 214
61 97 175
62 98 169
63 100 179
61 97 167
62 98 171
60 96 151
62 97 159
62 98 169
61 97 171
60 96 151
62 98 161
61 98 161
59 94 140
57 91 125
62 97 151
58 93 153
61 96 149
63 100 181
61 96 166
62 99 171
63 99 179
65 101 171
61 97 151
61 97 151
63 99 161
62 97 149
62 98 161
60 96 169
61 97 161
60 97 161
64 100 171
59 95 127
62 97 171
62 99 181
61 97 161
61 97 161
59 94 127
61 97 151
62 98 161
65 101 181
64 101 181
64 100 171
61 97 151
65 101 171
63 99 161
60 96 151
63 99 161
62 99 171
61 97 151
57 92 140
61 98 161
63 100 181
60 95 151
60 93 142
62 99 171
62 99 171
64 99 161
59 94 142
62 95 155
61 96 153
63 97 165
61 97 161
60 95 153
63 98 151
61 96 140
63 99 161
63 100 171
57 88 142
60 95 153
62 99 171
63 98 171
61 97 161
62 97 172
55 89 140
59 92 161
57 90 142
64 99 173
59 92 154
127 150 189
211 230 255
211 230 255
211 230 255
211 230 255
211 230 255
211 230 255
211 230 255
211 230 255
211 230 255
211 230 255
211 230 255
211 230 255
211 230 255
212 230 255
212 230 255
212 230 255
212 230 255
212 230 255
212 230 255
212 230 255
212 230 255
212 230 255
212 230 255
212 230 255
182 193 201
137 126 82
170 157 97
155 145 93
172 168 109
152 147 96
156 147 91
137 129 86
157 149 99
165 159 103
154 149 98
154 145 95
156 151 100
158 155 105
132 126 82
141 137 89
126 123 83
144 141 94
159 156 105
137 137 93
151 150 102
161 157 102
152 146 94
174 171 114
145 138 92
163 154 97
155 151 100
174 168 109
159 152 97
178 173 114
151 147 99
176 172 114
160 158 105
155 150 98
164 154 97
170 169 114
178 172 113
164 161 103
177 171 108
166 158 102
165 163 105
170 164 104
179 173 114
165 158 105
172 165 108
165 153 91
176 171 108
162 160 102
157 158 99
175 172 114
172 167 109
147 145 100
179 172 108
167 163 97
173 166 108
169 160 97
173 165 108
159 158 106
180 174 114
168 163 102
176 168 108
169 164 108
172 169 108
171 164 107
173 162 97
168 163 102
175 166 102
168 162 102
170 159 102
159 147 84
157 148 96
169 158 98
163 157 97
171 165 108
177 172 108
165 159 103
172 167 103
174 170 108
174 170 108
170 164 102
177 169 103
184 176 114
168 164 108
169 164 108
177 172 108
171 163 95
166 162 90
157 158 102
182 175 114
178 170 109
176 171 108
162 152 97
158 149 88
174 166 97
161 156 95
165 156 88
150 144 95
177 172 108
171 163 95
164 156 90
177 169 103
179 170 109
170 168 102
165 160 95
178 172 108
169 162 102
165 158 80
159 146 88
168 159 90
161 157 102
174 168 103
158 145 90
161 150 96
168 160 90
151 138 72
173 164 103
167 160 95
180 171 108
169 163 90
178 172 108
160 150 96
176 164 97
168 161 103
182 175 114
175 162 98
154 146 88
148 136 88
175 169 109
169 161 97
180 173 108
180 172 102
168 163 90
154 141 88
174 168 109
172 160 102
180 169 108
180 201 228
182 202 228
183 202 228
182 202 228
181 201 228
183 203 228
183 202 228
184 203 228
182 202 228
180 201 228
178 200 228
182 202 228
182 202 228
180 201 228
182 202 228
181 201 228
176 199 228
181 202 228
177 199 228
178 200 228
177 199 228
178 200 228
175 198 228
177 199 228
178 200 228
176 199 228
177 199 228
178 200 228
179 200 228
175 198 228
177 199 228
176 199 228
175 198 228
176 199 228
177 199 228
177 199 228
176 199 228
175 198 228
176 199 228
176 199 228
177 199 228
176 199 228
173 197 228
176 199 228
176 199 228
176 198 228
177 199 228
174 198 228
175 198 228
174 198 228
174 198 228
174 198 228
176 199 228
174 198 228
173 197 228
174 198 228
177 199 228
174 198 228
172 197 228
173 197 228
171 196 228
173 197 228
175 198 228
172 196 228
172 196 228
171 196 228
172 197 228
172 197 228
171 196 228
170 195 228
170 196 228
172 196 228
170 196 228
169 195 228
169 195 228
169 195 228
171 196 228
170 196 228
172 196 228
170 195 228
170 195 228
170 196 228
169 195 228
172 196 228
169 195 228
169 195 228
169 195 228
168 194 228
169 195 228
168 195 228
168 195 228
167 194 228
168 194 228
169 195 228
170 195 228
170 195 228
168 194 228
168 195 228
169 195 228
169 195 228
168 194 228
167 194 228
167 194 228
167 194 228
168 194 228
169 195 228
168 194 228
167 194 228
167 194 228
167 194 228
167 194 228
169 195 228
169 195 228
170 195 228
169 195 228
169 195 228
170 196 228
168 195 228
170 195 228
171 196 228
171 196 228
167 194 228
171 196 228
170 195 228
170 195 228
173 197 228
171 196 228
171 196 228
175 198 228
176 198 228
177 199 228
176 198 228
178 200 228
177 199 228
173 193 217
181 200 224
184 200 223
212 230 255
212 230 255
212 230 255
212 230 255
212 230 255
212 230 255
212 230 255
212 230 255
212 230 255
212 230 255
212 230 255
212 230 255
212 230 255
212 230 255
212 230 255
212 230 255
212 230 255
212 230 255
212 230 255
212 230 255
211 230 255
211 230 255
155 176 218
62 99 181
62 99 171
57 93 165
60 95 149
58 91 151
57 91 133
59 94 149
63 99 159
60 96 161
62 98 161
60 96 175
63 99 179
60 96 159
61 97 161
63 100 179
62 98 177
60 96 151
64 101 171
60 96 151
64 100 171
61 98 171
63 99 169
63 98 159
61 97 161
61 96 149
58 92 159
62 98 161
62 98 151
60 94 140
57 92 114
61 97 161
61 97 161
59 94 127
65 101 161
64 100 171
62 98 161
63 99 171
63 99 161
63 99 171
62 99 181
64 100 161
61 97 151
60 96 161
59 94 140
61 97 140
61 97 151
60 96 140
61 96 140
61 97 151
61 98 171
61 96 140
63 98 161
58 88 151
59 94 140
58 94 127
62 98 161
62 98 171
61 96 153
61 96 153
63 99 171
62 98 171
63 98 161
59 93 153
63 98 173
60 95 142
61 98 161
59 92 140
59 95 151
61 95 151
62 98 161
61 96 153
60 96 161
61 95 142
61 97 161
57 87 142
61 95 151
61 96 153
61 93 163
59 91 151
55 89 162
179 197 217
211 230 255
212 230 255
212 230 255
212 230 255
212 230 255
212 230 255
212 230 255
212 230 255
212 230 255
212 230 255
212 230 255
212 230 255
212 230 255
212 230 255
212 230 255
212 230 255
212 230 255
212 230 255
212 230 255
212 230 255
212 230 255
212 230 255
195 205 217
146 134 82
156 146 95
127 119 80
133 111 57
128 117 72
138 127 82
111 102 68
154 145 90
146 141 93
147 141 89
136 129 80
153 149 99
170 164 108
132 131 92
155 149 95
153 145 94
152 136 80
139 137 93
152 149 102
173 168 109
160 154 98
163 152 97
158 150 97
159 153 100
162 159 106
165 161 102
146 148 102
167 164 105
164 159 103
150 143 86
175 168 111
176 172 114
174 171 114
156 151 100
165 164 111
165 161 103
174 168 109
174 169 109
140 141 93
160 151 97
176 171 108
169 161 103
168 163 108
164 158 105
153 146 94
174 168 109
176 171 108
178 173 114
180 171 109
175 166 108
170 166 109
177 173 114
171 164 108
169 163 106
171 169 108
164 154 97
169 163 108
178 172 113
173 169 107
171 165 105
171 168 102
164 158 97
175 170 102
172 166 103
179 173 108
183 175 114
175 169 109
178 172 113
172 169 108
177 172 113
180 171 109
179 171 109
182 175 114
169 161 103
173 170 108
162 159 95
167 161 95
174 170 108
164 158 97
174 168 109
177 167 104
176 170 102
163 156 90
174 168 103
176 171 108
177 170 109
178 173 114
176 171 108
169 161 103
178 170 109
164 155 95
172 160 98
165 161 102
170 161 97
173 163 103
171 164 108
167 162 102
169 158 95
168 161 95
168 158 91
178 172 108
170 164 102
173 165 90
163 149 90
165 158 98
169 166 108
170 165 108
166 157 82
166 158 96
173 170 108
168 158 95
178 171 102
171 168 102
169 158 96
168 163 102
174 166 102
168 161 97
159 147 91
156 147 82
164 155 88
148 142 74
165 154 76
174 167 97
170 161 90
168 155 96
174 166 97
169 167 102
165 156 74
172 162 97
168 156 97
160 147 88
157 144 72
156 136 72
147 138 74
171 160 95
157 149 95
183 202 228
186 204 228
182 202 228
185 203 228
184 203 228
185 203 228
182 202 228
184 203 228
184 203 228
183 202 228
181 201 228
182 202 228
183 202 228
179 200 228
180 201 228
178 200 228
180 201 228
183 202 228
182 202 228
178 200 228
183 202 228
179 200 228
179 200 228
181 201 228
179 200 228
179 200 228
179 201 228
178 199 228
179 200 228
175 198 228
176 199 228
180 201 228
175 198 228
181 201 228
177 199 228
174 198 228
180 201 228
177 199 228
178 200 228
178 199 228
176 198 228
175 198 228
174 198 228
178 200 228
174 197 228
175 198 228
175 198 228
175 198 228
174 197 228
174 198 228
172 197 228
171 196 228
173 197 228
175 198 228
174 198 228
170 195 228
176 199 228
174 198 228
175 198 228
175 198 228
173 197 228
172 197 228
173 197 228
173 197 228
175 198 228
170 196 228
170 196 228
173 197 228
173 197 228
172 197 228
170 196 228
170 196 228
172 196 228
171 196 228
172 197 228
172 197 228
172 197 228
169 195 228
170 196 228
171 196 228
169 195 228
171 196 228
171 196 228
169 195 228
171 196 228
171 196 228
169 195 228
170 195 228
169 195 228
171 196 228
168 195 228
167 194 228
170 196 228
170 196 228
169 195 228
170 195 228
168 194 228
168 194 228
168 194 228
170 195 228
169 195 228
169 195 228
169 195 228
169 195 228
169 195 228
170 195 228
169 195 228
170 196 228
168 194 228
170 195 228
169 195 228
168 195 228
168 194 228
169 195 228
169 195 228
168 194 228
170 196 228
167 194 228
168 195 228
171 196 228
170 195 228
169 195 228
170 196 228
171 196 228
174 197 228
174 198 228
173 197 228
173 197 228
172 197 228
175 198 228
173 197 228
174 197 228
178 200 228
178 200 228
176 198 226
183 202 228
165 183 194
209 228 253
212 231 255
212 231 255
212 231 255
212 231 255
212 231 255
212 230 255
212 230 255
212 230 255
212 230 255
212 230 255
212 230 255
212 230 255
212 230 255
212 230 255
212 230 255
212 230 255
212 230 255
212 230 255
212 230 255
212 230 255
191 210 236
59 94 171
58 92 153
59 95 147
61 97 167
59 94 147
62 98 179
62 98 161
60 96 169
61 98 177
60 97 171
61 97 159
61 98 171
63 99 169
65 101 171
60 95 149
60 97 171
65 101 171
63 98 161
61 97 161
60 96 159
61 97 161
59 94 137
62 98 161
59 94 147
62 98 151
61 96 161
61 96 149
60 95 140
59 92 127
59 95 127
61 97 151
60 95 161
61 97 161
65 101 171
62 99 181
62 99 171
62 97 140
59 95 140
61 96 151
63 99 161
62 97 151
61 95 151
62 97 151
56 90 127
61 96 140
62 97 140
62 99 181
63 98 151
57 93 127
61 97 140
65 101 171
66 102 181
58 93 127
64 100 171
62 98 151
63 97 161
60 95 151
63 99 161
60 93 133
61 97 140
60 93 114
60 95 161
59 95 140
65 100 173
61 97 151
60 97 161
61 98 171
63 98 171
61 95 142
60 94 151
63 99 161
59 91 142
60 96 140
59 91 155
56 90 128
61 98 171
59 92 142
57 88 133
58 91 130
62 99 181
58 92 140
59 94 161
202 221 249
212 230 255
212 230 255
212 230 255
212 230 255
212 230 255
212 230 255
212 230 255
212 230 255
212 230 255
212 230 255
212 230 255
212 230 255
212 230 255
212 230 255
212 230 255
212 230 255
212 231 255
212 231 255
212 231 255
212 231 255
193 203 207
165 152 96
143 124 74
157 148 97
119 113 79
160 146 87
146 132 79
155 150 99
157 154 105
133 123 78
141 141 94
151 148 99
156 148 99
134 132 87
146 148 105
152 141 90
136 131 92
131 132 89
137 140 102
142 139 91
170 166 111
156 153 102
156 142 84
137 140 102
168 164 108
158 154 102
154 148 95
166 164 111
136 133 87
177 168 108
163 163 111
164 162 105
162 158 105
160 155 103
176 172 114
163 161 95
167 162 106
168 164 105
178 173 114
145 144 100
171 166 108
165 155 97
167 164 111
174 166 108
159 154 102
171 164 108
172 167 109
161 157 102
168 165 108
164 161 99
173 170 108
168 162 98
173 170 114
168 167 108
173 170 108
158 151 93
171 169 108
165 157 99
174 168 111
181 174 114
163 161 108
181 174 114
175 171 108
177 172 114
170 169 114
175 169 109
173 163 103
158 149 82
179 172 108
177 171 108
174 169 102
174 165 102
178 172 108
164 159 95
171 166 102
173 164 96
179 172 108
179 171 95
167 162 102
171 168 102
164 155 91
179 168 104
180 171 109
175 171 108
170 162 95
173 164 102
185 176 114
172 170 114
175 166 104
172 170 114
174 169 102
165 161 102
165 160 95
171 163 102
170 162 95
180 171 109
157 150 80
173 164 103
171 163 102
167 158 90
168 163 90
158 154 72
168 157 102
175 172 114
175 171 108
182 175 114
173 165 104
177 168 97
175 171 114
175 171 108
180 171 109
172 165 108
167 158 97
171 156 85
163 156 95
168 164 97
170 156 97
156 148 88
172 159 91
162 157 88
171 166 103
177 166 97
178 167 90
178 167 96
169 155 96
159 148 82
172 163 103
174 160 89
166 157 90
162 154 88
138 128 80
150 134 80
168 162 102
170 153 91
159 152 88
170 164 102
163 153 88
154 138 75
184 203 228
187 205 228
184 203 228
184 203 228
185 204 228
180 201 228
179 200 228
183 202 228
182 202 228
182 202 228
181 201 228
183 202 228
181 201 228
181 202 228
181 201 228
182 202 228
181 202 228
182 202 228
180 201 228
180 201 228
178 200 228
178 200 228
183 202 228
180 201 228
181 201 228
179 200 228
179 200 228
179 200 228
180 201 228
177 199 228
179 200 228
181 201 228
179 200 228
177 199 228
174 198 228
177 199 228
174 198 228
175 198 228
178 200 228
180 201 228
178 200 228
177 199 228
176 199 228
175 198 228
177 199 228
174 198 228
177 199 228
175 198 228
177 199 228
175 198 228
178 200 228
176 198 228
175 198 228
175 198 228
176 198 228
174 198 228
174 198 228
173 197 228
173 197 228
173 197 228
173 197 228
175 198 228
174 198 228
173 197 228
172 197 228
173 197 228
173 197 228
171 196 228
175 198 228
171 196 228
171 196 228
175 198 228
172 196 228
175 198 228
174 197 228
170 195 228
173 197 228
168 195 228
171 196 228
169 195 228
173 197 228
172 197 228
170 196 228
170 195 228
171 196 228
171 196 228
172 196 228
170 196 228
168 194 228
169 195 228
170 195 228
170 196 228
170 196 228
169 195 228
171 196 228
171 196 228
171 196 228
168 195 228
169 195 228
171 196 228
170 195 228
172 197 228
170 195 228
169 195 228
170 196 228
169 195 228
170 195 228
170 196 228
169 195 228
169 195 228
170 195 228
171 196 228
171 196 228
170 195 228
169 195 228
170 196 228
169 195 228
170 195 228
172 197 228
171 196 228
172 197 228
172 196 228
172 197 228
173 197 228
172 197 228
173 197 228
173 197 228
172 197 228
175 198 228
172 196 228
173 197 228
178 200 228
177 199 228
181 201 228
178 200 228
178 199 226
179 198 223
187 204 228
213 231 255
213 231 255
213 231 255
213 231 255
213 231 255
212 231 255
212 231 255
212 231 255
212 231 255
212 231 255
212 231 255
212 231 255
212 231 255
212 230 255
212 230 255
212 230 255
212 230 255
212 230 255
212 230 255
212 230 255
83 108 149
59 94 155
54 87 96
55 88 150
58 92 159
62 97 157
58 95 167
59 95 149
62 99 171
62 99 171
59 92 151
61 97 161
59 97 179
62 98 161
62 98 169
62 99 171
61 97 161
65 101 181
60 96 158
63 100 171
62 98 161
61 94 167
62 98 167
63 100 171
59 95 151
65 101 171
62 98 161
60 95 157
57 93 127
61 97 161
64 99 161
62 98 161
60 94 151
63 99 171
62 98 171
61 96 161
62 98 161
58 92 140
63 99 171
59 93 151
61 98 161
63 99 161
60 95 140
60 94 151
64 99 161
61 98 161
62 98 161
61 97 151
63 98 171
63 99 161
63 99 161
63 99 171
58 92 140
61 96 151
60 96 151
57 87 127
61 96 140
62 98 161
61 98 171
60 96 151
59 94 153
61 97 151
60 96 151
62 98 151
62 94 142
58 90 135
62 98 161
61 96 127
60 94 151
61 97 151
63 98 151
63 99 171
60 94 171
65 101 171
61 93 128
59 90 130
61 96 151
62 98 161
63 100 181
59 92 153
61 94 153
59 91 147
63 99 173
89 116 163
202 220 244
212 230 255
212 230 255
212 230 255
212 231 255
212 230 255
212 231 255
212 231 255
212 231 255
212 231 255
212 231 255
212 231 255
212 231 255
212 231 255
212 231 255
212 231 255
213 231 255
213 231 255
213 231 255
213 231 255
154 142 89
157 146 92
158 156 106
120 102 56
106 106 77
151 142 92
154 148 99
134 121 76
136 129 86
149 141 91
146 136 89
139 128 79
141 129 82
146 137 88
135 131 84
157 152 97
154 154 105
141 137 96
137 137 96
167 160 103
149 148 102
156 150 96
164 159 99
153 153 103
147 139 85
163 157 102
117 106 72
171 170 114
166 157 98
168 163 104
147 137 80
159 153 93
170 167 109
169 162 103
161 158 108
166 160 103
177 170 109
164 156 102
156 154 92
169 161 103
167 160 97
171 166 108
144 141 87
179 173 114
164 159 95
159 157 102
156 153 99
167 164 103
155 154 105
174 167 109
158 156 105
168 164 105
173 166 105
166 161 102
175 165 102
169 165 108
175 170 108
181 174 114
172 169 108
176 169 109
174 170 108
164 161 102
160 154 100
178 173 114
184 173 109
180 173 108
175 165 102
166 162 108
171 167 102
175 171 114
172 162 103
175 166 108
172 168 102
169 158 102
175 168 103
182 175 114
173 165 108
170 158 102
162 158 103
169 168 108
173 164 102
176 171 108
182 170 108
172 159 95
174 166 97
159 153 95
177 168 108
176 167 108
166 161 82
175 167 108
180 170 102
166 157 102
180 170 108
178 172 108
159 150 82
176 170 102
170 160 102
174 171 114
173 166 108
175 167 108
172 163 97
177 169 103
168 158 96
159 153 74
176 163 90
177 171 108
177 167 108
176 165 95
172 161 90
173 170 108
172 164 90
142 135 80
174 167 97
172 163 95
166 151 88
172 163 103
161 156 80
171 166 88
158 149 82
161 154 102
162 152 90
158 154 80
176 169 103
172 166 97
165 157 90
178 167 95
167 157 102
170 167 95
175 168 103
165 156 82
168 160 103
150 145 80
150 138 88
160 153 80
156 148 72
167 153 91
172 163 95
169 166 95
184 203 228
186 204 228
184 203 228
182 202 228
185 203 228
183 202 228
184 203 228
185 203 228
184 203 228
184 203 228
181 201 228
184 203 228
182 202 228
182 202 228
178 200 228
180 201 228
183 203 228
182 202 228
181 201 228
182 202 228
185 203 228
180 201 228
179 200 228
178 200 228
177 199 228
182 202 228
178 200 228
177 199 228
180 201 228
180 201 228
178 200 228
180 201 228
181 201 228
180 201 228
181 201 228
180 201 228
174 198 228
177 199 228
176 199 228
177 199 228
180 201 228
179 200 228
178 200 228
179 200 228
177 199 228
177 199 228
177 199 228
175 198 228
176 198 228
179 200 228
177 199 228
177 199 228
172 196 228
176 199 228
175 198 228
176 199 228
176 199 228
175 198 228
174 198 228
177 199 228
174 198 228
175 198 228
173 197 228
174 198 228
175 198 228
176 199 228
173 197 228
174 197 228
172 196 228
173 197 228
173 197 228
172 197 228
172 197 228
172 196 228
171 196 228
172 196 228
174 197 228
172 197 228
174 198 228
171 196 228
172 197 228
171 196 228
172 197 228
171 196 228
171 196 228
170 195 228
172 197 228
173 197 228
170 196 228
174 197 228
173 197 228
171 196 228
170 195 228
172 197 228
170 196 228
171 196 228
171 196 228
169 195 228
171 196 228
172 197 228
169 195 228
171 196 228
170 195 228
171 196 228
171 196 228
169 195 228
170 196 228
169 195 228
169 195 228
168 194 228
171 196 228
170 196 228
172 197 228
172 196 228
168 195 228
172 197 228
171 196 228
169 195 228
172 197 228
171 196 228
171 196 228
169 195 228
173 197 228
172 196 228
170 196 228
173 197 228
173 197 228
174 198 228
172 197 228
174 198 228
177 199 228
176 199 228
177 199 228
179 200 228
178 200 228
179 200 228
182 202 228
181 201 228
182 198 219
213 231 255
213 231 255
213 231 255
213 231 255
213 231 255
213 231 255
213 231 255
213 231 255
213 231 255
213 231 255
213 231 255
213 231 255
213 231 255
213 231 255
212 231 255
212 231 255
212 231 255
212 231 255
127 149 194
56 90 107
53 85 147
61 96 159
57 92 114
59 94 165
61 96 167
53 86 140
60 96 149
62 98 151
61 98 161
62 99 181
63 98 151
60 96 149
61 98 161
59 95 151
59 95 149
63 100 181
63 98 159
58 93 114
58 94 151
62 98 159
62 98 171
62 98 161
60 96 159
62 97 140
59 94 127
60 96 151
64 100 171
61 97 161
62 97 140
61 98 181
62 97 151
62 99 171
61 98 161
64 99 151
63 99 161
58 94 140
60 95 151
60 95 140
61 96 151
61 96 140
65 101 181
63 99 161
58 94 127
62 99 171
62 98 151
58 91 140
61 97 161
61 97 161
58 91 114
63 98 151
62 97 151
63 100 181
63 98 151
61 98 171
60 93 142
63 98 151
58 93 161
63 99 161
65 100 151
64 100 171
60 96 151
61 98 171
61 98 171
64 101 181
64 99 173
59 96 151
59 95 151
62 98 151
62 96 127
62 97 172
60 94 153
60 94 142
60 94 161
60 95 151
60 96 161
64 98 162
59 91 133
59 91 140
65 98 163
61 95 153
61 94 163
60 93 154
60 95 165
154 171 200
212 231 255
212 231 255
212 231 255
212 231 255
213 231 255
213 231 255
213 231 255
213 231 255
213 231 255
213 231 255
213 231 255
213 231 255
213 231 255
213 231 255
213 231 255
213 231 255
213 231 255
213 231 255
170 160 110
127 119 76
155 150 93
145 138 82
129 128 88
142 142 99
113 113 82
143 130 74
141 134 86
144 137 89
119 120 88
150 141 90
163 159 104
130 125 75
133 129 87
128 126 85
144 142 95
141 139 95
126 128 87
147 139 91
160 157 106
153 146 93
168 165 108
175 166 106
151 148 102
169 166 111
174 169 109
160 152 99
148 145 96
176 172 114
157 156 108
173 171 114
155 153 103
179 173 113
161 158 108
147 141 90
175 172 114
153 152 92
147 148 102
160 160 105
166 157 102
177 171 113
181 174 108
165 160 95
163 160 106
179 172 108
175 171 108
164 166 108
174 171 114
173 165 102
166 160 103
175 172 114
174 168 111
169 166 102
168 167 102
163 157 90
175 170 102
177 165 103
168 158 102
181 174 114
172 167 111
166 161 102
178 172 108
171 165 97
181 170 108
173 167 108
183 174 102
172 166 97
183 175 114
175 170 108
169 166 95
172 165 97
185 176 114
170 165 97
181 174 114
174 170 108
169 161 103
179 173 114
176 171 108
168 163 102
163 156 90
191 179 114
178 169 103
170 163 90
175 171 108
179 168 102
180 173 108
174 166 97
168 164 80
164 152 97
177 172 108
171 166 108
174 170 108
165 155 95
178 169 103
173 166 97
180 170 103
181 169 104
172 165 108
166 158 90
186 176 108
163 154 95
166 161 102
171 167 95
173 169 102
177 170 109
161 149 80
176 169 109
181 171 103
175 166 95
173 168 95
176 169 109
158 155 80
166 149 82
178 169 103
164 160 95
154 149 81
168 153 79
168 160 80
182 174 108
166 154 84
164 155 95
174 167 97
161 154 95
160 152 90
171 163 95
168 167 102
178 168 97
162 148 72
168 157 95
163 152 82
168 161 88
175 165 95
173 169 102
157 141 84
176 163 90
155 142 74
164 158 97
163 153 58
184 203 228
185 203 228
185 204 228
184 203 228
186 204 228
180 201 228
181 202 228
184 203 228
183 202 228
181 201 228
186 204 228
183 203 228
185 203 228
180 201 228
183 202 228
183 202 228
180 201 228
183 203 228
182 202 228
183 202 228
180 201 228
181 201 228
178 200 228
182 202 228
181 201 228
182 202 228
182 202 228
179 200 228
178 200 228
178 199 228
182 202 228
182 202 228
180 201 228
179 200 228
178 200 228
178 200 228
179 200 228
179 200 228
178 200 228
178 200 228
179 200 228
176 198 228
178 200 228
177 199 228
177 199 228
178 200 228
178 200 228
178 200 228
177 199 228
175 198 228
179 200 228
176 199 228
177 199 228
175 198 228
178 200 228
177 199 228
177 199 228
176 199 228
177 199 228
175 198 228
173 197 228
175 198 228
172 197 228
176 199 228
176 199 228
175 198 228
177 199 228
176 199 228
173 197 228
175 198 228
175 198 228
175 198 228
175 198 228
172 197 228
174 198 228
172 197 228
175 198 228
173 197 228
172 196 228
174 198 228
173 197 228
172 196 228
174 198 228
175 198 228
170 196 228
173 197 228
172 197 228
174 198 228
171 196 228
171 196 228
170 196 228
171 196 228
175 198 228
171 196 228
172 197 228
170 196 228
173 197 228
170 195 228
171 196 228
172 197 228
172 197 228
171 196 228
171 196 228
170 196 228
171 196 228
169 195 228
170 196 228
172 196 228
169 195 228
173 197 228
169 195 228
171 196 228
170 195 228
171 196 228
172 196 228
171 196 228
173 197 228
172 197 228
169 195 228
172 196 228
170 195 228
173 197 228
170 196 228
172 197 228
172 197 228
175 198 228
174 197 228
177 199 228
174 197 228
175 198 228
176 199 228
173 197 228
175 198 228
179 200 228
177 199 228
180 201 228
180 201 228
182 202 228
178 194 214
181 197 216
213 231 255
213 231 255
213 231 255
213 231 255
213 231 255
213 231 255
213 231 255
213 231 255
213 231 255
213 231 255
213 231 255
213 231 255
213 231 255
213 231 255
213 231 255
213 231 255
203 221 248
57 92 153
63 99 179
62 99 171
61 95 137
63 99 179
60 96 175
63 99 161
63 99 171
62 98 169
63 99 179
62 98 169
61 97 151
61 97 169
59 93 127
63 99 171
62 98 169
63 100 181
59 93 125
59 94 127
59 94 127
60 96 169
59 93 161
60 96 151
62 98 161
57 92 140
64 98 161
61 97 149
61 97 151
62 98 169
62 98 161
62 97 151
62 99 171
61 96 151
62 98 161
61 97 151
63 99 171
61 97 151
63 99 171
61 98 171
63 99 171
62 98 161
62 98 159
61 97 161
60 95 151
59 94 151
59 94 140
60 95 140
60 97 171
62 99 181
63 99 161
64 100 171
65 101 161
60 94 140
61 95 151
63 98 161
64 100 171
65 101 171
61 96 151
62 99 171
62 99 171
59 94 161
57 90 127
62 97 163
61 94 140
63 99 161
62 96 142
62 96 142
60 95 153
60 94 142
63 98 161
65 100 161
61 95 151
62 98 151
63 100 171
60 95 142
62 98 161
63 100 171
60 96 163
61 97 171
61 95 155
60 92 120
65 101 171
59 94 162
57 90 142
62 96 151
58 88 151
169 189 228
213 231 255
213 231 255
213 231 255
213 231 255
213 231 255
213 231 255
213 231 255
213 231 255
213 231 255
213 231 255
213 231 255
213 231 255
213 231 255
213 231 255
213 231 255
213 231 255
174 173 158
151 137 64
146 131 75
151 140 87
135 119 72
124 119 77
134 129 82
91 91 68
153 145 90
146 144 99
152 147 99
167 165 111
143 138 89
117 118 88
132 124 77
134 129 83
147 146 99
159 153 99
145 140 90
145 134 86
123 123 87
135 129 89
156 150 99
147 135 77
162 158 103
149 148 102
149 142 93
167 160 103
155 149 99
142 141 96
161 150 95
165 163 111
168 164 109
158 155 99
153 148 100
144 140 92
149 148 102
150 149 97
162 157 102
158 153 95
161 157 102
178 173 114
168 163 108
155 146 95
177 173 114
151 148 102
164 154 95
173 164 98
167 158 102
175 167 108
170 162 105
172 169 102
164 160 102
170 164 102
172 169 108
174 171 114
178 172 108
176 167 108
171 164 108
167 164 105
176 171 108
172 167 108
176 171 108
181 174 114
169 166 109
176 171 108
170 163 95
175 169 102
174 168 109
166 157 102
169 165 103
173 170 108
177 172 114
166 162 108
181 174 108
171 168 102
176 170 102
170 166 103
180 171 109
175 168 103
171 164 102
160 152 95
173 169 102
159 154 95
157 148 72
173 166 97
166 156 88
168 164 88
174 169 102
172 164 97
171 165 95
172 165 102
160 152 88
172 160 102
169 158 96
174 170 108
168 158 90
176 165 88
176 170 102
178 171 102
172 166 103
151 142 64
170 163 82
176 170 102
176 171 108
178 173 114
172 167 103
175 169 95
170 161 97
172 158 97
169 161 91
172 164 103
172 158 91
168 158 98
175 166 90
174 168 95
161 155 96
168 161 88
174 166 108
180 171 109
176 167 104
159 151 88
176 169 103
149 140 72
162 154 95
155 148 90
174 161 90
156 150 80
159 154 95
167 158 90
165 156 88
174 168 95
156 146 72
149 135 82
165 151 74
155 142 88
159 150 53
156 144 80
131 112 54
162 156 90
187 205 228
188 205 228
182 202 228
185 203 228
186 204 228
182 202 228
182 202 228
181 201 228
184 203 228
181 201 228
182 202 228
186 204 228
180 201 228
179 200 228
180 201 228
183 202 228
182 202 228
183 203 228
183 202 228
179 200 228
186 204 228
181 201 228
183 203 228
183 203 228
181 201 228
180 201 228
180 201 228
180 201 228
182 202 228
178 200 228
180 201 228
182 202 228
178 200 228
179 201 228
181 201 228
180 201 228
181 201 228
180 201 228
179 200 228
181 201 228
179 200 228
181 202 228
181 201 228
180 201 228
181 201 228
178 200 228
179 200 228
176 199 228
179 200 228
175 198 228
180 201 228
177 199 228
178 200 228
177 199 228
175 198 228
178 200 228
177 199 228
176 199 228
175 198 228
178 200 228
176 199 228
179 200 228
177 199 228
175 198 228
175 198 228
177 199 228
172 197 228
177 199 228
175 198 228
178 199 228
172 197 228
172 197 228
173 197 228
174 197 228
173 197 228
176 199 228
174 197 228
176 199 228
174 198 228
173 197 228
175 198 228
172 196 228
174 197 228
173 197 228
175 198 228
173 197 228
174 198 228
171 196 228
175 198 228
171 196 228
174 198 228
170 196 228
174 197 228
172 196 228
174 198 228
172 197 228
173 197 228
171 196 228
172 197 228
172 197 228
173 197 228
173 197 228
171 196 228
173 197 228
173 197 228
173 197 228
174 197 228
174 198 228
172 196 228
172 197 228
170 196 228
171 196 228
174 198 228
171 196 228
170 195 228
171 196 228
174 197 228
174 197 228
174 198 228
172 197 228
170 196 228
170 195 228
174 198 228
172 197 228
175 198 228
172 197 228
172 197 228
168 191 223
174 198 228
173 197 228
176 199 228
176 199 228
176 198 228
176 198 228
178 200 228
179 200 228
178 200 228
184 203 228
176 196 217
171 187 204
198 215 237
213 231 255
213 231 255
213 231 255
213 231 255
213 231 255
213 231 255
213 231 255
213 231 255
213 231 255
213 231 255
213 231 255
213 231 255
213 231 255
213 231 255
203 221 249
108 132 186
59 95 149
58 94 165
62 98 169
62 97 167
59 93 137
61 96 165
59 94 137
61 98 169
59 95 151
61 97 161
61 97 161
61 97 157
60 96 159
60 96 159
60 95 149
59 93 149
63 98 171
63 99 161
65 101 181
61 96 165
60 97 161
59 94 161
62 97 151
59 93 149
61 96 151
63 99 161
60 96 161
63 99 171
61 97 151
62 98 151
62 98 161
60 97 171
63 99 161
62 97 151
59 93 114
59 95 140
61 97 151
62 98 161
56 90 127
61 97 151
59 94 114
60 94 151
61 99 181
62 97 127
57 92 127
63 98 151
62 99 171
58 94 127
61 95 151
63 98 163
58 91 99
61 95 142
58 91 130
60 96 151
64 100 171
61 96 140
59 93 142
63 100 181
59 94 127
64 100 171
64 100 171
59 95 151
59 93 140
61 97 151
62 98 151
65 99 163
61 96 163
64 99 151
65 101 181
61 97 161
62 99 171
62 98 161
61 95 153
60 95 151
59 93 117
59 93 151
57 90 130
62 99 171
60 94 142
63 100 171
62 99 171
58 89 142
61 95 161
58 92 162
58 89 144
61 94 144
61 94 164
203 221 249
213 231 255
213 231 255
213 231 255
213 231 255
213 231 255
213 231 255
213 231 255
213 231 255
213 231 255
213 231 255
213 231 255
213 231 255
213 231 255
213 231 255
180 185 185
133 117 64
151 143 93
141 125 69
93 94 72
113 107 70
132 115 64
131 123 75
100 107 84
137 138 99
137 131 86
161 150 96
91 92 55
152 148 96
166 158 102
147 140 90
156 156 108
150 145 97
138 131 84
141 137 90
158 157 108
155 149 99
142 140 95
152 144 90
137 134 90
164 163 108
159 153 100
150 149 103
149 145 97
157 156 105
160 158 104
148 147 102
168 161 103
148 144 97
162 159 95
155 152 96
154 150 99
163 157 97
163 157 105
176 167 108
167 162 106
163 157 95
155 152 102
179 173 114
151 145 88
151 146 93
154 153 102
153 150 94
174 171 114
167 158 102
170 162 91
169 163 95
164 159 100
170 166 103
167 162 106
167 157 102
176 170 108
177 170 109
173 168 109
174 167 103
167 165 95
173 162 97
174 170 108
158 157 95
178 170 95
171 166 103
177 171 108
177 171 108
173 168 95
166 160 95
177 171 108
186 177 114
170 166 103
178 169 108
180 171 103
175 170 108
170 168 108
176 170 102
174 171 114
175 167 97
167 162 102
175 170 102
178 171 102
157 148 82
176 166 96
176 170 102
173 167 103
178 173 114
182 174 108
178 172 108
179 172 102
181 174 108
166 161 95
168 160 88
169 164 97
179 172 102
182 174 108
175 170 102
182 175 114
161 153 74
176 166 95
169 165 88
176 168 102
170 166 103
174 171 114
162 149 84
179 171 102
160 155 95
165 157 102
175 164 88
168 164 88
170 163 102
163 152 90
175 169 95
175 170 102
172 164 102
169 159 74
169 168 108
170 166 103
172 165 108
163 155 80
173 169 102
158 153 74
166 161 95
159 153 95
171 163 98
159 148 74
173 164 96
177 166 103
158 146 76
156 153 80
164 150 91
168 161 88
159 147 82
174 167 88
168 158 95
166 154 88
166 154 96
172 160 98
156 147 82
154 137 74
184 203 228
183 202 228
182 202 228
186 204 228
184 203 228
185 204 228
187 205 228
185 203 228
187 205 228
185 204 228
182 202 228
184 203 228
184 203 228
183 202 228
182 202 228
182 202 228
183 202 228
183 202 228
181 202 228
182 202 228
179 201 228
181 201 228
183 202 228
182 202 228
181 201 228
182 202 228
181 201 228
182 202 228
181 201 228
183 203 228
180 201 228
181 201 228
180 201 228
183 202 228
181 201 228
180 201 228
178 200 228
179 200 228
184 203 228
179 200 228
181 201 228
180 201 228
178 199 228
180 201 228
182 202 228
180 201 228
177 199 228
177 199 228
179 200 228
175 198 228
179 200 228
180 201 228
178 200 228
180 201 228
178 200 228
177 199 228
176 198 228
175 198 228
177 199 228
175 198 228
172 197 228
178 200 228
179 201 228
177 199 228
179 200 228
174 197 228
179 201 228
176 199 228
175 198 228
175 198 228
176 198 228
177 199 228
177 199 228
177 199 228
177 199 228
174 197 228
176 199 228
175 198 228
175 198 228
174 197 228
173 197 228
173 197 228
172 197 228
175 198 228
175 198 228
176 199 228
171 196 228
173 197 228
175 198 228
173 197 228
174 198 228
173 197 228
172 196 228
176 198 228
174 198 228
173 197 228
173 197 228
171 196 228
172 196 228
173 197 228
172 197 228
174 198 228
173 197 228
175 198 228
172 196 228
173 197 228
172 196 228
174 197 228
170 196 228
173 197 228
170 196 228
173 197 228
173 197 228
171 196 228
172 197 228
173 197 228
172 196 228
173 197 228
172 196 228
174 197 228
174 198 228
166 189 223
165 189 223
172 197 228
165 188 217
147 171 211
158 181 217
175 198 228
167 190 223
166 189 223
158 181 216
178 200 228
173 197 228
173 197 228
181 202 228
181 201 228
179 200 228
185 203 228
181 200 226
182 199 217
153 167 181
211 229 253
214 231 255
214 231 255
214 231 255
214 231 255
214 231 255
214 231 255
213 231 255
213 231 255
213 231 255
213 231 255
213 231 255
213 231 255
213 231 255
169 188 221
59 94 155
61 97 169
62 98 167
63 99 161
61 95 147
63 99 171
62 98 161
58 93 127
63 99 171
58 93 140
60 96 159
63 99 161
65 101 171
61 97 159
60 95 127
62 97 149
61 97 167
57 91 114
62 99 171
60 96 159
64 100 171
62 97 159
64 100 171
61 97 151
61 96 151
58 94 140
59 95 140
63 99 171
60 95 140
60 95 140
62 98 151
56 92 151
65 100 161
60 96 151
58 91 140
63 98 151
61 96 140
62 96 161
63 98 151
62 98 171
61 97 151
63 99 171
62 98 171
60 93 117
62 99 181
59 94 127
63 97 142
62 98 161
62 96 161
63 99 171
63 99 161
60 94 151
64 100 171
57 91 127
63 98 151
60 95 171
62 97 151
63 98 151
57 90 140
59 96 151
63 99 161
61 98 171
61 97 151
59 95 140
60 94 140
59 93 151
60 96 151
63 99 161
62 98 151
61 96 151
61 98 171
63 99 161
60 96 151
59 94 151
58 94 140
60 97 161
60 93 144
59 93 140
64 98 153
61 93 140
59 91 142
63 99 161
58 88 135
53 85 130
64 99 171
61 94 144
61 94 157
54 85 141
181 200 228
213 231 255
213 231 255
213 231 255
213 231 255
213 231 255
213 231 255
213 231 255
213 231 255
214 231 255
214 231 255
214 231 255
214 231 255
214 231 255
211 226 245
171 165 150
154 140 82
150 141 88
163 156 103
149 147 99
126 118 74
142 131 79
139 139 99
152 151 100
133 128 84
136 127 81
134 137 96
171 166 108
122 118 78
145 138 88
142 140 93
125 119 80
148 140 83
128 131 93
165 162 108
149 148 102
139 135 89
160 152 97
151 150 92
161 158 103
155 147 93
158 154 103
162 155 97
158 154 102
160 160 108
161 158 102
154 150 90
150 145 86
128 129 93
168 161 103
158 155 101
158 155 104
155 153 103
144 136 78
157 156 102
171 163 102
168 165 111
174 168 111
174 168 101
171 168 102
155 154 83
167 161 103
170 169 114
167 161 95
169 163 108
175 172 114
165 161 102
182 175 114
166 164 111
179 168 108
166 163 105
162 157 99
170 164 102
146 139 72
164 162 108
165 162 99
164 160 99
164 162 99
183 175 114
180 167 95
181 173 108
162 154 95
167 164 88
175 166 108
165 161 102
175 168 103
181 174 114
170 165 88
175 171 108
167 157 88
181 169 108
178 172 113
183 175 114
177 169 95
180 173 108
169 161 88
183 175 114
180 170 103
184 175 108
168 159 97
176 170 102
177 171 108
172 166 108
178 172 108
161 160 102
183 173 109
176 169 95
177 173 114
177 168 102
171 165 102
171 160 102
176 171 108
163 155 80
162 153 88
168 161 95
174 166 108
182 175 114
165 157 95
169 161 103
179 173 108
174 166 102
159 148 88
162 154 95
177 172 108
168 161 103
173 169 102
166 156 88
177 171 108
179 172 108
166 148 81
176 170 102
165 155 88
174 168 95
168 162 102
147 137 72
157 147 84
158 142 81
174 166 108
168 156 84
169 162 95
162 154 95
168 156 90
159 154 88
158 152 88
157 148 84
165 156 82
163 150 65
167 157 88
176 163 97
175 164 95
154 146 74
164 150 90
166 154 90
168 161 95
180 171 95
155 146 95
187 205 228
188 205 228
185 204 228
183 202 228
185 204 228
185 204 228
186 204 228
185 204 228
185 203 228
184 203 228
186 204 228
186 204 228
185 203 228
183 202 228
185 203 228
186 204 228
185 204 228
182 202 228
185 203 228
181 202 228
182 202 228
182 202 228
184 203 228
186 204 228
182 202 228
184 203 228
184 203 228
181 201 228
181 201 228
181 201 228
181 201 228
178 200 228
180 201 228
182 202 228
183 202 228
177 199 228
182 202 228
184 203 228
180 201 228
179 200 228
179 200 228
176 199 228
179 200 228
177 199 228
180 201 228
178 200 228
182 202 228
180 201 228
180 201 228
179 200 228
179 200 228
180 201 228
177 199 228
178 200 228
175 198 228
177 199 228
177 199 228
180 201 228
180 201 228
177 199 228
177 199 228
178 200 228
177 199 228
175 198 228
178 200 228
177 199 228
176 199 228
176 199 228
177 199 228
177 199 228
177 199 228
177 199 228
175 198 228
174 197 228
177 199 228
174 198 228
176 199 228
178 199 228
176 199 228
176 199 228
174 198 228
174 197 228
177 199 228
178 200 228
173 197 228
175 198 228
175 198 228
175 198 228
173 197 228
173 197 228
174 197 228
172 196 228
175 198 228
176 199 228
174 198 228
174 198 228
173 197 228
175 198 228
172 197 228
173 197 228
172 196 228
176 198 228
175 198 228
171 196 228
174 198 228
174 198 228
175 198 228
173 197 228
170 195 228
170 196 228
174 197 228
172 197 228
175 198 228
175 198 228
173 197 228
175 198 228
174 198 228
175 198 228
172 197 228
173 197 228
172 197 228
170 195 228
157 181 217
145 170 204
156 180 216
150 173 209
157 181 217
150 172 209
175 198 228
166 189 223
139 163 203
166 190 223
162 184 217
176 199 228
171 192 223
179 200 228
179 200 228
179 200 228
182 202 228
177 195 219
182 198 219
198 215 238
214 231 255
214 231 255
214 231 255
214 231 255
214 231 255
214 231 255
214 231 255
214 231 255
214 231 255
214 231 255
214 231 255
214 231 255
203 221 248
56 90 147
57 92 161
62 97 151
60 95 155
61 97 165
62 96 163
62 98 171
61 96 157
60 94 153
64 101 181
62 98 177
60 96 151
63 99 151
58 93 127
60 96 151
61 96 140
61 95 147
60 96 151
61 97 161
61 97 151
59 94 127
61 97 159
62 97 151
64 100 179
63 99 171
56 90 111
57 91 140
61 97 161
61 96 140
60 95 140
64 100 179
62 98 159
63 99 161
61 97 140
62 99 171
59 94 140
60 95 127
60 95 140
59 95 140
57 92 140
60 95 140
59 95 140
59 94 127
64 99 161
63 98 151
62 97 151
63 98 151
64 100 161
64 100 171
63 99 161
65 101 171
61 96 140
63 99 161
59 94 127
65 101 181
62 97 140
60 93 127
61 96 161
60 96 151
61 97 151
60 94 142
62 97 151
62 98 151
58 91 127
64 100 171
62 98 151
61 96 153
63 98 163
65 101 181
62 97 151
63 100 171
58 91 142
64 100 171
63 96 163
61 97 161
57 88 127
64 101 181
61 96 161
66 102 171
64 98 171
61 96 153
60 97 161
62 98 173
60 90 147
62 94 142
61 96 153
61 94 153
61 95 165
53 83 131
50 75 130
214 231 255
214 231 255
214 231 255
214 231 255
214 231 255
214 231 255
214 231 255
214 231 255
214 231 255
214 231 255
214 231 255
214 231 255
214 231 255
197 202 205
148 145 88
149 140 88
140 134 79
129 121 78
138 124 78
159 149 96
142 139 95
108 105 76
106 111 79
145 144 100
144 143 95
158 151 99
156 154 102
149 138 84
108 105 69
132 127 81
133 126 84
122 114 70
157 156 102
164 158 105
142 138 88
126 128 85
134 131 87
169 164 108
141 144 95
153 150 97
141 137 80
126 129 93
145 146 102
171 169 108
156 156 108
159 153 101
164 161 102
161 155 94
169 165 103
147 145 99
139 132 84
153 151 89
163 159 105
175 163 97
152 153 102
168 163 102
167 163 102
165 162 109
173 169 108
161 158 108
171 163 103
180 171 95
159 157 90
155 151 95
176 172 114
166 164 111
169 162 102
176 169 108
174 171 114
160 153 101
178 170 109
171 168 102
169 161 95
180 174 114
169 164 80
172 168 102
167 165 111
176 169 111
172 169 108
177 171 108
175 166 108
166 162 104
164 160 102
175 169 95
163 157 102
171 164 102
179 173 114
180 173 108
174 171 114
173 169 102
172 166 97
177 171 108
179 171 101
175 170 108
165 158 80
173 166 108
172 164 96
174 170 108
178 171 102
165 160 95
169 162 98
175 166 108
160 154 82
173 169 102
173 167 102
180 173 108
175 170 102
185 176 114
176 166 102
172 169 102
160 152 88
179 172 102
163 155 80
160 152 88
173 169 102
178 172 108
171 163 96
173 165 96
177 172 114
180 172 102
169 162 95
172 164 95
177 165 97
163 159 95
175 168 102
162 159 95
172 165 90
179 168 108
182 175 114
179 169 97
173 162 97
163 154 88
177 163 102
174 164 91
171 164 102
164 158 97
177 168 108
167 155 90
149 140 82
164 153 80
160 151 95
161 148 81
163 151 88
164 159 97
165 158 97
168 157 91
178 169 102
161 150 90
172 161 102
166 154 83
164 155 95
182 174 108
162 156 80
174 163 91
164 157 102
188 205 228
184 203 228
185 204 228
186 204 228
188 205 228
182 202 228
186 204 228
183 202 228
190 206 228
186 204 228
186 204 228
186 204 228
187 204 228
183 203 228
184 203 228
185 203 228
182 202 228
181 201 228
184 203 228
187 204 228
183 203 228
184 203 228
181 201 228
184 203 228
186 204 228
181 201 228
182 202 228
184 203 228
181 202 228
181 201 228
181 202 228
183 203 228
181 201 228
182 202 228
182 202 228
181 201 228
181 201 228
181 202 228
177 199 228
183 202 228
183 202 228
183 203 228
180 201 228
181 201 228
179 200 228
183 203 228
179 200 228
180 201 228
180 201 228
178 200 228
181 201 228
178 200 228
177 199 228
181 201 228
178 200 228
178 200 228
177 199 228
181 201 228
180 201 228
177 199 228
178 200 228
179 200 228
177 199 228
181 201 228
177 199 228
177 199 228
178 200 228
179 200 228
175 198 228
178 200 228
177 199 228
175 198 228
178 200 228
177 199 228
178 200 228
173 197 228
176 198 228
178 200 228
175 198 228
174 198 228
176 199 228
174 198 228
175 198 228
175 198 228
175 198 228
176 199 228
174 198 228
174 198 228
176 199 228
175 198 228
174 198 228
173 197 228
172 197 228
173 197 228
174 198 228
173 197 228
175 198 228
174 197 228
174 198 228
176 199 228
174 198 228
174 197 228
174 197 228
176 199 228
174 197 228
175 198 228
174 198 228
175 198 228
177 199 228
175 198 228
172 197 228
174 197 228
175 198 228
173 197 228
174 198 228
175 198 228
176 199 228
173 197 228
167 190 223
166 190 223
167 190 223
157 181 217
162 187 221
158 180 214
173 197 228
148 172 211
157 181 217
148 171 203
149 172 208
167 190 223
150 171 204
150 173 209
140 163 201
151 173 203
149 172 209
170 192 223
172 191 219
181 201 228
182 202 228
185 203 228
182 200 224
179 196 217
211 229 253
214 232 255
214 232 255
214 232 255
214 232 255
214 232 255
214 232 255
214 232 255
214 231 255
214 231 255
214 231 255
214 231 255
128 151 204
55 90 157
54 86 133
64 99 169
60 95 157
55 87 147
63 99 171
62 98 159
62 99 179
65 101 171
63 100 181
62 97 159
64 98 140
60 95 137
62 98 161
62 97 157
62 98 169
62 97 149
59 94 137
61 96 140
60 95 151
62 98 151
59 94 127
60 94 159
61 98 179
59 94 114
61 96 149
64 101 181
63 99 161
60 94 151
59 94 125
65 101 171
63 98 159
59 94 114
57 92 114
60 94 127
60 96 151
57 93 127
60 97 161
59 95 140
64 100 171
60 96 151
61 98 161
59 95 140
62 97 161
61 96 140
60 95 127
62 96 127
63 98 151
64 98 171
63 98 171
62 98 161
62 98 151
61 95 140
61 97 140
58 92 140
59 94 127
64 99 151
60 95 127
62 98 151
65 101 171
62 98 161
63 99 161
60 95 140
61 97 151
65 100 151
63 99 161
62 98 161
61 96 140
57 91 142
62 98 161
61 95 161
60 96 151
62 98 151
55 88 152
62 97 151
61 98 171
60 95 153
58 93 151
63 98 153
58 91 142
60 95 151
61 94 144
62 96 142
58 93 161
61 98 161
61 94 133
58 91 130
59 93 153
59 93 164
61 93 142
110 134 182
214 231 255
214 231 255
214 231 255
214 231 255
214 232 255
214 232 255
214 232 255
214 232 255
214 232 255
214 232 255
214 232 255
212 227 245
138 132 81
127 116 65
123 110 69
145 141 96
139 133 87
127 124 82
147 140 91
80 66 45
120 118 76
133 130 80
125 117 78
135 131 92
136 128 85
154 151 101
143 138 90
149 144 96
148 139 90
131 129 86
157 156 108
168 162 106
155 149 99
149 145 95
136 135 90
151 146 97
137 134 89
140 135 90
155 153 88
161 159 95
152 150 105
139 136 92
162 157 97
165 160 105
150 148 99
163 163 111
158 157 104
163 162 110
168 163 108
157 154 88
167 163 105
173 170 114
163 149 94
160 155 96
167 161 100
140 140 92
164 159 88
182 173 102
176 169 109
173 170 108
171 167 109
173 170 108
178 173 114
168 163 99
161 159 106
170 165 109
179 170 103
166 161 88
170 164 90
160 158 89
177 172 108
177 171 108
164 162 105
164 160 100
169 162 95
177 168 103
175 169 95
174 164 95
181 173 108
177 172 114
172 165 90
168 162 95
173 168 95
176 164 103
173 169 102
176 169 101
175 170 102
163 157 82
178 170 109
181 173 108
173 166 97
172 166 88
175 167 108
179 172 108
182 174 108
170 164 102
170 164 102
163 153 81
165 158 88
177 170 95
168 163 95
160 158 95
170 163 102
174 166 108
175 171 108
176 167 102
171 166 88
183 173 102
170 162 95
169 163 90
171 164 108
171 169 108
177 171 108
169 165 88
167 164 88
176 170 102
173 162 84
156 154 80
167 164 102
178 168 102
173 167 102
175 166 104
178 171 102
164 158 102
153 145 62
166 153 88
170 164 95
170 162 88
172 163 103
178 165 90
174 165 103
182 175 114
167 161 95
170 162 88
183 174 108
177 169 88
163 154 88
162 150 88
182 173 102
171 165 97
166 150 90
174 165 102
177 166 97
163 157 80
165 159 88
167 165 95
165 159 88
163 154 88
162 158 103
176 167 97
164 159 95
160 154 74
159 154 90
160 147 88
185 203 228
185 203 228
187 204 228
184 203 228
187 205 228
190 206 228
188 205 228
187 204 228
184 203 228
186 204 228
185 203 228
183 203 228
186 204 228
184 203 228
183 202 228
182 202 228
184 203 228
185 204 228
180 201 228
189 206 228
183 202 228
181 202 228
185 203 228
182 202 228
186 204 228
185 204 228
182 202 228
183 203 228
182 202 228
184 203 228
180 201 228
182 202 228
179 200 228
182 202 228
179 200 228
181 201 228
183 202 228
182 202 228
183 202 228
184 203 228
183 202 228
184 203 228
181 201 228
177 199 228
180 201 228
179 200 228
182 202 228
180 201 228
179 200 228
183 202 228
178 200 228
178 200 228
180 201 228
180 201 228
178 200 228
180 201 228
180 201 228
181 201 228
179 200 228
177 199 228
178 200 228
175 198 228
180 201 228
180 201 228
179 200 228
177 199 228
177 199 228
178 200 228
175 198 228
177 199 228
175 198 228
177 199 228
177 199 228
178 200 228
179 200 228
178 200 228
177 199 228
175 198 228
178 199 228
176 199 228
179 200 228
177 199 228
179 200 228
177 199 228
179 200 228
176 199 228
175 198 228
177 199 228
177 199 228
175 198 228
175 198 228
179 200 228
175 198 228
175 198 228
176 199 228
178 200 228
176 199 228
172 196 228
177 199 228
175 198 228
176 198 228
173 197 228
174 198 228
175 198 228
176 199 228
175 198 228
176 199 228
176 199 228
176 199 228
175 198 228
174 198 228
176 199 228
178 200 228
176 199 228
176 198 228
176 199 228
173 197 228
166 190 223
169 191 223
167 190 223
167 190 223
166 190 223
160 182 204
130 153 195
155 180 217
158 182 217
165 189 223
157 181 217
157 180 211
141 163 203
168 190 223
128 153 198
141 163 204
159 182 217
160 182 217
152 174 209
143 165 204
171 192 223
184 203 228
184 203 228
184 203 228
188 205 228
183 200 223
214 232 255
214 232 255
214 232 255
214 232 255
214 232 255
214 232 255
214 232 255
214 232 255
214 232 255
214 232 255
214 232 255
56 90 161
60 96 167
60 95 171
59 93 147
59 95 159
61 96 159
59 93 137
60 96 161
61 97 167
62 97 165
59 92 161
62 98 171
60 96 157
63 99 161
63 99 171
63 100 181
60 95 137
63 100 179
64 100 171
66 102 181
63 99 161
62 97 165
61 97 169
63 99 169
64 99 161
63 98 151
60 96 140
60 97 161
61 98 171
62 97 159
60 96 151
59 93 127
59 94 125
62 98 151
61 95 151
59 94 127
59 93 151
61 97 151
61 95 127
62 98 161
61 97 151
61 95 151
61 95 161
58 94 140
60 97 161
63 98 151
62 99 171
61 96 140
61 97 151
63 99 161
64 100 171
61 97 161
59 95 140
60 97 161
63 98 151
63 98 151
59 94 142
62 97 153
64 100 171
62 98 161
59 95 151
60 94 114
64 101 181
61 96 140
63 97 151
61 96 140
63 99 161
59 93 144
59 93 151
62 96 142
58 93 127
59 92 102
64 99 161
60 93 163
62 96 151
62 98 161
58 90 130
63 99 161
61 95 153
63 98 173
59 93 161
59 93 140
58 91 151
64 98 163
62 96 151
56 88 154
59 91 130
62 96 155
56 91 151
56 87 134
59 89 144
52 78 122
193 209 229
214 232 255
214 232 255
214 232 255
214 232 255
214 232 255
214 232 255
214 232 255
214 232 255
214 232 255
214 232 255
149 137 105
152 142 93
150 136 75
141 132 82
124 125 82
129 117 77
112 109 72
133 130 89
105 104 73
133 129 88
148 143 94
137 132 87
125 123 84
136 139 99
149 145 97
150 150 105
120 114 68
137 139 96
156 151 97
164 163 111
151 143 82
125 120 69
131 127 84
162 158 105
157 156 108
161 152 90
124 127 89
175 171 108
152 145 90
157 155 99
150 150 92
135 133 85
141 138 89
156 153 92
162 157 105
149 147 96
151 144 90
138 136 85
157 154 103
155 154 92
161 158 95
126 127 85
169 163 107
165 162 102
166 164 108
178 171 107
184 176 114
176 171 108
165 162 99
173 167 103
179 173 108
172 168 108
164 162 109
171 168 107
165 162 107
176 172 114
172 166 105
172 164 95
175 166 104
174 168 101
176 172 114
162 157 105
178 173 114
177 171 102
167 157 95
173 165 108
164 158 84
175 168 103
167 163 107
176 172 114
176 171 108
172 167 103
173 169 102
176 169 95
185 176 114
174 169 102
173 168 95
172 167 103
176 169 103
176 170 102
172 168 95
174 168 103
173 168 95
176 170 102
180 174 114
173 166 108
177 169 103
176 170 102
173 164 82
176 170 102
180 172 108
163 155 74
145 139 36
179 172 102
166 156 88
182 175 114
175 171 114
166 156 88
170 166 103
168 165 95
168 158 90
179 172 108
165 155 80
171 167 95
165 163 88
168 161 95
159 149 88
166 161 95
174 163 96
167 164 102
160 156 95
167 159 80
175 169 102
171 159 96
168 159 95
180 174 114
164 155 95
165 159 88
166 161 97
179 174 114
173 162 88
172 163 98
169 162 95
153 141 66
173 168 109
164 156 90
166 163 97
165 157 88
173 164 95
167 153 74
168 159 97
177 171 102
164 156 80
158 147 80
175 169 102
171 159 88
170 158 95
154 145 84
171 167 95
174 168 95
167 157 74
184 176 114
166 156 82
184 203 228
184 203 228
186 204 228
185 203 228
186 204 228
188 205 228
189 206 228
185 204 228
188 205 228
186 204 228
190 206 228
186 204 228
188 205 228
185 203 228
182 202 228
184 203 228
182 202 228
184 203 228
184 203 228
185 203 228
186 204 228
185 204 228
184 203 228
184 203 228
184 203 228
184 203 228
185 203 228
183 202 228
184 203 228
184 203 228
183 202 228
183 202 228
183 202 228
188 205 228
184 203 228
182 202 228
183 202 228
183 202 228
181 201 228
183 202 228
183 202 228
180 201 228
182 202 228
182 202 228
183 202 228
181 201 228
180 201 228
178 199 228
185 203 228
181 202 228
182 202 228
181 201 228
180 201 228
180 201 228
180 201 228
181 201 228
181 201 228
181 201 228
176 198 228
180 201 228
177 199 228
179 200 228
178 200 228
180 201 228
181 201 228
177 199 228
180 201 228
181 201 228
179 200 228
177 199 228
176 199 228
179 200 228
179 200 228
179 200 228
180 201 228
178 200 228
180 201 228
176 198 228
178 200 228
179 200 228
177 199 228
177 199 228
180 201 228
178 200 228
179 200 228
177 199 228
178 200 228
179 200 228
181 201 228
175 198 228
176 199 228
174 198 228
178 199 228
173 197 228
175 198 228
176 199 228
176 199 228
173 197 228
174 198 228
175 198 228
175 198 228
174 197 228
176 199 228
176 199 228
175 198 228
175 198 228
174 197 228
175 198 228
175 198 228
172 197 228
174 197 228
175 198 228
173 197 228
177 199 228
177 199 228
178 199 228
177 199 228
176 199 228
177 199 228
155 180 216
167 190 217
174 198 228
167 189 217
159 182 217
130 153 196
139 162 200
139 162 199
147 171 209
141 164 204
158 181 217
166 189 221
151 173 211
125 147 185
140 163 202
139 162 202
151 172 207
172 192 221
171 192 223
172 193 223
182 202 228
182 202 228
190 206 228
179 197 217
194 210 233
215 232 255
215 232 255
215 232 255
215 232 255
215 232 255
215 232 255
215 232 255
215 232 255
215 232 255
156 175 214
61 97 159
60 95 159
57 91 129
59 94 165
60 96 167
60 95 159
60 96 159
65 100 169
61 96 174
58 93 161
65 101 171
63 99 171
61 97 151
62 97 157
61 96 157
60 94 149
61 96 151
62 97 159
63 100 171
61 94 127
65 101 171
60 96 140
62 98 171
63 98 151
61 98 171
59 94 140
62 98 161
61 96 161
61 97 151
61 96 140
62 97 151
60 96 151
61 96 127
61 96 140
62 97 149
64 99 171
61 98 161
62 98 161
61 97 151
57 91 127
59 94 140
62 99 171
61 97 151
63 98 151
62 99 181
60 96 151
60 94 140
63 99 161
59 93 127
61 97 161
60 95 140
63 98 151
61 94 153
60 93 114
61 96 171
61 96 140
63 99 171
61 96 140
60 96 151
60 96 151
64 99 161
59 93 151
62 98 161
61 94 151
61 95 130
61 97 151
59 92 130
60 93 144
64 100 171
55 89 127
61 97 151
63 97 163
63 99 161
62 99 171
63 98 151
61 98 171
59 93 140
63 98 171
61 94 142
58 92 127
57 91 152
58 90 140
61 97 151
61 94 140
55 86 115
56 90 143
56 87 142
59 91 154
61 95 171
59 91 105
57 88 144
55 81 120
125 146 182
215 232 255
215 232 255
215 232 255
215 232 255
215 232 255
215 232 255
215 232 255
215 232 255
215 232 255
197 204 206
148 139 82
119 109 58
132 114 63
134 125 69
136 129 75
145 139 84
121 114 76
121 113 71
148 138 92
139 129 81
128 123 79
82 89 72
137 134 89
145 138 92
130 130 88
116 118 84
147 144 96
154 151 102
143 138 90
151 141 86
163 160 106
105 109 73
143 136 89
157 156 106
146 143 92
145 138 91
135 123 70
129 128 88
135 138 93
157 154 97
158 148 88
139 132 81
166 164 111
144 137 87
152 150 93
137 138 92
156 153 89
150 146 95
139 139 99
160 157 106
164 158 99
162 158 88
165 162 108
168 164 105
173 169 102
174 165 98
165 159 102
179 173 114
172 162 88
169 166 111
170 165 105
164 159 102
177 168 108
167 163 97
171 166 103
183 172 109
164 161 99
178 171 102
173 167 95
167 165 95
182 175 114
177 172 114
187 177 114
176 170 102
177 172 114
164 158 99
168 162 107
175 167 95
175 169 95
180 174 114
172 168 102
175 165 98
173 165 96
177 172 108
176 171 108
162 157 80
174 165 95
176 172 114
179 172 108
180 168 90
182 173 102
178 172 108
177 164 97
172 164 103
172 167 95
171 156 95
176 169 95
176 170 102
159 152 90
181 173 108
169 164 97
179 173 114
170 166 103
178 171 102
171 168 102
175 169 95
171 161 97
169 163 90
176 170 102
179 173 114
165 160 95
161 150 82
174 162 97
177 172 108
155 150 80
166 159 88
156 149 80
172 167 95
169 160 90
165 159 97
166 152 88
179 172 102
180 172 102
167 162 102
165 155 80
167 157 88
174 166 80
158 155 80
174 168 95
181 173 102
158 154 90
156 150 80
168 160 90
180 172 102
174 163 88
173 169 102
177 167 108
163 155 72
167 158 88
170 160 102
171 160 95
169 158 91
166 158 102
171 161 81
177 167 90
186 171 103
153 147 72
169 161 88
154 148 51
160 153 80
167 157 88
172 164 102
175 170 108
185 204 228
188 205 228
189 206 228
187 204 228
185 204 228
186 204 228
183 202 228
183 203 228
189 206 228
187 205 228
187 204 228
186 204 228
188 205 228
185 204 228
187 205 228
189 206 228
185 203 228
186 204 228
188 205 228
184 203 228
185 204 228
187 205 228
186 204 228
186 204 228
185 203 228
183 202 228
184 203 228
183 203 228
188 205 228
187 204 228
185 204 228
185 204 228
184 203 228
183 202 228
187 205 228
183 202 228
183 203 228
182 202 228
184 203 228
183 202 228
183 202 228
183 202 228
184 203 228
183 202 228
185 203 228
180 201 228
184 203 228
185 204 228
185 204 228
182 202 228
182 202 228
178 200 228
180 201 228
184 203 228
181 201 228
181 201 228
181 202 228
186 204 228
183 202 228
181 201 228
184 203 228
183 203 228
182 202 228
182 202 228
179 200 228
179 200 228
182 202 228
178 200 228
181 201 228
178 199 228
177 199 228
179 200 228
180 201 228
180 201 228
178 200 228
176 199 228
180 201 228
178 200 228
178 200 228
176 198 228
179 200 228
179 200 228
179 200 228
182 202 228
180 201 228
175 198 228
178 200 228
177 199 228
179 200 228
176 199 228
177 199 228
177 199 228
180 201 228
178 199 228
177 199 228
175 198 228
177 199 228
179 200 228
178 200 228
181 201 228
178 200 228
178 200 228
179 200 228
178 199 228
176 199 228
179 200 228
178 200 228
180 201 228
176 198 228
177 199 228
179 200 228
176 198 228
175 198 228
176 199 228
176 199 228
177 199 228
175 198 228
167 190 223
176 199 228
167 190 223
171 192 223
150 173 211
138 162 202
167 190 223
150 173 209
158 181 217
140 163 203
139 162 198
131 154 198
130 153 196
117 139 183
117 139 182
105 128 178
126 147 177
140 162 202
133 155 196
172 193 221
155 174 206
182 202 228
156 176 209
186 204 228
177 195 217
187 204 228
170 186 201
215 232 255
215 232 255
215 232 255
215 232 255
215 232 255
215 232 255
215 232 255
215 232 255
205 222 249
89 117 175
64 101 181
56 90 147
64 99 175
61 97 157
60 95 137
56 90 140
60 95 172
58 93 155
62 97 167
59 95 137
60 96 166
56 89 122
59 94 140
58 94 157
63 99 161
65 101 181
57 92 114
60 95 149
60 95 127
62 97 140
58 92 149
64 100 171
64 100 161
59 95 140
63 99 171
58 95 159
63 99 159
60 96 140
58 93 140
62 97 151
62 97 151
64 100 161
58 94 151
66 102 181
63 98 159
63 98 149
63 99 161
62 98 151
58 93 125
58 94 140
59 93 140
62 98 161
60 95 127
65 101 171
60 96 161
61 96 140
64 100 171
66 102 171
59 94 127
61 97 161
62 97 151
59 93 140
58 93 127
63 99 171
65 101 171
61 97 151
63 98 151
60 94 151
59 93 127
62 97 140
63 100 171
62 97 151
61 95 151
57 91 151
63 98 151
61 96 151
64 100 181
63 99 171
63 98 151
60 94 140
60 92 153
62 97 172
59 94 161
63 99 173
52 83 114
59 95 140
62 97 163
63 100 181
63 99 161
64 97 155
62 97 171
60 91 122
54 88 114
59 95 140
59 95 140
57 91 140
61 96 151
60 90 130
57 84 133
58 90 130
52 81 140
59 92 157
60 93 163
204 221 242
215 232 255
215 232 255
215 232 255
215 232 255
215 232 255
215 232 255
215 232 255
193 208 229
149 145 129
157 141 84
134 111 56
134 131 81
124 122 86
68 73 53
142 135 86
135 124 66
119 112 66
156 152 100
116 112 73
101 102 68
127 122 81
150 142 90
138 138 95
154 142 88
135 132 87
138 140 99
102 104 77
118 117 80
147 144 93
154 150 102
128 129 89
149 146 97
154 151 102
131 129 84
160 156 96
119 119 67
152 151 85
146 144 93
155 150 99
139 135 88
140 139 95
167 161 96
157 155 99
151 147 90
161 158 108
127 128 84
169 165 111
167 162 102
146 147 101
160 158 95
172 166 102
163 158 103
174 170 108
153 149 92
177 171 108
177 172 108
168 160 95
180 172 112
162 161 102
167 162 102
158 154 95
171 166 111
171 165 105
177 172 114
179 172 108
179 171 102
170 168 108
182 173 102
174 167 105
161 157 105
163 157 88
168 163 99
188 178 114
173 167 108
164 156 84
175 167 97
171 167 95
170 165 80
177 167 102
182 174 108
182 173 102
172 165 102
188 178 114
158 155 90
175 171 108
168 163 99
166 159 88
181 174 114
166 158 80
176 168 102
170 166 101
180 174 114
172 167 95
164 161 95
170 167 95
171 165 97
174 159 95
169 164 108
166 161 95
172 162 99
177 166 96
173 168 95
175 169 95
168 163 95
167 162 102
176 170 102
177 168 97
182 172 95
172 168 102
171 168 102
164 156 98
162 154 95
177 167 102
168 161 88
178 169 103
175 166 90
169 161 95
172 168 102
159 156 88
178 168 108
155 149 88
184 175 108
173 165 108
154 144 81
176 168 97
163 158 88
167 157 88
168 160 88
169 163 102
171 162 88
174 162 95
163 158 88
180 172 102
156 148 72
185 176 114
167 153 90
169 159 88
164 155 95
161 154 82
172 167 95
173 161 95
162 159 88
172 160 102
168 159 97
157 148 66
166 155 80
168 155 82
170 163 88
159 152 90
174 164 95
164 152 81
181 172 109
186 204 228
187 205 228
187 205 228
186 204 228
188 205 228
187 205 228
187 205 228
190 206 228
185 203 228
186 204 228
187 204 228
188 205 228
187 204 228
187 205 228
186 204 228
187 205 228
185 203 228
187 205 228
189 206 228
188 205 228
183 203 228
185 204 228
183 202 228
187 204 228
183 203 228
184 203 228
184 203 228
184 203 228
183 203 228
186 204 228
184 203 228
183 203 228
185 204 228
189 205 228
188 205 228
183 202 228
187 205 228
183 202 228
181 201 228
183 203 228
185 204 228
184 203 228
186 204 228
181 201 228
182 202 228
183 203 228
182 202 228
185 203 228
183 203 228
181 201 228
183 202 228
180 201 228
179 200 228
181 201 228
177 199 228
181 201 228
182 202 228
181 201 228
183 202 228
183 202 228
181 201 228
182 202 228
181 201 228
183 202 228
181 201 228
181 201 228
181 201 228
180 201 228
184 203 228
180 201 228
182 202 228
181 201 228
182 202 228
180 201 228
182 202 228
178 200 228
179 200 228
177 199 228
178 200 228
179 200 228
184 203 228
179 200 228
181 201 228
180 201 228
178 199 228
179 200 228
178 200 228
180 201 228
178 200 228
180 201 228
178 200 228
179 200 228
180 201 228
179 200 228
179 200 228
179 200 228
176 199 228
178 200 228
178 200 228
179 200 228
176 199 228
175 198 228
178 199 228
178 200 228
178 200 228
174 198 228
180 201 228
174 198 228
180 201 228
178 200 228
178 200 228
179 200 228
177 199 228
180 201 228
171 192 223
170 192 223
160 182 216
176 198 228
176 199 228
168 191 223
150 173 211
150 173 209
160 182 216
159 182 217
128 152 196
148 171 208
116 139 184
141 164 204
149 172 211
150 173 209
116 141 188
130 153 195
139 162 202
106 131 183
119 142 190
152 174 209
152 172 203
130 152 194
154 175 209
165 185 216
167 186 217
186 204 228
185 203 228
173 188 208
200 217 240
215 232 255
215 232 255
215 232 255
215 232 255
215 232 255
215 232 255
215 232 255
143 163 201
56 89 149
59 94 163
53 85 140
61 97 167
62 97 167
61 96 149
57 91 125
58 92 147
60 96 159
60 95 165
59 92 144
62 98 159
61 97 151
60 95 140
60 96 151
60 95 135
62 99 171
62 98 169
61 96 149
61 97 151
63 100 181
62 97 151
57 91 140
62 96 161
58 92 99
57 92 137
61 96 140
61 96 137
60 96 140
63 99 169
62 98 161
56 89 114
63 99 161
60 96 151
62 97 151
58 94 140
62 96 140
60 95 127
62 98 161
63 98 151
63 97 140
61 98 171
60 96 161
63 98 151
63 98 151
57 92 114
62 99 171
63 99 161
58 95 151
60 94 151
61 96 140
59 95 140
61 96 127
59 93 99
64 100 171
63 99 161
61 98 161
62 96 140
64 100 171
63 98 151
58 92 127
59 93 151
58 92 140
61 96 171
62 98 151
57 90 114
60 92 142
62 97 151
61 97 151
61 96 151
62 96 153
57 89 140
61 98 171
63 96 153
62 96 142
59 93 140
58 91 117
62 98 161
57 89 127
58 90 142
57 90 151
61 96 140
64 100 171
60 96 151
57 90 131
59 93 151
59 94 162
63 98 163
59 91 114
62 96 153
57 89 142
58 89 142
63 97 163
52 80 131
155 170 192
215 232 255
215 232 255
215 232 255
215 232 255
215 232 255
215 232 255
215 232 255
204 214 229
147 137 73
132 128 86
125 121 76
149 135 78
139 132 84
138 129 85
95 82 43
121 114 75
137 136 93
113 108 74
139 136 90
112 112 84
137 127 82
127 126 88
148 146 99
148 147 99
137 135 90
142 138 84
130 128 81
144 137 84
150 151 95
133 131 78
144 141 95
148 145 95
131 131 87
151 149 99
135 135 99
137 141 99
158 151 102
129 131 95
146 145 89
148 147 97
150 147 95
173 169 102
168 161 106
146 146 95
161 159 101
167 165 111
140 138 77
147 140 93
125 126 80
133 130 81
161 156 99
166 163 102
168 164 102
161 159 92
153 151 105
172 165 97
162 157 88
172 167 95
157 151 84
169 164 99
160 159 97
177 170 109
171 164 90
169 164 97
165 163 94
174 167 105
169 164 99
154 152 84
172 165 95
185 176 114
183 175 114
159 156 101
170 167 102
177 171 108
168 161 105
167 162 92
174 167 108
178 172 108
167 164 95
177 172 114
164 158 105
176 167 97
175 169 95
176 170 102
173 169 102
169 162 90
171 167 101
174 170 108
166 162 95
175 165 95
171 164 102
174 165 102
164 158 88
178 172 108
181 172 102
177 170 109
170 167 95
168 166 95
167 160 88
173 169 108
175 167 97
174 169 102
174 166 95
178 167 98
166 159 95
174 165 90
170 162 91
178 166 95
164 152 80
175 169 95
169 162 95
178 171 102
175 166 95
166 165 95
168 161 103
170 164 95
169 153 82
178 171 102
173 165 102
184 176 114
153 146 72
174 166 97
139 129 53
177 172 114
170 162 95
171 164 102
156 143 72
188 177 114
165 158 102
173 162 88
175 170 102
159 150 90
158 149 64
158 148 80
172 161 90
172 165 104
172 165 95
168 161 95
164 151 81
169 163 88
175 163 96
177 168 97
176 167 108
168 161 74
160 155 90
157 150 80
172 166 102
161 155 72
163 155 96
152 144 74
152 142 74
173 164 82
187 204 228
189 206 228
188 205 228
187 204 228
188 205 228
189 206 228
188 205 228
189 206 228
187 204 228
188 205 228
189 206 228
184 203 228
190 206 228
186 204 228
190 206 228
189 206 228
190 206 228
189 206 228
185 204 228
185 203 228
185 203 228
182 202 228
185 203 228
182 202 228
187 205 228
188 205 228
188 205 228
188 205 228
187 205 228
186 204 228
185 203 228
187 205 228
183 203 228
184 203 228
184 203 228
184 203 228
185 204 228
187 204 228
182 202 228
188 205 228
183 203 228
185 203 228
184 203 228
182 202 228
184 203 228
185 203 228
183 202 228
182 202 228
181 201 228
184 203 228
184 203 228
185 203 228
181 202 228
183 202 228
181 201 228
182 202 228
188 205 228
182 202 228
182 202 228
181 201 228
183 202 228
178 200 228
182 202 228
180 201 228
182 202 228
182 202 228
182 202 228
183 202 228
183 202 228
179 201 228
181 201 228
184 203 228
180 201 228
178 200 228
180 201 228
184 203 228
177 199 228
185 203 228
179 200 228
179 200 228
181 201 228
181 201 228
182 202 228
181 201 228
178 200 228
180 201 228
179 200 228
180 201 228
179 200 228
180 201 228
180 201 228
178 200 228
177 199 228
179 200 228
178 200 228
182 202 228
181 201 228
178 199 228
178 200 228
177 199 228
180 201 228
181 202 228
179 200 228
179 200 228
181 201 228
176 198 228
175 198 228
180 201 228
179 200 228
179 200 228
178 199 228
179 200 228
178 200 228
175 198 228
169 191 223
172 193 223
155 176 204
166 190 223
151 174 211
151 173 209
163 184 217
140 163 198
118 142 183
176 199 228
140 163 198
140 163 204
93 118 168
130 152 190
106 130 177
116 138 182
90 114 166
93 118 172
139 162 198
142 164 196
139 161 194
119 142 188
132 154 198
106 128 171
144 165 202
161 181 213
158 177 211
155 175 211
188 205 228
178 195 214
177 192 208
216 232 255
216 232 255
216 232 255
216 232 255
215 232 255
215 232 255
204 220 243
106 126 174
49 80 133
59 94 149
54 87 135
57 92 167
60 94 135
58 93 135
63 98 151
61 96 165
61 97 169
58 93 111
60 95 140
60 94 127
59 95 157
55 87 111
59 94 127
59 94 159
59 94 157
63 98 159
61 98 171
62 96 140
60 96 159
60 95 137
62 98 151
63 99 171
59 92 140
63 98 159
63 99 171
61 97 161
62 98 161
63 98 151
62 97 151
60 96 151
62 98 161
65 101 171
61 96 149
62 98 161
58 92 127
58 93 151
61 97 161
61 97 151
62 97 140
63 99 161
61 96 127
60 95 127
62 95 151
60 96 151
60 95 127
60 96 171
60 97 171
61 96 140
62 98 151
62 98 151
60 97 161
59 96 151
61 97 151
62 97 151
63 98 140
64 100 161
61 97 151
62 96 161
60 96 140
60 96 140
58 95 151
60 95 142
61 96 127
59 94 127
63 99 161
60 93 130
63 98 151
59 94 140
62 96 151
62 98 171
58 94 127
61 96 153
58 93 151
64 100 171
58 92 151
62 97 151
59 91 128
58 93 127
59 93 151
57 90 142
60 92 153
59 89 130
54 86 127
56 88 117
63 98 140
57 88 133
60 94 142
58 91 140
60 93 142
58 88 117
54 81 117
53 78 109
82 100 102
215 232 255
215 232 255
216 232 255
216 232 255
216 232 255
216 232 255
216 232 255
126 112 90
149 145 82
120 99 39
136 123 77
101 103 77
127 126 89
113 106 70
113 101 61
102 104 77
101 87 52
132 130 90
119 111 75
140 126 76
140 137 94
155 149 93
139 134 90
118 116 80
110 110 84
118 113 63
146 141 92
125 119 75
149 147 99
160 157 105
153 148 95
137 130 84
156 148 96
117 120 87
157 154 99
143 143 88
150 147 88
162 154 97
126 129 88
158 152 100
163 157 99
163 158 97
158 156 105
148 144 89
161 155 100
174 171 114
147 143 95
163 159 95
169 165 108
142 141 97
152 148 93
149 147 84
171 165 108
160 157 102
173 169 107
162 155 96
168 165 101
177 172 108
153 149 95
172 169 108
174 170 108
176 172 114
157 152 92
168 163 99
173 168 95
174 170 108
171 165 102
167 162 99
164 162 88
179 172 108
177 170 102
174 164 101
173 168 95
172 169 108
171 165 108
173 170 108
181 174 114
178 172 108
176 171 108
184 175 108
169 161 95
174 169 102
173 166 97
165 162 99
179 172 108
163 160 95
166 163 102
173 169 102
175 171 108
167 163 102
175 166 108
163 157 81
171 166 88
181 173 108
162 157 88
165 154 80
187 177 114
167 163 80
175 172 114
179 171 95
170 163 102
165 159 88
164 157 72
178 171 102
171 166 88
176 170 102
169 162 82
174 166 102
170 158 102
167 161 88
174 166 102
157 151 88
169 167 102
176 165 103
179 172 102
167 161 82
165 154 80
163 151 96
169 160 97
179 171 102
163 153 72
181 173 102
175 165 95
170 164 102
162 154 95
178 169 88
152 147 72
169 160 88
164 156 102
159 152 88
172 164 102
168 159 97
183 172 103
175 170 102
161 156 95
176 168 102
179 172 102
176 170 102
176 167 102
172 164 102
150 143 88
169 155 95
163 156 95
167 152 82
180 169 97
175 167 95
158 151 88
172 161 75
175 164 91
151 142 72
156 145 62
179 166 88
187 205 228
189 206 228
190 206 228
187 205 228
188 205 228
191 207 228
186 204 228
185 204 228
185 203 228
190 206 228
189 206 228
190 206 228
184 203 228
189 206 228
189 206 228
191 207 228
184 203 228
188 205 228
187 204 228
188 205 228
189 206 228
185 203 228
187 205 228
185 204 228
186 204 228
186 204 228
189 206 228
189 206 228
184 203 228
186 204 228
187 205 228
186 204 228
186 204 228
186 204 228
185 203 228
184 203 228
188 205 228
184 203 228
184 203 228
187 205 228
185 203 228
183 202 228
187 205 228
184 203 228
184 203 228
184 203 228
186 204 228
182 202 228
184 203 228
185 203 228
184 203 228
186 204 228
185 204 228
185 204 228
185 204 228
182 202 228
182 202 228
183 203 228
185 203 228
181 201 228
182 202 228
182 202 228
183 203 228
184 203 228
182 202 228
184 203 228
183 202 228
186 204 228
182 202 228
183 202 228
182 202 228
183 202 228
181 201 228
183 202 228
185 203 228
181 201 228
185 203 228
181 202 228
179 200 228
181 202 228
182 202 228
182 202 228
181 201 228
180 201 228
179 200 228
181 202 228
182 202 228
181 201 228
181 201 228
180 201 228
182 202 228
183 202 228
179 200 228
180 201 228
182 202 228
181 201 228
182 202 228
184 203 228
181 201 228
179 200 228
179 200 228
182 202 228
183 202 228
183 202 228
181 201 228
181 201 228
179 200 228
182 202 228
184 203 228
180 201 228
177 199 228
181 201 228
179 200 228
169 191 223
181 202 228
172 193 223
176 198 228
131 153 183
163 184 217
160 183 217
143 165 198
143 165 204
140 162 191
151 173 204
140 163 204
75 102 144
139 161 198
129 153 196
118 142 188
117 140 187
117 142 190
75 103 153
106 129 178
105 127 166
107 130 180
104 125 172
77 102 161
141 163 201
153 174 209
121 143 187
154 173 204
159 176 203
183 203 228
186 204 228
183 199 221
212 228 251
216 233 255
216 233 255
216 233 255
216 233 255
216 232 255
182 199 228
60 95 140
61 97 161
60 96 159
52 81 92
61 95 155
57 92 114
61 96 171
58 92 137
57 92 137
58 92 147
57 90 137
62 97 157
60 96 165
60 95 151
59 95 159
59 95 167
64 99 161
60 94 137
57 92 149
61 96 137
59 94 125
62 96 149
58 93 127
62 98 161
57 92 111
60 96 151
64 101 181
58 94 127
61 96 140
60 96 151
60 96 151
63 99 161
65 101 171
64 98 151
58 92 140
63 98 161
60 96 151
62 97 151
62 98 151
58 94 127
61 97 151
61 97 151
59 95 140
59 94 151
61 96 127
58 93 151
62 98 151
65 101 181
61 97 151
59 94 127
64 98 161
59 94 127
61 97 140
59 95 140
61 95 151
64 100 171
63 99 161
56 90 127
61 96 151
61 96 140
58 92 127
61 98 161
61 97 161
60 96 140
58 92 140
63 97 171
60 95 140
61 95 151
63 100 181
63 99 161
63 98 161
61 96 161
64 99 151
61 97 151
62 98 161
64 101 181
61 95 161
58 91 114
63 99 161
61 96 140
58 92 142
56 88 114
57 89 134
60 94 151
48 76 99
54 84 127
61 95 163
61 93 133
61 97 151
62 94 144
61 93 153
57 89 130
62 95 163
59 94 153
56 82 122
56 88 133
195 213 242
216 232 255
216 232 255
216 232 255
216 233 255
216 233 255
189 203 217
156 139 80
122 117 71
127 116 67
142 127 68
146 141 90
132 122 75
125 126 86
100 97 66
124 119 82
133 133 93
64 69 45
123 119 75
87 97 74
115 98 36
110 107 70
124 116 76
131 124 82
115 115 76
147 145 96
134 135 89
132 128 85
147 148 99
159 155 99
139 140 93
137 140 99
140 138 93
160 158 105
162 158 105
143 138 92
159 156 105
134 127 75
157 154 96
145 145 95
164 161 96
132 132 86
154 151 87
159 155 99
150 152 102
164 160 84
159 156 99
121 126 85
159 156 99
157 154 95
173 166 97
170 164 104
169 163 95
150 144 84
166 163 102
168 162 96
173 167 108
159 159 95
179 173 113
165 157 95
159 158 88
170 165 105
165 159 87
157 155 95
160 158 88
160 159 92
178 170 109
180 171 109
169 164 102
167 162 102
180 171 101
186 177 114
174 164 94
175 166 90
174 169 107
176 165 97
178 170 95
162 157 94
173 169 102
169 163 102
166 158 91
184 175 108
176 171 108
170 163 102
170 163 102
173 167 111
172 166 105
172 161 82
179 173 108
172 166 88
174 163 88
172 166 102
171 164 88
177 167 96
174 166 108
178 171 102
175 168 102
173 169 108
179 172 102
178 172 108
164 160 95
170 167 95
171 167 95
170 162 95
176 160 97
173 167 88
167 161 80
164 160 95
170 168 108
170 165 80
165 153 82
175 168 103
171 162 97
175 165 102
168 154 88
185 175 108
173 164 95
162 155 88
175 167 108
161 154 80
177 169 95
168 159 82
177 168 97
168 164 88
178 169 102
166 161 88
173 166 97
180 172 102
179 173 114
170 163 88
161 148 88
167 161 95
154 142 72
180 167 95
170 164 108
157 153 102
165 160 95
167 161 95
170 163 102
153 149 80
163 151 63
170 161 88
167 161 103
157 146 75
182 170 97
175 164 90
181 172 95
167 160 88
175 169 95
178 167 88
165 160 95
167 161 88
189 206 228
187 205 228
191 207 228
188 205 228
187 204 228
188 205 228
188 205 228
190 206 228
188 205 228
186 204 228
189 206 228
188 205 228
191 207 228
191 207 228
188 205 228
189 205 228
190 206 228
184 203 228
189 206 228
190 206 228
186 204 228
187 205 228
187 205 228
187 205 228
189 205 228
189 206 228
187 205 228
184 203 228
186 204 228
188 205 228
187 204 228
185 203 228
185 203 228
190 206 228
192 207 228
188 205 228
185 203 228
185 203 228
185 204 228
184 203 228
186 204 228
187 204 228
185 204 228
185 203 228
186 204 228
187 205 228
184 203 228
182 202 228
187 205 228
185 204 228
185 203 228
185 204 228
184 203 228
186 204 228
184 203 228
186 204 228
186 204 228
186 204 228
184 203 228
181 201 228
185 204 228
184 203 228
183 203 228
184 203 228
182 202 228
181 202 228
183 202 228
185 203 228
183 202 228
179 200 228
185 203 228
184 203 228
182 202 228
184 203 228
186 204 228
183 203 228
180 201 228
183 202 228
183 202 228
184 203 228
187 205 228
180 201 228
182 202 228
183 203 228
179 200 228
182 202 228
183 202 228
182 202 228
184 203 228
183 202 228
181 201 228
181 201 228
182 202 228
185 204 228
181 201 228
181 201 228
182 202 228
182 202 228
179 200 228
181 201 228
182 202 228
179 200 228
181 201 228
183 202 228
182 202 228
182 202 228
178 200 228
180 201 228
179 200 228
181 201 228
184 203 228
179 200 228
180 201 228
179 200 228
163 183 211
164 184 217
174 194 223
152 174 211
141 163 198
172 193 223
130 153 196
160 182 211
119 142 181
141 162 199
140 163 203
140 164 204
118 142 183
105 127 163
107 131 181
127 149 184
77 105 166
117 139 181
106 132 184
90 113 159
93 118 172
119 142 183
52 85 156
92 116 169
142 162 197
119 139 178
122 144 183
164 183 211
187 205 228
189 206 228
173 190 212
192 207 229
216 233 255
216 233 255
216 233 255
216 233 255
216 233 255
108 131 187
45 75 120
59 93 161
59 93 161
56 90 129
60 95 149
60 95 165
56 88 147
58 92 140
61 94 151
64 99 167
60 94 161
60 93 151
60 93 137
58 92 163
56 91 127
59 94 137
59 94 114
57 91 140
61 96 155
60 96 151
62 97 151
58 94 171
58 93 114
59 94 127
58 94 149
57 89 114
62 98 151
62 97 140
62 97 151
62 98 159
60 94 140
62 97 151
62 97 171
59 93 149
62 98 151
64 99 161
61 96 151
60 96 151
63 100 171
64 100 171
60 96 151
60 94 114
64 100 161
64 100 161
62 97 140
60 94 151
58 92 140
60 96 151
61 96 161
60 96 151
58 93 151
65 101 161
62 99 171
62 98 151
56 89 140
62 98 151
60 94 151
62 99 171
59 94 127
62 96 127
58 94 140
60 96 151
64 99 161
63 100 181
61 97 151
61 97 151
61 94 130
64 100 171
63 99 161
58 91 127
58 92 140
60 93 142
59 93 151
62 97 161
64 99 151
62 98 161
60 94 151
58 92 154
63 97 151
61 96 153
61 95 155
60 97 161
52 83 114
56 91 99
59 94 140
58 90 105
61 94 140
57 90 127
61 95 153
56 89 142
55 86 130
59 91 151
60 92 144
51 78 118
59 91 140
58 88 142
172 191 228
216 233 255
216 233 255
216 233 255
216 233 255
216 233 255
185 184 163
125 110 69
138 135 85
119 111 70
124 120 79
141 123 71
104 98 62
119 118 84
125 120 81
105 105 80
135 128 85
114 103 63
136 133 88
119 116 63
115 115 84
128 130 93
101 107 77
97 97 64
132 128 83
90 95 76
118 112 62
118 122 85
97 101 63
136 134 78
139 133 77
137 131 87
140 138 93
138 138 93
142 138 86
116 119 78
167 163 108
154 147 89
135 134 87
155 153 99
155 148 92
137 138 97
161 154 87
135 134 80
157 154 92
168 162 105
148 144 95
140 140 73
159 154 92
170 166 111
137 135 75
162 156 87
151 147 86
165 163 88
155 152 92
180 172 102
170 163 102
168 164 102
130 129 92
169 161 89
171 167 95
166 163 102
173 164 95
185 175 113
183 174 108
170 167 102
165 158 95
172 166 108
163 160 92
175 170 108
162 158 96
159 152 83
176 168 102
177 172 108
162 157 97
181 172 102
170 165 102
173 167 88
176 169 109
174 165 102
173 166 105
180 172 102
158 151 80
174 168 95
176 169 95
185 176 114
175 168 103
176 169 95
177 172 108
173 167 88
182 175 114
174 169 102
177 168 108
171 165 102
170 164 90
170 165 88
179 172 108
175 170 102
179 170 103
181 174 108
180 172 102
170 162 88
176 167 108
181 173 108
164 160 62
181 172 102
151 145 88
179 171 95
175 166 102
166 163 80
165 154 88
174 169 102
186 176 108
167 165 95
166 158 82
170 162 88
171 167 95
171 164 102
170 163 96
172 168 95
171 163 80
164 158 90
162 147 82
174 167 102
175 170 102
163 158 82
174 164 88
172 164 102
186 177 114
168 156 89
153 145 62
136 130 72
173 169 102
172 165 95
167 161 80
159 151 97
163 152 90
165 155 96
163 158 88
171 163 62
161 153 74
179 172 108
152 142 72
174 167 88
171 162 88
179 171 95
180 170 102
167 156 95
135 123 62
144 135 51
169 163 95
168 160 80
193 208 228
188 205 228
191 207 228
189 206 228
187 205 228
187 204 228
190 206 228
190 206 228
192 207 228
184 203 228
189 206 228
187 205 228
188 205 228
187 204 228
185 203 228
189 206 228
186 204 228
190 206 228
189 206 228
187 205 228
189 205 228
189 205 228
188 205 228
190 206 228
187 205 228
186 204 228
187 205 228
188 205 228
186 204 228
188 205 228
186 204 228
186 204 228
185 204 228
187 205 228
185 204 228
187 204 228
186 204 228
186 204 228
187 205 228
184 203 228
184 203 228
182 202 228
187 205 228
189 206 228
187 204 228
189 206 228
186 204 228
188 205 228
186 204 228
181 201 228
187 205 228
186 204 228
186 204 228
187 205 228
187 205 228
185 203 228
189 205 228
187 205 228
185 204 228
185 204 228
184 203 228
186 204 228
187 205 228
187 204 228
186 204 228
183 203 228
186 204 228
183 202 228
185 203 228
183 202 228
183 203 228
184 203 228
183 202 228
184 203 228
185 204 228
185 203 228
181 202 228
181 201 228
181 201 228
185 203 228
186 204 228
180 201 228
183 202 228
185 203 228
183 203 228
185 203 228
183 203 228
185 203 228
183 202 228
181 201 228
184 203 228
183 202 228
183 202 228
184 203 228
180 201 228
182 202 228
185 204 228
182 202 228
185 203 228
180 201 228
181 202 228
181 202 228
182 202 228
182 202 228
182 202 228
180 201 228
185 203 228
182 202 228
182 202 228
181 201 228
181 201 228
182 202 228
163 184 217
181 201 228
173 193 223
151 173 204
144 165 198
161 182 211
141 163 196
169 190 219
142 164 196
133 154 195
120 143 184
141 164 204
106 130 174
93 117 142
105 130 177
91 117 168
76 102 151
105 130 175
74 101 150
77 104 166
73 98 158
50 81 151
72 97 157
49 77 141
106 129 177
93 118 165
119 138 177
119 140 182
144 165 202
107 126 162
146 166 202
157 175 207
185 202 226
180 197 214
205 221 242
216 233 255
216 233 255
216 233 255
206 223 249
83 106 149
55 87 155
57 90 111
54 88 139
54 87 132
56 89 133
63 99 171
56 91 122
59 93 140
61 96 127
61 96 127
58 91 147
58 94 137
62 97 149
64 100 179
61 97 151
58 92 99
63 99 161
62 97 151
61 96 149
63 99 161
60 96 140
62 97 157
56 90 125
60 94 158
63 99 161
60 96 140
56 90 140
59 94 140
63 98 151
62 97 140
57 89 127
62 99 171
61 95 125
63 99 161
57 92 140
59 93 151
63 99 161
63 98 151
61 97 151
63 99 161
62 98 161
63 98 151
61 95 161
60 96 140
61 97 161
57 91 127
57 90 127
62 97 151
60 95 127
57 91 127
63 99 171
59 94 151
64 99 161
63 99 171
63 99 161
62 98 161
61 95 142
59 95 127
61 95 114
59 93 151
59 96 151
60 92 151
61 97 151
59 93 130
61 96 140
63 99 161
60 96 140
57 90 114
62 95 144
62 97 140
58 92 117
61 95 151
61 97 140
61 95 151
63 100 171
63 98 151
58 91 120
62 97 162
58 95 151
63 97 142
60 95 151
61 93 151
57 91 140
59 91 151
58 90 130
63 97 153
57 92 127
55 84 142
56 84 130
58 90 142
61 94 140
60 96 151
55 81 120
59 91 142
55 82 108
50 77 121
80 93 96
206 222 244
216 233 255
216 233 255
216 233 255
215 228 245
136 126 51
140 125 70
131 115 61
111 106 74
144 128 75
147 140 92
119 103 59
122 118 76
113 108 77
80 78 58
129 127 89
128 126 88
115 111 71
67 75 48
124 113 66
97 94 72
113 115 82
129 125 83
133 128 85
101 99 73
149 146 89
118 117 81
113 120 93
147 142 96
154 150 99
133 132 93
133 125 74
125 121 72
161 158 88
170 160 96
141 138 94
158 152 95
146 147 95
158 155 99
107 109 73
147 144 81
163 159 108
138 134 83
165 163 105
147 147 96
138 139 99
153 146 97
165 161 102
160 157 102
157 156 102
177 171 102
146 145 84
164 160 103
158 157 105
165 160 100
177 172 114
156 152 92
158 152 95
175 171 108
162 156 99
169 162 108
170 163 88
182 173 102
170 163 92
173 165 102
178 168 95
168 162 95
168 164 107
178 169 103
171 163 95
170 164 97
168 164 97
176 169 101
158 150 72
172 165 102
169 166 95
174 169 102
178 172 108
178 171 102
175 170 102
169 166 95
180 171 95
176 169 95
177 171 112
176 169 103
181 173 102
175 169 101
158 152 74
175 167 80
187 177 114
171 167 95
172 163 80
164 160 80
176 169 88
176 169 95
179 172 102
174 166 97
173 169 102
171 166 102
189 178 114
170 160 81
179 172 108
168 164 88
176 168 103
168 159 82
173 165 102
166 159 88
176 170 102
180 169 97
174 170 108
171 168 102
167 156 88
176 163 103
170 164 102
165 151 74
158 150 72
180 173 108
168 160 88
171 163 95
166 157 88
177 167 108
174 167 88
162 156 72
171 163 80
171 164 102
164 160 95
168 159 90
152 139 80
172 166 88
169 161 88
178 165 103
161 140 82
179 170 95
173 166 95
167 155 74
156 142 74
177 166 95
162 153 84
170 164 72
165 159 88
169 159 96
163 145 82
168 158 95
155 143 82
180 170 102
159 152 81
152 144 74
167 161 95
167 162 102
162 156 90
153 147 53
192 207 228
190 206 228
193 208 228
189 206 228
191 207 228
188 205 228
190 206 228
187 205 228
190 206 228
190 206 228
193 208 228
192 208 228
188 205 228
188 205 228
189 206 228
189 206 228
189 206 228
188 205 228
187 205 228
191 207 228
189 205 228
187 205 228
187 205 228
187 205 228
191 207 228
190 206 228
184 203 228
191 207 228
188 205 228
186 204 228
187 204 228
187 205 228
186 204 228
186 204 228
186 204 228
186 204 228
190 206 228
185 204 228
187 204 228
191 207 228
188 205 228
188 205 228
186 204 228
191 207 228
186 204 228
185 204 228
188 205 228
184 203 228
188 205 228
182 202 228
190 206 228
186 204 228
183 203 228
185 203 228
189 206 228
188 205 228
185 204 228
186 204 228
185 204 228
189 206 228
185 203 228
182 202 228
185 204 228
185 204 228
186 204 228
187 205 228
183 203 228
187 205 228
183 203 228
191 207 228
185 203 228
183 202 228
185 204 228
187 204 228
187 205 228
189 205 228
186 204 228
181 201 228
181 202 228
182 202 228
183 202 228
184 203 228
184 203 228
179 200 228
184 203 228
182 202 228
185 204 228
183 203 228
184 203 228
184 203 228
185 203 228
183 203 228
183 203 228
184 203 228
186 204 228
184 203 228
184 203 228
183 202 228
184 203 228
182 202 228
185 204 228
185 203 228
181 201 228
182 202 228
183 203 228
183 202 228
183 202 228
182 202 228
185 203 228
183 202 228
183 202 228
183 202 228
179 200 228
172 193 223
170 191 217
144 165 191
153 174 211
141 163 191
131 153 184
130 153 184
132 152 175
145 165 191
93 118 168
93 118 153
107 131 183
130 153 190
120 143 190
92 117 160
75 102 142
73 99 151
52 83 151
54 86 155
48 78 141
52 82 150
52 84 141
74 102 163
39 66 127
74 101 156
86 105 145
91 114 166
88 105 144
120 139 174
138 157 195
159 175 201
148 167 200
178 193 212
199 215 237
217 233 255
217 233 255
217 233 255
196 213 242
45 74 108
58 92 153
60 95 165
61 96 169
63 98 161
57 90 114
58 91 147
59 94 140
60 96 149
65 100 161
57 92 125
58 93 155
58 93 137
57 91 114
61 96 149
60 95 161
62 95 151
62 97 157
59 94 149
60 95 137
60 95 127
63 98 140
62 97 149
60 95 161
62 97 151
60 94 140
59 95 140
59 94 140
62 97 151
58 94 127
61 97 140
63 99 171
61 96 140
62 98 151
61 96 161
62 98 161
63 97 140
62 97 151
55 89 114
65 100 151
61 96 137
58 91 114
59 96 151
63 100 171
59 95 140
63 98 151
61 93 130
66 101 161
65 100 161
63 98 151
62 98 161
63 99 161
62 97 140
64 99 151
61 97 151
64 100 161
60 95 114
63 99 171
63 99 171
61 98 171
61 96 171
59 94 127
61 96 140
63 99 161
64 101 171
60 94 151
63 98 151
59 94 127
62 98 151
63 98 163
58 92 127
60 96 151
60 95 151
61 96 140
61 97 151
61 98 161
61 97 151
63 98 161
64 100 171
62 96 142
57 91 114
56 87 117
59 92 140
63 97 153
58 90 127
60 94 142
58 91 127
47 72 114
61 97 161
62 96 142
63 97 151
62 95 155
50 80 114
53 81 117
61 94 144
55 87 130
55 84 110
45 69 94
206 221 242
217 233 255
217 233 255
217 233 255
152 144 125
107 93 52
106 91 52
134 127 82
126 124 86
71 66 55
117 106 61
103 105 74
103 100 69
134 127 84
107 103 70
80 75 47
83 79 59
127 127 87
111 109 74
142 140 84
100 98 54
85 91 72
151 149 102
115 117 82
141 139 92
135 130 87
125 127 85
116 115 73
102 105 75
149 145 97
136 135 85
145 143 93
152 148 92
98 101 69
145 141 96
150 148 99
142 140 89
142 138 92
130 133 95
162 157 102
146 146 95
153 150 90
141 137 78
158 154 99
178 170 108
165 163 88
141 141 96
157 153 90
157 154 92
147 144 88
167 160 105
160 158 108
175 169 95
148 145 95
173 165 108
150 148 92
152 151 96
157 155 99
146 143 88
178 172 108
164 161 95
169 163 95
157 154 92
157 153 88
171 168 102
172 168 102
178 171 102
182 175 114
171 168 102
169 161 88
178 170 95
165 160 95
167 160 74
173 168 95
177 169 95
172 161 97
171 164 90
161 155 70
186 176 108
159 154 88
177 170 95
180 172 102
157 154 92
178 171 102
162 160 79
174 166 102
178 172 108
166 160 95
179 172 108
186 176 108
173 164 102
174 169 102
181 174 108
185 176 114
175 169 95
158 154 62
173 164 95
184 175 114
170 164 95
165 156 96
178 172 108
164 158 64
181 171 103
174 163 91
168 160 97
173 162 88
161 154 62
168 157 95
175 169 95
176 166 90
175 169 95
181 174 114
178 168 97
176 168 97
166 165 95
171 160 88
174 163 88
168 162 97
169 164 80
171 158 90
172 155 85
162 161 80
181 173 108
160 157 88
165 160 95
181 169 104
168 157 74
182 171 103
174 169 102
162 154 64
174 163 88
171 164 88
164 152 74
161 152 72
180 172 102
168 156 74
166 164 88
160 153 51
168 164 80
173 164 102
174 167 102
163 154 74
165 158 81
155 147 80
168 163 88
156 148 62
168 157 88
168 152 88
151 143 74
164 154 84
169 166 95
193 208 228
190 206 228
192 207 228
192 208 228
191 207 228
187 205 228
192 207 228
194 209 228
188 205 228
191 207 228
191 207 228
191 207 228
191 207 228
188 205 228
189 206 228
191 207 228
189 206 228
186 204 228
191 207 228
186 204 228
191 207 228
186 204 228
191 207 228
189 206 228
190 206 228
192 207 228
188 205 228
190 206 228
187 205 228
190 206 228
187 205 228
189 206 228
185 204 228
189 206 228
190 206 228
190 206 228
188 205 228
187 205 228
187 204 228
186 204 228
185 204 228
188 205 228
188 205 228
185 204 228
187 204 228
186 204 228
187 204 228
187 204 228
188 205 228
187 204 228
182 202 228
187 204 228
190 207 228
186 204 228
187 205 228
186 204 228
185 204 228
186 204 228
185 203 228
188 205 228
184 203 228
187 205 228
186 204 228
185 203 228
187 204 228
182 202 228
182 202 228
183 202 228
184 203 228
189 206 228
183 202 228
184 203 228
188 205 228
184 203 228
184 203 228
187 204 228
185 203 228
181 201 228
186 204 228
184 203 228
187 204 228
186 204 228
180 201 228
185 203 228
184 203 228
183 203 228
187 204 228
185 204 228
183 202 228
186 204 228
181 201 228
187 205 228
186 204 228
185 203 228
183 203 228
188 205 228
186 204 228
182 202 228
188 205 228
185 203 228
183 202 228
181 201 228
185 203 228
183 203 228
179 201 228
185 203 228
184 203 228
184 203 228
184 203 228
179 200 228
180 201 228
165 185 217
160 177 191
173 191 213
167 185 211
164 184 216
165 185 217
166 185 216
165 185 211
132 154 190
107 129 151
96 120 168
170 191 223
94 118 172
130 153 188
93 118 171
105 128 165
53 85 156
54 85 146
49 79 144
55 86 148
51 83 146
50 81 151
45 73 129
50 78 125
39 63 106
48 79 129
51 82 144
74 101 161
92 112 158
73 97 148
90 107 151
92 111 156
146 163 195
178 196 217
181 197 223
168 182 199
217 233 255
217 233 255
217 233 255
141 158 188
58 94 163
51 81 111
53 86 105
58 92 147
64 100 171
60 95 155
62 97 149
61 94 147
59 94 127
61 96 140
56 89 135
59 93 161
60 95 140
61 96 140
59 95 151
61 96 151
61 97 159
60 96 159
57 90 137
63 98 151
64 100 171
62 95 140
59 93 137
54 87 125
64 99 161
60 96 151
59 95 140
63 98 151
63 99 171
63 98 161
58 92 140
63 97 169
56 90 137
58 92 140
59 94 125
63 97 161
62 98 161
62 97 140
63 98 151
61 97 151
61 96 140
64 100 171
64 100 179
62 99 181
63 98 151
62 98 161
62 98 161
62 98 151
60 95 140
59 94 151
62 97 151
63 98 171
61 95 127
59 94 140
59 93 140
57 89 114
58 94 140
62 96 161
57 92 114
60 92 151
61 95 127
59 93 151
63 98 151
59 92 140
57 92 151
62 98 151
63 100 181
61 97 151
56 91 99
59 93 117
61 96 151
54 84 114
63 98 161
62 97 161
62 98 171
60 93 140
63 98 151
58 92 117
59 90 142
59 90 117
61 93 140
56 87 100
62 97 140
56 87 102
62 97 171
60 95 140
59 93 127
53 82 116
63 98 163
61 95 142
62 97 153
55 86 117
59 89 142
56 88 140
61 93 151
57 90 142
56 84 108
52 80 131
126 141 166
217 233 255
217 233 255
217 233 255
129 117 72
130 112 52
131 126 85
115 108 64
126 121 79
127 117 77
101 99 64
117 114 77
99 98 70
66 73 48
76 63 36
99 97 69
128 128 89
118 112 70
112 109 77
104 104 67
86 96 81
127 128 89
149 144 97
99 103 60
115 118 77
119 117 71
117 119 80
137 131 85
151 143 86
97 93 65
126 130 93
141 141 85
140 136 90
123 124 85
127 130 84
150 148 93
124 121 68
165 158 103
172 165 95
151 151 92
134 130 84
149 148 93
162 160 92
150 148 95
145 140 78
172 168 102
155 149 74
166 157 80
169 163 95
161 156 86
170 161 93
157 154 98
159 156 95
139 138 85
172 163 95
169 165 94
159 155 82
177 172 108
162 160 95
171 167 95
157 155 95
167 163 95
173 163 90
171 164 97
164 162 88
168 164 80
173 168 95
178 172 108
157 151 81
159 152 88
174 168 95
166 163 105
180 173 108
169 164 80
170 165 88
179 171 101
180 173 108
172 168 108
179 170 95
175 166 99
167 162 95
176 171 108
163 160 95
171 166 88
171 165 97
162 159 95
171 164 95
165 160 82
165 162 80
169 162 80
174 167 103
169 162 62
178 170 95
162 157 81
183 173 102
172 166 95
181 173 102
169 165 88
180 172 102
182 173 102
183 174 108
172 167 95
173 168 95
169 164 108
173 167 88
171 165 97
173 167 88
167 162 72
174 166 102
173 167 103
179 171 95
180 171 95
170 160 90
185 176 114
175 169 95
179 170 95
165 155 88
153 147 88
182 173 102
171 163 95
165 161 102
181 170 108
170 159 95
179 168 102
176 167 97
162 152 88
185 175 108
166 159 97
162 151 82
182 175 114
162 156 72
171 164 88
170 162 91
164 153 80
172 159 95
157 149 80
165 158 80
167 157 82
170 165 95
168 166 95
159 147 88
177 165 95
167 164 88
171 159 88
172 164 102
156 146 72
165 159 72
168 157 88
174 165 102
168 159 88
177 162 98
191 207 228
190 207 228
192 207 228
191 207 228
194 209 228
191 207 228
189 206 228
191 207 228
189 206 228
193 208 228
190 206 228
191 207 228
191 207 228
191 207 228
189 206 228
193 208 228
190 206 228
188 205 228
189 206 228
191 207 228
192 207 228
190 206 228
190 206 228
191 207 228
189 205 228
190 206 228
190 206 228
186 204 228
189 206 228
190 206 228
188 205 228
189 206 228
189 206 228
190 206 228
186 204 228
185 204 228
190 206 228
188 205 228
189 206 228
189 206 228
190 206 228
188 205 228
190 206 228
188 205 228
190 206 228
188 205 228
188 205 228
189 206 228
189 206 228
188 205 228
189 206 228
189 206 228
188 205 228
190 206 228
189 205 228
187 204 228
187 205 228
186 204 228
189 206 228
184 203 228
189 206 228
189 206 228
188 205 228
185 204 228
185 203 228
186 204 228
188 205 228
187 204 228
188 205 228
190 206 228
188 205 228
183 202 228
188 205 228
187 204 228
189 205 228
186 204 228
186 204 228
186 204 228
184 203 228
187 205 228
187 204 228
188 205 228
188 205 228
189 205 228
189 206 228
185 204 228
188 205 228
186 204 228
184 203 228
184 203 228
182 202 228
188 205 228
185 204 228
187 205 228
184 203 228
185 204 228
186 204 228
187 204 228
182 202 228
187 205 228
187 204 228
180 201 228
185 204 228
184 203 228
186 204 228
180 201 228
186 204 228
185 204 228
185 203 228
186 204 228
186 204 228
168 187 217
175 194 217
174 194 223
143 164 191
177 195 223
148 167 198
123 144 181
135 155 184
143 165 204
131 153 183
125 146 191
94 118 151
91 113 150
93 116 144
75 103 151
51 80 137
52 83 150
51 84 148
53 85 155
48 78 145
49 79 139
48 77 137
52 84 148
46 76 133
45 74 114
42 67 112
41 68 131
49 79 148
33 55 113
91 109 151
93 113 161
122 142 183
125 143 182
116 135 171
163 178 192
172 185 204
215 231 253
217 233 255
217 233 255
52 83 148
62 98 177
56 89 122
60 95 161
58 93 155
57 90 157
56 89 125
54 84 137
61 96 165
52 83 99
62 98 151
61 97 151
60 95 137
63 98 161
58 92 125
62 97 151
56 90 127
55 87 137
58 93 127
59 94 140
60 95 140
56 89 125
58 93 114
60 96 149
60 95 127
61 96 149
60 95 137
60 93 137
61 97 151
64 101 181
60 95 127
60 97 161
61 97 151
61 98 161
59 95 140
62 98 161
59 93 151
61 97 151
49 80 127
62 98 151
60 96 151
61 97 151
61 97 151
59 96 151
62 98 161
62 97 140
59 93 114
54 88 99
63 98 151
61 96 140
56 89 114
61 97 151
59 94 114
57 92 127
62 98 161
64 100 161
57 91 99
63 99 161
65 100 161
63 99 161
65 101 171
61 96 140
62 95 151
62 95 127
60 94 151
61 96 140
59 94 127
59 94 151
65 99 163
61 96 140
61 95 140
62 97 151
60 94 140
60 94 142
54 85 129
52 84 80
57 90 140
62 97 140
59 92 142
63 99 171
64 100 171
57 90 114
60 94 140
61 96 140
54 83 102
60 92 127
64 100 171
64 99 161
59 92 114
55 87 102
60 95 161
56 87 142
60 90 135
55 83 102
59 91 135
57 85 120
54 86 128
57 86 120
54 81 120
109 129 156
217 233 255
217 233 255
189 199 215
138 135 87
96 88 60
124 118 76
129 128 86
88 84 53
106 95 56
101 92 58
117 111 67
117 112 70
142 138 89
131 127 86
92 95 72
109 108 77
110 108 68
94 93 63
87 88 58
161 155 96
142 136 85
144 139 92
132 131 83
146 138 92
132 130 84
141 139 81
129 131 89
130 128 80
149 145 90
158 156 102
138 137 92
142 138 92
155 152 85
122 126 76
149 144 88
163 157 90
153 150 90
150 148 92
164 160 106
165 162 108
104 108 69
154 144 64
151 148 96
172 166 108
160 158 88
173 165 99
166 162 104
163 158 82
151 148 99
160 154 88
176 167 102
167 163 102
146 144 85
158 155 101
174 170 108
155 152 92
146 145 84
167 160 97
164 159 84
157 155 87
167 162 102
178 170 95
171 162 97
172 166 109
168 162 88
185 176 114
176 170 102
169 160 90
178 171 102
170 166 88
174 169 95
167 162 80
175 169 95
173 166 102
167 165 108
181 172 102
168 164 88
179 172 108
160 152 82
149 146 72
168 164 80
170 163 92
171 164 90
171 166 88
177 170 95
178 170 95
172 166 88
173 167 103
170 164 80
181 173 102
167 161 95
163 161 80
172 163 95
178 170 95
175 168 103
169 162 95
161 155 80
170 165 95
167 165 95
161 153 81
181 172 102
161 149 64
181 173 108
175 166 102
166 160 88
171 168 102
176 165 95
172 168 95
165 155 74
177 171 102
182 175 114
176 166 90
163 160 82
168 161 74
171 161 102
183 174 108
173 165 96
174 165 90
170 165 88
160 158 62
172 164 88
172 167 95
174 166 95
166 158 90
163 154 72
160 159 102
151 142 72
172 164 90
181 173 102
172 163 82
172 167 95
169 162 95
161 152 80
171 167 95
165 160 88
161 153 88
157 149 72
176 170 102
174 161 84
180 172 102
164 158 88
163 156 102
172 166 102
146 133 56
172 163 103
155 143 65
168 156 73
168 162 95
151 136 62
159 149 80
192 207 228
193 208 228
194 209 228
195 209 228
191 207 228
192 208 228
193 208 228
192 208 228
189 205 228
193 208 228
192 207 228
192 207 228
193 208 228
189 206 228
189 206 228
192 208 228
192 207 228
190 206 228
191 207 228
189 206 228
191 207 228
190 206 228
189 206 228
188 205 228
193 208 228
190 206 228
190 206 228
191 207 228
191 207 228
189 206 228
185 204 228
190 206 228
188 205 228
188 205 228
187 204 228
189 206 228
190 206 228
186 204 228
186 204 228
189 206 228
191 207 228
193 208 228
189 206 228
191 207 228
187 204 228
188 205 228
189 206 228
188 205 228
189 206 228
188 205 228
189 206 228
190 206 228
188 205 228
190 206 228
190 206 228
186 204 228
187 205 228
189 205 228
186 204 228
189 206 228
187 205 228
189 206 228
189 206 228
187 205 228
186 204 228
189 206 228
188 205 228
190 206 228
185 204 228
190 206 228
184 203 228
187 205 228
186 204 228
188 205 228
188 205 228
189 206 228
186 204 228
186 204 228
186 204 228
184 203 228
187 205 228
190 206 228
187 204 228
186 204 228
188 205 228
185 204 228
188 205 228
186 204 228
186 204 228
188 205 228
186 204 228
189 205 228
189 206 228
183 203 228
181 201 228
186 204 228
186 204 228
187 204 228
182 202 228
187 204 228
186 204 228
184 203 228
184 203 228
184 203 228
184 203 228
185 204 228
185 203 228
184 203 228
188 205 228
183 202 228
178 196 217
166 185 217
185 204 228
158 177 211
148 168 204
166 185 211
157 177 211
157 176 209
108 132 177
98 121 175
147 167 204
77 105 160
95 119 169
54 87 151
107 128 169
76 101 150
55 87 153
53 84 141
48 77 134
51 80 140
49 79 137
51 80 131
48 78 133
52 82 137
47 75 124
55 87 156
45 71 122
46 74 123
49 80 135
44 70 127
46 74 137
43 71 127
73 93 144
149 164 192
133 150 182
162 177 204
177 192 212
187 201 210
218 233 255
197 214 242
62 96 157
59 95 165
52 84 137
62 98 169
61 97 157
59 92 159
60 95 151
57 91 157
61 96 149
63 98 169
60 95 140
57 92 149
60 95 155
63 99 179
60 95 147
62 97 149
57 91 140
59 94 127
60 96 157
62 97 159
64 99 161
57 92 127
56 91 114
62 97 151
59 94 140
61 96 140
61 96 140
61 97 159
57 91 114
63 98 151
63 98 159
60 94 151
60 95 140
62 97 151
58 92 151
62 98 161
62 98 161
59 94 127
59 95 140
60 96 151
59 93 140
57 92 99
60 96 140
63 98 159
61 96 140
60 93 127
64 99 151
59 95 127
62 95 140
55 88 127
62 97 140
62 97 151
60 96 140
61 95 151
61 96 140
64 100 171
58 94 127
59 94 151
63 98 151
61 97 140
60 96 140
60 94 140
59 93 142
61 95 140
61 96 140
62 98 151
62 97 153
62 98 161
60 95 127
58 89 130
58 93 114
61 94 151
61 95 127
59 94 161
53 83 114
62 97 140
59 91 127
62 97 153
58 92 117
67 103 181
55 88 114
58 91 114
62 98 151
60 92 151
59 93 142
61 95 155
56 88 140
64 99 163
62 96 151
58 92 140
59 90 130
53 82 117
59 90 130
59 93 151
54 85 114
61 94 142
54 83 114
58 90 142
54 83 140
51 75 72
196 212 237
218 233 255
186 187 186
117 100 57
114 108 63
116 104 72
63 69 52
118 107 65
73 74 48
87 86 59
86 92 64
112 109 67
99 94 64
106 105 68
130 129 84
124 125 73
102 100 71
142 136 82
138 135 92
113 115 68
139 131 75
122 127 88
116 121 85
136 130 85
152 143 87
145 145 88
113 116 77
149 149 89
120 120 77
125 126 82
128 124 68
153 151 102
120 124 72
146 145 84
150 150 99
143 141 81
133 131 65
118 120 88
113 116 80
145 144 84
162 155 95
159 156 103
174 169 102
169 163 80
154 154 102
157 155 105
161 156 99
158 155 92
165 157 88
161 158 95
160 155 95
152 149 95
161 158 90
162 157 99
156 153 88
170 164 95
169 164 102
184 174 102
169 164 99
167 162 99
171 161 97
165 156 93
178 170 95
167 155 81
171 164 104
182 171 103
164 161 95
157 155 51
171 164 99
176 170 102
179 172 108
173 167 88
179 171 95
178 171 102
173 164 96
172 169 108
173 163 80
172 167 102
171 160 96
175 169 95
176 168 102
170 165 80
165 158 95
163 159 95
176 169 95
149 146 62
179 171 102
181 173 108
177 171 102
172 167 88
177 171 108
175 165 95
169 160 102
163 160 82
171 162 81
181 173 108
157 151 80
179 171 102
177 165 88
184 175 108
174 168 95
170 163 95
172 165 90
159 157 51
172 166 88
175 166 102
179 171 95
163 152 75
166 160 88
173 165 95
169 160 82
173 162 102
171 167 95
176 166 95
171 167 95
175 169 95
180 173 108
174 166 95
174 168 95
168 163 72
166 153 97
171 162 95
169 160 80
175 169 95
165 157 72
164 153 80
173 164 82
166 160 95
171 167 95
164 154 88
172 167 95
155 144 74
159 155 72
171 163 82
167 161 88
184 173 108
168 157 88
149 141 72
173 164 95
164 152 81
178 172 108
170 164 90
169 157 91
158 150 80
132 112 16
169 164 95
163 155 62
172 160 90
175 167 97
174 164 95
192 206 217
193 208 228
192 207 228
187 204 217
193 208 228
190 206 228
192 207 228
193 208 228
193 208 228
190 206 228
188 205 228
193 208 228
190 206 228
194 208 228
191 207 228
192 207 228
188 205 228
190 206 228
191 207 228
191 207 228
188 205 228
190 206 228
193 208 228
191 207 228
193 208 228
188 205 228
191 207 228
188 205 228
189 206 228
189 205 228
188 205 228
193 208 228
192 207 228
191 207 228
188 205 228
190 206 228
190 206 228
192 207 228
188 205 228
191 207 228
187 205 228
190 206 228
191 207 228
187 204 228
187 205 228
190 207 228
191 207 228
189 206 228
190 206 228
186 204 228
185 204 228
192 207 228
189 206 228
188 205 228
191 207 228
188 205 228
190 206 228
189 206 228
189 206 228
190 206 228
188 205 228
190 206 228
188 205 228
188 205 228
186 204 228
186 204 228
188 205 228
191 207 228
188 205 228
186 204 228
189 206 228
187 205 228
190 206 228
188 205 228
189 206 228
188 205 228
188 205 228
187 205 228
191 207 228
186 204 228
189 206 228
190 206 228
187 205 228
188 205 228
186 204 228
188 205 228
192 207 228
190 206 228
188 205 228
191 207 228
184 203 228
184 203 228
187 205 228
188 205 228
186 204 228
186 204 228
188 205 228
185 203 228
186 204 228
188 205 228
188 205 228
187 205 228
187 205 228
189 206 228
185 203 228
184 203 228
189 206 228
189 206 228
183 203 228
185 203 228
182 196 217
185 204 228
169 187 217
184 200 219
147 165 191
157 176 198
176 195 217
134 155 196
145 161 186
134 155 190
119 141 177
94 117 135
134 155 190
95 119 161
53 85 142
94 118 160
54 85 133
53 85 155
53 84 144
47 76 129
42 68 120
49 79 144
53 84 139
46 75 107
47 76 134
52 83 141
49 79 132
43 71 125
44 70 113
46 75 134
39 64 120
45 73 133
67 84 131
91 110 156
109 127 166
155 172 200
181 196 220
197 212 224
218 234 255
208 223 248
58 92 161
57 91 160
51 81 133
52 84 144
58 92 156
60 97 161
61 96 149
60 95 140
56 92 137
55 88 137
61 96 161
59 92 137
61 96 151
63 98 169
60 94 135
58 92 114
56 90 127
61 94 151
60 95 137
56 87 127
58 92 127
59 92 127
59 92 127
62 97 140
57 93 127
59 93 151
61 97 159
62 98 151
59 94 135
60 95 127
59 94 127
63 98 151
61 96 161
60 95 151
59 94 127
66 103 181
63 97 151
61 96 127
61 95 127
61 97 151
63 98 151
60 96 151
60 95 151
59 94 114
61 97 151
61 96 140
62 96 114
58 91 127
62 97 140
63 98 151
63 99 161
58 91 127
62 97 151
64 100 161
61 94 140
57 92 114
62 96 171
59 93 127
61 96 140
61 97 151
62 97 151
63 99 161
60 95 127
61 96 127
60 95 140
63 96 142
61 97 151
63 98 151
59 94 127
61 96 140
62 98 161
57 90 140
55 87 84
58 91 117
61 96 140
56 88 102
62 98 161
63 98 151
63 99 161
60 95 140
56 90 114
59 93 140
55 81 68
58 89 102
60 95 127
60 93 151
60 92 130
57 90 105
58 86 133
62 97 140
59 93 144
61 97 151
59 90 142
59 92 142
57 89 133
55 82 102
61 94 140
53 80 103
54 83 122
52 82 130
208 223 244
218 234 255
124 111 57
124 117 69
134 123 75
90 85 57
100 96 62
83 76 45
124 105 57
115 114 79
100 91 58
109 110 75
99 90 59
82 82 50
135 133 89
102 102 70
72 84 70
97 90 50
127 126 78
122 117 74
101 108 82
151 148 93
126 125 81
104 108 77
154 151 97
118 118 78
120 115 57
113 106 65
141 139 86
139 135 92
148 145 88
127 122 70
142 142 95
120 123 77
138 136 92
133 133 81
160 156 99
173 168 102
171 166 111
159 153 99
151 150 85
166 159 99
167 162 92
150 147 84
156 152 83
180 172 102
137 133 91
158 154 88
157 155 99
141 139 85
168 162 92
178 171 102
159 155 99
160 156 95
137 137 76
148 145 80
168 157 92
163 159 105
179 173 113
174 166 88
166 158 82
176 170 102
177 170 102
177 170 102
170 164 102
173 168 95
159 151 80
175 168 88
172 168 102
146 142 76
178 169 88
174 168 95
175 168 95
175 168 88
165 157 82
176 169 103
168 162 88
174 169 102
171 163 92
177 170 102
174 169 102
167 161 82
157 150 62
168 164 80
175 165 96
174 169 102
169 163 88
173 167 88
171 164 102
164 152 74
143 135 80
184 174 102
175 169 95
177 167 95
169 164 80
179 173 108
168 160 88
176 170 102
178 171 102
184 174 102
163 159 62
173 165 102
168 158 75
176 168 88
163 158 88
173 168 95
174 168 95
173 166 97
171 166 88
182 174 108
175 164 88
166 159 88
165 160 80
179 172 108
174 168 95
166 160 95
179 171 102
160 158 88
164 157 90
171 167 95
172 164 88
178 169 103
171 165 80
169 159 95
175 169 95
165 162 80
169 163 102
167 159 90
181 173 108
178 171 102
180 169 97
175 168 88
149 135 67
162 157 80
175 170 102
164 158 80
177 172 108
172 162 88
173 162 88
160 147 82
170 161 102
170 158 88
171 166 88
155 149 90
178 166 80
167 161 95
167 162 72
176 169 95
159 146 80
159 151 81
188 204 217
192 207 228
193 208 228
192 207 228
191 207 228
192 207 228
193 208 228
195 209 228
193 208 228
189 206 228
189 205 217
196 210 228
192 207 217
195 209 228
192 207 228
185 203 217
193 208 228
190 206 228
190 206 228
192 207 228
195 209 228
191 207 228
192 208 228
194 208 228
191 207 228
193 208 228
192 208 228
194 209 228
192 207 228
192 207 228
191 207 228
190 206 228
192 207 228
197 210 228
190 206 228
190 206 228
189 206 228
193 208 228
190 206 228
188 205 228
191 207 228
192 207 228
191 207 228
190 206 228
190 206 228
193 208 228
191 207 228
192 207 228
191 207 228
191 207 228
189 206 228
189 206 228
188 205 228
193 208 228
190 206 228
187 205 228
189 206 228
188 205 228
192 207 228
190 206 228
188 205 228
187 205 228
190 206 228
188 205 228
189 206 228
190 206 228
188 205 228
187 205 228
188 205 228
188 205 228
187 204 228
189 206 228
189 206 228
192 207 228
190 206 228
187 205 228
189 206 228
187 205 228
186 204 228
188 205 228
188 205 228
189 206 228
187 205 228
190 206 228
190 206 228
190 206 228
190 206 228
190 206 228
191 207 228
190 206 228
191 207 228
189 206 228
193 208 228
189 206 228
185 204 228
188 205 228
192 208 228
185 203 228
189 206 228
185 204 228
185 204 228
187 204 228
189 206 228
184 203 228
189 206 228
186 204 228
189 206 228
184 200 219
188 205 228
188 202 219
157 177 211
170 187 211
154 171 187
178 196 223
113 134 175
161 176 196
168 186 217
124 145 190
160 178 211
125 145 187
95 118 165
94 115 142
136 157 198
75 101 133
78 105 168
52 83 142
54 86 144
49 80 118
48 78 133
55 86 151
50 80 133
44 72 125
50 80 127
52 83 141
49 79 135
47 75 126
41 68 99
49 79 133
30 53 116
46 74 140
36 60 115
38 63 92
32 53 97
91 107 137
89 105 146
164 180 208
172 188 216
158 172 177
218 234 255
82 104 149
59 93 155
56 89 147
61 96 157
56 90 137
55 89 144
57 92 144
60 95 137
63 99 161
58 92 147
54 85 142
61 97 159
57 89 122
57 91 127
60 95 149
61 97 149
60 94 159
60 95 151
64 99 159
59 91 151
62 97 161
60 95 137
62 98 151
62 98 159
60 95 140
59 93 114
64 99 171
59 93 127
61 95 151
58 92 127
60 95 127
60 94 114
59 94 151
56 90 125
61 97 151
59 92 127
61 97 140
60 95 127
58 92 140
59 95 151
61 96 140
56 88 114
61 95 151
62 97 159
62 98 159
57 90 114
58 93 127
57 90 114
64 100 171
56 90 114
62 97 140
65 101 171
59 92 114
58 92 151
60 93 128
63 99 161
61 96 127
60 93 127
57 91 114
62 97 140
57 90 140
62 99 171
57 90 151
63 99 161
52 83 80
59 92 128
61 96 140
61 97 151
62 97 140
62 97 140
63 96 142
59 91 130
61 96 127
56 90 114
61 94 153
61 96 127
63 100 181
62 97 161
57 91 114
55 88 127
54 85 130
60 96 140
55 87 80
58 91 127
55 88 127
60 96 151
58 91 141
60 94 140
60 92 140
62 95 155
52 83 99
59 87 135
61 94 144
56 85 117
50 74 90
61 92 155
57 86 120
62 94 147
58 87 135
57 85 142
42 66 101
160 178 207
218 234 255
130 118 63
121 108 54
120 103 61
134 119 62
76 65 42
85 77 52
108 93 53
79 76 57
91 98 74
71 72 57
113 112 77
86 79 50
119 119 78
94 94 59
112 110 73
96 101 64
88 88 54
121 115 77
137 132 76
71 70 52
102 98 58
133 130 85
119 116 78
105 109 59
145 140 72
158 156 102
142 140 93
113 111 62
167 158 102
154 152 92
156 155 103
127 128 89
159 155 92
115 110 46
156 152 93
152 145 84
132 132 74
158 154 101
153 147 84
147 147 72
162 158 102
166 162 88
163 159 92
144 143 95
169 166 102
159 156 92
175 169 95
144 141 89
163 160 105
161 156 95
157 147 90
161 157 104
165 161 92
171 164 95
181 173 108
160 156 79
153 155 92
153 152 73
178 172 108
168 163 95
163 159 88
174 166 90
167 160 93
169 163 95
154 150 92
172 164 102
174 169 102
173 167 108
168 165 88
170 165 88
174 168 102
154 151 88
165 161 95
177 169 103
161 156 82
178 170 95
159 153 88
172 165 80
181 173 108
171 164 72
176 170 102
170 161 72
166 164 88
175 167 95
170 161 95
168 162 95
173 167 88
176 169 109
167 162 95
172 169 108
177 170 102
187 177 114
183 174 102
177 170 95
174 163 95
160 153 62
172 165 80
171 167 95
167 160 72
186 176 108
160 151 80
167 162 88
178 172 108
167 161 95
160 155 102
173 169 102
181 173 102
163 160 72
166 161 95
176 167 97
182 174 108
170 163 88
166 147 84
184 174 102
165 155 80
172 168 102
165 159 95
173 166 80
176 169 95
166 154 88
169 163 102
180 170 108
171 165 80
172 160 96
169 164 80
183 172 103
174 164 95
156 149 88
176 166 102
173 164 88
171 166 88
175 165 95
167 161 95
162 153 88
165 155 88
175 163 88
159 154 82
176 167 102
166 157 64
158 149 72
174 163 88
177 169 103
157 148 72
172 164 82
160 149 84
174 163 90
166 156 88
159 149 51
194 208 228
191 206 217
185 203 217
187 204 217
194 208 228
195 209 228
191 207 228
191 207 228
191 206 217
196 210 228
190 205 217
192 207 228
190 204 204
191 206 217
190 206 228
190 206 228
196 209 228
191 207 228
190 206 228
194 208 228
187 203 217
190 205 217
190 206 228
193 208 228
186 203 217
189 205 228
192 207 228
190 207 228
192 207 228
192 207 228
194 208 228
193 208 228
192 207 228
191 207 228
189 206 228
188 205 228
191 207 228
189 206 228
192 207 228
192 208 228
188 205 228
189 206 228
192 207 228
192 207 228
189 206 228
191 207 228
190 206 228
189 206 228
186 204 228
192 207 228
189 206 228
194 208 228
193 208 228
191 207 228
190 206 228
192 207 228
190 206 228
189 206 228
189 206 228
189 206 228
191 207 228
192 208 228
191 207 228
191 207 228
190 206 228
191 207 228
190 206 228
189 206 228
188 205 228
191 207 228
190 206 228
190 206 228
186 204 228
188 205 228
192 207 228
189 206 228
187 205 228
189 206 228
189 205 228
188 205 228
188 205 228
189 206 228
189 206 228
190 207 228
190 206 228
187 204 228
192 207 228
190 206 228
190 206 228
190 206 228
188 205 228
191 207 228
189 206 228
192 207 228
191 207 228
190 207 228
188 205 228
190 206 228
189 206 228
188 205 228
186 204 228
185 204 228
188 205 228
187 205 228
189 206 228
186 204 228
189 205 228
187 202 219
177 195 223
190 206 228
176 190 211
178 196 217
189 205 228
170 188 217
161 179 204
135 156 191
123 144 177
146 166 202
108 130 150
109 131 160
95 119 168
109 130 153
75 100 158
75 101 125
77 102 133
54 86 144
46 76 137
53 83 135
50 80 114
49 77 130
50 79 139
50 78 118
44 70 118
51 81 124
45 73 113
47 76 113
47 77 137
40 66 112
41 66 118
37 60 96
35 59 113
40 66 128
37 59 106
69 89 130
94 114 159
122 136 169
173 189 179
173 189 212
175 191 193
80 100 121
55 90 151
56 90 153
54 88 135
60 94 161
59 93 144
55 89 137
58 93 147
61 96 157
61 97 159
60 95 137
56 89 147
55 89 127
62 97 159
60 94 151
57 91 125
62 97 151
60 96 140
56 89 114
63 98 159
58 92 130
57 92 114
62 98 151
60 95 127
62 97 140
54 86 99
62 97 151
57 90 99
60 95 140
62 98 161
61 96 137
54 86 127
57 92 127
59 93 140
59 92 114
61 97 161
64 99 151
62 97 151
56 91 127
59 94 151
64 99 151
62 97 161
61 97 151
63 99 161
61 96 140
56 90 114
64 99 161
62 99 171
62 98 161
59 92 140
56 89 114
53 85 0
62 97 151
61 94 140
62 99 171
57 91 114
59 93 161
56 90 114
57 89 127
60 94 151
62 97 151
55 88 127
59 93 140
60 92 130
62 96 127
61 97 140
62 97 153
60 95 140
62 98 151
63 100 171
60 95 140
55 89 99
64 100 171
57 92 127
62 97 161
58 92 140
58 92 151
57 89 127
57 91 127
60 92 130
61 95 142
62 96 161
60 93 142
58 91 117
62 97 140
62 98 173
56 89 99
54 83 115
59 92 142
58 88 117
60 93 155
60 94 153
59 91 162
60 93 130
61 96 153
59 91 144
61 95 142
56 87 127
59 93 127
54 80 108
57 85 143
90 115 163
188 196 191
113 92 52
100 90 47
101 86 49
89 72 41
103 80 47
115 108 66
137 130 85
114 108 64
63 73 51
47 48 31
106 107 78
88 86 62
122 123 81
102 103 67
116 121 90
100 101 64
112 111 72
118 122 93
114 108 69
103 105 73
109 108 72
98 99 68
115 114 76
107 113 80
136 132 88
101 104 63
123 123 74
153 149 95
145 143 81
129 128 86
139 137 85
105 109 78
106 111 72
152 150 89
144 140 84
154 150 92
107 112 77
151 148 95
145 138 80
164 159 105
146 144 67
122 122 69
149 146 88
153 147 88
152 147 88
162 158 80
156 152 92
163 158 80
167 163 102
156 150 78
174 168 101
142 139 79
141 139 63
158 154 88
177 168 102
179 171 95
142 140 57
175 168 95
154 151 76
162 157 92
179 174 114
129 127 63
177 170 102
172 167 101
179 172 108
166 163 95
173 166 107
175 170 102
166 164 88
174 168 95
180 171 95
181 173 108
170 167 102
175 167 95
182 171 88
169 164 88
177 168 97
173 167 88
177 168 95
171 166 88
168 162 95
176 170 102
168 160 80
176 170 102
173 167 88
178 171 102
172 167 95
171 163 95
173 164 82
174 167 88
176 171 108
168 165 88
180 172 102
176 169 95
173 167 88
160 154 74
171 163 82
167 163 80
158 153 72
165 159 80
179 170 88
177 170 95
165 155 80
174 169 102
172 163 88
166 163 80
170 159 72
174 168 95
179 173 108
186 176 108
176 169 95
162 156 72
173 164 95
162 154 81
169 164 80
181 171 103
168 155 88
172 160 82
166 158 72
171 166 88
167 157 82
171 163 88
179 170 103
178 170 95
170 160 97
171 165 80
175 168 88
168 162 95
178 170 95
171 162 88
166 161 80
169 163 95
164 152 82
163 154 62
165 155 88
165 159 51
155 139 64
172 162 72
163 153 80
182 172 95
173 161 90
163 152 72
167 157 88
139 120 39
166 160 74
160 158 62
158 153 80
146 133 72
196 209 228
189 205 217
187 204 217
189 205 217
193 208 228
191 206 217
193 208 228
189 204 217
188 203 204
194 208 228
193 208 228
191 207 228
186 202 204
192 207 228
187 202 204
192 207 228
187 204 217
189 205 217
184 201 204
188 204 217
189 205 217
190 205 217
188 204 217
190 206 228
189 206 228
194 208 228
191 207 228
188 205 228
191 207 228
194 209 228
190 206 228
189 204 217
191 207 228
192 207 228
191 207 228
191 207 228
194 208 228
192 207 228
193 208 228
190 206 228
194 208 228
189 205 217
193 208 228
191 207 228
193 208 228
191 207 228
192 207 228
191 207 228
193 208 228
189 204 217
193 208 228
191 207 228
196 209 228
193 208 228
191 207 228
191 207 228
189 206 228
189 206 228
193 208 228
190 206 228
192 207 228
192 207 228
191 207 228
193 208 228
194 208 228
192 208 228
194 208 228
193 208 228
189 206 228
188 205 228
190 206 228
190 206 228
191 207 228
189 206 228
191 207 228
192 207 228
190 206 228
189 206 228
191 207 228
194 209 228
190 206 228
192 208 228
191 207 228
190 206 228
189 206 228
188 205 228
187 205 228
191 207 228
189 206 228
193 208 228
190 206 228
191 207 228
190 206 228
189 206 228
190 207 228
191 207 228
192 207 228
190 206 228
188 205 228
192 208 228
186 204 228
190 206 228
192 207 228
191 207 228
191 207 228
186 201 219
193 208 228
187 205 228
187 201 219
192 207 228
182 198 223
180 193 207
150 169 204
142 154 177
168 186 211
162 179 204
136 155 191
168 186 211
131 150 177
137 156 183
111 133 175
81 107 168
77 101 141
97 120 161
56 88 144
47 75 114
49 79 109
48 76 104
53 84 123
49 79 125
48 78 131
48 77 121
50 80 135
48 77 125
50 81 137
43 70 122
47 75 126
43 69 113
47 77 142
38 63 120
35 56 95
47 74 123
31 52 95
37 63 113
90 107 147
69 89 133
167 181 191
178 192 214
205 219 240
109 131 161
51 82 154
46 74 118
57 91 137
59 94 127
56 89 133
56 89 127
59 91 137
62 98 169
60 95 127
57 90 105
61 97 171
61 96 159
62 95 125
59 94 151
59 94 137
60 94 151
61 97 159
55 88 114
57 91 127
52 84 95
60 95 127
63 98 151
60 94 137
62 97 151
56 90 99
61 96 149
61 97 140
63 97 151
58 91 127
61 97 151
63 98 159
61 96 151
61 96 127
60 96 151
61 97 151
61 97 140
61 97 151
61 98 161
64 100 171
61 96 140
57 90 151
61 94 127
60 95 127
66 101 171
60 95 127
64 100 171
61 96 140
62 98 151
62 98 161
58 93 140
63 99 171
57 89 151
62 97 140
62 97 140
61 96 140
60 94 140
58 92 127
57 91 127
61 93 114
64 100 161
65 101 171
60 95 140
58 91 140
61 97 161
61 97 151
62 99 171
59 95 140
62 97 151
61 96 140
61 96 151
62 97 140
60 94 140
62 95 142
56 88 117
60 94 161
59 93 151
58 90 117
59 93 151
59 94 114
59 90 140
63 99 171
59 90 127
60 96 151
61 94 142
60 94 140
62 98 161
56 90 127
59 93 130
60 94 140
60 93 133
59 92 140
57 86 133
56 88 114
46 68 102
58 89 128
58 90 117
50 74 103
55 85 140
55 83 130
58 82 109
45 65 91
164 168 165
148 134 77
110 100 49
100 85 43
89 89 60
95 90 55
58 51 39
118 109 66
79 82 56
86 84 56
86 84 55
108 112 85
50 56 44
96 94 67
101 95 54
123 123 83
115 115 77
129 128 73
99 105 69
147 147 99
115 116 73
136 133 74
110 110 75
140 132 78
141 141 84
146 142 77
103 104 72
133 133 73
138 136 92
120 118 72
117 118 68
147 142 86
145 142 92
124 128 67
119 118 77
135 136 80
125 121 62
147 144 84
156 151 90
175 169 101
152 149 68
153 151 92
152 149 72
146 146 93
148 144 96
154 152 95
167 163 99
174 167 88
165 159 99
166 161 108
169 162 108
147 145 80
170 165 80
171 166 105
156 152 89
149 145 72
172 165 88
145 141 76
157 154 88
170 162 88
155 155 62
145 141 80
172 165 99
167 162 88
154 147 72
179 171 95
166 160 92
171 165 103
167 163 99
173 169 102
163 158 99
162 157 80
177 170 95
169 163 94
161 157 80
183 173 102
179 171 95
169 160 88
174 168 95
177 170 102
183 173 107
169 162 88
171 163 80
171 168 102
172 167 95
175 168 88
171 168 102
180 174 114
176 169 95
175 169 95
173 167 88
167 163 80
171 166 88
170 162 91
171 164 88
163 158 80
174 167 88
169 166 95
170 163 80
161 154 82
180 172 102
169 163 90
173 168 95
172 168 102
168 165 88
173 164 88
173 167 88
168 165 88
170 163 82
172 164 102
177 169 88
152 148 72
178 171 102
171 159 88
158 149 72
180 172 102
154 148 80
169 164 80
161 154 74
181 172 95
174 163 88
176 169 95
163 150 88
169 160 80
154 147 72
155 152 62
173 167 88
169 161 88
170 166 95
168 159 80
166 157 74
183 173 109
164 156 88
180 173 108
162 153 82
171 165 97
157 154 82
159 155 72
158 154 72
168 161 80
172 165 90
171 163 96
154 137 74
172 167 103
163 153 82
160 147 81
168 161 88
173 163 95
171 166 88
193 208 228
186 202 204
188 203 204
188 203 204
195 209 228
187 202 191
189 205 217
190 205 217
194 208 228
192 207 228
188 204 217
184 199 217
186 202 204
186 202 204
190 205 217
196 210 228
192 207 228
193 208 228
193 208 228
188 204 217
193 207 217
193 208 228
182 200 204
191 207 228
186 203 217
187 204 217
190 205 217
189 205 217
193 208 228
193 208 228
193 208 228
188 204 217
193 208 228
186 202 204
187 204 217
188 204 217
189 205 217
189 203 204
189 205 217
196 210 228
188 204 217
185 201 204
193 208 228
183 200 204
189 206 228
192 208 228
189 206 228
192 207 228
190 206 228
193 208 228
188 204 217
191 207 228
192 208 228
196 210 228
189 205 217
195 209 228
188 205 228
192 207 228
193 208 228
192 207 228
192 208 228
189 205 217
187 204 217
188 204 217
191 207 228
191 207 228
189 205 217
186 203 217
195 209 228
191 207 228
189 205 228
189 205 217
188 205 228
191 207 228
189 206 228
189 205 217
191 207 228
192 207 228
186 202 204
193 208 228
191 207 228
188 204 217
191 207 228
191 207 228
191 207 228
192 208 228
192 208 228
193 208 228
187 205 228
191 207 228
191 207 228
194 208 228
193 208 228
191 207 228
193 208 228
188 205 228
190 206 228
191 207 228
192 207 228
188 205 228
191 207 228
191 207 228
193 208 228
188 205 228
190 206 228
190 206 228
190 206 228
190 206 228
174 184 194
169 184 200
189 206 228
181 197 217
187 201 217
148 167 198
161 178 204
158 175 198
138 158 191
146 160 180
80 106 166
127 145 168
76 101 158
111 133 169
111 132 161
51 81 121
53 84 144
47 77 127
49 79 133
45 72 104
44 72 128
47 74 118
44 70 114
49 78 127
53 84 144
50 79 129
51 82 139
44 71 126
40 65 84
44 70 112
36 59 100
42 69 123
41 66 119
39 63 113
31 52 106
40 66 121
24 41 68
34 56 113
147 163 182
162 175 196
175 191 193
52 83 140
55 87 133
58 93 137
61 95 163
52 83 99
51 82 113
59 94 140
61 96 149
61 95 137
57 90 149
58 91 108
62 96 151
58 93 151
60 93 140
62 97 127
56 90 76
57 90 114
56 90 122
58 93 127
61 96 140
63 98 151
60 96 151
60 95 140
58 91 127
57 92 114
63 98 140
59 93 114
60 94 140
61 95 137
65 100 161
58 91 114
59 94 127
59 93 137
63 98 140
60 96 140
56 90 114
63 97 140
56 88 140
61 98 161
59 94 127
58 93 151
64 99 151
57 91 127
60 95 140
59 93 127
60 93 114
57 90 127
62 98 161
62 98 161
62 98 161
60 95 127
61 96 140
57 91 140
60 96 140
51 82 114
60 94 140
61 97 151
53 87 99
58 91 114
63 98 151
56 90 127
60 94 114
61 95 140
59 92 114
58 92 99
59 92 114
62 97 140
62 98 161
61 97 151
62 97 151
60 95 127
64 100 171
63 99 151
60 96 151
60 94 151
64 98 161
53 86 114
56 91 99
61 95 161
63 97 142
59 91 120
55 83 89
58 91 114
63 99 151
57 87 117
55 85 105
55 83 99
55 86 102
57 89 130
58 93 127
54 80 114
60 94 163
59 95 140
61 93 133
56 88 130
55 84 103
59 93 140
57 87 92
55 84 103
54 85 117
57 79 106
48 72 88
154 154 136
126 112 62
87 76 38
80 61 18
102 84 41
76 72 45
80 68 37
89 88 56
78 83 69
107 103 61
91 90 58
78 80 53
91 94 62
86 92 59
91 82 44
84 87 54
103 106 68
71 80 65
104 109 80
116 116 74
99 104 70
107 114 62
118 118 81
105 99 62
124 126 84
105 98 53
89 93 63
136 130 81
131 128 82
134 134 67
116 114 72
126 123 79
140 137 86
169 161 88
139 139 85
165 162 99
120 114 52
129 129 73
155 152 89
159 152 62
154 151 103
158 151 84
161 152 90
152 150 92
166 159 99
177 168 108
161 153 88
160 155 82
139 139 67
146 143 76
157 148 80
145 144 95
179 172 102
156 152 80
151 147 88
147 142 64
169 163 95
170 162 94
149 146 84
173 167 105
154 153 92
176 171 108
170 164 107
178 170 95
171 163 100
161 158 62
183 172 95
166 161 88
163 162 105
169 166 95
174 165 88
164 157 76
184 174 102
178 171 102
178 168 97
169 164 97
167 163 80
168 162 95
180 173 108
158 155 99
174 166 90
169 164 102
168 162 90
183 174 108
169 161 72
169 161 74
177 171 102
173 168 95
171 164 95
177 171 102
178 170 95
160 157 80
181 173 108
171 167 95
159 152 72
166 163 80
173 165 90
176 169 95
166 158 80
172 167 95
177 171 102
174 168 95
172 166 80
171 166 88
149 143 62
174 167 88
160 156 80
173 163 95
171 166 88
179 172 108
163 153 88
177 171 102
164 153 75
180 171 95
162 158 80
170 159 81
164 157 88
166 156 82
158 150 54
170 165 80
178 169 97
181 173 108
152 144 74
171 161 96
176 169 95
165 158 82
165 155 74
154 144 72
169 157 80
164 155 72
177 170 95
163 156 72
155 145 62
163 158 72
172 164 80
165 155 80
172 165 95
167 158 80
155 151 51
174 163 84
176 168 88
153 150 80
164 152 72
163 157 80
167 159 80
178 166 103
174 162 97
174 166 95
171 164 102
191 206 217
184 200 191
191 206 217
183 199 191
188 204 217
192 207 228
187 204 217
194 208 228
192 207 228
186 202 204
193 208 228
185 201 204
183 199 191
189 205 217
191 207 228
188 203 204
194 209 228
192 208 228
192 208 228
189 204 204
193 208 228
189 205 217
187 204 217
194 209 228
193 208 228
183 199 191
192 208 228
193 208 228
192 207 228
183 200 204
192 207 228
187 203 204
193 208 228
191 206 217
190 206 228
189 204 204
185 202 204
184 200 191
189 206 228
188 203 204
183 199 191
194 208 228
193 208 228
182 199 191
187 204 217
188 203 204
190 206 228
189 205 217
193 208 228
189 206 228
193 208 228
190 205 217
186 203 217
193 208 228
186 202 204
192 208 228
187 203 217
190 205 217
191 206 217
189 205 217
192 207 228
188 204 217
187 204 217
191 206 217
186 203 217
194 208 228
191 207 228
187 203 204
189 205 217
192 207 228
194 209 228
192 207 228
195 209 228
190 206 228
192 208 228
187 203 217
192 207 228
193 208 228
186 203 217
192 206 217
192 207 228
190 206 228
188 204 217
193 208 228
190 206 228
193 208 228
188 204 217
188 204 217
193 208 228
194 208 228
192 208 228
191 207 228
194 208 228
192 207 228
191 207 228
191 207 228
190 206 228
189 205 217
191 207 228
185 202 217
195 209 228
188 204 217
193 208 228
190 206 228
191 207 228
190 206 228
181 194 196
182 194 207
177 190 204
187 198 207
187 202 219
157 168 172
169 184 207
175 190 217
137 152 178
152 167 198
142 156 172
160 174 194
97 119 153
96 119 161
113 134 175
79 102 121
75 98 134
76 100 123
52 83 129
51 82 133
50 80 118
51 80 116
54 85 148
41 67 104
49 78 109
47 74 136
50 80 125
44 70 115
47 75 138
37 58 108
37 61 108
38 62 105
47 75 124
40 64 121
44 71 132
45 73 133
29 49 92
36 61 119
31 52 99
70 85 110
136 151 179
169 185 168
160 175 193
53 83 114
50 81 148
55 88 117
57 92 159
55 89 140
58 92 135
57 90 127
60 95 135
58 94 155
58 93 140
60 94 135
56 88 137
55 89 95
59 95 140
61 96 140
58 92 151
59 93 140
59 94 137
60 95 149
59 94 127
54 86 114
61 96 151
61 94 127
59 93 140
60 95 127
63 99 161
61 96 127
62 98 161
62 97 140
55 89 114
61 97 151
62 97 151
63 98 140
63 99 161
62 97 151
62 98 151
63 99 151
64 100 171
60 95 161
60 94 111
61 96 161
60 95 127
60 95 127
61 96 140
53 84 99
60 94 114
62 97 159
59 95 140
62 97 140
61 95 151
61 98 161
62 98 161
59 94 127
56 88 99
59 93 114
58 92 127
60 95 161
66 101 161
56 90 114
60 96 151
60 94 140
59 95 140
60 94 151
63 99 161
62 96 161
58 92 140
61 95 140
62 98 151
58 91 114
62 96 151
64 99 151
60 94 161
56 89 114
64 100 171
59 94 151
55 87 114
62 97 171
53 83 114
61 97 140
62 96 142
63 98 151
58 89 128
60 94 140
62 98 151
59 93 127
55 86 99
63 100 171
62 97 153
50 76 103
60 93 114
59 92 140
59 93 127
60 92 142
55 88 117
58 93 140
54 82 88
61 96 153
58 88 142
55 87 117
61 94 142
60 91 153
49 70 76
110 102 61
132 118 67
86 75 47
86 82 57
59 61 38
69 70 45
95 87 53
87 81 52
75 70 35
80 80 58
83 78 51
102 100 56
64 56 38
68 70 47
110 106 67
80 78 52
105 107 74
73 74 58
103 102 71
141 135 65
102 105 68
93 97 36
112 114 77
129 126 76
133 127 62
119 123 72
120 118 60
125 123 84
109 110 76
139 138 82
135 130 87
137 134 73
118 114 63
142 141 96
125 125 64
158 152 84
132 129 72
135 132 88
166 161 95
173 168 95
139 137 84
151 148 99
143 133 65
172 166 105
151 151 84
148 142 81
157 155 76
146 137 62
167 157 88
154 150 83
170 164 95
163 158 87
164 160 92
147 144 88
168 162 95
162 157 72
174 167 105
178 168 95
155 152 87
170 165 102
164 158 99
165 160 80
158 154 88
173 167 88
162 157 83
159 152 90
167 162 95
170 161 87
172 166 102
170 164 80
177 172 108
159 155 72
144 140 72
168 162 88
178 171 102
175 170 107
158 153 84
176 166 88
154 148 76
166 163 105
173 167 88
174 168 95
174 166 95
171 166 88
171 165 102
185 176 114
176 167 87
178 170 95
170 166 88
170 167 95
166 162 72
173 165 88
181 171 108
168 161 88
181 173 102
164 159 88
171 164 90
164 160 62
176 168 88
176 167 80
165 159 72
175 169 95
165 159 102
177 167 96
180 172 102
176 168 88
177 170 95
173 168 95
168 156 81
177 167 90
179 172 102
170 164 95
165 159 88
168 155 88
176 168 88
171 166 88
164 157 72
168 160 72
169 163 90
162 150 74
178 168 95
176 166 102
168 161 88
175 168 88
178 169 103
170 155 96
167 160 88
162 153 62
164 157 72
154 141 72
162 156 82
178 171 102
185 175 108
177 167 95
170 155 90
170 158 82
169 161 88
173 168 95
169 160 88
176 166 95
178 170 95
170 161 72
158 143 64
166 156 72
136 126 63
162 150 80
163 160 72
154 145 88
148 138 80
186 202 204
187 203 204
193 207 217
184 200 191
185 202 204
192 206 217
182 198 191
190 205 217
194 209 228
189 205 217
193 208 228
187 203 204
190 206 228
190 205 217
194 209 228
185 202 204
185 202 204
190 205 217
189 205 217
187 202 204
189 205 217
192 208 228
184 201 204
189 205 217
188 204 217
189 204 217
190 205 217
189 205 217
184 201 204
189 205 217
178 197 191
191 206 217
180 197 177
182 199 191
189 204 204
192 207 228
187 204 217
191 206 217
188 203 204
183 200 204
188 203 204
190 205 217
188 204 217
184 200 191
188 203 204
189 205 217
187 202 204
187 204 217
188 204 217
186 202 204
190 205 217
192 207 228
188 204 217
188 204 217
183 199 191
189 204 217
186 202 204
191 206 217
195 209 228
185 202 204
196 210 228
188 204 217
181 197 177
188 204 217
190 206 228
188 204 217
188 204 217
188 204 217
189 204 217
194 208 228
190 205 217
186 202 204
190 205 217
190 205 217
188 203 204
188 204 217
186 201 191
183 199 191
190 205 217
193 208 228
186 203 217
192 208 228
190 206 228
193 208 228
188 203 204
190 207 228
193 208 228
182 199 191
190 205 217
193 207 217
188 204 217
184 201 204
193 208 228
190 205 217
186 203 217
194 209 228
191 207 228
193 208 228
190 205 217
187 203 217
184 201 204
192 207 228
193 208 228
192 207 228
190 206 228
177 190 177
195 209 228
191 207 228
173 191 198
170 185 191
169 187 204
185 196 213
157 174 191
177 192 213
161 174 183
111 129 153
168 186 204
129 146 183
124 143 177
77 103 151
111 132 168
78 103 142
51 82 123
49 80 109
50 81 112
53 83 112
48 75 104
48 76 116
48 76 118
51 81 112
46 73 109
49 79 121
44 70 115
44 71 109
45 72 124
46 74 121
55 87 150
43 69 116
45 73 116
44 71 99
25 44 67
39 64 101
35 56 92
38 60 112
69 86 135
87 98 127
121 138 160
147 162 178
138 153 145
51 81 133
44 71 60
55 87 149
59 92 140
57 91 111
58 92 153
61 96 149
54 86 114
56 87 125
61 95 135
60 94 99
60 94 144
52 82 114
58 92 135
59 93 127
63 99 161
61 96 147
60 94 114
62 97 159
60 94 135
56 91 125
60 95 127
58 90 127
61 97 149
59 91 111
54 86 125
58 91 99
62 97 151
57 91 125
58 91 140
63 98 151
61 96 140
63 97 151
58 92 140
65 101 171
58 94 127
60 93 127
65 101 171
61 96 140
57 91 114
54 86 114
62 97 140
61 96 127
61 96 140
55 88 127
57 91 127
61 97 151
62 96 140
59 93 151
58 91 127
59 93 127
61 96 140
59 94 127
56 92 114
59 95 140
60 95 127
59 93 114
61 96 151
61 96 140
60 93 140
61 96 140
58 93 114
61 95 127
58 91 99
57 91 127
62 98 151
61 97 140
59 93 140
60 94 140
57 90 127
61 96 140
62 97 140
58 89 140
62 98 151
60 94 114
62 96 161
62 98 151
62 98 151
62 95 151
58 93 127
61 96 161
58 90 117
63 99 161
60 93 128
61 97 161
56 86 105
52 80 114
57 88 127
57 91 140
57 89 114
59 91 142
56 90 127
59 91 117
60 92 155
60 93 151
51 80 117
55 83 118
53 80 120
55 85 105
46 71 103
44 66 36
53 77 108
72 67 27
133 117 45
93 92 52
117 105 59
95 82 47
76 65 37
67 63 38
36 42 30
104 91 50
74 74 49
70 70 52
75 67 34
93 81 44
125 125 83
89 96 61
90 97 68
87 89 48
98 90 45
94 99 60
75 80 52
76 82 63
124 124 82
113 113 67
87 87 45
123 126 82
113 113 63
127 125 89
150 147 89
138 136 90
146 141 92
117 116 72
131 128 80
97 100 44
122 119 57
148 141 72
142 138 80
162 157 105
151 150 80
100 106 62
145 142 79
163 157 99
179 170 101
141 138 81
150 146 93
157 151 77
135 130 85
162 155 94
160 156 76
163 157 92
155 149 92
165 162 95
153 147 95
172 164 79
173 166 102
172 165 95
144 142 62
166 159 88
163 156 88
157 155 102
175 169 95
169 164 95
171 166 88
161 157 80
154 152 80
166 160 80
167 163 80
171 163 88
176 168 105
175 168 111
171 164 95
171 167 95
170 162 88
182 172 95
172 164 92
160 155 88
170 164 87
172 167 95
161 158 72
159 154 92
157 153 80
185 175 108
178 170 95
167 161 80
170 165 80
157 151 81
176 168 88
168 161 80
182 173 102
179 167 102
176 170 102
175 169 95
180 170 88
171 166 88
168 160 88
166 163 80
172 162 72
171 165 80
171 167 95
169 164 80
162 159 80
154 149 62
155 145 51
168 165 88
169 165 88
164 155 80
164 157 95
175 170 102
180 173 108
174 164 88
166 163 80
181 172 102
160 154 62
167 160 80
158 154 72
164 159 80
164 159 80
161 159 62
179 169 108
166 155 81
175 167 97
171 160 82
164 159 80
168 163 72
162 153 62
171 166 88
163 153 80
172 166 80
166 160 88
157 146 72
177 172 108
157 152 80
178 170 95
161 152 80
182 172 95
163 152 74
170 160 80
173 164 96
167 159 82
164 151 82
162 154 62
157 152 62
161 146 80
170 163 62
170 162 88
163 150 81
167 161 80
173 162 97
175 166 90
174 158 84
185 201 191
182 199 191
190 205 217
187 203 204
183 199 191
184 200 191
189 204 204
188 203 204
184 200 191
181 198 191
181 197 177
190 204 204
187 203 204
191 206 217
189 204 217
183 201 204
184 201 204
182 199 191
182 200 204
196 209 228
187 203 204
187 202 204
182 198 191
188 204 217
188 203 204
190 205 217
193 207 217
187 204 217
192 206 217
191 206 217
182 199 191
189 205 217
185 201 204
187 203 204
185 202 204
190 205 217
188 203 204
188 204 217
178 195 177
189 204 217
183 199 191
190 205 217
194 208 228
187 202 204
187 203 204
188 204 217
181 198 191
185 202 204
190 205 217
185 201 204
190 205 217
191 206 217
192 206 217
191 206 217
190 205 217
185 201 204
183 200 204
193 208 228
191 207 228
187 204 217
189 205 217
187 204 217
187 203 217
186 202 204
191 206 217
182 199 191
186 202 204
193 208 228
184 200 191
186 202 204
187 203 204
193 208 228
186 202 204
188 204 217
192 208 228
187 202 204
194 207 217
190 205 217
192 207 228
186 202 204
187 204 217
192 207 228
181 198 191
187 203 204
183 200 204
190 205 217
188 204 217
176 193 161
190 205 217
191 207 228
184 201 204
190 205 217
191 206 217
189 205 217
189 206 228
191 206 217
191 206 217
189 204 217
181 198 191
186 202 204
193 208 228
190 206 228
192 208 228
192 208 228
180 194 191
190 205 217
185 199 207
176 187 180
181 196 211
173 186 180
164 177 191
144 159 160
164 178 172
149 164 191
151 165 174
141 159 191
126 141 156
121 138 160
138 156 184
130 146 175
70 95 144
120 134 155
55 85 121
50 80 102
53 83 123
53 86 151
54 83 125
49 79 112
46 74 127
47 75 127
46 74 123
46 74 111
50 80 124
44 71 106
45 71 96
45 73 118
45 73 112
36 61 111
40 63 110
36 60 118
43 70 126
27 48 83
36 58 85
30 51 85
34 56 101
32 53 95
126 138 163
130 142 154
111 123 143
44 72 116
56 89 147
58 90 144
49 81 117
57 92 147
63 98 149
58 92 125
59 94 149
63 99 151
65 100 167
58 91 114
57 92 122
61 96 149
58 92 157
59 93 147
61 95 135
55 87 99
52 85 114
56 90 130
57 90 99
63 97 151
61 96 137
58 92 149
57 90 155
62 97 159
60 95 140
56 90 149
57 90 127
64 99 159
62 96 127
56 89 149
56 91 127
59 92 127
62 98 161
64 101 171
62 97 151
58 93 114
61 96 140
59 93 99
59 93 140
60 94 140
62 97 140
59 94 161
56 88 127
63 99 171
57 93 161
61 93 140
60 95 140
59 92 127
59 94 127
57 91 99
61 95 151
58 93 151
59 93 99
58 92 140
62 97 151
59 94 114
57 91 127
61 96 151
54 84 114
62 97 161
60 95 127
62 97 140
58 91 140
63 99 151
57 90 80
63 98 151
62 95 140
59 93 127
61 97 151
57 89 130
56 89 127
57 89 117
60 95 127
61 96 140
61 97 140
60 96 140
59 93 114
59 92 114
57 91 114
55 86 99
56 89 127
63 99 161
55 86 102
59 92 140
59 93 140
63 97 153
57 87 105
56 86 130
56 88 127
59 93 140
58 91 130
56 86 128
59 90 102
60 92 130
57 88 105
52 81 129
56 88 141
52 78 104
50 76 90
49 75 99
53 82 130
112 109 102
92 78 45
113 94 51
86 80 38
65 62 12
93 86 51
127 118 68
70 54 30
59 65 47
72 68 37
68 76 51
39 47 32
97 100 77
66 76 57
66 76 53
82 86 39
101 108 74
104 109 72
89 92 52
140 134 84
121 118 64
118 113 64
89 86 38
125 125 76
115 114 63
135 132 81
102 106 68
115 114 58
139 136 81
156 152 95
132 130 85
135 133 63
138 136 72
125 124 73
137 138 85
130 128 72
117 119 72
142 142 77
134 131 62
156 153 92
181 174 114
124 124 67
133 133 67
140 137 76
159 150 88
159 154 92
132 132 84
154 150 80
159 154 92
161 158 84
154 153 73
144 143 80
162 155 80
167 160 80
161 152 62
185 176 114
156 153 72
159 155 72
165 161 95
168 162 72
120 120 57
169 164 80
162 158 80
174 169 102
168 164 80
164 157 92
175 167 80
162 157 88
176 169 95
174 165 102
174 168 88
176 168 88
160 156 80
161 157 80
168 163 72
178 169 88
173 166 102
167 162 88
165 159 72
171 165 80
168 166 95
170 166 94
167 160 88
174 166 80
170 165 88
173 166 80
176 170 102
179 170 88
169 161 80
172 166 88
166 158 80
160 157 60
174 166 80
162 157 72
178 170 95
177 169 88
175 167 80
177 169 95
165 157 72
155 150 51
187 177 114
182 172 95
165 162 80
150 148 72
171 166 88
166 160 88
169 160 88
182 174 108
179 171 95
162 157 80
155 154 72
179 169 102
161 154 80
179 171 95
175 167 108
179 171 95
162 156 72
173 164 88
159 146 72
168 160 88
152 144 62
173 166 80
152 137 72
161 151 80
164 159 88
169 163 88
170 163 82
175 169 95
171 165 80
174 168 95
164 150 80
160 149 75
170 159 90
152 144 64
176 169 95
162 157 80
167 158 80
158 148 81
163 159 62
169 159 90
161 151 72
174 166 80
169 156 96
147 137 39
157 146 62
172 167 95
172 163 95
169 157 91
150 139 51
181 198 191
186 202 204
182 199 191
186 201 191
193 208 228
184 200 191
189 205 217
192 208 228
177 195 177
189 203 204
188 203 204
189 203 204
186 201 191
192 207 217
195 209 228
177 195 177
192 207 228
185 201 204
181 198 191
187 203 204
184 200 191
186 202 204
189 205 217
192 206 217
186 201 191
183 199 191
186 202 204
187 202 204
192 207 217
189 205 217
190 205 217
188 204 217
173 191 161
175 193 161
185 201 204
187 203 204
182 199 191
184 200 191
180 196 204
189 205 217
186 202 204
178 195 191
190 205 217
182 199 191
184 200 191
194 208 228
188 203 204
186 202 204
187 202 204
187 202 204
184 200 191
182 199 191
188 203 204
191 206 217
184 201 204
188 204 217
186 202 204
181 198 191
188 204 217
184 200 191
186 202 204
189 205 217
190 205 217
189 204 204
190 204 204
189 205 217
194 208 228
185 201 204
187 202 204
187 202 204
193 208 228
193 208 228
188 204 217
186 202 204
187 203 204
190 205 217
190 205 217
178 195 177
195 209 228
192 206 217
186 202 204
184 201 204
191 206 217
195 209 228
188 202 191
193 208 228
190 206 228
191 206 217
182 200 204
185 201 204
189 205 217
185 202 204
189 205 217
186 201 191
186 201 191
180 198 191
187 203 204
181 198 191
189 205 217
188 203 204
180 196 177
177 195 177
182 199 191
183 200 204
177 194 161
177 193 180
181 197 177
179 192 165
183 197 194
168 185 191
166 183 184
164 178 169
162 177 172
159 172 192
161 177 184
128 146 168
97 117 151
114 134 168
113 130 160
88 108 133
99 122 169
75 97 112
77 100 133
50 81 133
55 86 141
54 84 125
46 74 112
50 78 114
47 76 113
50 80 127
43 68 87
47 75 114
50 80 133
40 64 118
45 73 119
46 73 104
47 75 116
43 69 118
41 64 109
16 32 43
41 66 110
42 68 96
36 58 102
34 56 74
23 41 82
67 79 103
125 137 163
119 133 127
98 118 84
55 88 130
51 80 140
56 90 165
53 85 127
57 91 122
56 90 137
53 86 99
59 93 114
56 90 99
59 93 135
61 95 127
58 91 140
58 93 137
58 91 114
60 95 149
62 97 149
55 89 125
58 93 127
60 95 140
60 95 114
64 99 167
61 95 127
60 95 140
61 95 137
59 93 127
60 96 140
64 99 161
60 94 151
60 96 151
61 96 140
63 99 161
62 97 149
61 97 151
58 92 159
56 90 127
58 92 111
61 97 140
62 97 140
59 93 140
60 95 140
61 96 140
59 94 151
58 92 140
61 95 140
62 97 149
60 95 127
65 101 171
63 98 140
58 93 99
63 99 151
60 94 127
59 94 114
60 95 140
63 98 140
55 88 109
58 90 114
58 91 142
60 95 127
62 97 140
59 94 137
60 94 140
53 83 80
62 97 140
63 99 161
62 98 171
61 91 117
57 91 114
54 88 99
58 91 128
55 85 114
54 86 114
63 98 151
56 87 114
58 90 127
55 87 127
56 88 114
60 94 99
56 88 140
56 89 140
63 99 161
61 96 140
52 82 80
61 95 140
59 95 151
61 95 171
56 88 114
60 94 130
55 86 130
60 92 117
62 97 153
52 83 80
57 88 133
58 89 118
55 85 117
51 80 118
60 90 117
53 79 90
43 66 82
59 90 120
42 67 99
53 83 128
41 61 89
56 55 38
74 65 38
107 98 55
68 53 36
60 41 8
68 57 21
64 70 51
42 35 14
77 69 41
82 83 55
80 76 49
81 78 42
72 75 57
88 92 64
93 97 69
89 89 72
96 93 53
99 104 72
88 86 68
137 136 85
126 125 59
121 121 77
136 133 67
128 129 63
141 138 84
117 117 78
113 114 67
125 122 67
131 128 80
145 139 92
130 130 85
150 149 84
136 137 88
114 115 62
142 138 72
165 160 92
143 139 72
145 137 64
160 153 89
156 152 76
149 142 84
137 136 80
153 148 72
158 153 80
124 125 51
158 150 95
151 149 76
151 149 75
138 138 88
157 154 92
159 157 102
170 162 88
175 166 99
155 152 84
170 163 108
156 152 88
166 158 84
159 153 80
160 158 92
165 157 73
157 150 72
153 148 62
166 162 72
160 154 79
171 164 72
161 154 80
166 162 72
167 161 88
173 168 95
167 160 80
175 168 88
174 167 95
171 163 80
168 160 88
163 157 88
178 168 95
158 153 80
166 158 88
170 163 80
177 170 101
172 164 72
166 161 88
160 152 72
177 170 102
165 159 80
169 164 95
177 170 102
167 161 88
181 172 102
176 168 88
169 159 74
166 159 88
173 160 90
174 165 96
174 167 88
165 158 88
171 160 80
156 145 72
172 163 95
157 156 51
156 151 72
171 164 102
161 154 80
165 158 72
186 172 102
166 159 72
181 171 95
175 167 95
169 164 80
172 167 95
181 172 102
175 168 88
165 153 90
168 159 82
175 166 90
174 166 72
173 167 88
177 171 102
160 149 72
182 173 102
177 167 102
171 162 95
176 165 95
175 170 102
160 158 62
173 168 95
164 152 72
177 165 95
162 158 88
161 152 88
167 163 80
158 148 82
170 161 88
171 160 95
179 170 102
166 158 90
174 165 95
176 165 95
171 157 88
184 173 108
155 149 36
167 151 83
172 162 72
176 164 81
175 164 88
166 159 88
158 155 80
173 163 81
167 154 82
194 207 217
187 201 191
185 200 191
178 194 161
179 196 177
174 191 144
194 209 228
184 201 204
184 200 191
177 194 161
186 202 204
186 202 204
172 190 144
179 196 177
186 202 204
178 195 177
186 201 191
182 199 191
182 199 191
185 202 204
183 199 191
181 197 177
182 199 191
193 208 228
187 201 191
189 204 204
186 202 204
195 209 228
188 203 204
179 196 177
185 202 204
174 192 161
188 203 204
181 198 191
192 207 217
186 202 204
173 192 161
190 205 217
178 195 177
193 207 217
193 207 217
179 196 177
188 203 204
182 199 191
188 203 204
190 204 204
186 201 191
189 203 204
184 200 191
183 199 191
182 199 191
185 201 204
179 196 177
193 207 217
177 195 177
189 204 217
189 204 204
185 201 204
194 209 228
190 204 204
185 200 191
186 200 204
182 199 191
191 206 217
182 199 191
187 202 204
191 206 217
183 199 191
174 192 161
183 200 191
187 203 204
190 205 217
188 203 204
188 204 217
189 205 217
188 203 204
185 202 204
183 199 191
185 200 191
189 204 217
192 206 217
175 193 161
184 200 191
183 200 191
182 199 191
187 202 204
190 206 228
175 193 161
187 203 204
188 203 204
190 205 217
186 202 204
189 204 217
168 188 144
170 189 144
191 206 217
187 202 204
176 192 191
185 200 191
185 201 204
180 197 191
180 197 177
195 209 228
188 203 204
186 202 204
182 199 191
192 208 228
182 199 191
187 201 207
187 202 191
171 185 207
176 193 191
140 151 134
172 186 204
147 165 183
116 135 125
127 145 125
115 131 142
108 129 135
109 127 135
116 136 169
49 79 97
52 83 112
56 88 144
44 71 82
47 76 123
51 82 139
46 75 97
45 74 118
48 77 99
41 67 106
52 82 136
44 71 126
47 76 124
44 71 121
44 71 135
49 78 135
39 62 87
31 50 87
44 70 119
36 59 99
46 73 135
26 45 85
28 49 98
35 57 101
33 56 106
88 95 107
132 147 149
78 100 105
48 77 128
53 84 95
60 94 149
51 82 144
59 93 155
59 94 155
57 91 149
62 96 137
58 91 114
64 99 161
65 100 161
60 95 149
61 96 140
54 86 95
60 95 127
56 89 105
57 89 137
60 96 140
57 90 122
54 87 111
59 92 137
56 89 127
56 90 137
58 93 125
59 93 151
61 97 149
59 93 140
60 95 114
63 98 151
60 93 127
63 98 151
58 90 125
61 97 140
63 99 161
63 97 140
55 88 114
57 93 114
61 97 140
57 90 127
59 93 99
62 95 127
59 93 151
58 92 114
62 96 140
58 93 114
57 92 140
63 99 161
60 95 127
62 97 151
62 99 171
56 90 127
63 99 151
63 99 161
59 95 140
63 99 161
61 95 140
58 93 114
61 97 151
60 95 127
62 98 151
56 89 114
59 94 127
58 91 127
61 97 140
58 93 114
56 88 140
56 85 127
60 93 128
56 89 114
61 97 151
59 91 130
53 83 99
60 94 140
60 94 127
58 93 114
60 94 142
57 87 117
62 98 161
54 84 99
60 96 151
58 92 140
56 88 127
60 91 133
59 94 127
60 94 142
58 90 127
61 97 151
60 94 127
59 93 130
60 91 140
57 90 117
56 88 142
60 94 151
53 82 127
59 91 130
52 83 118
64 99 163
56 86 140
58 88 88
54 82 122
55 86 120
46 68 99
105 101 62
102 85 36
53 46 45
83 78 39
103 95 64
74 71 28
85 77 38
33 41 18
93 86 55
37 48 41
74 71 52
88 85 53
74 72 52
110 107 68
58 63 34
86 89 58
96 96 73
105 106 59
114 114 77
74 79 53
91 92 63
65 73 58
144 137 51
122 118 69
123 126 67
110 106 68
130 128 58
146 142 77
149 146 80
116 119 82
133 132 72
121 123 67
138 130 53
162 153 88
126 126 76
148 144 85
163 159 99
163 156 84
134 134 76
151 147 67
164 158 103
127 122 67
157 153 89
154 149 83
123 122 72
135 133 62
171 164 107
141 135 57
145 140 57
157 153 80
151 147 92
158 153 102
135 135 76
162 158 102
160 155 84
168 162 88
165 160 84
160 156 95
165 158 72
149 144 79
159 154 84
151 146 84
164 160 88
170 161 88
150 145 84
161 157 80
151 148 92
167 164 95
155 151 80
170 165 88
153 150 62
178 171 102
181 172 95
174 167 102
168 161 80
137 132 37
171 163 88
157 152 74
164 159 80
166 162 72
168 159 88
168 162 97
173 165 102
178 171 102
148 143 72
166 160 88
174 169 102
163 157 62
177 169 88
176 166 88
161 154 80
168 159 72
169 164 80
166 158 81
175 167 88
172 160 102
171 161 88
167 160 88
167 160 88
189 177 108
167 162 72
165 158 72
165 154 81
170 160 75
171 166 88
161 158 74
170 160 80
159 149 62
157 156 51
175 167 80
169 160 80
171 166 88
169 164 80
175 166 95
165 157 82
170 165 80
168 158 72
165 152 72
172 166 80
174 161 88
163 151 88
174 165 72
176 168 88
176 167 90
158 151 72
173 162 84
169 161 74
155 150 62
161 157 80
166 159 81
168 156 81
171 162 80
169 165 88
171 165 95
157 148 72
152 148 62
156 151 51
165 158 80
169 160 88
165 157 62
168 162 62
154 143 53
147 137 40
172 163 95
159 150 74
173 166 80
180 172 102
183 170 102
178 165 96
179 196 177
187 203 204
181 197 177
185 201 204
179 195 161
184 200 191
181 197 177
181 198 191
184 200 191
187 202 204
183 199 191
186 202 204
191 206 217
188 203 204
187 203 204
176 193 161
189 204 204
174 191 144
184 200 191
184 200 191
181 198 191
185 201 204
186 201 191
180 196 177
182 199 191
187 202 204
192 206 217
183 199 191
177 195 177
185 202 204
188 203 204
175 193 161
187 203 204
174 192 161
188 203 204
187 202 204
191 206 217
170 189 144
188 204 217
173 192 161
192 206 217
193 207 217
185 201 204
184 200 191
176 194 161
183 199 191
185 202 204
189 205 217
194 209 228
184 200 191
182 198 177
174 192 161
190 205 217
190 204 204
185 201 191
173 191 144
189 204 204
184 200 191
186 202 204
188 203 204
187 203 204
165 184 102
188 203 204
188 203 204
185 200 191
173 190 144
179 196 177
179 195 177
178 195 161
180 196 177
189 205 217
179 195 161
182 198 177
183 199 191
181 198 191
188 203 204
188 203 204
185 202 204
184 200 191
185 202 204
191 206 217
194 209 228
190 205 217
181 197 177
192 206 217
185 200 191
185 200 191
177 195 177
185 202 204
188 203 204
181 197 177
178 195 177
172 188 161
191 206 217
180 197 177
181 197 177
190 205 217
183 199 191
182 198 177
174 192 161
183 199 191
192 206 217
175 193 161
190 204 219
178 194 191
185 200 191
183 196 180
175 189 187
185 198 204
149 167 153
172 187 198
188 201 204
170 182 169
94 111 114
154 167 187
117 137 184
101 122 153
115 134 153
99 123 139
96 121 125
78 100 133
49 77 88
51 80 109
53 83 88
46 73 121
45 72 114
48 76 104
46 74 102
48 77 113
42 68 99
51 79 104
51 82 149
41 67 103
47 75 131
42 68 99
34 56 80
46 75 101
40 66 102
41 67 104
40 64 96
41 66 88
35 58 93
25 42 80
32 52 80
26 43 73
15 27 57
5 15 46
98 107 120
107 128 154
49 79 76
62 96 140
55 88 125
56 88 142
54 87 111
53 83 117
55 87 99
56 89 114
61 96 149
60 93 111
55 88 140
62 96 151
56 90 135
58 91 135
59 92 141
60 95 140
61 97 149
54 87 95
57 92 125
60 94 114
60 94 137
59 92 140
63 98 161
61 97 140
56 89 127
58 91 127
59 94 137
62 97 140
61 95 137
61 97 151
56 90 114
60 95 127
60 95 140
58 92 125
61 96 140
60 96 151
56 90 127
61 97 140
55 87 80
61 96 140
58 93 114
60 96 140
64 99 159
57 91 127
63 98 151
62 98 151
57 90 125
57 90 99
53 83 99
58 93 114
62 96 161
60 95 127
62 97 127
62 97 151
54 85 114
57 91 127
57 91 127
60 95 140
58 93 127
62 96 127
62 97 140
63 98 151
57 90 114
55 87 127
60 96 140
59 94 127
60 95 127
59 92 127
59 94 127
61 96 140
53 83 127
57 89 127
63 97 140
60 96 140
60 96 151
61 95 130
62 97 140
63 99 171
59 92 140
60 94 140
61 95 142
59 94 140
61 96 140
62 97 140
57 89 114
57 88 133
55 84 117
56 87 140
57 89 99
61 93 131
57 89 127
62 96 161
54 86 115
53 78 80
58 91 130
57 87 142
57 90 117
53 82 130
55 84 80
42 64 41
55 87 114
49 74 102
88 88 64
96 85 37
64 45 12
96 88 39
44 45 40
86 82 49
104 93 52
88 72 28
33 40 30
63 69 49
90 93 59
110 108 65
36 48 36
113 110 75
95 97 60
78 83 18
101 101 64
89 94 64
124 119 72
109 110 64
119 119 80
36 47 28
100 100 45
123 117 57
110 103 55
119 120 73
112 113 57
101 100 44
124 125 72
116 118 76
130 130 76
135 133 74
125 127 80
132 132 76
124 125 67
150 145 72
137 137 57
156 153 84
158 152 77
159 152 93
154 146 76
167 159 95
170 163 95
159 152 92
168 162 97
155 147 85
158 151 72
168 162 92
153 148 94
171 164 107
137 134 63
160 157 84
159 155 88
152 148 80
156 153 84
165 159 80
159 152 63
155 151 87
149 146 51
159 154 92
164 159 51
162 156 72
143 140 88
172 164 72
161 155 79
153 148 36
148 144 84
175 168 88
169 161 84
168 161 88
169 164 80
154 151 57
166 161 80
183 173 95
180 171 95
172 166 80
162 157 72
174 165 88
153 149 62
172 167 88
173 167 88
177 169 88
178 170 95
174 167 88
163 153 80
173 167 88
180 171 95
167 162 72
172 161 97
180 172 102
161 153 74
173 167 88
169 159 80
178 170 95
166 158 72
173 167 88
163 155 62
168 162 72
165 158 72
168 160 80
184 175 108
175 169 95
164 158 80
175 166 88
177 170 95
165 157 72
165 159 80
174 169 102
170 164 80
166 162 72
145 140 72
167 159 72
163 149 64
166 162 72
175 168 88
173 165 72
176 170 102
165 158 82
174 165 88
171 161 88
169 164 80
166 160 74
172 166 88
170 164 102
178 168 97
182 173 102
155 151 80
142 132 64
161 155 72
172 163 91
168 162 82
158 145 90
166 161 95
162 153 74
172 167 88
183 174 108
163 155 88
170 158 81
159 148 72
168 162 62
163 151 64
162 149 74
159 148 72
179 165 96
170 166 88
170 162 95
159 146 72
167 155 81
171 160 75
173 192 161
179 195 161
175 193 161
180 196 177
176 193 161
180 195 161
180 196 177
185 200 191
182 198 177
187 202 204
180 197 177
187 203 204
185 200 191
186 202 204
177 195 177
190 204 204
178 195 177
180 197 177
183 199 191
181 197 177
194 208 228
191 206 217
178 195 177
184 200 191
183 197 191
186 201 191
183 200 191
169 189 144
181 197 177
165 185 125
186 201 191
188 203 204
190 205 217
170 189 144
189 204 204
178 194 161
192 206 217
188 203 204
189 204 204
172 190 144
184 199 177
180 197 177
184 200 191
180 196 177
181 198 191
178 194 161
181 197 177
188 203 204
189 204 204
186 201 191
188 203 204
174 192 161
183 199 191
182 198 177
173 191 144
187 201 191
178 195 161
182 199 191
173 192 161
175 191 144
181 198 191
179 195 161
170 189 144
173 190 144
184 200 191
190 204 204
180 196 177
190 205 217
185 201 204
176 193 161
180 197 177
189 204 204
183 198 177
175 193 161
187 203 204
190 205 217
176 193 161
187 202 204
185 200 191
184 200 191
181 197 177
185 200 191
185 199 217
177 194 161
180 197 177
177 195 177
175 190 177
187 201 191
173 191 144
179 196 177
184 200 191
189 204 204
182 199 191
177 194 161
172 190 144
192 206 217
191 206 217
181 196 204
176 194 177
180 197 177
181 197 177
182 199 191
183 199 191
175 193 161
182 195 204
180 198 191
184 200 191
161 175 161
168 181 125
156 170 172
154 166 161
154 170 154
169 185 191
147 162 144
125 142 133
126 144 160
123 145 51
127 146 135
94 113 135
91 113 102
98 117 133
97 118 135
54 84 112
50 78 116
48 77 131
52 82 112
52 83 123
48 77 99
47 75 114
48 76 112
44 72 99
43 70 106
52 82 118
45 70 99
46 74 121
41 67 108
42 67 92
39 62 76
31 51 56
42 67 102
42 67 118
32 53 76
30 48 64
33 55 101
22 35 67
21 36 65
120 133 142
94 106 77
127 144 135
46 75 114
57 90 125
50 80 129
57 91 151
54 87 117
59 93 137
60 94 147
57 90 140
56 89 125
59 93 122
62 96 147
60 96 151
56 90 114
61 96 127
56 90 135
62 97 140
58 91 127
56 87 122
59 93 114
61 95 151
59 93 114
64 101 171
58 92 140
64 100 161
62 96 151
59 94 114
63 98 151
63 98 159
57 91 80
58 93 151
58 92 137
57 91 114
62 97 140
61 96 127
60 94 114
60 93 99
61 96 151
62 97 140
62 97 149
60 95 127
61 97 140
59 93 99
55 88 99
61 94 140
58 92 99
63 98 151
61 96 127
62 97 140
57 90 127
56 88 127
59 93 114
55 89 114
59 94 127
62 95 140
60 96 140
57 90 127
61 96 140
59 92 140
62 97 151
55 88 140
60 95 127
60 94 127
60 94 114
63 98 151
62 97 140
54 85 114
57 92 114
56 88 80
64 100 161
59 94 114
61 98 161
60 95 151
58 89 102
60 94 127
50 80 99
63 99 161
59 93 127
60 92 102
61 95 151
58 90 127
61 97 151
61 96 127
59 93 127
60 95 142
57 88 122
57 89 117
54 81 99
55 84 131
57 86 102
62 96 151
61 95 130
58 90 130
60 92 117
52 81 99
59 88 130
51 80 99
55 87 114
60 93 142
53 84 117
55 80 111
54 85 80
55 81 108
56 66 65
123 100 23
117 103 40
60 64 42
74 66 38
67 48 31
54 40 9
69 57 36
36 45 26
72 61 31
57 51 30
73 66 45
85 87 57
76 70 28
82 69 24
87 85 52
104 97 60
91 83 16
102 97 59
93 93 51
93 100 77
116 118 76
88 91 54
126 122 65
119 120 76
86 84 36
143 133 88
111 114 52
118 114 68
151 143 80
127 127 69
126 125 44
124 123 44
121 118 62
139 137 57
120 122 68
144 140 73
166 160 88
134 132 80
152 145 84
121 119 57
157 152 84
178 170 95
148 142 80
155 151 72
156 149 62
151 146 90
146 143 70
160 154 84
161 156 84
163 157 88
165 159 88
171 163 88
166 160 84
163 159 84
175 165 95
137 133 60
166 158 62
166 160 88
181 173 113
164 158 72
166 160 88
163 154 84
165 159 80
167 163 87
172 163 87
157 151 62
161 157 72
170 167 102
168 162 92
165 158 92
166 158 84
170 163 70
174 165 80
181 172 102
165 159 80
171 166 88
170 165 87
155 151 80
169 161 94
167 159 80
176 167 80
178 170 95
156 151 64
177 169 88
172 166 80
170 165 80
168 164 87
164 158 72
169 165 88
158 152 62
164 160 88
163 153 80
175 166 80
173 168 95
176 172 114
165 161 72
159 152 80
168 157 80
156 151 72
178 170 95
179 171 95
168 164 80
176 168 88
171 159 95
171 164 72
166 160 72
174 165 88
170 163 72
151 147 62
161 157 51
162 152 75
158 151 80
162 157 62
170 162 80
165 160 88
151 143 80
180 170 102
169 165 88
162 150 91
169 162 88
178 169 102
165 158 80
171 162 88
162 151 72
179 169 97
170 164 80
166 155 74
167 163 80
164 157 82
182 170 102
167 153 90
162 154 74
167 164 88
153 143 62
172 165 80
145 142 51
167 155 88
162 154 62
154 143 82
166 153 88
167 155 82
159 150 81
169 155 90
167 157 80
169 160 80
152 149 88
149 137 36
156 148 0
182 198 177
181 197 177
191 206 217
189 204 204
178 195 161
193 207 217
191 205 204
168 187 125
177 194 161
173 190 144
174 190 177
177 195 177
183 199 191
186 201 191
182 199 191
172 190 144
185 200 191
178 194 161
186 202 204
192 206 217
192 206 217
162 181 72
190 205 217
186 202 204
181 197 177
194 209 228
179 196 177
169 187 125
180 196 177
176 193 161
183 199 191
181 197 177
184 200 191
190 205 217
189 204 204
182 197 177
186 202 204
181 198 191
181 197 177
181 197 177
190 206 217
186 201 191
178 194 161
183 200 191
178 196 177
182 198 191
181 196 177
186 202 204
181 198 191
184 200 191
191 206 217
192 205 204
182 199 191
175 190 177
177 194 161
188 203 204
175 193 161
175 193 161
178 194 161
183 199 191
190 205 217
170 189 144
185 200 191
187 203 204
175 193 161
174 191 144
182 197 191
185 199 177
177 195 177
188 203 204
184 200 191
181 197 177
180 197 177
171 190 144
187 203 204
183 199 191
168 187 125
185 201 191
179 196 177
174 191 144
171 189 144
182 198 177
184 200 191
180 196 177
182 198 177
187 203 204
187 201 191
185 200 191
173 191 144
183 198 177
183 199 191
178 196 177
169 187 125
181 197 177
172 191 161
176 193 161
176 192 144
175 193 161
186 198 204
170 189 144
175 190 177
178 195 161
180 196 177
182 198 177
170 186 144
172 184 162
183 200 191
176 191 165
172 184 165
162 175 133
157 172 129
145 158 170
135 153 99
159 174 144
124 144 169
121 140 125
132 150 144
129 146 153
99 118 114
92 110 125
55 85 151
110 129 125
48 76 109
53 83 114
52 83 114
46 74 85
53 83 112
45 72 112
44 71 99
49 78 133
48 77 126
46 73 125
38 60 51
34 56 82
39 63 105
37 60 62
39 64 90
34 55 90
32 52 56
36 58 99
32 53 98
33 52 85
24 39 57
28 46 82
23 40 72
22 39 72
68 79 100
123 139 117
104 120 79
50 79 116
59 93 149
52 83 127
60 93 150
55 87 120
55 88 111
56 90 111
59 93 114
57 89 80
55 88 125
56 90 111
56 88 137
58 91 111
63 98 151
54 88 99
57 92 127
62 97 151
65 101 161
57 91 118
59 93 125
57 90 114
57 91 99
56 89 125
58 93 127
62 97 140
60 96 151
58 91 127
56 87 114
59 93 140
62 98 159
56 88 127
59 94 127
60 94 140
61 95 137
63 98 140
60 96 140
60 94 125
55 86 114
63 96 159
58 91 140
62 97 140
63 98 159
61 96 140
61 95 114
62 96 151
57 91 99
59 91 117
59 95 140
59 94 127
62 98 161
59 94 140
64 100 161
62 96 127
61 94 127
60 95 127
61 96 140
61 95 114
58 91 102
61 96 140
59 94 127
63 98 151
61 94 127
61 96 161
61 96 140
61 94 142
60 95 127
60 92 140
56 86 117
58 93 127
59 93 140
55 87 114
55 86 114
56 90 114
59 92 117
58 92 99
57 90 140
61 96 140
57 88 127
63 99 151
55 85 84
58 91 99
51 80 99
57 90 114
56 90 114
61 95 140
58 91 127
64 99 161
55 86 140
62 97 171
61 95 152
58 91 117
62 98 161
55 89 114
58 90 120
51 80 117
49 76 105
61 94 130
57 86 131
59 90 130
59 87 120
52 81 114
53 81 120
86 89 72
84 70 11
38 25 3
105 90 51
26 30 14
76 75 14
92 75 13
77 55 26
90 78 44
100 94 45
60 64 37
65 71 45
65 65 28
114 106 47
110 108 69
99 91 45
89 90 51
74 75 25
102 103 54
101 97 47
104 105 63
68 69 47
118 116 68
103 107 51
86 89 45
117 116 74
118 119 85
118 118 72
141 137 67
132 129 57
119 122 44
136 136 80
122 121 73
120 122 57
149 146 80
128 124 62
132 128 80
109 111 57
143 138 76
154 151 76
133 132 75
148 145 72
160 156 80
147 141 75
163 158 76
153 151 72
158 152 88
169 162 88
145 144 81
138 139 68
136 133 84
142 134 67
148 139 62
152 148 57
112 112 62
164 157 72
163 158 80
164 158 80
166 159 80
163 159 84
172 164 88
129 129 67
155 153 62
183 174 108
175 167 88
156 152 90
181 173 102
169 162 88
156 149 76
173 166 80
173 167 88
167 161 88
173 165 99
172 162 80
172 165 95
159 155 67
172 167 88
165 160 80
168 161 72
168 161 88
174 168 95
171 164 79
167 162 72
165 158 62
163 158 80
170 163 88
172 159 82
164 157 80
163 161 80
170 163 80
178 170 95
158 155 72
174 167 88
175 169 95
171 162 88
160 155 51
178 171 102
169 163 72
158 153 62
171 165 80
169 160 80
176 168 88
157 149 62
185 174 102
171 164 102
175 166 90
176 167 80
165 154 88
170 161 103
172 166 88
175 170 102
164 157 51
170 157 75
159 148 65
159 153 62
176 169 95
175 169 95
160 157 88
170 164 80
170 164 90
168 162 82
166 157 72
174 166 80
160 156 80
175 163 88
168 161 72
162 154 72
166 156 82
163 153 62
173 166 80
169 157 80
176 169 95
168 161 74
150 132 56
171 161 84
168 157 88
167 156 80
174 168 88
155 142 65
174 168 88
165 156 95
167 162 95
171 159 82
177 166 88
157 146 72
167 160 88
176 165 95
164 153 54
159 145 72
178 195 177
174 191 144
181 197 177
187 202 204
190 204 204
178 194 161
190 205 217
185 200 191
181 196 161
183 199 191
175 193 161
171 189 144
181 197 177
176 193 161
179 195 161
182 199 191
185 202 204
170 189 144
179 195 161
163 183 102
184 200 191
179 196 177
172 190 144
182 199 191
179 195 161
194 208 217
176 193 161
185 200 191
168 185 161
178 194 161
179 196 177
177 195 177
188 203 204
174 192 161
188 203 204
178 195 177
188 203 204
169 189 144
177 194 161
179 196 177
182 199 191
185 201 204
179 196 177
181 197 177
175 193 161
184 200 191
173 191 144
181 197 177
180 197 177
164 183 102
180 197 177
186 202 204
174 191 144
195 209 228
177 194 161
170 189 144
182 198 177
175 191 144
186 202 204
183 199 191
179 195 161
186 201 191
179 196 177
178 194 161
181 197 177
173 192 161
178 194 161
177 194 161
186 201 191
182 199 191
183 199 191
186 202 204
194 207 217
181 197 177
173 191 144
184 200 191
173 191 144
183 199 191
178 196 177
186 202 204
160 178 125
184 200 191
177 194 161
175 193 161
179 193 177
175 192 144
167 184 144
189 203 204
182 198 177
181 197 177
185 200 191
179 196 177
180 197 177
180 197 177
162 178 161
176 193 161
180 196 177
183 200 191
183 199 191
175 189 161
171 188 125
184 200 191
184 200 191
185 200 191
181 195 191
180 194 177
171 187 144
150 164 79
168 180 165
179 189 177
165 179 144
146 164 135
140 160 102
152 164 144
153 164 135
106 123 144
139 155 151
133 149 125
98 109 125
122 134 99
99 115 133
89 110 116
49 76 109
53 83 114
52 82 85
37 60 58
50 79 114
46 73 135
47 74 111
46 73 107
52 83 114
41 67 102
48 77 112
46 74 109
32 52 93
40 64 101
44 70 68
44 70 82
41 66 101
37 60 102
40 64 92
40 64 72
33 56 100
36 56 98
27 44 65
26 43 63
128 139 125
108 117 112
68 88 79
51 79 95
53 84 125
55 89 147
59 94 135
52 83 80
55 88 122
59 94 140
61 97 149
57 89 148
60 93 140
56 89 127
58 92 140
56 89 125
65 100 169
58 90 135
60 94 137
53 84 114
54 87 137
60 96 140
61 96 127
58 90 114
61 95 137
57 92 127
51 84 111
55 88 111
63 99 169
60 95 140
63 98 151
56 89 114
58 91 99
58 92 99
62 97 151
55 86 140
55 88 99
58 94 127
56 90 125
60 94 151
59 94 140
58 92 127
62 96 127
56 88 76
60 95 127
56 89 114
58 92 114
60 94 151
59 93 127
64 99 151
60 95 127
63 98 151
57 91 140
56 91 127
61 96 140
61 96 140
54 86 114
54 86 80
60 95 127
53 84 99
53 83 114
59 92 140
57 90 99
60 93 140
59 95 140
63 97 161
61 95 140
59 95 140
60 96 151
57 89 84
66 102 181
59 93 127
61 94 140
60 95 151
63 98 140
58 91 127
61 93 140
62 96 151
61 96 140
54 86 127
59 93 140
61 93 142
60 95 127
63 98 153
57 88 142
61 96 140
60 95 127
60 94 130
55 83 117
61 95 140
56 89 130
56 86 99
58 90 131
55 86 105
61 95 161
56 86 92
55 86 114
58 92 127
51 80 101
56 88 127
55 84 127
52 81 114
54 80 120
51 75 92
55 82 130
95 77 58
96 84 13
92 77 46
81 68 13
50 38 9
46 39 11
38 36 25
34 45 32
60 61 19
66 71 46
43 49 38
83 76 44
66 75 57
94 85 47
61 67 38
84 81 33
115 107 67
75 74 44
78 83 62
91 85 52
113 114 63
89 94 58
104 107 71
84 84 52
131 128 79
92 96 68
104 97 59
90 95 53
120 122 62
147 142 72
141 134 63
113 112 51
142 139 72
100 99 36
148 145 85
171 163 88
136 132 65
123 121 62
143 140 80
151 147 88
164 159 88
161 157 76
140 138 57
148 142 72
163 157 92
167 159 72
145 143 75
153 146 67
150 146 81
162 158 88
161 156 80
154 146 88
169 162 88
171 166 88
161 157 80
159 154 92
161 157 80
157 153 51
150 146 67
165 160 62
165 156 88
151 145 51
170 162 87
154 148 72
160 155 72
161 155 72
172 164 88
165 160 80
164 157 70
157 153 65
164 155 72
168 159 88
165 161 72
174 165 72
168 164 80
172 165 87
166 161 88
166 158 80
175 167 80
178 169 88
171 164 88
177 169 88
167 159 80
156 155 72
174 166 88
170 162 80
159 154 88
167 163 80
143 140 51
170 165 80
177 168 102
167 160 74
172 165 80
177 170 95
165 160 62
179 171 95
164 158 72
179 168 90
174 165 96
166 163 80
161 158 80
165 157 72
174 165 88
166 159 72
165 161 72
171 163 80
143 138 62
173 168 95
166 161 62
172 167 88
166 158 80
164 156 62
168 162 62
154 145 51
177 169 88
164 155 82
162 158 88
171 163 80
174 168 95
180 169 102
164 155 72
183 174 102
163 151 72
184 170 102
174 162 95
179 168 102
174 164 88
162 154 62
172 166 88
165 155 72
165 161 72
172 162 88
177 167 95
161 143 58
171 165 80
166 161 62
165 158 64
177 169 88
167 157 72
154 147 39
164 161 72
146 133 53
164 151 82
161 154 80
166 157 72
152 145 62
188 177 108
175 164 74
168 157 82
182 199 191
190 205 217
183 198 177
174 189 144
181 197 177
164 181 144
186 202 204
177 194 161
179 196 177
183 199 191
176 193 161
177 194 161
179 196 177
177 194 161
184 200 191
178 194 161
173 191 144
176 194 177
176 193 161
186 201 191
180 196 177
176 193 161
185 200 191
189 204 204
188 203 204
192 206 217
179 195 161
186 201 191
175 193 161
178 194 161
186 201 191
192 206 217
185 201 191
170 188 125
182 199 191
173 191 144
178 196 177
183 199 191
189 204 204
171 189 161
185 200 191
164 184 102
188 203 204
187 202 191
176 193 161
177 191 177
174 191 144
175 193 161
185 200 191
176 192 144
178 194 161
182 197 177
181 197 177
190 204 204
183 200 191
178 194 161
182 199 191
174 192 161
179 195 161
180 197 177
183 197 204
168 187 125
181 197 177
177 195 177
196 210 228
189 204 204
169 185 144
177 194 161
178 196 177
181 197 177
171 189 144
182 199 191
177 191 161
185 200 191
192 206 217
169 183 144
180 197 177
178 194 161
170 189 144
187 202 191
171 190 144
191 205 204
182 198 177
171 188 125
172 190 144
176 194 161
180 197 177
178 193 177
173 188 144
175 191 177
175 193 161
173 191 144
169 189 144
171 187 144
170 185 144
169 187 144
185 200 191
190 204 204
176 193 161
168 185 144
154 170 72
163 179 72
170 183 144
170 186 161
156 175 32
164 178 144
156 170 125
154 167 102
173 187 184
151 164 118
178 191 177
158 175 144
162 176 153
159 178 125
127 139 144
141 155 133
109 128 144
93 116 135
82 106 102
118 136 114
94 114 123
77 97 123
51 82 114
37 59 75
49 78 79
52 83 123
48 77 99
43 68 68
48 76 127
51 80 112
45 71 102
41 66 82
44 71 126
43 69 108
44 69 111
35 57 108
35 58 74
48 77 118
43 68 70
39 63 68
44 72 125
38 61 78
33 54 90
26 42 36
25 41 71
65 72 80
102 112 115
134 149 130
111 126 129
51 80 133
54 87 133
55 88 144
55 87 92
53 85 111
52 84 117
50 80 95
59 93 125
62 98 159
61 97 140
53 85 135
59 94 137
62 96 140
61 96 149
61 96 137
57 91 80
56 89 114
59 93 140
63 98 151
56 89 92
59 93 127
59 92 114
58 93 114
61 96 140
58 92 111
62 98 151
60 95 125
60 95 140
60 95 140
62 97 127
58 91 127
62 98 161
62 98 151
61 97 151
58 93 114
55 89 127
56 89 114
60 95 127
59 94 127
56 89 122
61 95 127
67 102 171
63 98 171
61 95 137
59 94 127
61 96 140
57 90 114
61 96 140
62 98 151
55 86 99
58 91 127
57 92 114
62 97 140
61 95 140
62 98 151
59 92 127
59 93 127
57 89 127
60 95 114
61 96 140
63 98 151
60 94 151
55 87 114
62 97 151
61 94 140
64 99 161
55 84 80
59 91 151
62 97 151
54 86 114
57 90 140
57 92 99
60 96 140
58 92 99
58 92 140
65 101 171
59 92 127
58 90 99
57 92 114
61 94 114
61 94 130
56 90 127
59 94 127
57 90 114
53 84 127
60 93 114
60 93 114
56 86 114
59 94 140
56 84 99
58 90 127
61 93 130
52 77 99
58 88 130
52 77 89
57 89 130
53 83 62
55 87 99
54 81 90
55 83 102
52 74 88
51 76 107
134 128 95
93 83 16
92 81 36
89 80 15
85 73 19
68 62 28
105 93 43
96 87 26
72 63 20
39 38 3
68 58 14
93 86 51
91 88 38
89 79 36
58 58 38
82 85 44
88 80 35
113 109 54
102 106 62
94 79 46
105 101 57
97 90 17
117 112 58
95 102 67
109 113 72
118 122 68
128 127 58
83 85 59
128 129 62
126 125 73
134 133 67
148 145 84
134 131 78
164 159 89
111 110 59
152 147 51
139 135 59
145 142 72
140 136 76
131 130 62
149 140 88
169 162 97
123 122 67
117 115 52
114 114 57
144 143 51
114 115 62
167 161 77
148 141 84
145 142 51
163 154 87
183 173 102
142 140 63
151 145 90
151 143 72
162 156 67
155 152 88
175 168 88
153 151 84
134 133 57
151 151 62
151 147 62
170 162 80
161 155 92
176 168 88
146 139 84
179 169 95
184 175 108
175 169 95
172 163 80
162 153 72
162 157 95
184 174 102
161 155 72
179 168 95
168 162 92
160 154 80
164 159 88
164 159 80
165 161 72
171 163 88
182 172 95
180 170 102
167 160 88
174 166 80
161 156 72
165 158 72
167 158 70
166 163 80
174 164 80
174 165 80
163 157 72
164 155 62
162 159 62
170 161 74
167 163 80
162 160 72
168 163 72
161 152 80
160 156 72
149 140 62
163 157 80
162 152 64
165 157 51
168 156 72
148 142 80
177 170 102
187 176 108
156 152 62
168 164 80
180 172 102
168 153 81
177 170 95
157 148 51
175 168 88
159 149 72
168 161 80
166 157 80
164 148 81
170 162 88
162 156 88
175 165 82
157 143 64
155 148 40
170 164 72
178 172 108
169 161 95
174 167 88
164 154 72
164 154 90
156 153 62
160 147 64
164 157 74
168 159 74
162 152 80
166 160 74
174 163 102
167 158 81
168 158 72
159 153 80
173 156 89
156 149 53
168 160 81
165 158 80
155 145 51
164 154 90
166 151 81
152 145 62
158 151 80
176 193 161
189 203 204
170 189 144
188 203 204
182 198 177
179 196 177
186 201 191
178 195 177
163 182 72
178 196 177
185 200 191
175 193 161
171 190 144
180 197 177
163 183 102
182 198 177
176 193 161
187 201 191
176 193 161
186 201 191
170 189 144
172 189 125
176 193 161
176 192 144
185 200 191
177 194 161
175 192 144
184 200 191
188 203 204
174 191 144
182 198 177
170 188 125
187 202 191
176 193 161
180 196 177
180 197 177
175 192 144
189 204 204
169 185 161
178 194 161
165 184 102
180 197 177
176 193 161
176 193 161
184 200 191
187 203 204
180 193 191
184 200 191
181 197 177
181 197 177
181 197 177
173 191 144
186 201 191
189 203 204
182 198 177
184 200 191
184 199 177
179 195 161
167 186 125
174 191 144
167 185 102
174 192 161
171 188 144
172 190 144
177 194 161
177 194 161
167 184 144
175 192 144
167 186 125
168 187 125
181 197 177
170 188 125
183 197 191
173 191 144
187 202 191
158 179 72
177 194 161
171 190 144
165 184 102
171 190 144
160 178 102
181 196 161
172 187 144
178 194 191
183 198 177
179 195 161
172 190 144
183 198 177
181 196 177
166 186 125
168 186 102
177 191 191
161 179 102
181 197 177
167 183 144
184 199 177
176 193 161
189 204 204
166 181 125
181 195 144
173 188 161
179 195 161
171 190 144
151 164 144
169 187 125
175 185 177
148 162 72
170 185 144
153 165 135
136 146 79
169 180 169
163 177 156
163 175 153
144 157 153
126 131 116
118 138 133
119 136 135
113 128 0
93 115 102
102 115 102
102 118 114
75 93 102
63 88 72
49 80 123
50 79 123
50 78 133
48 78 99
52 80 121
47 75 99
41 65 73
53 84 123
49 77 112
44 71 103
40 64 72
51 81 139
39 62 101
34 57 64
40 64 112
27 44 18
34 56 43
43 67 97
35 57 89
31 51 65
26 43 46
27 44 87
49 61 44
135 149 144
123 143 79
117 131 136
50 81 108
53 83 99
55 88 92
56 90 133
56 87 144
51 82 0
54 86 95
60 94 125
59 94 161
57 90 127
60 93 137
57 90 99
50 81 127
55 88 151
56 87 114
55 88 127
55 89 140
61 96 147
58 92 111
63 99 151
58 92 149
58 92 80
54 88 88
61 97 151
58 90 140
57 90 140
64 99 151
54 87 95
61 97 140
58 92 127
59 94 114
61 96 127
59 92 140
61 97 161
59 93 127
57 91 127
64 100 161
51 82 111
61 96 140
59 94 114
62 97 151
57 91 114
59 94 151
57 93 114
61 95 127
60 95 127
61 95 140
59 93 127
59 92 127
53 86 80
58 94 127
60 93 140
55 88 114
60 96 151
51 81 57
60 95 127
61 97 140
60 94 137
59 93 151
59 95 140
62 98 161
60 95 151
58 93 114
57 93 127
58 92 99
49 76 57
54 86 114
59 93 151
61 96 127
61 97 151
62 96 142
58 89 130
57 90 99
64 99 161
58 92 127
58 93 127
59 93 140
59 89 114
58 91 130
59 91 114
57 92 114
53 81 114
56 89 80
58 90 130
58 87 131
60 94 130
62 97 140
56 86 130
58 90 130
61 94 128
57 91 99
63 98 140
50 78 117
54 82 117
55 86 142
59 90 142
53 85 80
57 89 102
58 88 140
55 86 115
54 81 117
47 73 99
68 69 60
111 106 36
84 63 19
57 59 16
56 42 26
97 78 31
49 42 18
38 43 29
89 77 16
89 75 18
77 75 47
60 49 11
74 74 44
82 86 47
66 73 38
101 93 47
84 78 30
114 114 68
87 87 23
136 130 62
127 124 57
134 128 64
143 141 67
112 112 62
108 110 44
127 128 76
91 94 25
127 126 36
106 106 36
83 88 54
117 118 62
86 90 57
128 125 76
154 146 88
131 129 63
141 131 57
138 129 77
150 143 62
122 121 57
146 143 76
168 161 88
137 135 62
152 150 76
129 130 57
151 147 62
136 133 62
140 136 72
169 162 88
160 154 87
134 128 52
158 154 88
171 164 99
161 153 80
156 146 62
154 148 80
158 157 62
146 147 72
147 144 80
167 161 94
147 144 80
165 159 80
163 159 62
163 159 70
171 162 80
152 148 62
126 124 44
167 160 76
155 150 92
163 160 62
156 148 72
163 158 72
162 157 80
153 150 72
156 151 76
155 152 72
152 147 72
160 155 51
163 158 51
162 156 62
169 158 80
172 164 88
176 169 95
172 165 87
168 160 64
156 150 72
157 153 60
144 142 36
170 164 80
154 150 80
179 169 102
174 166 80
157 155 72
162 158 72
168 161 74
172 168 95
169 161 88
167 158 72
176 164 88
170 156 80
177 169 95
161 153 72
166 162 72
174 166 95
177 169 95
160 156 80
159 155 36
162 156 72
172 167 95
165 159 72
168 162 95
162 159 62
164 162 80
169 163 95
178 170 95
170 163 88
174 165 82
171 163 80
167 159 72
171 159 80
169 160 82
166 160 72
160 154 74
177 170 95
184 174 102
173 168 95
168 162 80
156 154 80
168 161 74
175 160 90
170 163 88
170 166 88
164 157 72
162 152 72
155 141 81
174 164 80
175 161 82
161 153 51
160 147 72
153 145 51
159 153 62
168 157 80
162 154 72
161 150 72
154 138 56
166 156 82
170 159 90
171 157 81
171 164 88
167 156 95
179 195 161
181 197 177
177 194 161
178 195 161
178 195 161
181 197 177
183 199 191
177 194 161
180 195 161
171 190 144
177 194 161
180 197 177
183 199 191
185 200 191
171 189 144
176 193 161
181 197 177
188 203 204
171 188 125
173 190 144
179 195 161
181 197 177
185 200 191
179 196 177
185 200 191
177 194 161
172 190 144
170 188 125
178 195 177
171 189 144
186 201 191
177 194 161
180 196 161
169 187 125
182 198 177
175 193 161
185 200 191
174 191 144
184 200 191
176 193 161
178 194 161
172 190 144
182 198 177
171 188 125
166 186 125
162 182 102
179 195 161
176 193 161
180 196 161
167 184 144
179 195 161
170 188 125
165 184 102
179 195 161
166 185 102
169 187 125
175 192 144
180 197 177
177 194 161
185 200 191
179 196 177
174 191 144
170 188 125
177 194 161
164 184 102
183 199 191
170 188 125
172 190 144
166 185 102
182 195 177
186 201 191
181 196 161
175 193 161
181 197 177
187 202 191
185 200 191
185 200 191
176 193 161
176 193 161
168 187 125
166 184 102
164 181 125
178 195 161
179 195 161
177 194 161
171 187 161
161 180 125
166 183 144
164 181 144
173 191 144
181 197 177
172 190 144
178 194 161
173 191 144
175 192 144
173 188 161
176 193 161
179 196 177
174 188 161
171 189 144
180 196 161
172 188 161
166 184 144
180 197 177
170 184 144
167 181 144
158 177 125
160 177 125
159 174 169
153 170 114
147 161 73
148 162 107
139 156 125
139 157 144
122 129 60
120 135 88
93 116 88
137 159 102
125 143 114
122 137 123
98 118 51
54 85 133
70 92 107
53 84 141
47 76 114
43 69 104
49 77 107
44 71 85
48 77 114
49 77 123
45 72 72
43 69 85
44 69 102
41 65 91
38 61 75
41 65 98
48 76 99
48 75 120
31 51 69
38 61 104
37 60 75
24 42 59
33 54 76
28 44 54
27 44 54
66 77 77
83 97 92
126 142 96
114 131 138
53 83 108
56 88 122
53 84 111
53 84 137
49 78 111
51 82 99
59 92 114
59 94 147
58 90 137
58 92 137
59 94 127
60 94 140
61 95 127
56 90 155
58 91 114
60 95 149
64 100 171
59 93 99
57 91 127
55 87 114
58 92 140
58 92 111
57 92 114
62 98 151
58 93 114
58 91 114
56 90 135
57 91 127
61 96 137
56 90 80
57 90 114
62 97 151
54 87 127
51 84 114
53 87 99
59 94 114
60 94 151
62 98 151
55 87 127
59 93 127
61 95 127
56 89 127
60 94 127
60 93 99
62 98 151
56 90 114
60 96 140
61 95 151
55 86 99
59 94 127
63 98 151
61 96 127
56 90 114
59 93 114
59 95 140
58 93 127
63 99 161
62 98 151
60 96 151
62 97 140
60 95 114
62 97 140
63 98 151
62 98 151
62 97 151
57 89 99
59 90 140
63 98 140
56 88 102
58 92 127
57 91 127
63 97 127
59 94 114
54 85 84
54 84 84
57 91 127
61 96 127
54 83 80
59 94 127
59 95 140
60 93 142
57 90 127
58 92 140
62 96 142
60 93 142
57 90 114
59 90 127
61 95 127
58 90 130
55 86 99
55 87 99
58 89 127
57 85 102
55 84 117
58 89 120
59 90 130
58 89 114
51 74 63
51 79 88
53 82 115
49 76 62
48 74 81
69 69 67
96 80 36
123 108 51
92 68 7
81 58 21
49 40 16
75 73 28
53 54 16
88 82 18
82 81 0
79 76 44
46 43 16
65 68 28
61 50 37
63 69 30
90 90 29
100 79 25
122 108 63
105 107 62
106 103 55
94 94 28
84 84 25
122 118 36
108 102 44
95 98 63
112 111 36
133 130 80
111 108 45
135 133 77
84 89 52
128 127 51
128 126 67
145 144 80
110 107 44
135 127 64
137 132 80
144 138 84
117 117 63
136 131 0
113 111 68
146 143 52
139 131 67
161 155 92
154 150 72
145 141 73
169 163 101
149 140 84
129 129 57
149 146 57
123 123 67
143 141 72
155 152 80
171 161 70
133 127 72
164 153 76
154 148 72
162 158 75
137 135 68
166 162 80
144 138 48
151 143 72
149 147 67
171 163 88
162 156 88
149 143 76
171 163 87
169 162 62
168 162 88
168 160 95
148 141 72
162 158 80
161 157 80
167 162 88
160 153 80
146 142 63
177 169 88
159 155 72
173 166 88
153 145 62
166 162 72
157 152 80
170 163 95
163 158 80
166 156 88
168 161 88
173 166 80
172 164 95
174 160 95
169 161 80
169 163 72
170 165 88
173 164 95
164 156 72
172 165 95
155 151 51
185 174 102
168 163 80
172 163 80
149 148 51
186 175 102
171 164 72
165 158 72
177 170 95
177 166 95
178 166 95
173 165 95
156 148 62
173 166 80
174 162 80
152 149 80
164 161 72
181 172 102
170 162 88
159 152 51
180 171 95
162 151 72
156 153 51
163 162 80
163 153 72
165 155 81
177 166 96
161 151 72
164 150 72
170 162 80
177 169 88
161 155 72
177 170 95
161 156 72
172 162 80
164 157 72
150 140 51
164 156 72
156 149 72
169 164 80
164 147 74
167 158 80
165 159 51
157 144 63
169 160 72
158 156 80
167 157 82
178 167 88
160 151 72
169 160 97
153 144 64
174 162 95
153 144 64
170 155 82
176 169 88
171 189 144
184 199 177
166 186 125
185 200 191
193 207 217
181 197 177
183 199 191
185 201 191
170 189 144
184 199 177
181 197 177
180 197 177
185 201 191
168 187 125
185 200 191
174 191 144
192 207 217
173 190 144
171 188 125
188 203 204
168 186 102
178 194 161
170 188 125
180 196 161
179 196 177
182 198 177
168 186 125
183 198 177
183 198 177
177 194 161
182 199 191
160 180 72
161 182 102
175 191 144
175 191 144
175 193 161
183 198 177
177 194 161
182 198 177
176 192 144
166 186 125
167 184 144
165 184 102
172 189 125
179 195 161
174 191 144
166 185 102
167 186 125
177 194 161
177 192 177
177 194 161
183 198 177
168 187 125
168 187 125
169 187 125
174 191 144
175 192 144
180 196 177
179 195 161
166 184 102
187 201 191
171 189 144
175 191 144
164 183 102
160 181 102
174 191 144
177 194 161
160 180 72
170 187 125
176 193 161
167 186 125
161 181 72
179 195 161
176 192 144
170 188 125
163 182 102
184 200 191
170 188 125
177 192 161
163 183 102
168 186 102
174 190 177
183 198 177
170 188 125
181 195 191
175 192 144
162 180 72
178 195 161
177 194 161
174 191 144
179 194 191
158 175 102
178 194 161
179 194 161
169 187 125
163 180 125
173 191 144
179 195 161
174 191 144
145 167 0
152 171 72
175 193 161
169 185 125
171 187 161
167 184 144
169 187 125
152 167 79
174 186 148
161 177 125
177 188 165
145 164 72
153 168 118
134 147 114
162 177 161
109 121 107
119 140 114
105 127 125
105 125 68
111 133 114
103 120 51
74 96 123
89 108 102
90 105 72
49 77 97
50 80 131
46 75 72
46 74 104
47 75 98
47 74 64
41 67 68
51 81 127
43 68 110
41 67 28
40 65 94
39 62 96
35 56 58
36 58 47
48 76 102
31 52 72
35 57 68
27 44 51
28 46 45
28 46 27
21 36 28
23 40 73
98 116 101
75 88 81
160 177 125
152 167 164
49 78 84
58 91 135
51 82 104
59 94 149
59 93 144
54 88 122
55 86 135
54 86 147
55 89 108
51 83 117
55 88 137
59 93 125
59 93 99
56 89 111
57 90 114
60 95 127
57 91 127
54 87 114
58 92 149
59 94 114
62 98 151
57 91 127
53 85 140
56 85 108
58 92 140
62 97 151
60 96 149
63 99 151
58 92 127
62 97 140
58 92 151
58 93 114
60 96 140
61 96 140
57 91 127
62 96 140
59 92 127
57 91 140
61 96 127
60 95 137
57 90 114
51 81 76
59 91 114
57 90 99
57 90 99
61 97 151
63 99 161
60 95 127
57 89 99
62 98 151
59 92 99
57 90 127
65 100 161
58 92 140
58 91 127
54 84 114
59 92 114
60 94 114
60 96 140
59 93 114
64 99 151
59 94 114
62 97 151
61 96 127
57 87 127
60 93 114
61 96 140
56 89 80
63 98 151
56 86 99
61 93 102
59 92 140
59 93 117
61 92 140
61 96 140
60 95 127
62 96 151
56 90 127
54 84 127
57 90 114
54 86 114
58 89 127
56 86 84
57 90 114
62 97 127
61 94 140
53 81 102
49 76 80
55 87 117
55 87 127
51 79 115
54 86 129
55 83 84
58 88 127
50 76 84
55 82 127
55 80 128
54 85 99
46 71 31
48 74 103
52 78 90
46 71 102
147 139 97
53 42 15
98 77 16
75 63 32
95 90 54
73 64 29
58 57 36
61 53 36
94 82 35
64 57 0
63 64 11
80 82 37
87 87 47
80 70 7
99 90 36
87 91 62
44 55 44
87 88 44
102 102 45
121 118 73
73 80 37
109 105 44
110 108 51
97 98 36
112 116 73
111 108 57
116 116 77
117 116 67
98 98 28
126 122 67
157 150 72
99 102 63
118 111 28
106 104 57
137 137 85
120 117 67
110 111 44
110 113 36
126 123 57
158 152 72
143 140 62
159 152 80
151 148 73
136 131 51
130 128 81
155 151 76
128 124 68
141 140 62
171 164 72
158 153 76
125 117 63
143 139 67
169 163 95
163 156 72
157 149 62
146 143 67
166 159 92
139 134 51
128 127 51
161 158 62
173 163 80
158 151 95
163 156 80
150 148 76
162 156 80
154 149 80
157 151 76
153 148 72
156 150 72
169 165 88
171 164 72
167 165 95
154 150 36
150 147 62
156 154 72
161 159 88
162 155 84
164 159 62
166 162 72
158 152 51
163 159 62
157 148 80
155 152 62
172 166 80
173 164 72
170 162 88
183 171 102
166 159 72
163 155 80
159 152 62
161 155 51
171 163 80
171 166 88
179 170 95
156 149 72
171 165 80
178 170 95
167 160 72
163 159 62
168 163 80
172 162 81
178 170 95
175 166 95
155 148 64
163 158 62
165 158 72
177 167 95
151 139 22
173 166 80
177 170 95
162 155 80
169 163 72
168 159 72
166 156 74
157 147 80
176 166 90
161 154 80
161 158 62
156 149 53
167 153 72
166 159 72
173 164 72
180 172 102
165 155 88
157 151 64
164 157 72
156 141 81
163 160 72
166 155 72
171 161 72
168 159 72
174 162 75
169 155 81
158 150 62
168 164 80
176 165 82
157 149 62
151 141 72
179 171 102
163 152 63
173 168 95
163 154 88
144 133 53
158 148 62
173 161 75
162 148 80
170 165 80
150 146 62
161 154 62
171 188 125
183 198 177
170 188 125
178 194 161
179 195 161
170 188 125
175 192 144
178 194 161
174 191 144
174 191 144
170 188 125
177 194 161
182 198 177
175 191 125
182 198 177
181 196 161
186 201 191
157 179 72
169 186 102
182 198 177
183 198 177
181 197 177
187 201 191
174 192 161
176 192 144
181 197 177
169 186 102
160 180 72
177 194 161
180 196 177
180 197 177
171 190 144
174 192 161
166 185 125
174 191 144
179 195 161
171 188 125
174 191 144
175 192 144
168 187 125
176 192 144
162 182 102
175 191 144
182 196 161
173 191 144
174 189 144
164 183 102
169 187 144
173 190 144
166 183 125
178 195 161
154 176 0
174 190 125
181 197 177
177 194 161
164 184 102
177 191 161
161 179 125
176 192 161
176 193 161
165 184 102
165 184 102
167 183 125
167 184 144
172 190 144
178 194 161
174 191 144
184 200 191
169 187 125
172 188 161
179 195 161
156 173 0
160 178 102
181 196 161
168 187 125
165 184 102
166 184 102
161 182 102
178 194 161
154 176 0
152 173 72
168 187 125
169 187 125
174 191 144
173 191 144
163 183 102
179 195 161
173 189 125
180 196 161
176 193 161
170 188 125
158 178 72
164 181 102
164 184 102
152 172 72
156 174 102
166 184 102
173 190 125
166 183 144
156 171 72
175 192 144
164 181 102
177 192 177
161 179 125
162 183 102
169 186 161
154 172 72
141 150 107
132 150 0
143 159 118
105 113 51
144 159 153
123 136 99
138 146 125
111 131 72
107 122 114
86 105 85
109 125 99
131 148 72
123 139 112
69 93 114
82 106 72
80 100 51
45 72 112
49 79 85
52 82 112
49 77 102
41 68 51
47 74 68
44 70 91
41 66 75
39 63 45
36 61 67
42 66 75
47 74 94
31 52 72
37 59 68
38 61 79
34 56 98
35 58 72
37 60 49
30 49 0
18 32 40
40 64 70
55 72 38
59 75 51
89 104 65
148 164 129
192 205 221
50 80 118
56 89 157
56 88 114
53 84 127
49 79 87
48 78 94
45 74 51
58 92 114
57 89 127
55 88 114
50 82 80
58 91 125
58 92 122
56 89 111
59 92 127
60 95 149
56 89 95
65 100 169
54 87 99
59 92 114
55 85 68
53 87 80
53 84 114
59 93 127
54 86 80
46 75 80
54 85 99
61 95 140
62 97 140
57 89 114
65 101 171
54 88 114
56 90 125
57 90 125
61 96 151
56 88 127
61 95 161
58 90 99
60 95 140
60 94 114
64 98 149
57 91 99
61 96 127
58 92 111
49 78 99
56 89 99
57 91 127
57 91 99
54 87 80
58 91 137
57 90 127
56 87 114
59 92 114
54 85 80
55 86 114
63 99 161
60 96 140
61 95 151
58 92 99
55 88 114
59 91 130
61 94 151
60 95 127
63 98 140
62 96 142
62 99 171
58 90 140
60 93 127
56 89 114
57 91 140
57 88 127
56 88 117
57 90 114
56 88 140
57 90 127
60 92 142
62 96 140
59 93 140
53 87 99
54 82 114
62 98 161
60 94 142
59 92 140
60 94 114
56 87 114
56 88 117
59 93 99
63 97 151
55 86 117
57 86 102
61 95 142
56 87 130
56 84 102
55 86 80
58 90 140
59 91 142
54 85 103
59 90 114
51 78 114
46 70 99
51 74 88
46 68 81
159 169 181
107 99 36
80 72 11
69 53 9
86 77 17
81 62 18
78 73 28
78 72 28
71 68 30
54 55 17
83 78 36
96 83 22
93 82 37
74 71 37
88 82 28
66 67 19
75 78 26
101 98 62
67 75 51
122 117 60
111 105 45
90 92 72
118 114 51
90 96 68
89 87 10
75 74 57
125 123 63
122 115 72
102 103 57
126 125 76
115 117 45
105 108 57
116 114 59
142 140 62
118 120 52
137 135 68
140 136 76
145 138 72
153 145 80
113 115 68
128 119 74
134 130 77
148 146 84
146 144 44
158 153 80
155 149 62
153 150 83
140 140 72
122 123 45
165 158 96
141 138 76
131 129 51
142 139 72
157 150 88
166 158 62
147 144 67
133 131 62
164 155 62
134 132 60
148 145 80
160 153 72
152 150 76
161 158 84
175 169 95
148 143 51
171 164 95
155 153 62
171 163 95
125 124 51
152 148 72
153 148 76
156 149 72
173 164 80
155 147 62
179 170 108
169 163 95
134 132 51
170 166 88
172 165 95
178 169 88
176 169 95
146 143 72
149 143 72
171 165 80
158 155 80
168 159 80
175 168 88
161 155 72
180 169 95
154 147 80
169 159 82
163 154 72
156 147 64
166 161 62
172 165 80
166 162 72
164 157 72
181 171 95
181 171 88
163 159 62
162 155 62
159 152 64
158 145 62
164 159 51
185 175 108
170 160 62
170 162 72
163 158 80
172 162 81
172 159 81
162 159 62
175 169 95
171 160 80
150 141 51
160 154 80
167 160 72
153 143 51
167 159 80
176 166 88
165 158 62
168 162 95
176 168 80
175 169 95
171 163 82
177 166 80
169 163 72
164 152 72
160 154 72
156 147 39
148 144 62
158 150 62
148 141 72
159 155 53
177 165 95
175 163 81
165 158 80
156 148 63
174 163 80
148 140 72
180 168 88
189 175 108
152 148 36
179 168 108
167 161 62
172 164 82
180 170 88
153 138 42
152 145 62
154 137 74
175 192 144
184 199 191
160 178 125
176 193 161
168 184 125
172 190 144
173 191 144
165 184 102
173 191 144
185 199 177
163 182 102
172 190 144
174 191 144
178 194 161
177 194 161
176 192 144
173 191 144
164 183 102
174 191 144
181 197 191
175 193 161
173 191 144
161 181 102
185 200 191
178 195 161
178 194 161
157 179 72
178 194 161
162 183 102
176 193 161
178 194 161
167 185 125
178 195 161
175 192 144
169 187 125
162 180 72
166 185 102
163 183 102
160 177 102
182 197 177
180 197 177
189 203 191
173 191 144
177 194 161
166 186 125
165 184 102
169 185 144
165 184 102
173 190 144
180 197 177
182 197 161
181 196 161
164 181 125
166 184 102
166 183 125
163 183 102
171 188 125
177 194 161
186 201 191
177 193 144
179 195 161
169 187 125
164 182 102
167 184 144
171 188 125
165 184 102
175 191 144
171 189 125
162 180 125
163 183 102
173 191 144
171 187 125
161 181 102
176 193 161
161 179 102
174 191 144
167 182 102
160 178 102
175 192 144
165 184 102
162 181 102
178 192 177
152 169 72
161 181 72
158 173 102
162 182 102
153 173 72
170 188 125
168 184 125
170 188 125
154 172 72
172 189 125
174 190 125
166 185 102
165 178 125
166 184 102
165 184 102
173 190 125
172 187 144
161 182 102
160 178 102
164 180 144
159 177 72
160 173 125
171 189 144
156 173 125
174 191 144
149 165 102
140 154 72
177 188 165
130 143 88
133 151 88
122 139 51
126 143 68
161 170 129
122 132 88
113 134 0
104 125 112
102 112 91
82 104 102
89 106 51
83 103 82
67 84 102
78 94 85
46 74 85
48 77 112
51 79 102
40 64 88
43 68 77
48 76 68
46 73 109
44 70 77
49 78 82
35 57 99
44 71 72
47 73 117
40 65 64
41 66 55
33 54 83
33 54 64
33 53 51
38 59 55
34 54 74
33 54 65
100 114 28
33 54 54
82 98 79
166 182 144
176 189 181
86 106 137
48 77 72
51 82 114
58 90 125
50 80 80
57 91 127
57 89 133
60 94 135
56 88 99
57 90 95
54 85 111
58 91 127
58 93 127
56 89 95
58 92 125
63 98 151
57 89 127
56 88 111
61 95 127
53 85 95
56 89 127
57 92 99
54 84 114
60 94 140
60 94 114
58 94 140
58 92 80
61 95 114
61 96 137
59 93 114
60 92 99
57 90 99
55 88 80
61 96 151
57 90 114
54 86 99
59 93 127
60 94 114
60 94 140
62 96 127
57 91 127
60 95 151
60 93 140
61 96 140
53 82 99
60 95 114
60 96 151
61 95 140
59 94 114
59 95 127
54 86 114
51 81 99
61 96 151
56 91 80
62 97 140
55 87 80
58 92 127
56 89 80
62 97 140
61 95 161
64 99 151
60 94 114
59 93 127
55 88 114
60 94 140
58 92 127
50 82 57
61 95 127
56 91 99
58 93 140
57 91 114
60 94 114
59 94 114
61 94 161
54 87 127
61 94 117
53 83 102
59 95 140
62 95 130
55 86 84
59 91 128
55 88 127
56 89 99
61 97 151
58 91 127
58 92 151
55 83 107
60 93 127
51 83 99
58 89 128
60 93 140
55 83 117
62 95 140
54 85 129
46 65 81
49 76 57
56 84 92
51 80 62
55 79 92
50 74 28
47 73 88
48 68 62
180 185 184
108 98 19
130 116 65
79 76 12
99 82 22
50 47 8
74 72 12
41 41 28
59 61 28
94 79 16
87 84 26
56 46 8
43 54 38
76 71 25
78 74 8
63 68 14
104 100 45
91 90 11
112 104 52
100 96 51
66 75 45
66 68 26
91 94 52
79 79 28
70 74 51
114 112 36
73 77 45
103 102 45
90 91 45
121 123 62
153 148 64
83 92 44
132 130 63
158 154 84
94 96 26
127 126 68
108 108 39
123 122 62
92 92 36
135 130 62
163 157 72
115 118 44
163 152 72
145 141 36
154 150 51
139 137 57
160 156 92
149 145 72
165 156 62
158 152 76
139 137 57
165 157 84
156 150 62
140 137 68
168 161 80
173 163 80
158 148 62
164 158 72
135 134 72
153 148 72
153 151 62
167 160 88
173 167 88
168 159 80
163 159 84
153 148 36
164 159 51
170 163 94
161 154 80
151 146 84
162 157 72
159 152 76
178 170 95
138 136 51
171 166 88
174 165 95
160 157 60
158 155 48
163 159 80
167 162 72
169 159 72
165 158 72
167 161 72
154 145 63
158 156 51
160 157 51
181 171 88
165 157 72
174 165 88
170 160 82
166 158 62
172 166 88
168 161 88
167 162 72
162 156 72
158 149 51
166 162 72
175 167 80
170 161 80
163 153 63
173 167 88
159 153 51
154 152 62
171 160 88
157 153 51
178 165 88
165 158 62
152 150 51
176 168 88
172 165 72
165 160 62
187 176 108
174 168 88
170 160 80
163 155 80
163 159 80
164 158 62
180 171 95
166 162 72
164 161 72
166 160 80
154 145 53
178 171 102
169 158 82
166 158 80
169 161 80
165 153 80
158 149 53
150 137 62
152 143 80
172 163 88
160 152 74
160 154 62
149 140 62
159 152 72
167 157 81
168 160 80
171 164 80
176 166 90
140 134 51
167 162 72
172 159 66
172 159 88
162 155 72
177 165 88
147 145 0
161 143 65
170 157 74
163 156 74
176 193 161
168 187 125
184 200 191
179 195 161
178 194 161
181 197 177
170 188 125
174 191 144
184 199 177
163 179 125
176 193 161
170 188 125
173 191 144
174 191 144
157 179 72
159 180 72
180 195 161
164 183 102
166 185 102
173 191 144
175 191 144
158 178 72
177 193 144
175 192 144
166 185 102
174 191 144
157 176 102
171 189 144
171 188 125
168 187 125
151 168 72
171 188 125
178 195 161
180 196 161
184 199 177
173 190 144
167 186 125
159 178 0
179 195 161
181 196 177
158 177 72
171 188 125
174 191 144
157 177 0
176 192 144
177 194 161
180 197 177
170 188 125
166 185 125
162 180 125
165 184 102
159 178 0
162 181 72
173 189 125
159 176 102
163 180 125
172 189 125
175 193 161
171 188 144
175 192 144
179 193 191
166 184 102
163 179 125
167 186 125
169 188 125
164 183 102
171 190 144
177 193 161
165 184 102
169 187 125
153 171 72
167 186 125
172 190 144
164 184 102
157 179 72
167 186 125
167 182 102
173 187 125
166 182 102
168 185 102
171 188 125
168 187 125
160 177 102
165 184 102
161 179 125
169 188 125
161 177 102
172 189 125
157 175 102
164 184 102
141 158 72
162 180 102
162 181 72
157 172 102
151 172 72
154 175 72
174 191 144
142 157 72
158 175 72
161 181 72
158 178 72
151 168 102
153 172 72
145 165 0
165 181 125
146 165 0
149 165 102
148 166 72
168 187 125
141 156 102
138 147 72
145 163 0
128 143 114
143 157 102
82 100 51
144 165 72
97 110 65
110 128 51
103 119 88
107 128 51
72 91 99
68 94 114
88 109 99
53 73 88
41 65 51
52 81 114
49 77 123
43 69 94
49 77 91
39 63 67
46 73 125
38 62 72
36 59 75
51 79 99
42 67 58
36 59 50
35 56 59
38 62 45
37 59 78
31 51 51
25 44 18
25 43 69
33 55 52
50 61 38
90 106 18
141 158 106
123 137 104
159 177 141
221 234 253
77 91 95
50 80 55
44 70 80
58 89 111
59 93 127
61 95 147
47 76 57
60 94 137
61 95 137
58 91 140
59 93 127
53 83 99
60 94 127
50 81 76
49 78 95
59 93 149
53 86 99
55 89 114
57 90 114
56 89 114
49 79 95
57 91 99
63 100 171
60 94 114
59 94 151
53 85 111
58 92 137
60 95 127
56 87 99
58 93 114
60 96 159
58 91 114
62 97 151
58 91 140
60 94 125
58 94 127
58 90 127
60 93 127
60 95 127
58 90 127
56 89 114
55 87 57
59 93 127
55 87 114
60 95 127
55 85 99
57 89 99
54 87 80
64 99 161
58 91 140
58 93 114
62 98 151
50 81 99
57 91 114
52 83 99
61 97 140
64 99 151
55 88 140
54 86 80
60 96 140
56 88 114
61 95 151
59 93 80
55 87 127
58 91 84
55 89 114
57 88 80
55 85 99
58 91 127
62 97 151
59 93 140
49 77 57
54 84 99
59 93 140
61 96 127
63 98 140
55 88 99
64 98 140
57 89 127
59 93 140
62 96 153
54 83 84
59 92 140
57 88 127
60 94 130
59 91 151
59 91 142
56 86 127
60 96 151
62 95 144
54 82 103
60 91 129
57 87 105
55 86 114
47 72 84
58 91 130
55 84 105
45 65 82
47 68 102
48 72 100
48 70 99
111 127 151
203 210 214
117 103 7
115 99 39
87 74 30
113 92 24
90 81 37
55 58 28
73 62 24
69 64 1
81 66 17
77 67 3
55 59 38
81 77 20
83 76 52
69 58 20
59 60 25
74 71 25
104 90 45
90 91 57
132 130 52
112 107 62
125 124 72
108 104 51
109 98 44
127 122 47
113 113 11
112 112 37
89 87 36
142 137 80
141 137 77
107 107 52
123 118 64
126 126 44
127 123 57
124 124 76
100 97 11
75 72 0
120 117 0
141 133 67
141 138 76
118 120 52
131 129 57
151 146 76
133 130 57
148 142 62
131 129 61
159 153 80
141 134 62
147 144 72
160 151 62
146 143 83
145 143 76
155 150 72
153 145 79
122 121 57
171 161 72
147 144 76
169 163 72
149 144 72
157 149 80
155 150 76
154 147 72
156 151 72
145 145 44
154 149 80
166 157 88
175 167 80
169 160 80
157 150 72
148 144 67
157 151 80
172 166 80
161 157 51
174 167 88
161 158 80
151 146 36
143 139 51
160 154 72
169 161 80
171 165 80
173 165 88
160 154 72
168 157 74
172 165 80
170 163 72
160 152 51
167 160 80
158 152 51
141 130 39
171 164 88
163 158 80
159 153 80
169 163 72
162 151 88
158 150 64
165 160 80
162 157 80
161 151 74
165 159 72
163 158 51
148 136 72
174 166 80
166 160 62
149 140 51
169 161 72
148 144 51
170 161 74
172 165 80
164 159 80
176 169 95
173 166 80
157 156 51
163 157 72
165 158 80
157 152 62
166 157 72
172 164 95
157 148 62
146 142 36
161 153 72
168 164 80
162 152 51
149 147 36
153 146 51
168 158 72
174 167 88
157 145 62
167 157 95
163 156 62
173 167 88
172 167 88
151 146 51
184 173 95
148 144 51
169 163 72
165 157 72
172 164 82
171 163 80
154 138 45
171 161 82
152 142 63
159 147 65
171 158 90
145 137 51
173 164 80
166 153 72
153 138 64
165 155 81
165 150 72
174 191 144
174 191 144
174 189 144
161 181 72
162 181 125
166 185 125
167 185 102
190 204 204
161 182 102
176 193 161
168 186 125
171 189 144
171 188 144
172 190 144
176 194 161
169 187 125
176 193 161
170 188 125
174 191 144
174 191 144
177 194 161
182 197 177
166 184 102
177 193 161
169 187 125
167 186 125
163 183 102
182 198 177
169 188 125
170 188 125
159 177 102
162 181 102
167 185 102
152 172 72
171 189 125
176 193 161
159 180 72
178 194 161
170 188 125
167 185 102
162 183 102
166 184 102
176 191 177
186 200 177
167 185 125
166 185 102
162 180 125
174 191 144
157 179 72
186 200 177
169 187 125
169 186 102
160 180 72
168 187 125
170 188 125
175 192 144
169 186 102
176 192 144
169 187 125
170 189 144
181 196 161
155 178 72
162 181 72
163 183 102
147 167 0
176 192 144
166 186 125
158 177 102
169 187 125
172 190 144
166 185 102
157 178 72
168 187 125
154 170 102
164 184 102
144 164 72
160 179 72
155 176 0
164 183 102
172 189 125
167 185 102
158 179 72
154 171 72
171 189 125
163 179 125
143 163 0
170 187 125
168 184 125
160 180 72
165 184 102
153 175 0
165 181 102
165 182 144
159 177 125
150 167 0
152 172 72
163 180 102
164 183 102
156 176 102
162 177 102
158 179 72
150 166 72
137 156 72
154 173 72
149 170 0
165 184 102
137 156 72
158 174 72
148 168 0
155 175 72
126 144 72
137 151 72
112 131 0
99 109 88
128 145 51
106 128 51
92 106 53
108 127 125
107 125 91
107 123 45
59 79 82
63 87 85
44 68 51
39 64 51
46 73 85
47 75 99
47 72 99
46 72 93
51 79 112
32 52 63
37 62 0
48 76 109
47 73 51
47 74 107
40 66 82
38 62 58
42 65 51
43 67 118
32 53 83
39 62 72
35 56 87
42 65 45
28 47 0
75 90 45
89 106 109
135 150 106
110 125 83
159 175 159
224 237 255
39 63 55
54 84 111
52 84 133
46 75 80
58 93 135
47 77 111
52 82 99
51 81 111
59 96 151
58 91 125
61 96 151
61 95 147
56 88 99
55 86 122
55 86 114
56 89 111
54 85 114
55 87 99
56 88 125
55 89 111
60 94 114
57 92 140
55 88 76
57 91 80
60 95 127
56 90 95
55 88 111
60 94 114
54 87 99
60 95 127
60 94 151
61 96 140
61 95 127
64 99 161
60 94 114
56 88 114
56 88 99
60 95 127
56 89 127
59 94 137
62 97 140
64 98 140
59 94 127
57 91 114
58 93 140
62 98 151
62 97 151
55 89 114
56 90 114
59 95 127
61 96 127
56 89 140
56 89 57
55 86 114
60 94 140
59 93 140
60 93 114
57 90 99
63 98 151
59 94 127
59 92 127
58 91 99
61 96 127
61 94 127
63 98 140
46 75 57
62 97 140
61 95 142
60 95 127
59 91 130
62 97 140
53 85 114
60 94 140
58 90 117
59 94 114
51 80 0
53 82 115
59 91 127
64 100 161
53 82 99
59 89 130
60 92 130
59 94 127
57 91 127
58 93 114
61 94 151
57 88 99
54 84 127
61 93 140
56 84 120
54 85 114
59 92 153
54 82 99
61 92 130
54 82 114
51 82 100
57 86 105
56 82 103
53 78 102
47 72 100
41 63 57
174 186 198
224 237 255
131 114 53
129 113 38
102 99 0
64 51 11
69 69 11
77 58 11
73 66 18
61 49 16
62 58 30
39 43 12
62 67 38
123 109 19
79 73 28
77 78 26
83 69 26
116 112 63
70 69 31
116 114 37
134 117 40
75 72 30
83 73 4
109 108 63
79 78 0
109 103 38
55 68 0
87 92 51
142 140 44
134 122 58
116 120 57
133 127 72
123 121 51
107 110 68
142 139 76
134 132 67
159 153 80
134 128 62
113 113 45
109 107 52
154 149 62
125 122 51
155 151 95
175 165 95
129 126 51
151 146 83
136 135 0
141 137 62
156 151 76
136 131 62
153 145 63
132 131 72
161 153 88
166 163 80
152 149 76
153 148 67
132 131 57
140 133 62
146 141 51
149 144 67
168 162 92
145 139 62
147 145 84
159 156 72
157 153 51
168 160 80
165 158 62
161 152 62
155 151 76
159 154 72
143 140 51
174 164 94
147 142 62
158 154 62
169 159 72
164 158 72
148 145 36
166 158 72
172 166 88
150 148 36
156 148 51
164 156 62
170 162 88
174 167 80
178 166 82
159 154 51
159 149 80
166 160 62
159 153 63
163 156 62
150 141 51
172 166 80
166 162 79
160 157 62
170 163 72
169 163 72
163 157 80
165 153 62
156 150 62
158 153 51
173 161 88
148 139 51
158 151 72
158 147 72
164 161 72
151 145 62
177 168 80
174 167 88
168 161 80
151 140 62
167 160 80
153 151 51
154 149 51
162 153 72
168 156 53
165 158 80
171 159 82
159 153 62
173 165 72
151 149 51
156 152 36
179 171 95
161 157 72
165 156 72
156 147 72
164 155 72
179 170 95
167 158 74
159 150 72
155 150 72
167 155 72
166 159 82
174 162 90
175 165 88
171 163 80
167 160 72
150 143 51
166 158 80
154 149 62
164 152 88
158 143 72
176 162 95
159 149 62
173 164 82
154 145 62
169 158 66
169 162 95
162 153 72
166 157 72
160 153 62
166 185 102
177 194 161
172 189 125
177 193 144
173 191 144
164 184 102
168 186 125
177 194 161
169 184 125
171 188 144
181 197 177
175 191 144
166 185 102
168 187 125
170 188 125
170 188 125
154 176 0
166 185 125
170 188 125
173 191 144
169 187 125
168 187 125
160 179 0
165 184 102
174 190 125
162 179 125
169 187 125
168 187 125
168 187 125
169 188 125
184 199 177
165 183 102
168 187 125
165 184 102
166 184 102
165 184 102
160 180 72
156 176 102
163 183 102
175 191 144
179 194 177
162 180 125
176 193 161
156 178 72
155 176 0
168 187 125
161 181 72
174 190 125
166 185 102
156 177 0
164 183 72
169 186 102
165 184 102
171 188 125
174 191 144
163 181 125
167 185 102
146 165 72
159 177 125
171 188 125
176 192 144
172 188 144
168 185 102
154 174 72
161 180 72
169 186 102
171 188 125
170 188 125
165 184 102
151 172 72
170 187 125
174 191 144
165 181 102
158 178 0
155 173 72
163 182 72
157 178 72
164 181 144
161 181 72
159 179 72
160 180 72
158 178 0
150 169 0
156 173 102
157 176 72
149 169 0
154 174 72
146 168 0
168 187 125
151 174 0
143 162 0
156 174 72
170 188 125
155 174 72
159 177 72
160 180 72
159 180 72
158 179 72
164 177 102
138 158 0
153 171 72
144 163 0
150 168 0
162 182 72
146 163 72
137 156 0
136 153 0
129 141 72
162 177 102
129 146 72
144 162 72
138 155 0
138 153 72
102 119 72
104 116 85
100 118 51
80 100 51
94 112 88
97 112 51
104 123 72
90 112 68
83 107 102
81 97 45
44 69 82
79 98 68
66 89 99
44 72 79
51 80 107
47 75 99
40 64 58
51 82 102
41 65 68
35 56 68
44 70 86
34 56 51
31 51 12
44 70 94
38 60 96
46 72 82
33 54 67
39 63 68
22 38 20
37 60 32
60 82 51
92 104 72
155 171 125
171 188 125
183 200 157
206 222 198
212 227 214
43 70 80
54 85 108
56 88 122
57 91 127
57 90 114
58 91 125
58 92 137
58 91 111
58 92 127
56 89 99
58 92 99
60 94 127
55 87 76
56 88 122
54 88 105
58 92 137
44 71 0
53 84 99
55 87 99
53 84 99
53 86 80
54 86 114
55 87 114
59 93 99
62 97 159
59 93 114
53 86 95
60 95 140
57 91 99
60 94 111
60 94 149
54 87 99
59 93 114
59 93 140
58 92 127
59 94 127
58 92 137
54 86 80
61 97 159
62 97 151
62 96 127
57 92 99
63 98 171
59 93 140
58 91 127
59 92 114
63 98 151
59 89 140
57 92 114
59 92 99
52 82 80
58 90 114
60 95 140
56 90 127
48 77 99
63 99 151
63 98 151
56 87 114
54 87 80
59 93 127
58 92 127
61 95 140
58 92 80
54 86 80
61 95 114
61 94 140
60 94 114
57 90 114
59 93 140
56 88 114
59 92 127
65 100 161
59 93 140
60 92 99
56 90 127
61 94 127
57 90 130
63 98 140
55 86 117
61 94 117
61 94 127
56 89 127
57 89 127
59 92 127
55 87 84
56 86 102
54 80 102
57 90 114
58 92 114
54 88 99
42 66 85
50 79 80
61 94 142
46 69 67
52 82 80
56 85 99
46 71 84
54 81 114
48 70 77
59 92 133
159 174 172
215 230 228
142 139 100
87 77 16
99 95 51
64 57 16
91 86 11
96 84 1
102 100 0
97 88 20
31 37 11
90 81 32
62 51 26
85 82 26
82 82 25
101 88 18
91 83 25
66 64 14
76 75 51
115 103 37
121 116 51
81 82 53
114 113 44
100 97 0
128 123 36
136 132 63
122 124 67
108 107 36
119 115 40
102 100 51
121 119 51
141 135 73
129 128 57
129 122 73
143 137 36
144 136 67
152 146 72
132 127 52
144 141 67
118 118 44
138 137 57
155 150 76
140 137 36
153 149 72
142 138 72
154 146 62
129 131 67
152 146 72
152 148 72
123 122 57
115 115 63
146 140 76
163 158 80
133 128 0
132 131 57
160 152 72
166 155 80
153 147 62
154 149 81
154 150 72
169 161 80
151 146 57
173 166 80
164 158 72
152 143 62
162 155 88
149 142 51
152 147 80
152 145 62
180 171 95
155 150 57
161 151 80
168 160 72
169 159 62
156 151 51
145 136 36
156 152 51
174 166 80
151 148 51
154 145 62
162 156 79
161 154 62
158 151 80
149 147 62
167 162 72
167 159 80
150 143 62
154 146 62
177 168 80
174 166 80
156 148 88
166 156 88
162 157 80
167 158 72
171 162 88
171 166 88
159 156 80
170 162 88
176 167 80
176 167 80
165 159 72
155 146 80
152 141 62
160 151 80
162 157 80
169 163 88
171 164 72
169 158 88
170 163 88
168 159 72
167 160 72
177 170 95
169 158 64
154 148 72
152 146 51
171 160 75
166 158 72
156 149 62
148 141 36
152 138 62
168 161 80
175 164 74
162 157 62
155 143 72
170 164 88
181 172 95
163 151 72
166 156 64
169 162 62
164 154 72
176 168 88
164 153 72
152 143 51
162 155 72
151 148 80
159 145 51
158 152 72
165 150 72
144 136 0
174 165 82
154 152 62
171 163 88
154 145 36
168 162 62
181 169 102
164 143 74
161 157 51
161 152 80
166 157 82
171 162 72
174 191 144
170 188 125
157 177 72
186 201 191
170 188 125
167 186 125
181 196 161
171 190 144
177 193 144
157 176 102
178 194 161
170 188 125
173 191 144
167 185 102
163 182 102
157 178 0
173 191 144
184 200 191
162 182 102
166 185 102
173 191 144
177 194 161
180 195 161
169 187 125
155 177 0
170 188 125
155 176 72
161 181 72
157 177 0
178 195 161
159 175 102
169 188 125
160 180 72
175 192 144
166 185 102
155 175 72
159 177 72
172 189 125
162 181 102
172 190 144
143 164 72
159 178 102
160 180 72
170 188 125
154 175 0
160 180 72
169 186 102
172 189 125
168 187 125
166 185 125
169 185 125
152 174 0
155 176 0
154 176 0
151 174 0
172 189 125
159 180 72
161 181 72
170 185 125
153 173 72
159 180 72
163 182 72
165 181 102
162 181 72
160 180 72
158 178 0
160 180 72
161 181 72
154 176 0
164 181 72
165 183 72
165 184 102
162 183 102
166 184 102
151 171 72
150 168 0
154 171 0
158 178 0
148 170 0
154 176 0
155 175 72
162 182 72
156 175 72
159 176 102
145 164 0
154 176 0
136 155 0
155 176 0
155 174 72
152 172 0
136 159 0
149 170 0
140 161 0
147 165 0
156 174 0
148 167 0
127 148 0
146 164 72
137 158 0
156 175 72
149 171 0
125 144 72
143 164 72
141 162 0
156 177 0
151 173 0
147 164 0
153 174 0
127 149 0
131 153 0
148 165 72
138 151 72
114 133 51
141 162 0
127 138 51
74 94 51
90 104 72
125 140 51
59 75 0
93 116 85
81 98 94
77 91 72
50 69 51
43 69 51
36 58 45
33 54 75
51 80 107
44 70 45
44 71 68
44 70 82
43 69 64
40 64 74
47 74 109
39 63 82
45 71 82
41 65 99
37 59 0
44 70 97
34 56 64
34 55 0
38 62 56
38 61 45
29 48 45
90 110 45
118 133 73
138 155 125
153 167 143
148 167 72
176 198 0
167 189 0
55 87 133
48 77 92
50 79 114
57 90 120
58 90 127
56 88 137
55 86 114
60 94 114
57 88 135
63 97 140
54 85 127
61 95 137
52 84 125
49 80 76
56 88 99
57 90 114
57 91 125
61 95 127
59 92 127
60 94 127
59 93 137
60 95 140
56 89 99
60 94 127
54 86 125
60 94 114
58 91 125
57 90 95
59 93 114
62 97 151
51 82 80
50 81 80
59 92 125
61 95 151
60 95 127
61 95 140
54 86 111
57 91 95
56 88 99
61 95 140
61 96 140
58 91 114
60 94 127
64 99 151
57 89 140
63 98 151
54 87 99
56 88 127
59 93 114
61 96 140
63 98 151
65 99 151
54 87 57
55 87 114
57 87 140
63 98 151
52 81 102
59 94 114
60 95 127
55 89 114
57 91 127
56 87 114
57 90 127
57 91 80
61 96 140
57 90 114
55 87 114
59 94 127
57 90 114
58 92 99
55 88 117
59 94 114
60 94 151
58 92 140
62 97 140
61 95 140
59 92 102
54 82 88
61 97 151
57 90 114
59 93 99
58 91 114
52 82 80
57 86 127
62 96 142
55 84 114
57 87 81
57 90 114
51 79 99
53 79 99
58 88 130
57 88 84
53 86 57
61 94 151
52 78 120
52 77 36
55 86 114
49 72 114
47 72 99
43 67 58
167 189 0
175 198 0
156 163 36
153 138 39
92 78 36
111 100 37
73 57 26
86 73 0
99 80 10
67 66 32
71 67 36
85 88 8
99 97 13
81 82 28
61 61 37
77 81 26
99 90 0
63 67 25
135 132 52
114 110 44
99 102 51
87 82 12
83 83 36
69 77 39
93 94 57
142 138 72
132 128 62
129 123 62
112 109 28
157 147 62
61 70 38
86 86 37
133 128 62
130 128 51
145 140 72
123 123 51
136 130 62
146 144 51
113 115 44
124 119 44
148 144 51
136 134 62
143 138 62
133 130 52
128 125 62
154 149 84
145 140 63
140 133 62
145 142 67
144 137 57
127 127 80
145 141 44
161 156 62
155 151 76
164 157 84
172 164 95
166 155 72
160 155 62
162 158 80
163 157 76
151 149 51
168 157 80
151 147 62
144 140 67
161 156 76
169 160 92
157 154 62
159 154 51
147 143 62
170 163 88
162 156 62
163 153 70
142 142 51
162 157 73
146 143 36
156 151 51
151 145 88
141 130 62
172 166 87
173 163 88
155 148 80
146 142 62
164 158 80
160 154 80
145 143 51
154 148 51
171 162 80
162 156 72
165 159 72
146 140 51
169 161 72
163 150 72
164 156 81
166 156 88
158 149 62
160 156 51
167 159 88
169 161 72
150 147 51
160 153 72
161 153 62
163 157 62
170 164 80
155 148 72
167 160 72
163 156 51
172 162 88
173 164 80
158 150 51
172 162 81
151 144 51
157 150 72
171 159 80
180 171 95
169 162 80
159 151 80
167 160 88
175 168 88
161 153 72
181 172 95
168 157 80
175 168 88
159 153 88
165 156 80
157 151 51
162 155 62
159 150 72
161 150 62
168 162 62
172 161 90
158 146 80
166 158 62
174 166 90
178 169 88
168 159 80
150 138 36
168 163 80
170 163 72
158 152 51
178 169 88
167 152 81
115 100 5
170 165 80
153 143 51
171 163 82
166 153 74
167 159 62
142 129 51
164 158 62
154 147 51
155 178 72
180 195 161
166 184 102
180 197 177
174 190 144
171 188 125
175 190 161
170 188 125
174 190 125
166 186 125
181 196 161
171 188 125
152 172 72
164 184 102
163 183 102
177 192 161
165 184 102
172 190 144
155 178 72
162 181 72
170 188 125
165 184 102
167 186 125
162 182 102
157 177 0
165 184 102
172 189 125
173 189 125
165 184 102
158 177 102
173 191 144
164 181 102
164 183 102
166 185 102
163 183 102
171 189 144
157 178 0
160 180 72
158 175 72
172 190 144
164 184 102
157 177 102
164 181 0
171 189 125
163 181 125
166 184 102
165 183 102
153 168 102
161 181 72
154 176 0
164 184 102
148 169 0
158 176 72
152 171 0
162 181 72
158 176 102
159 177 102
168 185 102
153 172 102
153 175 0
165 183 72
158 179 72
153 175 0
161 180 0
159 177 72
167 184 102
168 186 102
166 182 125
155 174 102
158 177 0
147 169 0
162 182 102
157 177 0
156 177 0
148 169 0
158 179 72
155 175 0
144 166 0
146 167 0
155 176 0
152 175 0
150 172 0
149 167 0
152 175 0
148 169 0
153 173 0
162 181 72
152 175 0
114 133 0
150 170 0
136 154 0
156 177 0
145 165 0
142 163 0
152 175 0
152 175 0
155 177 0
147 163 0
145 168 0
150 171 0
138 160 0
137 159 0
152 175 0
135 150 0
123 132 0
111 129 0
141 161 0
136 153 0
140 157 0
144 162 0
132 153 0
127 142 0
105 119 0
137 154 0
123 139 0
106 123 72
90 112 0
69 87 72
87 106 51
71 89 0
104 122 45
94 111 45
80 99 88
36 57 51
71 93 88
60 81 68
68 89 99
37 60 64
43 69 68
36 58 51
51 81 85
39 64 0
39 62 68
38 62 79
37 59 47
29 47 0
42 67 51
35 56 0
38 62 82
39 63 45
81 96 51
82 98 45
101 116 31
110 126 87
114 134 0
126 146 72
124 143 79
171 191 74
173 197 0
181 201 0
47 77 104
52 81 80
47 74 107
54 86 127
54 85 120
45 72 51
53 84 99
57 90 125
48 77 108
56 89 125
62 96 125
49 78 60
53 83 80
53 85 99
58 91 99
57 89 149
55 87 80
58 92 127
57 89 99
54 85 127
61 96 151
57 89 122
48 78 80
55 87 99
64 99 161
63 99 161
58 92 99
53 84 80
63 97 140
58 91 80
60 95 127
60 94 140
56 89 99
59 93 140
54 85 114
63 97 140
57 90 127
59 92 114
61 94 140
53 83 80
57 91 125
60 95 114
62 96 142
60 95 114
52 84 80
61 94 140
63 97 140
58 92 99
62 97 151
65 101 161
54 85 99
51 79 99
61 97 140
54 85 99
56 89 80
60 94 127
58 92 99
62 97 161
61 95 140
58 90 140
59 92 127
60 94 130
57 90 114
54 84 99
55 88 99
60 91 151
61 96 127
56 88 102
58 91 127
55 89 99
59 94 127
61 95 140
65 100 151
52 83 127
49 77 57
61 95 127
58 89 99
58 90 130
56 87 117
56 89 127
62 96 140
51 80 114
56 84 99
52 83 99
61 93 115
54 85 114
58 93 127
57 89 99
55 87 114
53 81 99
53 82 99
54 82 114
56 87 102
56 88 114
53 81 84
59 88 114
52 80 36
49 75 81
52 81 80
44 68 62
173 197 0
171 196 0
154 173 7
114 105 16
122 108 42
68 55 0
94 80 6
98 86 20
68 64 28
91 80 1
63 68 0
92 82 36
82 69 3
85 81 0
52 54 25
75 68 37
76 68 25
92 80 18
86 77 28
66 68 28
99 98 39
104 104 25
101 92 36
103 105 57
73 72 44
96 99 51
99 101 51
111 106 36
96 100 44
127 127 51
136 131 72
113 113 57
116 116 44
147 142 72
99 98 36
131 127 76
130 125 67
147 144 57
117 117 51
141 139 36
123 121 36
123 125 25
136 135 57
121 121 51
155 148 62
123 124 57
137 131 39
119 121 0
113 114 57
117 119 51
143 138 72
145 142 72
129 125 62
153 148 62
173 163 88
146 142 67
158 150 62
152 143 72
150 146 51
152 148 62
162 156 72
161 157 76
168 160 62
158 153 62
178 165 88
134 133 57
165 158 72
156 150 73
160 156 72
174 168 101
133 129 44
145 143 51
166 159 62
150 143 51
167 161 62
146 140 51
163 159 62
145 141 80
177 168 95
177 168 80
161 157 51
167 160 72
166 156 80
172 165 72
153 150 51
160 155 72
171 158 80
145 140 51
161 151 62
158 151 72
169 156 72
166 156 62
159 153 72
162 157 62
155 150 62
163 156 63
169 161 80
143 136 62
174 162 88
178 168 95
160 154 51
171 164 72
162 154 62
170 164 72
163 157 62
154 150 62
176 167 80
154 144 72
165 160 88
163 158 80
169 163 72
153 148 62
175 168 88
156 152 62
179 172 102
169 164 80
167 160 80
163 153 72
165 157 72
179 168 95
176 168 88
168 163 72
150 146 64
168 164 80
168 161 80
160 151 80
151 139 53
164 151 88
166 160 74
175 163 88
167 156 74
167 159 80
166 162 72
159 153 51
153 147 51
161 151 72
161 153 62
173 162 82
164 154 72
140 127 40
169 159 72
168 163 72
165 153 80
172 165 88
178 170 103
157 148 72
161 152 72
149 146 36
150 144 74
157 146 51
175 192 144
162 181 102
168 185 125
158 178 72
160 180 72
181 195 161
172 190 144
168 186 102
174 191 144
169 187 125
165 184 102
164 184 102
174 190 125
176 192 144
161 178 102
173 189 125
161 182 102
163 181 125
169 187 125
170 188 125
168 186 102
175 192 144
170 188 125
170 188 125
168 185 102
164 182 102
169 187 125
158 178 72
175 192 144
174 191 144
180 195 161
160 180 72
159 180 72
162 181 72
156 178 72
166 184 102
154 172 125
168 187 125
173 189 125
168 187 125
162 181 72
165 183 72
158 179 72
151 171 72
159 177 102
153 173 0
172 189 125
161 180 72
153 175 0
155 174 72
160 180 72
169 184 144
152 171 72
168 186 125
146 168 0
152 175 0
159 179 72
160 180 72
153 173 72
141 161 0
157 178 72
151 170 0
169 187 125
167 184 102
153 175 0
151 174 0
160 180 72
159 179 72
149 170 0
150 171 0
154 174 0
153 174 0
144 161 0
149 166 0
154 173 0
154 176 0
157 178 72
164 181 0
157 174 72
147 162 0
153 175 0
136 155 0
150 170 0
159 179 0
156 177 0
146 168 0
153 175 0
138 159 0
149 170 0
151 174 0
146 165 0
145 162 0
138 159 0
152 175 0
157 174 0
145 167 0
144 160 0
156 177 0
139 160 0
128 143 0
142 162 0
156 174 0
139 158 0
146 160 0
136 156 0
144 163 0
119 140 0
147 168 0
120 138 0
146 168 0
136 153 0
108 129 72
102 121 51
103 121 0
111 128 51
122 134 0
117 128 51
117 132 0
95 116 88
83 102 0
109 129 51
114 135 45
62 82 0
89 109 51
86 103 0
70 91 83
44 70 72
40 63 68
44 69 51
42 68 45
35 57 45
48 77 68
38 60 58
37 60 64
34 55 56
41 65 0
43 68 45
18 33 4
35 56 8
51 65 34
31 51 56
110 126 0
101 115 88
94 112 28
145 164 72
127 144 15
161 180 102
177 199 0
173 197 0
181 201 0
99 123 76
40 66 62
52 81 114
51 81 98
49 79 76
54 86 95
51 81 80
55 87 114
54 86 114
54 85 114
50 83 99
53 84 95
59 94 127
54 86 95
60 95 127
53 85 99
56 90 80
56 89 114
58 92 125
59 94 127
59 93 140
52 82 99
59 93 114
57 91 114
56 88 140
53 85 114
60 94 127
57 91 137
62 96 140
54 86 114
53 84 114
62 96 127
59 94 114
62 97 151
58 91 99
60 95 127
56 88 114
57 92 99
60 95 114
61 96 140
59 92 151
60 94 114
49 77 80
62 96 137
61 96 140
53 85 114
61 96 140
54 86 80
58 91 114
62 96 161
55 89 99
61 95 151
59 93 114
59 93 127
57 91 140
57 89 114
58 92 127
60 95 127
59 92 99
57 90 127
55 86 114
52 84 99
61 95 140
53 82 114
57 89 127
57 90 99
60 93 140
57 90 127
60 95 127
54 85 99
44 69 25
61 97 151
63 98 151
56 90 80
62 98 161
60 94 140
58 91 127
56 90 127
54 86 0
55 88 114
58 90 130
57 89 127
55 86 114
56 87 99
53 84 99
59 92 115
54 84 128
59 93 99
57 86 115
59 93 127
50 77 84
49 75 102
54 84 117
50 77 80
54 82 84
55 84 117
48 69 72
52 75 92
51 76 81
87 110 80
171 196 0
171 196 0
178 200 0
131 130 16
119 104 1
96 83 3
99 83 23
102 80 12
92 71 5
90 82 36
80 56 26
77 53 12
66 64 18
76 83 36
104 102 29
97 92 0
83 79 0
116 107 1
98 88 37
82 75 30
112 112 36
77 80 11
81 79 1
76 81 25
92 91 25
92 91 51
75 77 25
119 114 58
126 125 67
135 126 36
109 103 51
114 105 51
111 102 45
134 129 59
121 117 36
90 95 25
127 125 36
148 144 57
132 131 36
163 157 80
149 138 51
160 153 80
131 126 36
127 115 57
139 131 62
118 118 37
131 127 75
135 131 44
160 150 60
145 142 51
135 130 72
150 147 62
142 142 36
160 153 72
137 135 37
130 125 36
120 120 54
166 157 81
140 137 62
142 135 51
165 158 80
154 148 57
162 152 80
154 147 80
176 166 95
151 144 76
141 137 36
168 163 72
166 159 80
161 155 62
157 153 62
159 152 62
168 157 88
159 152 36
154 145 72
138 133 36
161 157 72
152 146 51
154 147 62
160 155 51
155 146 62
160 149 62
158 150 62
159 153 36
171 160 74
152 147 72
157 154 72
137 132 0
167 157 72
170 164 72
158 149 51
139 131 36
150 143 63
154 148 51
170 164 80
142 138 51
164 160 62
161 158 62
170 165 80
165 161 72
156 146 51
167 154 88
163 159 62
156 151 72
174 167 88
165 160 62
173 168 95
173 164 88
169 156 72
169 158 80
175 166 95
161 154 62
170 162 74
164 158 80
165 157 72
168 159 80
160 153 51
142 131 64
178 169 88
153 146 62
162 156 72
167 156 80
157 145 63
162 156 62
172 154 82
166 158 53
156 144 51
167 158 72
151 140 36
164 157 72
150 139 51
172 163 80
170 162 80
155 145 62
166 162 72
150 138 62
170 162 88
155 146 72
167 158 72
167 155 72
171 157 81
157 147 74
157 151 51
166 160 88
174 168 88
166 159 72
164 161 72
162 156 62
167 160 72
157 147 62
161 182 102
164 182 102
155 177 0
163 182 102
171 189 125
159 179 0
161 182 102
157 178 72
163 183 102
175 191 144
181 197 177
175 192 144
163 183 102
162 183 102
163 182 102
168 187 125
168 187 125
168 186 102
165 183 72
166 184 72
168 187 125
160 180 72
179 194 161
164 183 102
170 188 125
162 181 72
171 189 125
167 186 125
160 178 72
170 188 125
160 180 72
156 177 0
168 185 102
168 185 102
163 182 72
161 181 102
154 176 0
153 173 72
169 186 102
154 176 0
150 171 0
169 186 102
162 179 102
154 176 0
159 179 72
147 168 0
153 174 0
159 180 72
152 172 0
152 174 0
158 175 0
149 170 0
153 169 0
154 171 0
156 177 0
158 179 72
155 176 0
160 179 72
154 175 0
154 173 0
157 178 72
162 181 72
140 161 0
152 174 0
148 168 0
159 179 72
156 177 0
157 177 0
151 171 0
159 178 0
157 177 0
143 165 0
154 174 0
149 172 0
155 176 0
144 167 0
147 169 0
151 170 0
157 177 0
152 174 0
151 173 0
149 170 0
158 177 0
157 175 0
149 167 0
154 173 0
159 178 0
135 156 0
157 174 0
155 176 0
137 158 0
154 176 0
150 171 0
152 173 0
146 168 0
150 171 0
131 154 0
150 170 0
154 176 0
139 159 0
142 161 0
123 141 0
112 125 0
133 152 0
141 161 0
144 162 0
139 158 0
134 153 0
160 179 0
129 146 0
125 136 0
126 138 0
112 130 0
94 114 51
128 149 51
119 139 0
94 107 0
133 148 0
80 101 51
122 144 0
49 77 102
87 103 0
82 96 0
94 115 68
67 91 51
79 100 0
41 65 0
45 70 94
66 85 45
33 56 0
45 71 97
39 61 88
40 64 82
32 52 0
36 59 60
33 54 55
38 62 0
62 83 0
44 69 72
35 57 32
57 71 0
40 64 45
94 113 68
117 132 0
150 171 72
153 171 125
161 183 0
176 199 0
174 198 0
172 197 0
162 187 0
40 64 92
58 91 99
54 85 122
56 91 111
54 85 128
55 87 111
55 86 135
57 92 114
59 92 127
55 87 111
61 95 151
60 94 159
60 94 137
61 96 137
57 91 95
51 81 114
53 87 114
61 96 157
53 84 76
55 87 114
55 87 99
49 75 80
63 98 149
62 96 137
53 81 99
55 87 99
58 90 127
60 94 114
61 95 127
62 96 127
56 89 57
56 89 114
58 90 127
54 87 114
56 88 80
64 100 161
55 88 99
54 86 99
62 97 140
55 86 114
61 95 140
52 83 80
55 86 114
60 94 114
56 88 99
55 86 140
54 85 99
53 85 80
55 87 127
50 80 127
63 99 161
59 93 127
56 90 99
57 92 114
55 89 99
56 89 99
64 100 161
54 87 114
57 90 114
55 88 99
56 88 114
62 96 140
60 92 151
51 81 0
66 101 161
56 90 127
55 86 84
52 77 99
54 86 99
58 92 127
57 89 80
53 83 80
58 93 99
57 89 127
54 87 80
54 86 80
56 87 127
60 94 127
55 84 88
55 86 99
55 83 127
59 94 140
57 91 114
53 82 80
60 94 114
57 90 117
57 91 114
53 81 120
56 88 80
47 72 80
57 90 114
51 79 67
50 76 102
53 81 88
52 81 99
48 71 86
48 72 60
49 72 107
150 170 0
174 194 0
172 196 0
166 189 0
155 155 44
98 89 57
103 97 45
103 92 16
106 92 7
78 82 25
62 49 25
65 64 30
97 97 3
93 79 16
90 91 25
102 94 25
100 89 3
134 127 0
112 101 1
84 84 32
62 66 0
92 95 45
105 105 57
104 98 25
55 57 44
87 91 52
126 121 51
120 117 72
116 113 44
89 89 3
130 126 57
96 96 44
106 107 44
124 121 36
103 105 26
111 110 51
77 84 25
132 124 44
118 121 51
154 149 73
118 115 0
122 118 44
129 122 51
156 150 67
141 138 57
134 129 51
118 113 36
141 136 51
127 127 57
154 146 52
129 122 67
154 151 51
149 142 62
138 137 52
154 151 62
146 140 67
159 154 57
138 135 67
167 156 74
146 142 51
161 155 62
137 135 36
156 153 62
129 128 51
166 155 80
152 147 44
169 163 80
152 148 72
177 167 88
159 152 72
160 157 51
167 161 72
167 160 80
151 145 72
160 155 70
152 144 72
171 159 88
164 159 80
164 160 62
151 147 0
155 149 62
164 154 62
161 151 62
166 157 80
155 150 51
151 148 36
174 166 80
163 156 51
167 161 62
172 165 72
149 144 51
169 163 72
159 150 62
161 152 62
162 158 80
156 151 51
156 148 62
175 166 72
168 158 80
171 161 80
161 153 72
134 131 62
151 146 51
168 163 72
167 161 62
158 153 72
151 143 51
164 153 80
165 154 64
155 145 74
167 158 88
163 153 72
171 157 82
160 149 64
166 160 72
167 159 80
157 149 22
158 152 62
177 167 88
165 156 62
171 162 74
177 169 88
173 162 72
144 134 36
142 136 36
160 152 88
172 166 88
169 161 88
182 172 95
151 143 62
166 159 72
161 154 51
154 149 39
154 149 51
166 159 88
175 162 80
150 140 36
164 155 80
167 162 72
143 131 36
168 160 88
152 138 72
165 154 54
153 149 62
164 157 72
147 132 51
159 151 72
149 137 62
165 158 72
173 164 80
159 148 62
178 193 144
168 185 102
159 178 102
162 181 72
156 177 72
163 182 102
164 184 102
158 179 72
156 176 72
164 184 102
167 185 125
161 181 72
158 179 72
160 179 125
159 180 72
163 183 102
159 180 72
160 180 72
163 183 102
173 188 102
163 178 102
154 176 0
166 185 102
170 187 102
155 174 72
148 166 0
170 188 125
158 178 0
161 180 0
150 170 0
154 176 0
155 176 0
157 179 72
159 178 0
165 184 102
163 183 102
162 183 102
151 174 0
153 174 0
163 183 102
153 174 0
143 162 0
152 175 0
156 177 0
155 175 0
150 170 0
158 179 72
142 164 0
156 177 0
156 177 0
154 175 0
162 180 72
151 173 0
162 181 72
158 178 0
157 175 0
150 169 0
153 173 0
157 177 0
151 172 0
149 170 0
156 177 0
153 176 0
158 178 0
156 173 0
161 179 0
140 164 0
153 174 0
151 174 0
151 174 0
153 175 0
155 176 0
154 173 0
136 159 0
144 162 0
155 175 0
140 161 0
150 169 0
155 176 0
144 167 0
155 175 0
153 171 0
148 169 0
146 165 0
147 165 0
144 167 0
158 175 0
157 177 0
139 160 0
138 159 0
153 174 0
141 162 0
136 157 0
148 169 0
142 159 0
126 149 0
142 164 0
145 167 0
147 166 0
140 161 0
144 163 0
143 161 0
118 139 0
112 132 0
144 166 0
138 155 0
150 170 0
144 162 0
145 165 0
123 134 0
145 155 0
132 152 0
134 148 0
85 103 0
123 140 0
106 120 51
102 118 51
97 117 0
108 128 0
90 113 51
86 107 85
76 92 72
103 120 51
110 127 45
44 71 51
68 91 102
59 79 45
45 70 97
43 68 69
39 63 0
44 71 51
41 65 85
31 52 0
64 87 97
34 54 51
65 85 72
90 110 58
49 65 0
57 76 60
75 93 0
100 117 0
102 119 11
102 120 0
132 151 0
166 186 125
149 168 92
154 174 0
174 198 0
165 189 0
171 196 0
178 200 0
40 64 51
56 87 80
59 91 137
57 91 125
49 78 80
60 93 133
52 81 57
56 88 130
48 78 57
59 92 140
55 88 99
58 92 127
53 85 111
58 92 111
60 95 137
51 81 111
59 94 125
62 97 140
60 95 151
58 93 114
56 89 99
50 81 57
52 80 80
59 91 137
60 94 140
63 97 151
62 97 151
59 92 114
56 87 114
57 90 140
58 92 151
58 90 114
56 90 80
55 86 125
59 93 140
61 97 151
62 96 127
59 94 114
61 95 151
58 92 127
64 100 161
59 94 114
60 95 127
55 88 99
62 98 151
53 85 99
56 89 140
57 90 140
54 85 99
59 93 127
53 87 99
50 80 80
54 86 80
57 91 99
58 92 140
57 87 114
55 88 127
57 88 114
58 90 127
60 94 127
62 96 127
54 85 114
59 94 127
53 84 80
63 97 151
58 92 117
57 90 114
60 95 140
59 92 151
57 90 80
56 86 62
55 87 99
53 84 140
57 90 99
51 83 99
55 89 99
62 96 127
55 85 117
55 88 99
57 91 99
55 86 114
52 83 140
57 85 102
60 94 127
60 93 140
58 91 127
52 79 102
56 85 102
59 92 114
50 78 99
58 90 127
49 74 57
56 87 117
53 80 107
48 75 57
55 86 99
44 62 27
44 66 57
176 199 0
174 198 0
170 195 0
178 199 0
174 197 0
125 115 62
111 105 25
95 76 10
91 90 0
83 68 7
45 42 0
89 82 11
77 71 25
98 81 20
78 80 11
95 89 7
57 57 28
107 99 41
48 48 11
103 105 44
57 58 28
69 75 37
107 107 11
119 113 0
110 108 44
80 69 36
96 88 36
66 72 25
107 98 51
118 111 3
123 122 63
105 106 11
115 112 45
139 135 72
105 101 36
124 126 51
76 74 39
112 109 44
100 104 0
130 120 48
111 113 67
140 136 36
145 136 36
145 142 51
141 137 62
139 134 76
122 114 44
114 114 57
106 106 36
146 142 77
136 133 51
140 135 51
125 126 36
103 106 48
139 135 60
155 146 67
146 142 62
136 132 57
156 150 72
131 132 57
149 146 62
145 141 36
135 134 51
130 128 0
140 138 62
148 146 67
154 149 62
151 147 67
130 125 67
147 140 36
165 159 72
157 149 62
144 138 62
165 160 62
165 158 62
151 149 51
147 141 62
147 142 60
153 146 16
146 135 51
164 161 72
152 145 51
167 159 72
175 165 88
159 151 62
165 157 62
154 150 36
145 141 36
161 157 51
142 135 62
170 164 80
155 149 62
172 163 74
157 148 62
139 131 62
151 140 39
167 162 72
162 152 63
162 154 62
154 149 72
162 158 51
152 146 36
147 140 51
159 151 51
141 137 36
155 151 64
157 146 80
166 155 62
164 157 62
165 159 80
165 156 51
151 145 72
180 169 95
171 164 72
165 152 74
155 141 64
176 168 88
167 162 88
168 161 80
172 164 88
164 159 80
165 155 72
164 153 72
170 163 82
163 157 62
163 157 80
146 139 36
177 166 95
160 145 62
143 133 36
163 156 62
174 167 80
165 156 62
170 163 88
170 158 74
150 139 53
153 150 51
166 158 62
174 167 88
150 137 62
160 149 64
139 126 0
154 142 62
164 156 72
152 142 51
186 174 95
172 165 80
170 162 80
167 160 74
151 142 64
163 151 64
164 182 72
174 191 144
178 195 161
167 185 125
160 180 72
164 184 102
163 182 72
166 183 102
165 183 72
156 177 72
157 176 102
157 178 72
148 169 0
163 181 125
163 180 102
150 169 0
167 186 125
167 185 102
162 183 102
161 181 72
157 178 0
165 184 102
163 181 125
153 175 0
152 170 0
160 180 72
160 180 72
151 172 0
158 178 0
165 184 102
153 175 0
155 175 72
162 181 72
165 184 102
158 178 0
159 178 72
164 184 102
148 169 0
158 179 72
162 180 72
158 178 0
166 184 72
160 179 0
159 178 0
151 174 0
160 179 0
146 167 0
153 175 0
152 174 0
155 176 0
153 175 0
149 173 0
154 176 0
155 176 0
149 170 0
156 173 0
153 174 0
155 174 0
150 170 0
153 175 0
138 159 0
145 163 0
144 162 0
156 177 0
151 171 0
153 175 0
158 178 0
156 177 0
151 172 0
145 162 0
153 174 0
154 176 0
146 165 0
152 172 0
148 169 0
156 176 0
133 151 0
151 171 0
151 173 0
143 163 0
154 173 0
146 168 0
148 168 0
151 169 0
150 171 0
155 176 0
155 176 0
138 153 0
148 169 0
137 156 0
135 153 0
138 158 0
150 174 0
144 164 0
132 152 0
143 161 0
142 162 0
152 171 0
142 160 0
139 155 0
144 166 0
152 172 0
140 160 0
124 140 0
148 168 0
112 133 0
110 132 0
126 140 0
128 149 0
104 124 0
134 154 0
110 125 0
125 146 0
112 126 0
122 142 0
130 149 45
137 153 72
114 131 45
104 123 0
72 90 72
99 116 51
62 80 51
62 84 51
77 93 0
72 88 72
73 91 0
49 71 88
79 96 78
38 62 51
51 72 51
66 85 64
36 59 0
33 51 51
25 41 32
63 80 68
40 63 45
73 93 45
56 75 51
76 94 25
62 84 51
98 113 54
106 120 72
138 157 72
153 171 0
149 166 102
161 179 131
166 188 0
173 197 0
174 198 0
174 197 0
172 197 0
85 109 57
54 85 105
43 68 99
51 81 99
54 86 111
54 86 105
49 79 80
61 95 151
55 86 99
55 88 99
56 89 57
52 84 80
52 83 114
54 87 95
54 85 99
53 85 114
59 94 127
55 87 99
56 89 99
56 88 114
59 93 140
62 96 151
55 87 114
60 94 151
53 87 57
56 88 99
61 96 127
60 93 149
59 92 114
59 92 127
56 87 99
59 92 127
59 92 125
62 97 140
54 85 99
59 93 137
61 96 127
65 101 161
57 92 140
59 93 127
62 95 127
55 87 114
56 89 99
52 83 0
61 96 140
52 84 99
63 98 140
62 97 140
55 87 114
59 93 140
62 97 140
58 92 127
58 92 127
52 83 99
56 89 114
59 95 127
60 94 140
55 85 115
58 92 140
66 101 151
51 80 84
56 89 114
62 95 130
59 92 114
59 94 114
60 95 151
52 84 99
61 94 130
63 98 151
62 96 127
60 94 130
53 83 102
51 81 99
56 90 114
54 84 114
58 91 130
60 94 127
52 84 99
59 93 99
58 88 102
57 90 114
57 90 99
54 85 80
45 73 80
59 90 117
55 85 99
60 92 117
56 87 99
54 83 102
59 91 130
58 91 99
49 72 84
54 85 99
54 84 57
48 72 85
54 86 99
46 69 80
126 147 57
179 200 0
169 195 0
172 196 0
175 198 0
171 196 0
139 140 7
116 95 23
93 76 36
95 76 1
94 84 0
80 72 11
60 56 0
65 49 7
107 99 0
110 105 3
83 69 13
77 75 32
117 112 0
93 84 28
90 91 19
82 80 0
118 119 44
82 84 36
86 82 25
103 103 25
108 105 44
119 108 53
99 96 44
85 86 11
112 110 36
117 108 7
123 114 44
65 77 45
121 122 0
141 133 62
147 140 62
127 124 36
98 97 36
149 146 36
126 121 51
104 99 25
114 113 51
146 139 51
145 137 51
146 143 44
130 125 36
158 151 88
115 114 57
148 140 72
140 133 53
154 150 72
157 149 72
136 135 28
164 157 62
153 144 62
135 124 62
150 141 84
152 148 62
151 146 51
147 142 51
140 136 67
144 134 51
101 93 3
163 154 72
160 155 62
143 142 36
158 154 62
163 152 72
165 159 80
148 144 57
168 162 62
99 93 36
167 161 62
161 152 72
137 126 51
153 144 36
149 140 51
151 143 72
149 140 62
155 145 64
165 158 62
160 156 51
148 143 0
165 160 62
161 153 80
157 147 62
163 156 51
160 155 51
165 160 62
153 146 51
165 157 62
161 155 51
154 152 62
176 167 80
174 165 88
139 137 72
159 149 72
152 147 51
154 147 62
162 157 51
161 154 62
136 128 36
169 159 72
169 160 80
171 165 80
173 165 72
159 149 62
148 144 36
155 148 80
168 163 72
177 167 90
169 162 80
159 156 51
164 154 62
155 150 72
170 158 80
158 148 62
163 157 72
168 153 90
171 164 72
169 160 88
158 147 72
145 132 63
160 151 62
156 150 36
151 142 72
152 141 36
158 143 62
164 155 62
162 155 63
166 161 62
170 159 80
174 165 88
159 149 72
174 167 88
154 147 51
164 152 74
157 144 63
166 157 72
157 143 62
163 152 62
158 150 72
158 146 72
145 133 39
159 150 80
160 150 42
156 142 66
164 153 82
164 156 72
156 145 62
153 143 53
159 180 72
155 177 0
177 193 144
159 179 102
161 180 72
171 188 125
155 174 72
157 175 72
160 180 72
175 191 144
160 180 72
169 186 102
157 177 72
161 181 72
146 167 0
158 178 72
156 176 72
163 182 102
150 174 0
159 178 0
161 181 72
158 178 0
153 176 0
152 172 0
165 183 102
158 179 72
172 189 125
138 160 0
147 168 0
153 175 0
167 184 102
159 178 72
167 185 102
158 178 0
147 169 0
145 168 0
155 176 0
157 177 0
160 180 72
153 175 0
152 172 72
150 174 0
158 178 0
155 175 0
157 176 0
158 178 0
154 176 0
148 169 0
153 176 0
145 168 0
153 175 0
151 174 0
156 175 0
154 176 0
143 164 0
159 178 0
156 176 0
153 175 0
150 170 0
156 177 0
150 170 0
152 171 0
151 171 0
145 167 0
158 178 0
146 168 0
152 173 0
146 169 0
152 175 0
158 178 0
159 178 0
158 178 0
146 168 0
136 157 0
141 163 0
135 156 0
149 173 0
144 167 0
147 168 0
148 169 0
149 169 0
147 166 0
148 165 0
147 168 0
152 171 0
143 166 0
145 163 0
149 169 0
144 163 0
145 165 0
139 159 0
127 146 0
127 146 0
145 166 0
151 170 0
139 156 0
132 152 0
142 162 0
145 166 0
140 161 0
142 162 0
144 165 0
149 167 0
123 137 0
141 159 0
117 136 0
135 152 0
141 159 0
126 148 0
131 149 0
125 140 0
133 153 0
132 147 0
142 160 0
88 102 0
115 128 51
119 140 0
100 119 51
75 89 51
94 113 72
99 115 0
94 109 45
65 82 51
76 91 0
88 101 45
45 68 72
79 98 51
65 85 51
40 63 51
44 70 0
57 81 0
77 92 45
83 100 0
57 73 0
45 71 0
79 93 45
66 80 0
42 68 51
29 47 28
110 126 45
114 131 32
135 154 64
128 146 72
169 186 102
137 155 83
179 199 72
174 197 0
173 197 0
162 187 0
169 195 0
173 197 0
153 174 57
45 72 57
48 77 57
50 81 51
50 80 125
54 86 76
53 84 92
55 88 76
59 92 76
55 86 99
59 93 125
53 84 99
55 88 114
46 76 76
58 92 99
57 91 114
60 95 127
56 89 111
52 83 99
57 91 137
54 86 111
49 78 114
53 84 95
55 86 114
62 96 161
56 89 99
63 99 161
55 88 114
60 94 140
52 83 80
57 91 114
56 88 125
60 94 151
57 91 127
53 84 57
54 86 80
59 90 114
57 90 114
63 98 151
52 82 80
60 94 99
56 89 127
57 88 114
54 86 99
61 96 140
55 88 114
61 97 151
53 84 80
58 91 114
61 94 114
60 94 114
62 96 140
60 94 127
54 85 114
59 92 114
55 87 80
59 94 127
63 99 151
61 96 140
48 77 0
58 92 99
51 81 114
51 82 80
60 93 140
55 87 127
58 93 114
56 87 114
60 95 127
59 93 140
53 83 57
48 75 80
57 90 114
59 91 114
57 88 140
54 85 80
54 86 84
61 96 140
60 96 140
58 92 127
56 90 127
57 90 127
57 91 102
55 87 114
56 83 115
62 96 130
52 82 114
53 83 115
58 89 130
57 89 99
46 73 99
55 84 92
48 73 114
44 69 62
48 74 82
37 50 37
49 70 49
53 79 99
136 154 0
176 199 0
169 190 0
171 196 0
175 195 0
176 199 0
160 175 0
140 133 52
81 71 18
95 91 0
80 74 44
109 100 7
101 96 21
58 43 11
87 88 25
86 79 30
34 42 11
88 84 0
56 63 28
41 38 25
58 53 0
92 87 16
85 81 0
112 115 25
91 86 2
44 45 25
103 106 36
122 115 57
104 98 5
104 106 36
101 96 0
102 101 45
102 104 28
87 80 8
126 119 51
115 109 36
143 141 36
133 131 51
103 100 44
150 146 51
123 118 36
133 123 62
155 148 62
100 99 36
136 129 36
145 136 57
159 153 62
154 150 67
150 141 70
109 111 45
131 129 51
146 141 51
134 132 51
125 121 44
140 129 36
149 143 51
151 145 76
152 146 60
153 146 62
138 133 64
153 145 72
135 133 51
130 123 57
154 149 36
162 156 72
159 151 72
156 151 72
150 144 72
146 138 51
148 135 72
155 150 67
152 146 80
165 158 62
148 142 62
150 144 51
153 148 36
149 146 62
150 139 62
135 132 62
172 165 80
139 131 51
159 149 62
156 151 62
162 153 51
157 148 80
148 143 72
177 169 88
160 156 72
162 152 51
166 158 79
164 159 80
165 158 62
164 154 62
157 151 53
170 163 62
170 161 80
153 149 51
156 147 62
168 159 62
154 151 51
142 138 36
173 165 72
141 130 51
156 152 62
148 138 62
162 158 80
151 143 62
152 150 51
168 154 80
169 160 80
176 165 80
159 153 62
160 154 62
170 159 81
162 154 72
169 157 81
151 142 62
153 148 62
162 149 74
163 160 62
152 149 51
169 163 72
169 162 62
165 158 72
165 159 51
155 147 62
167 159 62
171 161 72
153 139 53
162 152 72
159 151 80
164 155 72
154 146 36
167 156 80
168 161 80
159 149 62
161 150 51
158 148 72
160 147 72
165 158 62
172 166 88
171 164 72
153 143 62
162 152 62
175 162 88
158 142 42
166 155 80
177 170 95
163 148 62
148 138 64
148 135 7
163 153 64
162 181 72
154 176 0
170 188 125
159 180 72
161 180 102
164 183 102
153 176 0
162 181 102
164 184 102
167 185 102
152 175 0
167 185 102
163 182 72
157 176 102
156 177 0
165 184 102
169 186 125
153 175 0
157 176 0
152 175 0
161 181 72
164 181 102
157 178 0
154 176 0
157 178 0
162 181 72
153 175 72
156 175 72
155 175 0
159 179 72
153 176 0
157 177 0
151 170 0
155 176 0
152 173 0
152 174 0
158 178 0
157 178 0
154 176 0
157 178 0
149 170 0
152 174 0
155 176 0
156 177 0
156 177 0
153 175 0
159 179 0
149 170 0
152 174 0
151 172 0
148 169 0
137 155 0
150 170 0
150 173 0
142 165 0
155 175 0
155 177 0
145 165 0
159 178 0
156 176 0
161 179 0
152 175 0
157 177 0
155 176 0
146 168 0
147 168 0
156 176 0
154 175 0
153 174 0
150 170 0
150 171 0
148 168 0
138 156 0
145 166 0
148 170 0
159 178 0
154 175 0
155 173 0
145 166 0
148 169 0
148 168 0
129 151 0
147 168 0
138 154 0
150 169 0
149 167 0
143 162 0
144 167 0
142 162 0
143 166 0
144 162 0
141 158 0
141 161 0
153 172 0
143 164 0
128 150 0
156 176 0
146 167 0
146 165 0
130 149 0
122 141 0
146 167 0
149 169 0
126 147 0
129 143 0
118 139 0
142 159 0
132 150 0
127 140 0
86 102 0
139 156 0
152 174 0
132 151 0
132 153 0
95 111 51
87 104 51
109 127 68
133 149 0
119 133 0
107 126 51
80 96 51
74 94 0
66 86 0
77 93 0
80 101 82
41 65 0
60 76 0
62 84 0
59 82 0
74 90 0
61 76 51
76 92 51
39 64 0
76 93 0
73 92 51
78 95 0
92 108 45
105 121 0
122 142 0
104 121 0
143 162 0
146 166 0
135 156 0
139 159 77
154 172 66
178 200 0
176 198 0
173 197 0
170 195 0
174 198 0
172 192 0
174 196 0
69 92 57
43 70 80
60 93 135
47 77 93
47 76 99
53 84 114
49 79 84
58 91 80
55 87 127
47 75 92
55 87 118
55 86 111
51 82 125
59 95 140
60 94 127
60 93 122
58 92 127
57 89 95
60 93 114
56 90 114
48 77 95
61 95 127
59 93 99
56 89 111
55 86 111
61 96 140
54 87 0
58 92 111
62 94 140
60 93 137
50 81 57
59 93 114
63 98 151
60 95 127
57 90 80
54 87 80
54 87 114
60 93 140
60 94 127
54 85 127
52 83 114
56 91 80
55 88 114
53 84 140
57 92 99
56 89 114
60 93 140
57 89 127
55 88 99
53 83 99
60 95 127
59 93 99
58 92 80
53 83 140
55 87 99
52 83 80
61 96 151
59 91 114
55 87 114
54 85 80
59 92 99
60 92 114
60 95 151
57 89 127
59 94 127
61 96 127
58 93 99
56 88 99
56 89 99
62 97 140
58 92 114
60 95 127
59 92 127
57 90 114
57 87 102
57 89 114
54 88 99
52 82 114
53 82 117
55 88 127
57 88 115
49 76 57
58 92 80
60 90 120
60 92 114
57 88 99
59 93 114
59 91 105
49 76 80
53 80 102
52 83 57
54 82 114
44 66 81
55 84 88
44 64 80
67 85 57
170 196 0
173 197 0
177 199 0
170 190 0
172 197 0
170 196 0
177 197 36
132 126 10
108 100 3
111 97 36
60 45 1
102 90 19
76 61 0
86 70 16
72 72 26
98 97 41
67 58 19
58 55 0
64 72 25
109 96 44
81 63 25
100 91 11
98 97 28
111 108 36
111 106 36
111 105 0
110 105 36
109 103 26
88 79 3
105 97 36
83 82 0
133 127 0
128 125 44
113 110 28
125 124 52
112 107 36
130 125 39
118 116 36
132 128 36
148 140 44
111 106 44
100 106 37
124 114 13
137 135 36
146 142 57
134 130 36
110 107 51
93 95 36
130 129 45
154 148 51
161 157 72
148 143 51
110 104 36
119 114 37
116 113 36
147 141 51
143 136 57
146 143 62
159 151 76
142 134 76
126 125 51
141 134 67
130 125 0
151 144 36
140 139 57
152 149 51
172 165 72
140 136 51
155 149 72
144 141 36
156 145 62
155 152 62
168 162 62
163 155 72
168 158 80
147 143 51
163 156 62
151 146 60
153 141 51
152 149 36
165 158 72
160 153 80
148 143 0
165 159 62
139 133 62
154 146 36
137 131 0
172 162 72
147 140 1
167 155 80
156 151 51
164 157 62
174 166 80
151 144 51
153 148 51
133 131 36
165 158 72
154 145 72
156 154 72
160 156 36
178 168 80
155 148 62
164 160 62
167 160 72
155 149 51
163 151 74
162 153 62
144 136 72
177 167 90
152 145 36
166 158 74
171 161 80
161 154 62
171 159 72
167 157 74
164 152 72
166 154 63
167 161 80
162 151 72
163 157 80
162 150 62
163 155 51
153 146 36
148 137 62
165 153 72
152 141 53
161 155 62
152 147 51
153 146 72
156 153 62
157 144 53
158 148 54
156 143 63
167 157 64
151 141 62
159 152 51
162 152 62
171 158 74
160 146 62
146 135 36
177 166 88
166 156 80
147 141 36
158 151 72
156 144 62
158 145 53
153 140 67
141 136 7
144 130 53
177 162 88
146 134 39
150 139 53
156 177 0
158 179 72
161 181 72
154 176 0
159 179 72
159 179 72
160 180 72
155 176 0
155 175 102
172 188 102
163 182 72
149 170 0
152 175 0
157 178 0
164 184 102
168 187 125
154 176 0
161 181 72
151 171 0
156 175 72
155 176 0
148 169 0
150 174 0
154 176 0
145 167 0
157 177 0
154 176 0
154 173 0
152 175 0
160 179 0
155 176 0
154 175 0
153 175 0
154 175 0
146 168 0
157 177 0
160 179 0
157 177 0
157 177 0
155 176 0
158 178 0
155 177 0
149 169 0
152 171 0
152 175 0
149 173 0
153 175 0
150 171 0
151 171 0
150 170 0
156 174 0
147 169 0
156 177 0
157 177 0
143 163 0
151 174 0
159 179 0
150 171 0
153 173 0
150 170 0
140 159 0
141 161 0
154 176 0
151 168 0
151 172 0
146 168 0
151 171 0
145 166 0
149 170 0
139 159 0
151 171 0
144 164 0
151 174 0
143 161 0
148 167 0
152 172 0
150 173 0
151 174 0
153 176 0
154 171 0
145 168 0
148 165 0
150 170 0
143 166 0
154 174 0
142 162 0
145 168 0
145 165 0
148 169 0
137 158 0
134 155 0
140 158 0
133 153 0
134 154 0
140 160 0
138 158 0
150 166 0
144 167 0
144 167 0
128 146 0
132 153 0
141 158 0
127 148 0
140 158 0
142 160 0
149 170 0
135 151 0
137 155 0
132 144 0
137 156 0
121 140 0
120 133 0
111 126 0
131 149 0
126 146 0
120 139 0
133 150 0
108 125 0
104 122 51
104 119 0
90 108 51
60 81 0
88 105 0
78 95 0
59 74 0
40 64 51
79 99 72
34 56 0
38 60 60
41 64 51
38 62 51
35 57 51
35 57 28
67 83 0
67 87 45
117 133 0
41 65 45
72 89 45
128 147 45
118 134 51
132 149 0
142 163 0
131 152 26
141 159 42
165 187 64
171 196 0
176 199 0
163 181 0
168 190 0
161 186 0
176 198 0
173 197 0
115 134 0
31 52 65
51 81 127
53 83 108
58 90 140
57 89 137
53 85 76
53 84 114
52 82 122
53 84 125
57 90 127
52 84 76
62 97 137
47 76 57
60 94 151
55 87 99
53 83 99
53 84 99
59 94 127
54 86 114
52 81 111
55 88 99
58 92 111
55 87 99
60 94 125
64 99 151
64 99 151
59 92 135
60 94 127
62 97 151
58 91 114
62 97 151
61 95 114
53 85 114
60 93 140
63 98 151
56 87 99
54 88 99
56 90 127
53 85 99
58 91 140
59 93 99
60 94 114
54 86 114
60 95 127
61 93 140
60 95 127
60 94 127
57 90 127
55 86 99
49 79 80
59 94 114
56 87 130
57 91 114
53 84 99
60 93 127
57 91 80
58 91 114
54 85 99
60 94 114
54 87 99
58 90 140
55 86 114
58 92 99
57 89 127
57 90 84
59 91 114
61 94 130
62 96 127
54 85 114
61 95 140
54 85 99
55 89 99
56 86 99
59 92 117
51 83 80
55 86 127
49 76 62
57 85 117
62 97 140
59 93 140
60 93 140
60 93 127
49 76 57
59 93 117
55 87 80
51 79 117
49 70 84
54 84 114
46 71 80
53 82 117
50 77 102
49 76 80
51 75 88
48 73 80
114 130 0
168 195 0
160 186 0
169 191 0
170 191 0
177 199 0
176 199 0
171 196 0
153 165 36
86 72 36
104 98 45
128 114 16
116 102 0
78 71 7
65 63 0
95 81 10
66 62 0
104 93 25
83 75 9
113 103 16
94 93 0
74 76 37
85 75 31
102 96 25
92 94 25
80 72 30
119 113 45
79 83 0
68 69 3
148 137 51
66 61 0
113 107 39
93 96 25
150 143 51
117 120 25
120 118 9
136 131 36
122 120 51
155 145 51
143 139 62
138 132 36
143 142 36
109 98 36
129 124 36
128 123 36
159 149 62
125 123 11
148 143 51
138 134 37
126 117 57
130 127 44
139 134 65
115 112 51
127 126 44
127 126 44
129 125 0
147 141 63
108 100 0
149 146 51
140 134 76
159 153 60
142 141 48
154 147 62
139 135 67
140 135 51
150 141 51
150 145 36
158 153 62
159 148 62
139 134 62
158 150 64
157 146 36
164 156 72
145 139 36
164 160 62
129 124 0
175 164 74
163 153 82
164 158 79
166 159 72
176 167 80
156 150 62
160 157 62
147 141 72
146 140 62
159 154 62
165 155 80
173 165 72
139 127 62
154 149 62
145 139 36
152 144 51
159 156 72
137 132 36
156 151 51
162 157 62
165 148 72
161 157 51
154 150 62
161 156 62
148 143 51
156 147 62
155 145 74
164 158 72
161 155 62
161 155 62
129 117 51
159 158 62
170 162 88
154 149 51
161 151 72
165 158 62
161 157 72
155 148 62
151 143 62
170 159 72
164 156 62
167 154 64
150 146 0
139 127 36
165 157 62
170 163 72
157 150 36
164 158 36
155 150 51
162 154 72
149 136 53
166 154 88
157 153 51
160 151 72
135 131 0
161 155 62
174 164 74
161 154 74
163 159 62
168 160 72
148 147 36
151 140 64
163 160 62
160 158 62
167 150 63
148 140 62
158 153 51
154 144 36
157 146 62
157 147 51
152 142 66
156 150 51
147 140 51
164 151 80
164 161 72
161 151 53
150 137 51
158 178 72
158 178 72
163 182 72
169 188 125
154 174 72
153 171 72
157 177 0
154 175 0
157 179 72
152 172 0
151 174 0
157 177 72
155 176 0
158 178 0
145 165 0
156 176 0
156 177 0
157 176 0
152 172 72
157 178 72
154 176 0
160 179 0
149 172 0
160 179 0
159 177 0
155 176 0
151 173 0
157 177 0
150 172 0
152 175 0
158 178 0
147 168 0
154 176 0
153 175 0
140 159 0
144 166 0
155 176 0
153 175 0
154 174 0
149 169 0
154 176 0
150 174 0
158 178 0
157 178 0
137 156 0
151 167 0
156 177 0
157 177 0
155 175 0
150 170 0
143 164 0
146 167 0
155 176 0
151 172 0
147 169 0
155 176 0
153 175 0
155 174 0
151 174 0
143 161 0
140 157 0
145 165 0
149 167 0
152 175 0
155 176 0
150 173 0
161 179 0
134 152 0
146 167 0
155 176 0
157 178 0
153 173 0
147 165 0
151 173 0
149 170 0
132 150 0
142 160 0
153 174 0
153 171 0
133 152 0
154 176 0
149 170 0
146 167 0
140 160 0
150 173 0
142 164 0
137 159 0
137 158 0
139 160 0
128 147 0
145 167 0
142 160 0
135 154 0
133 150 0
144 162 0
144 166 0
136 156 0
143 166 0
144 163 0
149 166 0
121 141 0
140 161 0
125 146 0
132 153 0
143 162 0
134 152 0
121 142 0
142 160 0
117 132 0
144 164 0
120 136 0
103 121 0
128 141 0
113 133 0
129 146 0
133 147 0
135 152 0
79 88 0
111 128 0
88 106 0
108 124 51
123 140 51
67 84 0
78 94 72
83 99 51
99 117 51
60 77 0
75 88 0
40 64 75
84 104 72
82 100 0
82 99 51
63 86 0
83 102 51
79 100 60
116 134 0
30 49 0
125 145 0
79 95 51
137 154 0
117 133 0
141 158 0
122 141 6
145 162 95
172 196 0
176 199 0
173 197 0
171 196 0
175 198 0
176 199 0
171 196 0
173 197 0
155 178 0
74 99 97
49 78 99
58 92 140
49 79 99
53 83 99
49 77 80
59 93 111
52 82 92
49 80 99
58 91 140
57 91 140
57 90 99
55 87 114
53 85 120
57 90 99
45 74 99
56 89 99
57 92 111
51 80 57
61 95 140
59 93 99
60 94 140
62 96 127
51 82 99
57 92 114
49 80 57
51 82 80
60 93 127
59 92 127
59 94 127
55 87 114
57 90 99
60 93 140
60 94 140
55 87 114
57 87 80
57 90 127
57 90 114
61 95 127
52 84 114
53 84 57
59 94 127
52 82 114
56 87 99
61 94 127
57 89 99
60 93 151
60 93 114
59 92 114
59 91 99
57 88 114
63 99 151
63 98 140
56 89 99
57 89 115
53 86 80
53 85 0
58 92 140
41 66 57
48 74 57
54 85 99
55 86 114
60 95 127
52 82 127
58 90 127
53 83 99
59 93 127
60 94 114
58 89 102
63 97 151
61 95 114
54 86 114
60 93 151
58 90 99
56 85 103
52 79 102
58 88 102
59 94 114
48 76 99
60 93 140
56 85 102
55 86 99
49 75 62
61 96 140
50 78 80
46 73 80
55 82 102
47 72 102
58 90 117
51 75 84
49 76 84
48 73 80
49 72 84
73 93 62
163 182 0
172 194 0
169 193 0
174 198 0
173 193 0
181 198 0
165 189 0
172 197 0
174 195 36
129 125 17
94 83 41
124 106 51
107 96 2
77 73 0
83 75 3
106 94 17
112 96 36
69 61 0
80 76 8
64 56 25
74 62 28
94 92 25
93 84 1
111 108 26
111 105 30
104 105 0
120 115 36
106 105 0
104 101 26
75 64 0
92 92 0
80 84 37
96 90 25
73 73 36
100 100 0
98 92 25
127 117 57
137 129 36
114 115 36
117 112 36
106 105 52
127 117 36
117 115 51
125 118 37
149 138 72
123 118 46
132 131 11
122 122 51
163 155 76
141 133 60
148 141 62
144 138 72
152 146 57
126 124 44
132 133 72
138 132 51
169 162 62
142 137 16
133 124 51
138 136 0
136 128 57
160 153 62
140 137 51
135 125 0
141 135 63
148 138 62
161 154 51
135 133 36
164 155 62
144 137 57
137 133 0
153 146 70
169 162 62
147 144 36
137 132 62
158 150 72
136 128 36
159 154 51
157 150 72
141 140 36
153 147 36
157 149 72
153 144 62
162 156 51
170 164 72
168 163 79
169 162 88
149 142 62
147 143 0
149 138 39
160 153 51
178 169 88
147 136 36
166 153 72
152 143 62
156 152 36
170 163 72
149 141 1
169 158 80
164 157 72
155 151 51
166 158 80
163 155 62
143 142 36
152 146 36
158 152 36
175 166 72
142 135 0
162 147 62
165 157 80
164 156 51
154 141 40
159 143 62
161 152 62
162 156 62
166 161 62
156 143 72
169 164 80
149 144 36
152 143 62
165 154 72
164 154 80
175 168 88
151 145 62
163 154 74
169 156 88
150 142 62
165 155 72
172 162 72
155 151 51
168 157 75
173 160 82
158 148 51
160 156 62
152 143 51
162 152 62
166 158 80
164 159 51
160 154 62
157 148 53
161 151 62
138 129 51
158 149 51
160 151 53
156 146 51
149 144 36
166 156 80
162 151 81
159 150 51
153 139 64
169 151 74
173 162 82
139 136 0
159 180 72
157 177 102
163 182 72
160 180 72
157 175 72
162 181 72
155 176 0
165 184 102
168 185 102
151 173 0
155 177 0
153 174 0
155 175 0
159 179 0
156 177 0
157 178 0
153 175 0
164 182 72
153 175 0
159 176 0
154 175 0
152 174 0
157 177 0
149 168 0
155 176 0
153 173 0
150 172 0
157 177 0
156 177 0
151 174 0
151 174 0
154 176 0
136 156 0
154 175 0
155 176 0
160 179 0
156 175 0
152 175 0
141 163 0
153 175 0
148 168 0
150 169 0
154 176 0
155 176 0
150 170 0
153 173 0
156 174 0
146 164 0
152 173 0
153 173 0
153 171 0
146 165 0
155 177 0
151 173 0
153 174 0
150 172 0
150 167 0
150 173 0
150 174 0
154 173 0
158 175 0
157 177 0
155 177 0
154 168 0
157 176 0
143 165 0
156 176 0
154 176 0
147 169 0
144 165 0
139 158 0
150 172 0
151 171 0
152 171 0
144 162 0
155 174 0
144 164 0
151 172 0
128 151 0
151 173 0
144 166 0
140 160 0
133 154 0
143 162 0
156 177 0
129 148 0
156 177 0
135 157 0
138 155 0
129 146 0
154 176 0
157 174 0
120 140 0
146 168 0
119 136 0
140 160 0
135 155 0
149 166 0
132 153 0
136 152 0
152 172 0
126 147 0
124 143 0
131 148 0
147 168 0
132 152 0
143 165 0
141 163 0
140 162 0
131 149 0
116 132 0
113 130 0
130 146 0
103 122 0
134 150 0
129 146 0
139 159 0
100 115 0
125 139 0
108 127 0
80 99 51
31 51 0
92 109 0
75 95 51
27 44 0
94 113 0
80 96 0
80 96 0
62 82 45
74 91 51
60 77 0
71 86 0
59 75 0
89 106 0
61 78 51
102 120 0
96 111 0
107 124 0
120 136 0
100 116 0
134 153 0
114 133 0
151 171 72
155 175 97
176 199 0
175 198 0
175 197 0
175 198 0
176 199 0
175 198 0
174 198 0
167 189 0
174 197 0
98 119 80
41 67 65
49 78 95
52 84 99
41 66 0
51 82 99
51 82 99
58 90 137
58 91 111
50 80 80
55 87 95
57 90 99
57 89 125
59 93 137
58 90 128
55 88 111
58 92 140
59 92 137
51 81 57
57 91 99
57 90 137
59 92 127
48 77 0
56 90 114
56 88 127
57 90 114
59 93 114
56 88 127
58 92 99
59 94 127
59 93 140
56 89 99
56 88 127
55 86 99
59 93 114
61 96 140
56 88 127
54 84 99
58 91 114
57 89 140
55 88 127
54 86 80
58 91 127
59 93 140
59 92 114
52 81 80
64 99 151
56 88 99
60 95 140
54 87 99
54 87 80
53 85 99
54 85 99
61 95 140
54 87 80
59 91 99
61 95 114
59 94 114
55 87 99
51 81 57
58 91 127
57 91 99
63 97 153
58 90 142
57 88 114
53 82 114
61 94 99
57 89 114
52 81 99
57 91 80
52 82 99
52 81 80
57 86 99
58 92 99
52 81 57
55 88 99
58 93 151
55 85 102
56 90 114
53 87 99
61 97 140
59 94 114
55 85 84
51 75 57
47 75 99
47 74 100
58 92 140
54 80 88
58 89 128
54 82 102
44 71 99
50 77 62
43 66 62
64 83 18
178 200 0
173 197 0
163 188 0
173 197 0
179 200 0
174 198 0
174 197 0
169 195 0
167 189 0
165 184 0
118 104 7
88 62 17
67 62 25
77 68 16
88 84 0
66 59 25
100 93 16
67 58 11
88 87 12
76 77 0
95 80 16
124 105 16
49 47 28
68 67 36
101 87 0
76 81 36
117 107 0
101 97 36
106 99 25
129 122 51
120 118 0
113 105 3
110 107 0
112 106 0
94 93 0
133 123 0
120 117 37
110 96 36
128 126 44
153 150 60
128 126 41
86 91 0
131 130 36
140 134 51
107 106 36
129 118 44
126 123 0
123 116 44
120 119 37
139 134 44
132 129 0
127 124 36
154 145 62
116 110 47
137 125 32
95 88 25
129 125 32
135 130 36
155 149 51
162 154 72
156 146 62
144 139 51
166 158 62
137 128 0
145 136 51
150 144 36
147 141 57
143 140 32
139 138 67
148 147 51
168 162 62
137 131 36
157 154 62
144 136 62
145 143 51
166 162 72
166 160 51
165 158 72
146 144 57
177 167 88
149 142 36
147 137 62
162 158 51
135 131 36
160 155 62
174 166 72
137 133 36
148 140 36
171 164 72
166 156 62
175 164 95
153 151 51
169 160 72
146 138 36
154 142 36
162 153 51
148 140 51
157 147 51
162 156 51
161 151 62
164 153 62
131 129 51
155 147 62
161 152 80
175 168 88
161 155 51
169 157 62
162 154 51
155 150 0
140 134 7
170 161 72
174 166 80
143 137 62
137 131 51
153 143 36
157 150 72
150 139 36
177 164 88
168 163 72
167 156 80
149 148 36
169 164 80
159 148 62
149 143 36
154 149 62
167 161 62
158 145 72
146 140 36
177 167 96
165 154 72
165 157 72
163 157 62
161 154 51
177 166 88
159 158 62
152 143 51
156 147 53
148 137 51
169 159 62
157 150 53
171 160 80
152 147 62
146 143 51
161 149 64
150 140 39
168 160 80
157 149 51
147 141 62
161 151 62
164 151 51
149 142 62
164 152 65
172 162 72
166 185 102
163 182 72
164 184 102
161 180 102
159 179 72
158 178 0
152 174 0
157 178 72
154 174 0
157 176 0
160 180 72
154 176 0
159 179 0
154 175 0
156 177 0
154 176 0
154 174 0
156 177 0
159 178 0
152 173 0
152 175 0
143 165 0
155 176 0
154 175 0
151 173 0
156 177 0
158 178 0
153 175 0
152 175 0
151 174 0
154 174 0
152 174 0
151 170 0
154 176 0
155 175 0
150 169 0
157 178 0
154 174 0
154 175 0
150 170 0
154 174 0
139 159 0
149 170 0
143 161 0
150 169 0
150 173 0
149 169 0
145 166 0
149 166 0
154 175 0
154 173 0
139 159 0
145 167 0
143 163 0
148 169 0
152 175 0
153 175 0
154 176 0
150 170 0
143 163 0
155 176 0
156 177 0
141 163 0
135 155 0
146 165 0
139 160 0
139 159 0
141 163 0
140 159 0
161 179 0
146 165 0
139 161 0
152 173 0
143 166 0
153 175 0
144 164 0
154 176 0
143 163 0
156 173 0
149 170 0
150 172 0
150 169 0
146 166 0
143 163 0
144 167 0
154 175 0
142 161 0
153 176 0
145 167 0
128 150 0
137 153 0
143 163 0
146 164 0
128 151 0
136 156 0
151 170 0
145 165 0
132 151 0
144 163 0
124 144 0
138 157 0
145 166 0
110 132 0
143 158 0
120 136 0
135 146 0
132 152 0
101 118 0
145 164 0
118 133 0
107 124 0
136 156 0
108 127 0
113 129 0
135 155 0
96 112 0
108 128 0
107 122 0
78 94 0
79 87 0
95 116 0
75 90 0
79 93 0
75 92 0
110 127 0
126 144 0
94 112 0
76 91 0
92 103 0
31 51 45
78 95 45
76 91 0
77 93 0
75 88 0
75 92 0
112 130 0
126 145 0
112 127 0
90 109 0
136 157 0
123 143 29
131 149 26
160 173 139
174 197 0
171 195 0
174 198 0
168 190 0
170 195 0
174 197 0
169 194 0
176 198 0
167 190 0
171 196 0
159 182 51
49 78 80
44 71 57
47 74 95
54 84 111
47 75 57
52 82 99
52 83 80
48 77 57
57 91 114
62 96 140
60 94 114
55 87 125
58 89 127
55 86 99
52 84 99
54 86 95
54 87 80
60 96 140
58 92 137
59 93 114
64 99 159
57 91 114
52 84 80
55 88 95
42 68 80
61 94 140
52 84 57
59 92 127
55 89 127
54 86 114
59 92 114
56 88 114
61 95 140
67 102 161
54 86 99
61 96 127
54 87 99
57 90 114
61 96 140
52 82 57
57 90 114
62 97 140
58 91 114
56 88 99
57 90 114
55 87 80
58 92 114
55 89 114
53 81 99
53 83 57
56 90 127
63 98 151
48 78 80
60 94 151
59 93 127
58 90 99
54 84 127
54 85 117
55 86 99
57 89 114
55 87 99
54 86 114
52 81 58
59 93 99
59 94 114
57 88 117
58 89 114
50 80 99
51 80 80
56 88 127
52 80 57
53 84 80
55 87 114
58 92 99
58 87 117
60 95 151
53 84 127
53 82 102
51 80 57
53 81 80
51 81 99
48 74 114
56 87 127
48 73 57
43 66 62
54 82 114
56 85 99
51 80 80
51 80 84
53 83 102
53 79 85
47 71 57
155 172 57
174 198 0
173 197 0
172 193 0
153 177 0
171 192 0
178 200 0
178 200 0
175 198 0
171 196 0
168 194 0
153 145 36
103 102 30
104 79 16
102 96 0
102 95 11
105 98 0
122 110 36
72 66 36
94 83 3
94 77 6
102 96 25
90 89 7
100 94 0
93 88 36
86 83 0
127 116 7
36 44 0
102 99 0
124 118 0
105 100 25
98 95 0
99 101 0
143 130 39
106 102 36
139 134 51
93 91 8
75 76 45
120 112 36
103 101 3
104 105 36
132 129 36
108 110 45
121 119 25
134 127 51
122 117 36
121 119 52
135 131 51
123 120 36
168 160 80
142 136 36
122 117 7
122 122 0
134 128 36
121 118 25
120 120 36
158 151 62
149 143 36
129 129 36
139 127 51
158 153 51
129 127 36
131 128 32
120 123 0
150 143 62
147 143 36
147 137 62
146 139 36
153 144 51
157 155 36
147 139 36
141 134 36
138 128 51
123 115 44
159 152 72
166 155 80
155 144 72
155 149 51
162 157 62
139 131 36
152 144 62
144 142 36
162 157 62
135 135 25
167 160 88
156 151 36
153 149 36
159 155 36
169 159 72
154 140 51
155 151 51
160 150 53
143 135 0
165 160 62
144 136 36
157 148 62
141 133 62
140 134 36
152 144 72
169 162 62
164 159 51
167 158 72
156 144 39
168 161 62
168 161 62
150 145 51
147 141 36
170 162 62
164 159 51
148 143 36
164 157 62
157 150 51
169 160 80
167 158 62
166 160 51
153 149 0
164 157 62
163 153 64
161 153 51
167 159 62
158 153 36
159 145 53
162 151 80
173 166 80
164 160 62
152 143 53
160 152 62
157 145 62
153 142 36
161 155 51
162 152 62
163 154 80
149 143 62
173 159 74
162 153 72
165 154 63
165 157 72
153 141 72
171 156 74
152 139 36
146 136 51
152 138 36
156 140 43
149 143 51
140 135 51
155 142 62
152 136 63
170 165 80
141 135 51
156 144 51
158 142 72
152 145 62
152 146 64
169 159 80
155 176 0
160 180 72
157 178 0
166 185 102
164 183 102
158 179 72
154 176 0
147 169 0
151 172 0
153 175 0
158 177 0
159 178 0
156 176 0
156 177 0
157 177 0
156 177 0
154 174 0
157 178 0
144 165 0
153 176 0
157 177 0
155 174 0
154 172 0
160 179 0
150 171 0
153 174 0
155 176 0
157 177 0
162 179 0
146 164 0
149 170 0
153 175 0
156 177 0
150 171 0
151 174 0
149 169 0
152 172 0
157 177 0
150 169 0
155 175 0
145 167 0
154 176 0
138 161 0
144 164 0
148 168 0
152 175 0
147 167 0
133 149 0
142 161 0
148 169 0
148 168 0
146 164 0
143 164 0
147 169 0
147 167 0
144 166 0
148 169 0
150 167 0
145 166 0
152 171 0
139 161 0
138 159 0
155 177 0
149 171 0
151 172 0
153 173 0
150 173 0
151 173 0
158 178 0
153 174 0
148 168 0
154 175 0
152 173 0
151 170 0
139 159 0
148 168 0
146 166 0
130 147 0
145 166 0
146 168 0
144 165 0
138 157 0
135 156 0
145 163 0
151 173 0
152 172 0
144 165 0
136 159 0
146 168 0
138 159 0
142 164 0
152 172 0
139 158 0
142 163 0
133 154 0
120 140 0
130 150 0
147 168 0
137 155 0
119 138 0
107 127 0
137 158 0
138 159 0
133 152 0
122 137 0
128 147 0
117 136 0
110 132 0
86 104 0
134 152 0
121 142 0
129 148 0
127 145 0
120 138 0
135 155 0
137 152 0
101 119 0
111 121 0
100 117 51
105 118 0
84 98 0
95 108 0
111 130 0
90 105 0
95 109 0
57 72 0
113 131 0
108 122 51
89 102 51
81 95 0
76 93 0
110 127 51
95 106 0
64 84 0
106 124 0
79 97 0
123 140 0
127 146 0
120 141 0
150 168 64
71 87 48
129 150 0
169 194 0
172 196 0
172 197 0
173 197 0
172 196 0
165 189 0
166 189 0
162 187 0
172 196 0
177 199 0
165 189 0
172 197 0
71 96 92
46 74 57
55 86 118
55 88 80
53 82 92
57 88 137
55 87 99
51 80 72
56 89 127
51 81 95
53 83 57
54 85 125
57 91 125
56 87 99
54 86 114
55 86 95
53 84 99
58 91 127
50 80 114
63 98 161
61 96 127
61 96 127
51 83 80
62 96 125
60 95 114
63 97 151
51 82 57
61 96 137
55 87 111
62 96 140
54 88 99
60 94 140
61 95 127
61 95 127
57 89 127
56 88 80
54 85 57
57 92 99
54 83 99
60 94 114
56 90 114
52 84 99
60 95 140
61 96 140
51 82 114
54 86 76
58 93 114
56 90 114
55 88 99
57 91 127
54 84 99
56 89 99
55 86 99
57 92 99
56 88 80
58 91 114
63 98 151
52 84 99
57 91 80
57 90 114
53 83 99
55 88 57
56 86 99
61 96 127
58 91 127
47 76 57
59 91 127
56 89 114
56 89 99
59 93 114
56 88 114
53 82 99
61 95 140
58 90 99
52 81 117
60 95 127
50 79 99
56 87 117
53 84 99
51 81 99
52 83 102
47 76 99
46 73 80
54 84 80
56 86 62
52 82 99
55 85 114
40 64 57
52 78 80
39 56 18
52 73 62
100 122 57
164 181 0
174 194 0
172 191 0
174 197 0
159 185 0
169 192 0
173 197 0
168 191 0
166 190 0
171 190 0
175 198 0
176 192 0
116 95 39
127 113 36
119 103 16
105 97 16
116 89 22
87 88 5
96 87 16
120 106 22
95 83 0
89 86 0
117 95 31
88 82 0
98 92 11
101 91 25
117 116 37
64 67 25
87 83 11
118 113 44
120 114 36
111 109 36
81 76 25
93 89 25
110 102 36
112 103 0
127 122 44
122 119 36
130 123 48
101 100 67
99 96 25
85 80 46
137 133 11
135 128 44
127 122 11
132 127 36
104 99 1
117 111 57
128 120 51
138 130 51
157 152 36
134 129 60
124 118 36
142 134 60
96 96 0
117 107 36
145 144 36
147 141 51
147 141 3
141 138 51
134 134 0
140 137 36
121 116 0
160 153 62
151 146 25
141 141 0
163 158 51
145 138 62
121 117 0
136 131 57
156 148 16
150 144 62
144 139 51
143 135 36
153 144 62
155 145 51
159 154 60
165 158 62
128 125 44
143 134 44
140 130 7
163 152 51
160 151 62
162 152 88
165 156 36
159 146 62
169 163 72
144 136 51
147 138 72
159 154 62
164 157 72
143 137 51
153 141 51
158 150 72
150 141 51
148 142 62
144 136 39
150 136 62
148 138 53
161 146 63
157 146 51
149 146 62
149 134 36
143 132 36
155 145 51
143 135 51
151 145 51
162 155 72
149 147 36
158 149 62
147 141 51
167 158 62
163 159 62
168 161 51
169 160 62
146 137 51
172 161 80
167 160 81
152 137 40
169 164 80
138 136 0
154 147 0
158 150 62
137 129 36
153 148 62
144 127 16
140 136 1
177 166 88
171 165 80
142 131 51
161 155 62
164 155 51
148 135 62
166 155 80
178 170 95
151 143 62
140 130 36
168 157 62
153 140 51
170 161 72
166 159 62
151 146 36
157 152 62
145 135 36
161 158 51
167 159 62
159 144 51
159 150 53
159 143 63
180 167 88
153 145 62
160 151 62
158 152 62
159 149 63
152 171 0
151 174 0
156 177 0
152 174 0
156 176 72
157 177 0
154 176 0
155 176 0
146 168 0
156 177 0
150 170 0
147 168 0
155 175 0
147 167 0
157 177 0
153 171 0
145 165 0
143 165 0
155 176 0
156 176 0
154 174 0
153 173 0
156 174 0
155 176 0
157 178 0
155 177 0
158 177 0
145 167 0
156 174 0
155 176 0
156 177 0
146 166 0
149 167 0
154 176 0
153 175 0
155 176 0
150 172 0
157 178 0
140 162 0
157 177 0
155 175 0
150 171 0
158 178 0
153 175 0
153 175 0
150 170 0
149 170 0
137 159 0
145 165 0
145 167 0
152 175 0
147 168 0
148 172 0
142 161 0
155 176 0
155 173 0
150 169 0
146 165 0
146 166 0
148 168 0
140 159 0
137 159 0
139 158 0
147 168 0
159 178 0
152 170 0
151 172 0
145 167 0
147 167 0
154 175 0
136 151 0
139 159 0
143 161 0
152 170 0
143 161 0
134 155 0
141 159 0
159 179 0
154 174 0
140 158 0
142 164 0
143 160 0
152 175 0
147 168 0
147 169 0
145 167 0
137 158 0
139 156 0
141 155 0
126 145 0
155 174 0
148 169 0
151 172 0
133 153 0
152 173 0
147 166 0
141 160 0
145 165 0
128 140 0
137 158 0
114 129 0
110 132 0
130 149 0
129 149 0
152 172 0
129 151 0
151 170 0
111 129 0
146 166 0
132 150 0
124 141 0
136 154 0
86 106 0
117 134 0
130 149 0
151 169 0
118 138 0
111 130 0
108 123 0
75 92 0
93 107 0
107 121 0
73 85 0
104 120 0
92 108 0
104 119 0
80 94 0
60 80 0
96 112 51
105 120 0
115 133 0
72 91 0
95 109 0
120 133 0
89 102 0
119 134 0
129 148 0
131 150 0
136 156 0
139 159 0
123 144 33
148 170 72
171 194 0
171 195 0
173 197 0
163 185 0
178 200 0
174 198 0
177 199 0
161 186 0
168 193 0
173 197 0
176 199 0
172 196 0
175 197 0
74 103 76
51 81 95
53 82 142
53 85 80
57 89 111
57 89 99
56 88 125
56 89 76
54 86 99
51 82 99
63 99 159
56 88 125
49 78 80
53 84 99
55 89 80
54 86 99
53 84 114
53 83 76
57 90 99
54 86 114
60 94 151
62 97 151
58 90 140
44 71 80
55 87 114
54 87 80
56 88 95
49 79 57
51 83 99
60 93 140
57 88 99
62 96 161
61 95 127
57 91 99
62 97 151
56 88 114
60 93 127
61 96 140
58 91 130
60 94 114
51 83 80
53 84 80
57 91 127
55 86 80
59 94 114
61 95 127
56 89 114
56 89 127
59 92 140
53 85 114
52 83 80
53 84 99
58 91 114
56 90 99
50 79 80
61 95 127
56 86 127
57 88 114
57 90 99
60 95 127
56 86 99
51 82 80
48 78 57
56 88 127
57 89 114
60 95 127
55 89 57
56 85 102
52 83 99
59 92 127
59 92 99
50 80 99
60 92 114
58 90 140
57 90 84
56 87 114
55 86 57
49 77 84
56 90 114
55 84 127
55 86 99
47 76 99
57 86 117
53 84 57
57 89 99
50 75 57
57 88 114
51 78 65
47 74 57
46 70 57
142 163 0
170 195 0
175 198 0
173 191 0
162 187 0
160 181 0
158 176 0
176 198 0
173 197 0
168 190 0
171 196 0
174 191 0
176 195 0
140 148 11
125 106 7
106 87 28
90 87 7
118 108 36
105 91 36
96 84 0
117 108 30
119 103 7
119 111 16
113 104 16
115 107 0
117 108 0
85 77 30
113 102 6
76 76 44
91 87 3
140 128 16
102 100 25
86 87 0
97 92 26
114 107 0
83 83 18
104 97 25
127 120 25
86 83 3
121 116 26
82 79 25
114 104 45
128 124 36
103 99 0
91 82 0
135 131 51
124 122 25
102 99 0
134 134 36
109 108 25
143 135 36
154 153 67
130 126 36
140 137 36
115 109 0
134 127 67
156 149 72
129 127 52
133 130 0
163 154 80
134 132 58
133 129 51
138 134 36
132 127 51
141 136 36
125 123 1
118 117 0
144 138 51
133 127 0
143 132 62
164 154 62
157 153 62
139 137 62
134 129 36
131 118 36
134 129 0
169 159 80
175 167 80
150 146 36
162 152 62
157 148 51
162 154 62
148 140 36
156 152 62
174 166 80
139 134 0
150 146 62
162 155 51
139 133 0
133 128 36
148 143 0
139 135 51
157 148 72
141 133 0
164 157 62
156 148 72
150 145 51
159 151 62
153 140 51
155 146 51
154 148 36
165 158 72
153 146 36
152 148 36
165 159 51
145 141 16
151 142 53
160 154 51
157 150 51
169 159 72
146 140 7
148 138 53
147 132 51
159 153 62
155 148 51
156 148 62
154 146 36
166 159 62
156 148 62
155 150 62
136 130 51
150 149 36
156 148 39
152 147 39
159 150 72
157 152 36
167 158 51
169 160 72
147 140 51
151 142 51
168 158 72
166 159 72
144 130 3
159 153 62
160 150 72
158 146 39
164 155 62
159 148 72
162 153 63
152 145 62
148 138 36
164 157 53
172 163 80
167 156 62
144 137 39
153 143 51
160 147 72
163 150 62
171 162 88
159 150 62
154 147 51
156 145 53
158 146 72
155 149 39
160 150 51
154 176 0
157 177 0
154 173 0
154 176 0
153 174 0
146 167 0
156 177 0
154 176 0
161 180 0
152 174 0
152 175 0
153 174 0
155 176 0
151 171 0
155 175 0
160 179 0
155 174 0
153 175 0
154 174 0
146 168 0
161 180 0
151 171 0
154 176 0
156 177 0
153 174 0
141 163 0
148 168 0
154 176 0
148 169 0
151 173 0
149 169 0
154 175 0
154 176 0
155 175 0
146 165 0
149 168 0
154 176 0
153 175 0
155 176 0
153 174 0
155 176 0
145 168 0
154 174 0
154 176 0
155 173 0
152 175 0
157 178 0
154 174 0
153 175 0
146 165 0
149 169 0
145 168 0
149 167 0
149 169 0
145 165 0
143 160 0
151 169 0
145 167 0
155 175 0
144 162 0
136 158 0
157 175 0
155 175 0
154 176 0
152 173 0
144 166 0
137 158 0
147 169 0
143 164 0
151 171 0
143 164 0
151 174 0
149 169 0
148 169 0
143 162 0
143 161 0
144 162 0
140 160 0
148 168 0
137 157 0
139 159 0
139 158 0
146 164 0
141 161 0
134 152 0
146 164 0
129 148 0
129 145 0
137 156 0
127 144 0
145 163 0
138 154 0
151 168 0
147 168 0
142 159 0
130 150 0
140 160 0
128 143 0
131 150 0
139 160 0
123 143 0
131 147 0
139 160 0
137 154 0
133 153 0
110 124 0
141 162 0
125 143 0
132 150 0
110 126 0
149 168 0
90 110 0
109 130 0
115 134 0
124 145 0
88 104 0
111 128 0
135 151 0
122 130 0
76 91 0
89 106 0
102 119 0
114 131 0
137 152 51
82 101 0
74 86 0
34 54 0
45 57 0
91 106 0
82 100 51
108 122 0
85 103 0
101 115 0
106 125 0
113 131 0
109 128 0
96 111 0
123 140 0
138 158 0
135 153 0
140 157 59
168 189 0
177 199 0
173 194 0
158 180 0
166 189 0
174 197 0
167 190 0
173 197 0
172 196 0
155 179 0
174 193 0
170 194 0
178 199 0
165 187 0
113 136 0
54 85 95
33 56 0
46 74 80
60 93 140
57 90 114
53 84 99
53 83 99
55 87 99
59 93 114
59 92 111
57 90 114
53 84 114
56 88 114
53 85 80
53 84 95
55 88 99
59 92 114
49 80 51
60 93 140
59 93 99
55 88 99
64 99 151
62 96 127
51 82 80
57 90 114
57 90 127
59 94 127
57 90 80
53 84 99
53 83 114
48 77 95
52 85 57
52 83 114
60 94 114
49 79 57
58 89 114
55 87 114
62 97 127
58 90 140
63 98 140
59 93 114
58 93 99
59 92 127
56 90 114
55 89 99
57 91 114
59 93 114
56 88 80
59 93 140
63 98 151
59 94 114
58 92 114
56 85 114
52 82 114
56 89 114
49 76 57
52 82 114
59 93 114
55 86 99
57 91 114
58 90 114
58 92 127
51 83 57
55 86 114
57 89 99
58 93 114
58 91 114
55 83 88
62 98 151
52 84 99
59 91 117
59 90 114
56 85 99
58 91 114
53 85 114
59 93 140
45 71 0
49 76 80
52 83 99
53 83 80
53 82 57
50 75 62
55 84 99
56 87 103
56 85 102
51 80 57
40 63 18
51 78 57
104 123 25
161 187 0
169 193 0
162 178 0
162 187 0
166 189 0
169 191 0
170 192 0
170 191 0
162 187 0
172 196 0
175 195 0
164 188 0
160 181 0
165 184 0
93 103 0
121 110 51
101 86 7
91 79 2
84 78 36
108 94 36
86 82 1
96 85 0
82 72 1
125 119 0
97 91 25
108 94 36
111 107 37
118 104 7
97 90 0
78 83 0
86 79 2
128 122 0
106 98 30
77 75 25
138 130 57
115 108 25
104 96 0
108 105 44
117 105 36
110 111 0
118 118 36
108 108 0
103 99 0
106 105 36
131 123 16
150 141 36
95 96 0
138 135 36
120 114 0
120 116 36
150 143 62
130 120 36
128 124 36
126 114 36
140 132 36
129 118 0
136 129 51
156 150 62
162 154 62
125 115 25
139 130 62
131 127 36
146 139 51
139 132 36
138 131 57
162 156 51
158 148 62
147 142 62
143 133 62
133 128 36
138 131 51
148 139 51
140 134 36
163 155 72
155 147 51
149 140 51
146 140 36
151 143 0
150 138 72
149 144 36
145 140 51
127 122 36
135 125 39
150 147 0
124 123 36
133 126 36
148 142 62
171 163 79
159 153 80
150 145 36
169 161 62
142 133 36
167 159 64
151 141 51
156 147 62
149 142 51
165 157 62
159 148 39
133 128 0
171 162 88
162 153 62
161 157 51
164 157 62
170 161 64
146 144 51
174 163 72
141 127 36
155 147 51
173 160 82
164 154 51
156 144 74
152 145 62
148 142 51
151 142 51
172 165 72
171 165 80
163 155 80
157 148 51
159 150 62
149 145 36
158 145 53
140 131 16
145 135 64
161 153 51
147 141 51
144 135 36
159 152 62
167 156 72
156 149 36
142 132 36
160 152 51
163 154 51
164 159 51
160 150 51
141 130 51
161 152 64
158 147 80
166 159 80
149 143 51
176 168 88
131 127 1
176 167 95
147 131 53
179 166 80
137 129 51
145 134 16
157 145 62
165 155 74
171 164 72
152 137 56
183 172 95
164 157 62
164 154 72
158 147 63
147 133 39
150 171 0
153 173 0
158 178 0
153 174 0
153 174 0
151 173 0
149 170 0
156 175 0
152 173 0
148 168 0
157 178 0
149 172 0
159 179 0
155 176 0
158 178 0
147 168 0
153 174 0
154 176 0
156 173 0
155 176 0
156 176 0
157 178 0
150 171 0
141 161 0
159 178 0
153 174 0
143 166 0
156 177 0
153 175 0
154 176 0
151 174 0
155 174 0
150 172 0
152 173 0
159 179 0
142 162 0
148 168 0
151 174 0
149 169 0
154 175 0
156 175 0
138 159 0
156 176 0
152 170 0
154 172 0
154 174 0
143 163 0
158 178 0
152 173 0
145 166 0
143 165 0
150 170 0
152 171 0
146 166 0
152 175 0
146 168 0
157 177 0
152 170 0
149 169 0
151 172 0
147 168 0
153 174 0
149 170 0
142 163 0
115 136 0
136 156 0
142 165 0
152 171 0
138 156 0
146 169 0
149 172 0
118 138 0
143 162 0
152 172 0
152 172 0
149 168 0
136 158 0
145 167 0
149 168 0
143 164 0
136 154 0
133 153 0
157 174 0
148 169 0
129 150 0
150 169 0
135 153 0
135 154 0
146 168 0
136 157 0
152 172 0
118 138 0
137 159 0
116 137 0
113 130 0
140 160 0
149 172 0
142 164 0
136 157 0
142 164 0
132 151 0
134 153 0
145 164 0
137 159 0
128 144 0
119 138 0
144 164 0
112 128 0
134 154 0
129 148 0
92 108 0
124 142 0
140 160 0
123 139 0
94 112 0
143 161 0
99 115 0
105 119 0
71 90 0
99 111 0
83 96 0
84 99 0
102 118 0
103 117 0
89 103 0
104 120 0
123 137 0
99 115 0
87 101 0
91 108 0
74 89 0
96 110 0
102 120 0
84 100 0
125 142 0
120 140 0
105 122 0
88 106 0
142 160 0
126 145 53
172 193 0
167 189 0
164 187 0
153 179 0
175 197 0
172 195 0
172 197 0
159 181 0
165 191 0
172 194 0
166 187 0
161 186 0
170 194 0
154 178 0
176 199 0
169 191 0
82 102 57
52 82 80
51 81 76
56 88 137
45 73 72
57 90 122
53 85 80
49 76 80
52 83 99
59 92 127
52 83 80
49 77 80
52 82 99
52 84 80
53 84 57
56 88 99
51 82 99
53 83 99
57 89 114
55 88 99
58 92 127
57 89 127
52 83 114
55 89 57
53 84 80
56 89 114
59 93 140
60 94 127
53 84 95
58 92 99
58 92 127
56 89 114
56 89 111
60 94 127
58 90 99
52 83 80
59 93 99
54 85 114
60 95 127
54 87 80
56 89 127
61 95 140
60 93 114
59 91 114
60 92 114
51 83 80
49 78 0
45 73 80
56 89 99
60 94 140
57 91 80
57 91 80
55 87 114
48 78 80
58 91 127
58 91 99
61 96 127
54 86 114
50 81 57
58 91 114
55 87 99
56 87 99
58 91 114
60 92 114
56 91 99
59 91 127
53 84 80
59 91 127
54 85 80
59 93 140
61 95 140
58 90 114
61 94 127
57 90 99
61 94 140
60 93 140
49 73 99
50 78 80
42 66 57
55 86 114
61 95 130
51 82 99
51 78 84
55 87 80
43 65 57
46 73 0
48 72 84
57 87 114
148 170 0
166 186 0
173 191 0
173 197 0
170 193 0
165 189 0
176 199 0
167 183 0
175 198 0
170 192 0
164 187 0
173 196 0
172 197 0
172 196 0
158 180 0
153 169 0
112 95 39
105 93 3
115 99 39
80 74 16
105 85 16
92 85 36
95 91 0
104 90 3
104 93 0
101 91 1
56 60 11
123 116 30
86 86 25
75 76 0
90 74 3
119 105 3
90 75 11
112 102 0
112 101 25
107 98 62
113 106 0
124 117 36
82 74 0
116 105 8
122 116 36
111 105 25
118 114 44
117 114 44
120 120 0
105 99 0
120 117 51
100 100 0
105 96 26
123 115 36
117 117 0
103 101 36
138 135 51
131 123 0
127 114 44
117 113 44
139 137 36
114 110 0
135 124 36
146 140 36
140 137 49
126 125 36
125 120 36
146 137 57
154 150 51
135 128 36
138 130 0
134 129 25
141 133 44
162 154 60
130 127 51
141 138 0
142 132 32
160 149 62
138 129 36
165 156 62
144 142 36
147 141 36
147 137 51
127 119 0
138 133 36
156 150 51
153 141 62
158 150 51
145 140 44
154 147 36
148 144 0
158 148 72
147 141 51
148 141 62
140 133 0
144 134 36
147 138 36
165 157 72
145 142 36
166 159 80
154 148 72
145 137 51
164 156 51
145 141 36
161 152 51
159 150 62
151 146 51
161 153 62
165 154 72
147 140 51
144 137 36
162 150 72
170 161 72
152 145 51
132 117 36
152 144 62
167 157 72
140 131 36
150 141 62
167 159 62
157 150 62
152 145 63
145 134 36
151 144 62
154 146 72
148 138 53
146 133 36
149 136 51
146 137 62
156 146 51
169 162 62
161 154 62
148 139 0
146 139 51
158 149 64
160 149 51
139 131 36
166 154 64
155 146 72
146 130 51
160 152 62
179 169 80
146 136 72
145 140 36
167 158 72
157 146 62
171 161 81
149 139 53
167 154 72
148 140 53
144 130 36
166 154 82
164 152 72
141 124 37
110 96 1
154 140 72
138 130 51
146 134 36
155 139 62
147 132 53
159 178 0
156 176 0
155 176 0
152 172 0
148 167 0
155 177 0
159 178 0
156 176 0
147 169 0
147 168 0
153 174 0
156 176 0
150 171 0
157 175 0
154 176 0
157 176 0
154 173 0
151 172 0
159 178 0
153 173 0
155 175 0
144 162 0
144 167 0
155 173 0
149 168 0
143 162 0
150 170 0
147 168 0
154 176 0
149 171 0
152 171 0
152 173 0
146 166 0
153 174 0
151 170 0
153 174 0
146 167 0
151 173 0
136 157 0
153 175 0
151 174 0
144 165 0
141 159 0
148 167 0
157 178 0
156 177 0
143 165 0
157 177 0
145 165 0
154 176 0
143 163 0
132 150 0
156 177 0
140 160 0
136 158 0
154 176 0
145 167 0
155 176 0
153 174 0
151 171 0
141 160 0
152 174 0
148 168 0
146 168 0
140 155 0
146 168 0
150 171 0
150 169 0
150 170 0
160 178 0
133 153 0
150 169 0
159 179 0
132 151 0
148 168 0
145 162 0
148 169 0
153 173 0
143 158 0
143 164 0
146 165 0
149 170 0
138 159 0
140 159 0
151 172 0
131 148 0
155 173 0
146 167 0
130 151 0
119 137 0
142 164 0
147 167 0
146 168 0
132 153 0
143 162 0
146 165 0
148 168 0
137 156 0
97 114 0
141 161 0
136 153 0
136 156 0
106 124 0
107 125 0
130 145 0
140 159 0
112 132 0
114 131 0
94 113 0
114 133 0
133 151 0
122 142 0
109 128 0
87 102 0
89 106 0
107 125 0
111 130 0
95 111 0
138 158 0
55 72 0
116 133 0
73 87 0
135 154 0
75 93 0
122 138 0
92 107 0
120 135 0
98 116 0
116 131 0
92 104 0
108 127 0
75 91 0
115 133 0
111 129 0
136 152 0
91 106 0
129 149 0
138 155 0
121 138 64
140 160 41
153 176 0
173 197 0
161 182 0
169 191 0
164 186 0
165 190 0
173 197 0
161 187 0
157 179 0
174 198 0
163 187 0
172 197 0
171 196 0
174 197 0
161 185 0
163 188 0
150 171 51
44 69 111
52 83 80
47 75 57
58 90 127
52 82 108
45 72 57
52 83 76
46 74 0
53 82 80
42 68 57
51 82 80
52 83 99
49 78 57
55 89 114
53 83 99
52 84 99
51 81 127
55 87 127
55 87 80
51 83 95
55 87 114
62 96 127
64 99 151
53 84 99
59 93 140
61 94 140
49 79 0
59 91 125
52 82 111
52 85 114
53 85 76
61 96 140
55 88 99
53 85 99
53 83 99
48 76 99
56 88 127
56 89 80
49 79 80
57 91 99
52 83 80
54 85 57
58 92 127
58 91 114
52 83 57
55 87 99
56 90 80
57 90 114
58 92 127
52 81 114
51 82 127
56 88 114
54 86 99
49 77 80
58 91 114
54 86 99
55 86 80
57 88 114
55 87 114
53 85 99
60 94 114
57 92 114
49 78 80
53 80 99
51 80 80
56 89 99
58 90 127
49 81 57
60 94 127
60 92 114
52 83 114
52 81 99
57 89 127
47 74 80
44 70 0
53 81 117
57 90 117
49 77 99
52 82 62
53 81 57
51 78 80
49 75 84
41 63 57
46 73 80
57 84 117
37 56 80
137 159 0
157 179 0
165 184 0
173 197 0
158 179 0
166 188 0
175 198 0
162 187 0
173 197 0
169 195 0
167 190 0
168 184 0
169 195 0
164 184 0
162 187 0
174 198 0
169 188 0
162 172 16
99 80 1
125 111 36
110 88 16
69 59 0
96 89 8
97 92 0
76 56 0
87 83 25
68 66 0
113 103 0
112 100 1
91 91 0
71 68 25
134 119 44
84 83 2
107 99 0
105 98 0
99 100 36
116 107 0
117 112 0
110 99 16
136 134 44
93 91 25
115 108 36
119 110 0
124 121 0
101 99 0
119 118 0
127 119 0
124 124 0
122 117 30
127 120 0
91 88 0
126 118 3
133 129 36
112 110 25
177 163 88
159 153 51
151 139 51
114 106 36
134 126 51
125 116 36
125 115 25
141 137 57
142 129 37
145 139 0
134 133 36
143 135 36
155 149 67
140 134 51
154 148 62
149 138 51
153 144 36
145 140 62
147 146 36
130 121 51
149 144 36
135 131 36
143 137 51
149 143 62
141 135 51
162 150 64
142 138 36
155 150 48
165 157 51
126 123 0
161 147 62
163 157 62
137 134 36
135 124 51
173 163 80
164 154 72
141 134 36
161 151 51
160 155 62
158 147 36
159 151 62
161 154 51
150 144 36
133 124 36
156 146 62
159 155 62
147 144 36
155 144 63
158 151 36
149 140 51
150 143 51
161 158 51
144 136 36
146 136 36
162 155 62
156 144 53
174 166 80
150 142 62
127 122 62
150 147 36
158 149 64
156 141 36
162 152 51
172 162 88
158 149 62
158 146 39
145 134 51
150 147 36
140 129 36
156 152 36
154 143 39
164 154 63
167 155 63
142 133 36
131 112 36
150 141 51
152 143 62
134 120 36
153 136 51
145 138 36
162 150 80
142 125 64
152 139 51
150 148 36
148 139 51
158 149 64
155 143 53
165 156 74
154 139 51
165 156 62
156 149 53
157 147 62
162 153 72
168 156 84
156 146 51
154 148 51
152 137 54
151 140 51
158 147 53
151 142 51
159 147 64
160 153 62
149 135 64
157 177 0
155 176 0
153 176 0
155 175 0
153 176 0
151 172 0
154 175 0
145 166 0
161 180 0
153 174 0
149 171 0
152 174 0
153 174 0
153 174 0
155 177 0
154 173 0
153 171 0
152 175 0
155 176 0
145 167 0
147 168 0
156 177 0
156 175 0
149 170 0
156 177 0
152 171 0
150 173 0
149 171 0
160 178 0
152 174 0
149 170 0
148 170 0
151 170 0
131 147 0
153 171 0
150 171 0
156 177 0
153 175 0
143 164 0
150 164 0
155 176 0
155 176 0
145 164 0
147 167 0
144 166 0
145 166 0
147 169 0
149 171 0
155 175 0
151 173 0
155 177 0
152 173 0
148 166 0
156 177 0
140 159 0
144 161 0
151 174 0
150 169 0
142 160 0
138 158 0
148 169 0
146 164 0
148 167 0
156 177 0
152 173 0
145 168 0
159 175 0
154 176 0
152 173 0
139 160 0
127 145 0
131 147 0
156 176 0
155 174 0
150 171 0
144 165 0
145 161 0
154 173 0
136 153 0
141 162 0
137 156 0
143 162 0
143 164 0
136 157 0
139 158 0
154 174 0
162 180 0
127 148 0
135 156 0
121 142 0
148 168 0
133 148 0
156 174 0
130 149 0
143 160 0
142 165 0
118 135 0
150 166 0
108 127 0
125 144 0
132 151 0
152 169 0
118 142 0
132 151 0
134 157 0
108 121 0
123 142 0
140 159 0
115 133 0
108 124 0
116 135 0
104 123 0
96 115 0
105 125 0
111 127 0
128 143 0
130 151 0
83 100 0
103 120 0
115 130 0
91 109 0
121 138 0
119 131 0
97 114 0
112 131 0
109 124 0
74 88 0
104 118 0
117 132 0
56 74 0
101 117 0
94 111 0
116 132 0
102 120 0
97 111 0
130 148 0
134 153 0
134 151 0
144 165 0
171 196 0
147 171 0
171 196 0
157 180 0
167 194 0
164 190 0
157 177 0
170 194 0
174 196 0
171 192 0
163 187 0
177 197 0
170 191 0
170 190 0
153 177 0
163 186 0
176 197 0
168 189 0
101 127 57
56 88 99
51 81 99
53 83 99
50 80 80
42 67 57
51 80 99
48 76 114
53 84 80
52 82 99
47 73 99
52 82 80
58 91 80
56 89 99
56 88 99
49 80 57
57 90 95
54 87 80
50 79 80
59 92 151
60 94 140
53 85 57
56 90 114
55 87 114
53 84 95
52 83 99
54 86 99
53 85 114
60 93 127
55 87 140
55 86 127
53 85 80
54 84 80
51 80 114
50 80 57
57 90 95
57 89 114
55 87 127
48 75 99
62 96 140
56 89 114
58 91 99
55 87 80
56 89 114
47 77 57
58 93 127
55 89 99
57 89 99
56 88 114
55 89 140
56 87 99
57 89 127
56 89 114
59 92 127
52 81 99
64 98 140
52 80 80
62 94 127
55 86 140
56 88 114
52 82 57
58 92 99
55 86 80
52 84 57
56 89 99
61 96 127
56 87 99
51 82 80
50 76 80
56 87 62
57 91 80
45 73 57
57 87 114
54 84 80
54 84 99
54 85 80
60 92 114
47 77 57
41 67 60
56 87 102
45 71 57
50 75 80
48 75 58
49 75 100
44 67 58
68 88 26
154 175 0
171 192 0
148 166 0
174 198 0
157 176 0
158 179 0
178 200 0
162 188 0
140 159 0
158 181 0
169 192 0
158 173 0
170 192 0
162 182 0
161 187 0
164 181 0
175 198 0
173 189 0
168 183 36
86 70 0
120 104 22
116 95 39
111 100 0
90 78 1
77 67 28
114 109 36
65 50 1
99 90 25
97 78 8
130 119 25
97 88 7
83 82 0
123 113 1
72 73 0
80 78 16
92 93 0
118 104 25
105 99 16
100 95 26
115 107 0
118 110 0
120 112 0
94 90 25
102 99 0
129 123 0
108 105 0
115 113 0
148 138 36
109 110 0
119 121 36
152 137 51
141 140 36
112 101 0
133 124 51
126 114 0
101 97 36
110 107 0
137 132 0
134 131 5
144 133 51
143 133 62
158 148 36
126 116 3
141 127 51
100 93 36
143 135 51
144 141 36
165 154 62
160 156 36
147 138 62
146 145 0
126 118 36
138 134 36
145 136 57
149 140 44
157 149 51
123 118 0
162 156 53
135 130 0
153 143 51
157 147 74
132 132 0
148 140 62
167 160 72
132 129 0
120 114 0
142 137 51
153 146 51
166 155 74
160 155 51
144 135 0
153 144 36
155 148 51
147 135 51
143 138 0
144 142 36
145 139 36
157 148 80
161 152 39
162 154 62
134 127 51
152 149 36
155 148 16
160 149 51
140 136 51
140 136 36
156 151 36
163 157 62
146 140 36
142 139 36
158 149 51
150 141 51
168 158 72
154 146 36
153 143 51
157 145 36
163 154 62
145 135 3
139 131 0
133 129 36
141 132 51
165 157 51
150 143 51
163 151 62
151 141 62
161 150 88
157 145 72
129 120 36
134 124 22
168 158 72
157 144 51
162 153 51
173 165 72
153 142 51
162 152 62
161 145 64
158 148 53
153 147 51
146 139 16
150 143 51
173 160 82
165 157 74
156 148 51
165 149 72
154 140 53
151 143 36
163 152 63
158 142 53
161 151 63
146 138 62
155 144 63
154 143 51
167 160 72
144 134 53
160 150 39
154 142 16
159 151 62
153 174 0
158 178 0
143 165 0
151 168 0
153 171 0
146 168 0
152 173 0
152 174 0
148 171 0
155 176 0
143 164 0
147 168 0
152 175 0
152 173 0
158 177 0
149 169 0
143 166 0
154 176 0
154 175 0
145 166 0
149 172 0
145 167 0
151 172 0
156 174 0
147 168 0
155 175 0
143 163 0
154 174 0
157 177 0
153 174 0
152 173 0
146 166 0
155 176 0
152 172 0
153 175 0
152 175 0
157 177 0
146 166 0
149 167 0
151 171 0
139 159 0
146 166 0
153 173 0
153 174 0
152 173 0
154 174 0
147 168 0
145 166 0
143 164 0
139 159 0
135 157 0
156 176 0
148 170 0
155 176 0
152 175 0
136 159 0
154 175 0
147 167 0
149 169 0
143 162 0
144 166 0
147 164 0
140 158 0
142 161 0
148 168 0
155 176 0
150 171 0
141 161 0
148 168 0
143 165 0
150 171 0
148 168 0
146 167 0
140 157 0
139 159 0
148 167 0
146 165 0
146 166 0
149 171 0
137 156 0
146 165 0
151 172 0
131 152 0
140 161 0
146 168 0
124 137 0
144 164 0
148 167 0
149 166 0
147 166 0
139 158 0
128 149 0
143 161 0
125 145 0
141 161 0
149 169 0
134 152 0
126 143 0
111 130 0
126 143 0
141 161 0
145 165 0
117 134 0
107 125 0
146 164 0
110 129 0
132 152 0
113 132 0
137 155 0
124 141 0
106 122 0
106 121 0
95 111 0
125 145 0
95 114 0
111 122 0
141 160 0
96 112 0
106 120 0
107 125 0
108 127 0
110 125 0
97 114 0
101 117 0
108 122 0
117 129 0
120 137 0
117 134 0
87 100 0
86 101 0
83 100 0
120 136 0
86 102 0
121 141 0
135 155 0
99 118 0
114 130 6
134 151 89
165 189 0
163 184 0
163 186 0
163 184 0
164 187 0
164 187 0
155 180 0
165 188 0
161 185 0
175 197 0
152 178 0
154 179 0
169 192 0
167 190 0
160 185 0
177 199 0
173 195 0
169 191 0
161 184 0
149 172 0
107 128 80
55 88 108
53 83 57
43 68 0
53 83 95
53 85 99
45 73 80
52 84 80
50 80 80
49 79 80
53 84 80
47 76 76
45 73 57
60 95 127
57 89 95
49 79 95
54 86 114
50 81 99
54 86 95
57 90 137
56 89 99
55 88 127
54 84 99
58 93 140
57 90 114
54 84 80
53 84 127
56 87 114
61 96 127
55 87 99
56 89 114
56 89 140
57 89 127
53 83 99
52 83 57
53 85 80
52 84 57
47 75 57
54 84 80
58 91 127
62 97 140
61 96 127
57 90 114
57 88 80
56 88 114
55 87 80
58 91 114
62 97 140
57 92 99
58 90 140
56 88 99
57 89 99
57 91 80
50 78 57
54 84 114
51 81 114
63 98 140
56 87 114
62 97 140
52 84 99
55 87 114
53 84 80
56 90 114
50 79 99
46 71 99
54 84 99
55 85 80
49 78 99
56 88 99
59 90 140
54 84 102
55 86 99
55 85 114
56 88 84
58 88 114
52 82 114
47 74 99
53 82 88
52 80 80
44 67 80
44 70 0
49 78 57
51 80 80
66 83 57
177 199 0
153 171 0
172 196 0
159 181 0
131 150 0
158 182 0
159 182 0
167 190 0
164 184 0
156 180 0
161 183 0
171 196 0
161 179 0
142 159 0
148 170 0
167 187 0
169 191 0
154 172 0
160 178 0
176 199 0
115 104 1
137 108 40
109 87 25
117 95 39
110 98 30
134 118 22
116 97 17
116 109 0
90 65 17
104 94 25
123 110 16
116 100 30
96 95 25
81 72 0
129 120 16
107 102 25
120 117 8
114 106 0
90 85 0
78 65 0
133 128 0
113 107 2
97 92 25
97 79 3
105 96 25
109 109 25
88 90 25
92 90 0
117 110 0
114 109 0
78 79 0
143 140 0
131 126 0
127 124 0
111 104 0
112 108 0
111 104 3
133 123 36
141 137 36
122 115 36
125 120 51
141 133 36
122 108 3
126 123 36
153 143 63
150 140 36
142 135 36
137 135 0
143 138 67
152 146 51
159 151 51
152 146 51
148 140 36
127 120 0
107 106 25
140 130 51
153 146 51
150 143 36
157 145 62
142 136 25
134 128 0
129 119 0
139 134 36
122 112 36
145 133 0
141 131 36
138 133 36
144 136 36
150 148 36
166 159 51
165 156 72
137 134 36
140 125 36
158 148 62
156 151 51
145 138 51
152 145 39
147 137 36
149 143 51
145 135 53
142 132 51
171 164 72
163 150 53
154 149 36
139 132 0
158 151 62
149 142 63
127 117 0
166 155 62
162 155 51
154 150 51
159 152 62
141 136 36
162 154 62
157 151 62
149 142 51
155 147 36
159 153 51
148 137 36
155 149 62
149 143 36
148 136 51
139 128 51
154 146 72
165 158 62
134 121 3
145 132 39
157 153 51
166 152 80
159 149 62
149 145 51
163 155 51
165 158 62
170 160 62
134 128 0
138 133 16
162 151 72
152 147 51
170 159 72
149 140 36
164 160 62
146 136 36
137 127 36
157 150 62
156 148 36
135 126 1
157 153 51
167 158 74
162 150 53
163 150 64
154 143 72
149 138 72
158 142 53
165 157 62
149 140 51
160 154 36
153 146 36
148 136 52
155 175 0
159 179 0
152 175 0
153 173 0
152 174 0
152 173 0
150 169 0
152 172 0
152 174 0
150 171 0
157 176 0
152 172 0
152 175 0
149 170 0
152 172 0
152 170 0
155 176 0
158 178 0
145 166 0
146 166 0
155 176 0
153 174 0
151 172 0
151 171 0
147 168 0
155 175 0
156 177 0
155 173 0
139 159 0
154 174 0
140 159 0
156 176 0
148 169 0
152 172 0
158 178 0
159 178 0
140 160 0
144 165 0
156 175 0
143 164 0
143 163 0
144 164 0
156 176 0
149 166 0
141 161 0
147 166 0
149 172 0
154 176 0
144 164 0
144 164 0
147 169 0
156 177 0
160 179 0
143 163 0
148 169 0
141 159 0
137 160 0
136 159 0
158 178 0
143 163 0
156 177 0
151 173 0
156 177 0
142 163 0
150 173 0
144 164 0
148 166 0
143 163 0
139 158 0
143 162 0
147 166 0
155 174 0
145 164 0
129 150 0
147 161 0
146 166 0
149 170 0
145 165 0
156 176 0
136 153 0
127 144 0
148 167 0
137 158 0
140 160 0
139 157 0
144 163 0
142 164 0
142 159 0
145 164 0
137 155 0
146 163 0
149 169 0
123 142 0
139 159 0
130 150 0
148 166 0
106 123 0
144 161 0
115 134 0
133 155 0
141 161 0
131 150 0
148 167 0
119 137 0
146 166 0
124 142 0
120 137 0
106 123 0
136 155 0
111 132 0
137 154 0
104 119 0
59 74 0
48 64 0
119 137 0
121 139 0
138 158 0
99 118 0
129 146 0
117 130 0
120 135 0
97 113 0
124 141 0
130 144 0
108 124 0
90 105 0
122 139 0
104 122 0
100 116 0
102 117 0
126 142 0
126 142 0
121 140 0
123 141 0
111 128 0
134 150 0
130 150 37
176 198 0
148 172 0
175 197 0
151 175 0
164 188 0
169 191 0
149 173 0
147 169 0
164 187 0
165 186 0
160 184 0
163 188 0
153 176 0
156 178 0
154 175 0
158 183 0
175 196 0
158 183 0
162 184 0
157 179 0
166 187 0
136 160 65
44 69 57
41 67 0
36 60 57
46 74 76
50 78 95
60 92 137
52 84 76
57 89 111
54 86 99
58 92 127
53 84 80
59 92 127
53 85 80
53 84 80
47 73 57
51 80 114
58 92 127
55 86 111
51 82 80
50 80 99
59 93 99
52 82 92
56 90 127
50 79 80
53 83 99
59 93 140
57 89 114
60 94 114
50 80 114
58 93 99
52 84 80
55 86 114
53 85 57
52 81 80
54 87 80
59 92 127
61 94 127
56 89 114
60 93 151
56 89 99
56 89 114
53 86 99
57 90 99
49 80 0
54 86 80
58 91 114
53 85 114
56 87 99
50 79 57
56 89 99
57 91 114
47 74 80
59 92 114
59 92 127
55 84 114
52 85 57
50 80 80
53 84 114
44 70 80
55 86 80
58 91 127
59 90 114
61 95 151
56 87 127
51 80 99
61 94 140
56 87 114
46 73 57
55 87 57
53 85 99
46 75 62
58 92 127
52 80 57
53 82 80
57 86 114
39 64 0
47 69 62
52 81 58
52 83 99
47 74 57
48 73 80
50 81 57
156 179 0
165 185 0
162 184 0
159 179 0
173 197 0
162 184 0
168 188 0
156 173 0
158 181 0
177 199 0
171 196 0
172 196 0
174 195 0
167 189 0
154 172 0
171 186 0
163 182 0
160 181 0
163 187 0
169 190 0
156 173 0
164 184 0
137 119 56
95 66 15
103 82 0
67 49 0
125 109 39
94 84 7
99 89 11
103 87 25
71 66 25
102 92 7
102 89 1
94 90 25
99 87 0
75 73 0
100 89 25
103 94 7
101 86 0
94 89 0
106 95 36
90 84 25
112 105 3
108 102 44
123 115 36
108 103 0
129 121 7
93 74 17
76 81 0
118 111 25
95 83 7
116 107 0
120 113 0
127 124 0
131 126 25
124 123 0
127 120 44
123 119 0
119 102 1
155 151 51
146 137 62
145 141 51
108 102 3
127 121 36
137 129 0
156 145 51
123 118 0
120 112 0
131 126 36
113 108 25
140 137 0
142 132 36
144 141 51
131 122 0
150 142 36
143 138 51
117 118 0
136 130 36
142 135 36
145 139 0
162 152 51
160 154 51
154 145 62
139 135 36
170 161 72
144 134 51
141 134 51
145 133 51
123 119 0
160 154 51
153 147 51
162 155 51
144 131 51
155 142 62
149 133 51
152 145 36
150 132 51
156 150 62
149 143 36
143 134 3
155 147 51
142 136 36
154 146 51
148 144 51
171 160 74
170 163 72
157 150 51
158 145 62
155 148 36
147 145 0
148 143 51
171 163 62
153 148 62
157 149 51
131 118 3
153 145 62
157 141 40
160 151 62
156 151 36
166 159 64
141 138 0
174 165 72
159 147 53
171 161 64
164 158 72
146 136 51
147 132 51
163 153 62
140 120 36
155 148 62
154 139 62
149 140 51
153 149 51
161 155 72
166 159 62
156 151 51
176 162 88
164 156 72
154 147 39
163 148 72
127 116 36
165 153 80
163 156 51
148 140 36
163 148 72
164 149 73
148 138 56
148 138 36
161 150 72
151 143 51
160 142 65
144 142 36
145 134 39
154 142 63
148 138 36
153 141 42
156 144 63
156 140 64
160 147 63
153 173 0
154 174 0
154 176 0
155 176 0
151 173 0
155 176 0
152 175 0
151 173 0
149 169 0
155 175 0
156 177 0
159 179 0
155 176 0
148 170 0
158 178 0
160 178 0
153 172 0
158 178 0
157 176 0
157 177 0
151 172 0
149 167 0
153 175 0
153 172 0
154 174 0
152 171 0
151 172 0
145 167 0
155 175 0
151 174 0
154 174 0
134 156 0
149 170 0
154 174 0
152 174 0
143 163 0
152 174 0
154 175 0
141 164 0
153 171 0
151 173 0
157 177 0
146 166 0
154 176 0
157 178 0
154 174 0
152 173 0
154 173 0
157 178 0
156 177 0
147 167 0
137 159 0
149 166 0
155 176 0
156 175 0
127 143 0
148 168 0
150 169 0
151 171 0
158 177 0
141 161 0
147 170 0
147 168 0
141 163 0
145 161 0
141 162 0
154 171 0
139 155 0
140 161 0
148 166 0
134 156 0
138 157 0
150 172 0
153 173 0
150 172 0
153 171 0
133 149 0
161 179 0
124 145 0
149 169 0
136 154 0
144 166 0
124 146 0
142 163 0
142 165 0
141 161 0
148 170 0
127 145 0
145 163 0
156 174 0
144 158 0
150 168 0
137 156 0
143 164 0
137 156 0
133 156 0
137 155 0
139 160 0
130 149 0
123 138 0
129 147 0
144 162 0
111 128 0
150 168 0
138 155 0
108 128 0
123 143 0
132 150 0
137 156 0
95 109 0
124 147 0
97 113 0
115 131 0
135 153 0
122 138 0
120 137 0
103 120 0
100 115 0
122 137 0
135 154 0
114 131 0
96 108 0
120 139 0
108 120 0
110 126 0
97 111 0
92 108 0
79 95 0
127 144 0
117 134 0
109 123 0
103 117 0
113 129 0
140 157 0
76 94 0
87 107 0
124 141 21
157 179 0
159 182 0
161 186 0
169 194 0
171 194 0
164 189 0
170 192 0
176 199 0
172 197 0
165 188 0
173 197 0
151 173 0
159 180 0
145 169 0
160 184 0
171 195 0
164 186 0
161 181 0
164 185 0
168 188 0
162 183 0
172 192 0
127 151 51
46 74 80
51 80 76
54 85 80
54 86 80
51 80 80
46 74 80
61 94 140
49 78 0
54 86 80
52 83 80
52 84 80
53 84 80
53 85 80
52 83 80
55 87 99
49 78 57
52 82 99
57 90 99
48 78 80
56 87 99
50 78 99
49 80 57
59 92 127
56 87 99
53 86 57
44 72 57
55 85 99
60 94 151
63 98 140
58 92 99
51 81 99
51 81 99
53 85 99
55 87 80
60 93 127
56 88 99
49 79 57
54 84 99
56 89 114
56 87 127
54 87 80
45 71 80
61 96 127
50 80 57
62 96 151
58 91 114
55 87 127
50 80 82
53 83 84
54 85 99
59 92 114
57 90 99
57 90 114
57 92 99
56 87 99
40 61 5
60 93 151
53 83 84
56 85 114
55 87 80
56 87 80
58 92 114
52 84 99
51 81 99
59 92 114
60 96 140
47 77 0
53 83 80
57 88 114
57 87 84
54 86 114
55 82 62
54 84 102
54 84 80
52 81 102
52 82 80
57 87 118
48 75 81
39 60 57
39 61 57
133 152 57
169 195 0
159 173 0
174 198 0
149 170 0
150 173 0
168 190 0
164 179 0
170 190 0
162 179 0
168 191 0
169 195 0
153 173 0
164 188 0
156 174 0
175 195 0
164 189 0
177 199 0
164 188 0
166 186 0
174 191 0
160 182 0
163 183 0
135 154 0
139 124 51
130 103 43
59 64 25
113 94 42
87 79 16
95 82 7
93 87 0
112 108 0
99 87 1
127 119 0
90 85 25
95 92 0
67 56 0
105 105 0
111 104 25
58 48 0
127 112 0
111 107 0
127 117 0
87 89 8
142 136 0
115 106 3
106 105 0
122 118 16
108 101 25
122 120 0
120 110 0
127 120 36
78 78 0
105 98 25
103 97 25
115 103 25
132 127 0
112 91 0
120 108 36
112 103 3
110 107 0
108 106 36
148 139 36
116 111 0
107 107 25
123 123 25
127 119 44
149 144 52
123 120 0
135 129 36
120 112 36
129 119 36
129 120 51
147 140 36
147 139 51
164 158 36
145 140 0
133 117 7
160 153 51
150 143 36
140 130 16
139 131 1
156 150 62
143 138 51
124 117 0
157 151 36
144 136 51
136 127 51
122 113 0
149 140 51
145 142 36
134 128 16
145 136 51
175 166 80
150 139 51
128 120 0
129 123 51
155 151 51
151 146 36
159 143 51
161 154 62
158 154 62
147 142 51
163 150 51
161 151 62
156 147 36
153 148 51
157 152 36
156 144 72
147 145 0
153 146 51
155 144 51
165 160 62
157 142 51
163 156 62
162 155 62
167 158 62
155 140 51
165 150 51
167 156 80
146 134 51
149 145 3
156 148 51
124 115 36
158 153 36
158 145 51
160 150 62
141 132 0
143 141 0
173 160 82
150 135 16
159 149 51
152 140 51
142 136 36
149 139 62
157 144 72
171 161 72
157 149 36
153 148 36
163 157 51
136 122 7
167 152 65
159 146 72
163 156 62
161 151 62
170 164 72
151 140 36
151 137 62
150 141 51
164 154 62
149 135 62
151 141 22
163 156 53
146 137 36
153 141 64
144 133 51
156 143 62
147 142 36
146 133 51
160 150 62
155 176 0
155 175 0
153 173 0
152 174 0
152 170 0
155 176 0
150 173 0
148 171 0
147 168 0
154 174 0
151 172 0
152 173 0
151 172 0
155 175 0
145 167 0
153 175 0
156 176 0
146 166 0
147 165 0
155 172 0
151 172 0
149 172 0
154 175 0
147 166 0
146 165 0
152 173 0
146 167 0
153 175 0
156 177 0
157 177 0
154 176 0
151 168 0
156 177 0
156 176 0
154 174 0
156 177 0
155 175 0
145 168 0
150 171 0
145 167 0
155 175 0
147 166 0
159 177 0
156 177 0
154 176 0
149 169 0
140 160 0
144 165 0
153 173 0
146 165 0
147 168 0
149 169 0
149 170 0
149 173 0
149 171 0
156 176 0
145 167 0
134 155 0
150 170 0
147 169 0
149 167 0
139 157 0
148 169 0
132 152 0
140 159 0
138 158 0
140 160 0
156 176 0
158 176 0
141 160 0
144 166 0
138 153 0
152 175 0
150 173 0
152 175 0
145 165 0
141 161 0
138 157 0
140 156 0
127 145 0
127 145 0
147 163 0
135 155 0
128 147 0
137 155 0
111 129 0
113 133 0
137 157 0
143 165 0
123 142 0
144 165 0
142 162 0
145 165 0
148 167 0
155 175 0
91 109 0
132 150 0
120 135 0
120 138 0
119 137 0
138 155 0
130 147 0
128 147 0
124 141 0
98 117 0
86 99 0
138 157 0
125 142 0
138 158 0
123 143 0
116 138 0
146 165 0
94 112 0
102 117 0
121 137 0
101 116 0
89 104 0
114 130 0
112 126 0
84 100 0
89 107 0
95 113 0
112 126 0
97 111 0
97 110 0
101 114 0
97 111 0
112 132 0
95 112 0
129 146 0
119 136 0
127 143 0
121 141 0
122 139 0
111 126 0
146 166 0
162 185 0
153 176 0
172 196 0
164 186 0
155 176 0
169 190 0
167 189 0
150 167 0
174 196 0
159 182 0
168 192 0
171 192 0
165 189 0
166 189 0
171 196 0
142 165 0
161 180 0
156 180 0
136 156 0
161 185 0
169 190 0
142 162 0
172 195 0
148 168 0
87 109 0
50 79 99
37 62 0
54 85 114
52 82 99
44 71 45
53 82 99
57 89 127
54 86 114
58 93 99
55 86 127
55 86 127
59 94 114
60 94 125
46 74 0
54 84 114
48 79 57
56 88 99
42 67 57
56 88 95
59 93 140
53 85 57
53 83 114
55 86 80
56 88 114
52 80 80
54 84 127
54 85 80
48 79 80
57 89 114
46 76 57
60 95 127
58 90 99
56 88 80
55 86 114
54 86 127
48 75 80
51 83 57
53 85 114
58 91 114
56 87 114
57 91 127
53 86 57
55 88 114
55 87 99
52 84 127
42 68 0
53 82 80
54 87 80
55 85 114
55 88 57
52 83 114
52 84 80
54 84 99
54 82 84
56 89 99
55 85 99
57 90 114
55 85 99
54 87 80
51 80 62
57 90 114
54 85 80
49 76 114
46 73 57
56 88 57
61 95 127
51 78 81
53 83 57
52 77 80
58 89 117
53 82 102
48 74 62
57 90 127
49 77 80
47 76 0
57 88 114
57 85 127
58 89 127
103 123 62
155 172 0
168 185 0
164 176 0
169 190 0
135 150 0
156 178 0
160 178 0
143 160 0
166 190 0
163 180 0
163 186 0
154 172 0
154 176 0
154 174 0
177 192 0
156 174 0
165 185 0
153 176 0
161 181 0
155 178 0
165 188 0
164 187 0
147 168 0
151 167 0
128 141 28
131 110 16
130 109 39
137 123 36
94 92 0
111 102 0
76 68 0
106 97 25
109 91 17
110 101 0
85 79 0
84 68 1
104 98 11
114 110 0
111 105 0
100 91 3
132 122 7
122 112 26
129 118 1
105 95 0
115 113 0
104 102 0
124 122 36
139 131 7
107 97 3
131 118 0
132 122 0
127 113 26
124 116 0
114 111 26
130 122 11
141 135 47
155 139 51
129 123 36
89 81 0
128 123 0
104 92 25
116 114 0
134 129 36
144 137 36
118 110 3
115 112 0
137 128 0
117 109 0
132 125 36
144 139 36
145 135 36
129 125 62
130 121 36
150 141 57
142 130 0
126 115 0
139 127 36
122 116 36
132 128 36
144 138 36
154 146 51
148 143 36
150 147 36
135 132 36
132 122 36
136 134 0
160 152 51
151 140 36
151 140 62
141 137 0
138 130 0
160 149 51
133 126 62
153 145 51
152 141 51
138 133 51
144 137 51
142 136 36
146 136 51
153 147 51
164 153 62
161 150 62
138 131 51
136 131 36
159 148 54
142 133 51
137 128 36
142 132 0
143 137 51
162 155 51
159 149 51
142 139 36
143 134 36
139 131 0
153 144 51
149 139 62
148 141 51
144 139 0
171 158 75
144 133 0
150 141 36
147 142 1
158 147 53
139 130 36
148 137 51
146 135 36
132 113 36
157 149 51
168 159 72
154 140 39
148 135 36
165 156 74
141 133 36
154 146 36
178 166 82
158 150 39
152 147 36
141 129 0
148 142 36
147 140 51
154 146 62
153 143 64
151 137 53
155 141 65
152 141 36
156 146 39
154 142 53
149 141 36
151 140 62
159 148 62
150 134 53
161 152 62
131 120 36
143 135 51
142 131 0
151 145 36
149 136 51
146 140 7
158 146 63
156 144 62
149 171 0
150 172 0
158 177 0
153 175 0
156 177 0
151 171 0
157 176 0
158 177 0
153 173 0
152 172 0
149 170 0
156 176 0
153 172 0
156 173 0
126 146 0
156 177 0
155 176 0
157 177 0
157 176 0
150 170 0
143 165 0
154 173 0
144 165 0
152 173 0
151 171 0
145 167 0
157 176 0
156 177 0
144 166 0
147 167 0
150 173 0
150 172 0
149 169 0
147 167 0
143 164 0
150 167 0
145 165 0
143 165 0
135 153 0
149 167 0
152 174 0
153 174 0
156 174 0
149 170 0
146 162 0
152 172 0
145 165 0
156 176 0
145 168 0
139 158 0
151 170 0
154 176 0
152 174 0
153 174 0
149 172 0
136 156 0
149 171 0
153 175 0
146 166 0
137 156 0
136 155 0
142 160 0
146 167 0
153 175 0
152 171 0
133 152 0
149 168 0
152 170 0
140 160 0
155 174 0
139 157 0
157 176 0
145 167 0
150 172 0
145 163 0
140 158 0
151 168 0
127 148 0
144 162 0
147 166 0
142 163 0
139 156 0
123 141 0
145 163 0
154 174 0
153 176 0
113 129 0
129 145 0
148 168 0
131 152 0
141 158 0
142 159 0
130 150 0
132 153 0
140 158 0
111 129 0
154 172 0
147 165 0
117 136 0
128 144 0
104 122 0
141 160 0
134 151 0
114 136 0
119 138 0
146 168 0
136 155 0
110 128 0
132 153 0
141 162 0
96 114 0
108 122 0
107 123 0
102 119 0
108 124 0
123 141 0
122 138 0
109 123 0
129 146 0
87 99 0
140 156 0
121 137 0
113 126 0
100 119 0
88 105 0
107 119 0
134 151 0
103 121 0
99 115 0
111 129 0
93 108 0
117 131 0
113 128 0
130 146 82
136 154 59
153 175 0
169 191 0
150 172 0
162 187 0
159 178 0
165 188 0
150 169 0
157 180 0
149 171 0
162 187 0
151 173 0
149 169 0
140 162 0
175 197 0
149 169 0
163 185 0
151 176 0
148 172 0
157 176 0
156 180 0
169 195 0
130 152 0
155 176 0
171 192 0
125 149 0
145 168 0
104 126 57
52 82 104
51 80 99
36 60 0
45 72 57
50 79 95
42 66 0
50 80 80
53 85 57
42 68 0
50 80 76
52 83 80
48 75 76
42 69 0
48 77 80
56 89 99
46 72 80
49 78 80
53 83 125
58 89 127
50 80 80
56 88 99
46 76 57
53 82 111
57 90 99
51 83 80
56 89 127
56 89 99
54 84 80
51 82 80
47 76 57
57 91 80
55 88 99
57 90 114
52 84 99
53 86 114
58 93 99
58 91 127
58 91 99
54 86 99
55 87 114
57 91 99
55 86 114
54 85 80
59 93 99
55 86 99
56 89 99
59 93 114
58 90 114
54 85 80
57 87 114
48 79 80
52 82 99
54 86 99
61 96 140
52 81 99
49 78 114
52 81 99
57 84 99
49 80 99
52 82 99
53 83 57
52 81 80
53 80 117
53 83 57
53 85 99
57 91 127
56 88 114
46 72 80
55 87 114
44 72 57
52 81 57
48 74 80
57 90 99
41 64 0
41 62 5
48 74 99
69 88 80
166 188 0
154 173 0
162 175 0
140 161 0
166 183 0
159 178 0
168 183 0
165 185 0
165 179 0
158 181 0
156 171 0
161 184 0
146 164 0
154 179 0
162 180 0
145 164 0
164 188 0
161 178 0
166 180 0
151 168 0
157 173 0
151 158 0
162 180 0
176 199 0
157 173 0
168 185 0
126 119 36
119 102 39
111 97 36
120 103 36
100 97 36
127 111 7
81 70 7
110 92 10
102 92 0
101 91 0
113 109 0
101 94 0
102 88 3
106 83 7
115 98 0
115 109 16
99 90 0
103 84 0
96 96 16
123 119 0
120 117 25
123 118 0
133 131 36
90 80 5
122 112 37
100 88 0
124 119 25
98 96 3
108 102 0
123 121 36
117 108 0
125 121 0
152 142 0
131 118 51
136 129 0
137 131 36
141 141 0
131 120 36
127 114 3
146 139 1
118 113 0
127 124 36
141 135 0
143 133 36
133 124 36
141 134 0
129 122 7
156 153 0
140 127 36
137 131 51
139 129 36
141 136 36
133 127 0
132 125 36
135 125 36
149 144 36
148 133 39
131 125 46
155 148 62
159 149 62
144 135 3
150 146 0
163 148 81
151 139 36
128 122 0
148 139 36
136 124 0
145 138 0
136 122 36
136 134 0
139 131 36
147 135 36
150 145 51
164 157 72
146 133 51
144 134 36
149 140 0
155 147 16
149 144 51
153 145 36
144 133 16
163 153 64
152 145 36
146 140 36
150 140 51
157 141 53
159 150 39
155 141 51
146 138 36
160 151 62
147 140 16
162 154 62
158 146 51
149 135 51
164 150 74
139 133 51
147 140 36
145 135 51
151 142 36
156 143 51
139 131 36
139 133 51
153 147 72
165 159 51
166 161 62
154 151 36
165 160 62
162 155 51
168 158 72
154 141 62
146 133 36
162 153 53
144 141 36
152 145 0
156 148 63
138 122 36
144 133 39
143 134 36
139 134 36
123 116 0
135 123 7
165 144 68
151 147 51
146 139 51
146 135 51
169 158 72
147 141 36
163 146 64
144 132 36
144 137 36
140 126 16
172 165 80
154 140 52
169 159 51
152 141 64
154 176 0
158 178 0
150 171 0
148 167 0
157 176 0
154 176 0
156 174 0
157 177 0
149 170 0
156 175 0
158 178 0
149 169 0
150 170 0
151 170 0
156 177 0
155 176 0
152 173 0
153 174 0
154 175 0
153 172 0
152 169 0
153 174 0
147 167 0
154 176 0
149 172 0
153 174 0
149 169 0
158 176 0
153 176 0
139 161 0
157 176 0
158 178 0
148 166 0
142 162 0
146 167 0
150 169 0
145 164 0
143 165 0
158 178 0
153 173 0
141 160 0
151 171 0
140 162 0
154 174 0
154 173 0
146 166 0
155 176 0
150 171 0
151 170 0
145 166 0
145 165 0
135 156 0
144 165 0
132 154 0
151 172 0
145 162 0
135 155 0
143 163 0
139 157 0
158 178 0
126 147 0
144 165 0
138 158 0
131 152 0
142 165 0
143 163 0
128 146 0
148 168 0
124 140 0
148 167 0
150 170 0
129 149 0
145 163 0
145 166 0
139 159 0
124 142 0
142 162 0
127 148 0
131 148 0
126 147 0
153 175 0
137 157 0
145 165 0
123 140 0
122 137 0
154 173 0
114 132 0
127 143 0
130 150 0
151 173 0
112 128 0
113 133 0
137 157 0
122 138 0
139 159 0
138 158 0
132 148 0
115 131 0
127 142 0
133 152 0
143 161 0
135 156 0
138 157 0
130 148 0
138 158 0
127 143 0
122 139 0
135 153 0
128 146 0
122 142 0
106 121 0
115 132 0
117 133 0
103 120 0
119 136 0
120 134 0
104 118 0
115 130 0
116 132 0
115 131 0
114 131 0
115 132 0
92 106 0
133 150 0
127 144 0
129 145 0
124 140 0
100 112 0
116 135 0
120 135 0
113 130 0
144 162 10
130 143 57
128 145 0
156 176 0
166 191 0
170 191 0
158 179 0
154 178 0
156 180 0
167 192 0
173 195 0
142 166 0
162 184 0
125 143 0
154 176 0
150 172 0
151 170 0
162 184 0
160 182 0
154 180 0
155 176 0
158 179 0
161 185 0
148 169 0
171 193 0
172 192 0
125 148 0
125 142 0
159 179 0
156 180 0
141 162 0
93 115 57
48 77 76
51 80 0
40 65 80
49 78 57
57 91 95
52 82 114
55 86 101
49 80 99
40 66 57
52 82 99
52 82 0
55 86 114
48 78 57
54 87 95
51 81 99
59 92 114
51 81 76
51 81 95
49 79 51
58 91 114
52 84 99
57 88 114
49 77 80
50 80 99
58 91 125
62 95 127
55 86 99
55 86 114
56 89 57
56 89 80
57 90 99
60 95 127
49 77 80
57 87 114
51 78 81
51 81 80
50 80 99
55 88 99
54 86 114
57 88 127
54 86 99
59 92 127
54 86 114
54 85 99
57 90 99
58 92 99
59 92 114
58 91 114
54 84 80
55 86 99
48 78 80
53 85 99
52 80 99
56 89 99
55 86 99
49 77 0
54 87 80
56 89 57
55 85 99
49 75 80
48 76 99
51 82 80
58 91 127
57 91 127
51 80 80
45 73 0
54 84 114
57 87 127
49 79 80
52 83 99
49 77 25
48 72 0
44 70 62
48 70 5
42 61 67
141 163 0
145 164 0
174 191 0
134 148 0
167 185 0
141 163 0
163 179 0
144 163 0
165 185 0
145 167 0
167 180 0
171 196 0
140 162 0
160 175 0
164 184 0
155 175 0
133 147 0
169 189 0
165 182 0
145 165 0
163 181 0
156 171 0
139 149 0
162 184 0
174 186 0
172 193 0
163 176 0
157 175 0
147 145 16
92 74 16
105 87 17
128 113 36
112 106 36
108 103 0
125 110 22
108 100 36
112 97 0
88 76 7
95 81 16
95 81 3
119 110 3
95 84 16
83 81 25
126 120 0
107 95 16
97 93 3
120 117 11
114 100 4
118 108 0
94 95 0
107 100 0
112 104 28
124 119 36
107 103 0
113 102 0
123 112 0
130 115 16
130 123 0
105 100 0
108 101 0
107 93 0
131 124 0
116 111 0
149 142 51
133 127 5
130 125 0
147 140 0
150 142 44
110 106 25
108 105 3
140 131 3
138 130 0
151 132 39
158 153 36
135 124 0
121 114 0
141 129 44
113 107 3
123 112 3
134 122 36
152 148 36
149 141 36
158 147 62
145 136 51
156 146 51
122 119 0
133 125 36
153 145 36
142 140 0
149 143 36
137 128 0
143 127 36
147 142 36
130 117 36
144 137 36
155 149 62
160 154 51
155 145 51
153 145 62
155 148 36
132 126 0
133 126 36
149 139 36
149 141 51
151 141 51
134 116 36
131 122 0
141 134 51
141 134 0
148 141 16
163 155 36
147 141 51
166 155 81
157 150 53
157 151 0
157 150 51
163 154 62
112 107 0
161 153 42
140 131 51
153 138 51
169 157 62
139 136 36
155 146 62
153 147 51
125 116 0
141 130 36
149 137 39
168 160 72
148 136 62
147 136 36
148 143 36
165 157 51
154 145 62
160 142 43
164 154 63
153 140 64
159 155 36
156 146 53
149 141 36
148 141 36
160 149 62
144 125 53
150 137 51
162 151 81
158 149 62
157 145 51
151 137 51
162 151 53
140 130 36
155 150 51
163 152 62
160 147 62
147 134 39
152 141 51
142 130 51
139 129 36
143 135 51
136 126 36
134 125 36
147 137 51
165 153 74
161 179 0
156 176 0
152 175 0
155 176 0
153 172 0
147 169 0
148 168 0
142 161 0
156 177 0
153 176 0
149 168 0
154 175 0
157 177 0
149 169 0
148 170 0
145 167 0
154 174 0
151 174 0
151 171 0
151 172 0
158 178 0
151 172 0
148 170 0
157 176 0
147 167 0
149 169 0
153 175 0
155 174 0
149 169 0
153 175 0
154 175 0
155 175 0
149 168 0
149 170 0
145 163 0
156 175 0
141 159 0
144 166 0
147 165 0
149 168 0
148 169 0
138 158 0
159 178 0
154 174 0
148 168 0
135 154 0
150 172 0
153 172 0
153 174 0
144 163 0
152 169 0
153 174 0
150 172 0
137 156 0
143 160 0
143 163 0
140 155 0
151 164 0
142 164 0
144 163 0
135 153 0
133 153 0
134 152 0
146 167 0
147 167 0
148 168 0
159 179 0
156 177 0
140 160 0
137 155 0
153 171 0
147 163 0
137 156 0
137 157 0
155 177 0
147 165 0
137 152 0
146 170 0
149 164 0
148 169 0
149 170 0
148 172 0
142 161 0
140 160 0
146 167 0
139 158 0
131 149 0
147 166 0
133 152 0
132 152 0
122 141 0
130 148 0
144 162 0
145 161 0
148 170 0
111 128 0
145 165 0
91 103 0
133 151 0
132 151 0
125 142 0
127 145 0
147 164 0
119 137 0
104 118 0
124 142 0
116 133 0
126 144 0
146 163 0
110 128 0
116 128 0
140 158 0
113 127 0
119 134 0
103 121 0
105 126 0
106 121 0
98 113 0
122 138 0
102 120 0
112 125 0
114 129 0
118 134 0
132 149 0
100 116 0
117 131 0
93 110 0
111 126 0
122 136 0
148 164 0
151 170 0
108 125 0
123 140 51
163 183 0
170 190 0
154 174 0
169 191 0
162 184 0
155 182 0
162 184 0
144 166 0
168 191 0
136 159 0
149 172 0
169 191 0
141 162 0
146 169 0
150 174 0
160 183 0
157 179 0
146 165 0
165 187 0
161 181 0
169 191 0
145 168 0
159 183 0
116 132 0
161 182 0
150 170 0
104 123 0
171 195 0
152 177 0
160 183 0
60 82 57
55 86 127
47 74 76
45 72 0
49 77 99
55 84 99
53 83 99
48 76 76
50 80 57
39 64 0
48 75 57
54 85 80
57 88 125
45 74 57
47 76 57
58 91 114
46 73 80
49 78 114
58 92 114
52 82 99
54 86 99
53 86 80
61 95 127
58 91 127
57 90 127
53 86 99
55 86 140
53 86 57
46 74 57
49 79 80
54 84 95
49 77 80
39 63 57
58 92 99
61 96 140
50 80 80
49 79 0
47 76 57
50 81 80
57 91 99
52 83 99
55 87 114
52 84 80
56 88 99
52 83 80
54 87 80
56 86 114
43 69 0
55 88 99
50 80 80
44 74 0
55 84 127
56 88 114
53 84 80
57 90 114
53 83 127
43 69 80
59 90 114
57 89 114
49 77 80
53 83 84
56 89 114
61 95 151
60 93 114
42 64 57
47 74 0
51 81 99
49 79 80
55 86 114
57 92 99
50 79 57
46 70 80
51 76 99
55 84 25
155 175 0
161 187 0
166 186 0
157 170 0
148 166 0
137 155 0
145 167 0
148 166 0
154 171 0
152 165 0
144 162 0
155 173 0
142 159 0
130 143 0
153 178 0
167 186 0
157 178 0
144 159 0
146 170 0
168 187 0
144 163 0
162 176 0
152 167 0
158 181 0
163 181 0
166 178 0
158 171 0
147 154 0
165 182 0
156 178 0
132 133 16
85 75 7
117 107 7
87 80 0
114 101 0
108 80 17
115 103 0
86 71 25
106 89 0
127 116 16
116 106 0
110 97 0
107 102 0
108 94 7
66 59 0
135 127 1
122 112 0
105 92 7
103 98 0
117 111 16
107 92 16
129 115 7
117 112 16
110 98 16
123 113 0
114 114 0
114 111 0
135 126 36
137 128 51
129 128 0
130 117 37
113 101 7
111 107 36
131 126 36
139 133 36
119 108 0
125 119 44
137 128 51
133 128 0
127 123 0
126 122 36
137 125 0
109 99 3
129 121 1
132 127 0
134 129 0
149 143 67
97 98 36
129 119 36
151 143 51
117 109 36
105 99 0
128 122 36
107 96 0
112 101 0
154 148 62
139 127 36
120 107 0
139 134 0
120 103 36
169 160 62
142 132 0
146 139 36
162 155 51
145 143 0
135 129 36
170 163 72
144 139 36
145 136 3
159 152 51
145 137 3
148 142 36
146 143 16
167 156 80
172 161 72
128 118 36
143 132 51
150 144 51
147 141 36
151 141 62
140 130 3
162 154 51
156 146 51
163 157 36
154 145 51
128 120 36
146 140 51
153 140 39
138 128 3
155 147 62
154 147 36
159 153 36
141 135 36
146 137 36
136 122 36
146 128 36
160 154 51
161 150 72
131 122 36
158 152 51
154 143 51
159 151 51
152 139 62
160 151 51
154 150 0
153 143 36
154 147 51
145 131 36
155 149 36
148 139 0
157 140 56
149 139 0
168 159 72
154 146 62
151 142 51
150 141 51
157 145 51
159 150 36
167 154 53
153 144 62
153 146 51
149 137 36
157 143 39
141 129 16
158 144 40
143 131 51
146 133 39
147 138 72
163 144 56
133 119 7
147 135 51
154 141 62
158 143 81
159 178 0
154 176 0
147 167 0
160 177 0
150 169 0
139 156 0
162 180 0
159 178 0
154 176 0
157 177 0
158 177 0
146 167 0
161 180 0
158 178 0
154 172 0
159 177 0
153 172 0
157 175 0
156 176 0
145 166 0
151 171 0
160 179 0
152 170 0
152 172 0
153 173 0
152 171 0
153 174 0
147 168 0
146 168 0
154 175 0
153 172 0
154 173 0
146 168 0
149 166 0
150 168 0
139 159 0
143 163 0
148 170 0
146 167 0
149 170 0
149 169 0
150 172 0
155 174 0
144 164 0
161 180 0
150 171 0
155 176 0
152 175 0
139 160 0
145 162 0
152 172 0
155 175 0
140 161 0
151 171 0
146 169 0
150 171 0
138 157 0
149 170 0
143 164 0
144 166 0
150 174 0
129 148 0
152 171 0
142 161 0
138 155 0
148 166 0
135 154 0
125 144 0
143 160 0
154 171 0
151 168 0
137 159 0
145 166 0
126 143 0
144 163 0
147 166 0
121 138 0
134 153 0
142 159 0
133 151 0
123 143 0
139 158 0
152 172 0
131 147 0
124 139 0
140 157 0
106 124 0
134 152 0
131 151 0
144 162 0
148 167 0
137 155 0
135 154 0
138 156 0
94 110 0
127 142 0
112 125 0
145 164 0
127 148 0
118 138 0
129 146 0
128 145 0
127 145 0
104 119 0
111 127 0
139 155 0
138 158 0
119 134 0
114 132 0
118 137 0
93 110 0
145 163 0
104 117 0
135 155 0
92 110 0
131 147 0
98 114 0
99 115 0
91 103 0
73 87 0
88 101 0
96 113 0
124 138 0
64 79 0
99 114 0
116 132 0
106 120 0
113 130 0
119 135 0
143 161 0
106 122 0
142 161 64
163 186 0
144 164 0
168 192 0
161 184 0
159 179 0
179 199 0
154 175 0
126 144 0
166 188 0
160 181 0
155 179 0
164 185 0
145 166 0
151 170 0
157 180 0
139 162 0
166 186 0
169 190 0
152 175 0
168 192 0
140 163 0
147 169 0
93 115 0
157 177 0
146 169 0
162 186 0
153 176 0
144 166 0
139 162 0
135 155 0
118 137 0
143 164 0
87 109 80
48 76 80
53 82 114
55 88 57
38 62 57
46 75 76
57 89 122
46 74 57
55 88 57
55 86 114
51 79 76
51 81 80
51 81 114
58 89 99
50 81 76
50 80 80
59 91 114
59 92 127
52 82 76
51 83 114
53 85 99
52 83 80
61 95 140
49 78 80
53 84 80
53 84 80
46 74 0
54 84 99
56 87 114
61 96 127
58 91 114
53 82 80
59 92 127
47 75 114
47 75 99
50 81 57
47 75 80
47 76 99
60 92 99
53 82 80
48 75 57
53 83 114
56 89 99
57 91 80
60 93 140
54 85 80
52 79 99
52 81 99
51 80 80
61 95 140
46 70 57
53 82 80
55 86 99
51 79 57
52 82 80
61 93 117
56 86 127
55 85 57
56 88 99
59 91 114
40 62 57
52 80 80
45 70 99
55 87 127
53 82 80
53 81 80
52 82 80
52 78 114
53 85 80
44 68 0
41 62 57
68 89 0
147 164 0
148 162 0
149 165 0
141 160 0
144 166 0
157 165 0
125 142 0
159 171 0
147 167 0
151 170 0
161 183 0
134 136 0
170 189 0
122 140 0
165 180 0
135 154 0
131 140 0
156 173 0
167 188 0
158 176 0
131 150 0
170 190 0
160 182 0
126 143 0
114 112 0
151 167 0
153 171 0
175 188 0
147 159 0
157 176 0
154 170 0
127 140 0
153 153 54
98 79 7
132 109 8
113 101 3
97 76 16
110 102 36
129 125 0
106 95 16
90 78 11
71 61 30
105 92 7
107 93 0
91 76 0
100 91 0
77 70 0
106 94 7
109 110 0
126 120 0
136 115 10
114 98 7
118 111 3
107 94 0
111 97 4
58 65 0
104 103 0
133 123 0
101 89 0
91 86 0
121 113 3
114 112 0
143 137 36
95 93 0
155 138 7
128 114 0
141 133 0
121 114 36
143 135 51
130 120 36
119 111 0
134 128 36
102 96 36
140 135 0
146 139 51
123 113 0
139 129 0
111 101 0
147 142 36
144 128 1
153 140 40
119 112 0
137 125 36
151 143 36
133 120 36
130 127 0
126 122 36
146 134 36
136 130 0
139 131 36
121 115 0
140 128 51
142 137 0
153 148 36
121 113 36
139 130 36
141 135 36
151 148 36
151 136 62
141 125 36
147 140 51
143 137 36
149 143 36
137 132 36
149 139 36
160 150 62
134 125 36
130 119 0
139 124 3
145 141 0
139 125 40
158 152 36
145 138 51
145 134 51
149 138 36
148 136 1
151 144 0
133 116 51
142 130 36
151 143 39
153 148 36
157 145 53
151 145 36
152 146 36
154 146 36
157 154 36
155 147 36
146 138 39
150 146 36
159 152 36
140 130 0
151 144 36
140 131 0
137 128 51
163 155 62
150 130 43
139 133 53
159 150 62
146 138 36
160 147 72
154 142 51
162 156 62
140 135 36
159 153 36
161 151 53
156 143 51
156 147 51
146 140 0
161 149 62
154 149 39
166 154 72
141 132 62
164 152 72
155 146 51
136 128 2
158 150 62
142 125 62
158 149 51
169 160 64
154 145 36
151 143 51
124 115 0
158 150 62
184 171 102
147 167 0
154 174 0
154 173 0
155 177 0
154 174 0
153 176 0
154 175 0
148 167 0
152 173 0
147 168 0
146 165 0
147 170 0
156 176 0
152 172 0
153 172 0
157 177 0
153 175 0
154 173 0
146 168 0
151 169 0
153 174 0
149 168 0
145 163 0
153 172 0
149 170 0
148 163 0
149 169 0
148 169 0
155 176 0
151 173 0
155 175 0
150 170 0
153 172 0
153 173 0
131 151 0
153 173 0
155 177 0
149 170 0
145 165 0
153 173 0
151 173 0
133 154 0
143 161 0
153 172 0
144 162 0
148 170 0
153 173 0
148 169 0
152 172 0
143 161 0
147 169 0
149 169 0
118 137 0
147 169 0
150 168 0
154 171 0
127 145 0
138 158 0
155 176 0
138 156 0
147 169 0
148 167 0
146 166 0
146 166 0
140 158 0
145 161 0
147 166 0
143 162 0
141 160 0
146 164 0
136 156 0
140 160 0
132 152 0
149 165 0
135 153 0
136 154 0
139 158 0
145 166 0
142 160 0
135 157 0
110 125 0
145 164 0
141 160 0
142 162 0
143 161 0
150 168 0
140 160 0
119 139 0
127 144 0
146 166 0
128 145 0
117 134 0
137 153 0
136 157 0
130 149 0
114 129 0
112 128 0
137 152 0
136 153 0
143 161 0
102 118 0
133 153 0
151 171 0
130 148 0
132 148 0
116 132 0
96 116 0
112 126 0
116 132 0
119 136 0
133 147 0
142 161 0
135 151 0
110 125 0
54 71 0
67 82 0
106 120 0
76 91 0
105 121 0
123 141 0
82 100 0
90 104 0
108 125 0
117 129 0
122 138 0
111 126 0
94 108 0
102 119 0
144 164 0
87 103 0
157 177 0
153 174 0
143 162 0
146 164 0
163 184 0
167 189 0
135 157 0
155 177 0
138 158 0
168 188 0
152 173 0
151 171 0
169 192 0
163 183 0
148 172 0
155 178 0
126 144 0
99 120 0
151 172 0
169 190 0
167 190 0
130 149 0
119 141 0
132 153 0
135 156 0
110 129 0
172 191 0
137 157 0
149 167 0
150 172 0
169 188 0
139 161 0
100 120 0
138 158 0
153 173 0
74 94 0
40 66 57
51 80 99
53 84 95
54 85 99
49 79 57
47 75 80
55 87 114
49 79 57
48 79 80
55 89 114
49 80 99
45 74 57
51 83 57
54 85 99
52 83 57
52 84 99
51 80 80
52 84 99
52 82 80
53 84 99
52 82 99
48 75 99
51 82 99
50 82 57
39 63 57
57 91 127
49 80 57
58 92 99
55 87 99
50 79 99
44 72 80
53 84 99
60 95 114
54 85 57
53 84 99
62 97 127
51 81 99
54 84 99
52 83 80
59 92 127
53 82 114
49 76 80
55 87 99
57 90 99
56 87 80
45 73 80
52 82 114
56 87 99
41 67 80
58 92 114
53 82 80
51 81 114
59 91 140
46 76 57
54 86 114
54 85 99
51 83 80
61 95 151
45 71 57
49 76 25
47 73 57
57 89 99
45 72 57
46 72 62
53 78 114
45 68 57
47 71 99
41 66 80
92 117 57
157 179 0
171 192 0
164 182 0
142 156 0
143 162 0
165 181 0
140 162 0
130 151 0
137 156 0
128 139 0
127 139 0
148 167 0
126 142 0
146 163 0
156 169 0
161 182 0
163 174 0
129 145 0
161 176 0
153 175 0
115 124 0
159 175 0
136 146 0
159 169 0
159 178 0
119 128 0
140 157 0
161 173 0
174 191 0
142 151 0
135 149 0
141 148 0
158 171 0
157 170 0
110 109 11
120 100 7
90 78 16
119 99 17
125 106 39
91 83 0
98 79 3
78 76 0
98 92 0
68 60 1
93 83 0
108 97 7
121 108 16
92 86 0
90 74 7
129 114 7
104 96 7
89 77 0
97 85 16
109 105 0
82 80 0
112 113 0
92 84 7
106 101 32
114 98 3
109 101 36
114 106 7
108 94 7
81 80 0
118 107 1
136 130 36
131 125 57
112 104 0
123 114 3
120 106 3
129 122 0
126 121 51
131 119 3
111 95 36
130 127 0
144 132 36
135 132 0
144 130 36
133 126 36
148 140 36
152 138 72
139 136 36
129 128 0
145 138 36
147 138 51
140 130 51
135 119 0
139 130 62
142 135 36
126 113 36
141 131 36
147 138 36
144 134 36
149 137 36
143 127 51
131 121 0
145 131 51
156 147 53
150 142 36
157 146 36
154 150 36
155 148 62
133 126 36
141 134 0
143 138 36
142 136 36
161 149 51
149 133 36
164 155 51
135 119 36
148 143 0
146 137 36
153 145 51
157 151 51
139 131 36
149 144 36
137 129 36
154 146 36
147 137 16
126 117 36
148 141 51
134 129 0
148 141 51
159 151 62
157 147 51
130 122 0
156 148 0
159 145 51
112 103 0
139 130 36
168 161 51
159 151 36
161 156 36
161 152 62
150 142 51
163 157 72
159 154 51
153 142 39
152 145 36
165 155 72
160 153 51
147 140 51
140 125 39
162 145 64
136 118 36
155 150 0
165 154 72
162 149 72
165 153 72
132 127 36
161 144 36
163 156 51
152 143 36
162 152 62
153 142 72
151 136 22
157 144 51
148 133 10
142 128 39
147 128 36
135 132 51
155 151 36
142 131 16
165 153 62
149 136 7
149 139 36
152 173 0
151 173 0
153 173 0
151 170 0
149 171 0
154 175 0
157 178 0
150 173 0
159 176 0
153 175 0
153 175 0
154 176 0
153 172 0
150 170 0
157 175 0
156 177 0
153 172 0
146 167 0
153 174 0
144 167 0
158 178 0
145 165 0
146 165 0
147 166 0
154 175 0
150 171 0
147 167 0
145 164 0
157 176 0
152 172 0
160 178 0
143 161 0
145 164 0
155 175 0
129 148 0
154 175 0
144 163 0
154 173 0
150 170 0
150 172 0
139 156 0
144 165 0
151 168 0
147 168 0
148 168 0
149 170 0
141 162 0
137 158 0
144 164 0
149 171 0
150 171 0
145 162 0
147 165 0
146 165 0
148 167 0
143 163 0
149 169 0
147 166 0
155 175 0
126 147 0
159 177 0
148 168 0
150 167 0
132 149 0
146 164 0
146 166 0
126 146 0
144 162 0
153 174 0
135 152 0
141 164 0
133 153 0
133 149 0
136 153 0
117 137 0
140 163 0
137 157 0
130 148 0
147 169 0
149 167 0
139 159 0
145 163 0
153 174 0
151 171 0
107 126 0
124 142 0
135 153 0
121 139 0
132 149 0
139 159 0
127 148 0
126 140 0
136 153 0
135 153 0
123 143 0
112 128 0
127 143 0
96 111 0
111 131 0
145 164 0
128 143 0
142 161 0
130 148 0
123 141 0
136 155 0
109 124 0
123 143 0
135 155 0
126 142 0
84 101 0
71 82 0
121 139 0
114 131 0
137 153 0
122 136 0
110 125 0
131 147 0
109 125 0
111 128 0
115 132 0
142 160 0
123 140 0
123 140 0
90 103 0
116 130 0
77 92 0
148 165 46
116 133 0
98 114 0
118 134 41
154 176 0
163 181 0
148 168 0
151 169 0
163 184 0
147 166 0
158 180 0
155 178 0
138 158 0
152 170 0
149 170 0
153 172 0
159 178 0
143 162 0
156 175 0
106 123 0
107 128 0
157 178 0
160 181 0
150 171 0
141 162 0
117 136 0
148 169 0
135 157 0
126 146 0
138 157 0
147 167 0
144 164 0
143 163 0
129 153 0
159 179 0
141 161 0
122 140 0
111 130 0
112 130 0
122 147 0
38 59 0
37 62 0
39 64 0
46 74 80
48 77 80
53 83 80
45 71 51
56 86 111
57 89 114
52 82 80
53 84 57
52 81 80
53 85 80
54 85 111
52 83 95
59 94 125
56 88 125
59 93 127
54 86 80
55 87 80
54 86 80
55 87 99
54 86 111
50 78 80
56 88 99
59 92 80
52 83 80
49 79 80
57 90 114
53 84 57
51 79 127
49 79 57
55 87 127
58 92 114
58 91 114
60 94 140
63 98 151
51 81 99
53 84 99
55 85 99
50 78 114
45 74 0
53 85 99
53 82 99
59 92 114
55 86 80
57 89 127
49 78 57
57 89 99
56 89 127
56 88 99
56 90 80
58 92 99
53 82 99
52 81 99
56 88 57
53 84 80
50 79 99
43 71 57
60 93 127
55 87 114
54 86 99
58 90 127
50 79 99
58 91 99
50 79 99
44 71 0
67 86 57
101 122 0
124 141 0
108 118 0
144 163 0
135 145 0
140 158 0
152 166 0
130 144 0
157 174 0
146 162 0
152 174 0
133 147 0
139 143 0
153 169 0
152 170 0
164 180 0
154 178 0
157 164 0
123 132 0
149 164 0
140 157 0
133 146 0
148 169 0
137 144 0
151 162 0
136 157 0
141 159 0
125 137 0
158 176 0
161 170 0
160 182 0
131 149 0
152 168 0
155 167 0
151 165 0
165 181 0
117 110 1
148 136 62
124 104 8
119 93 18
123 107 19
96 88 0
101 88 13
102 87 3
106 91 36
108 97 7
103 93 0
101 81 16
117 106 16
123 105 0
114 100 0
107 99 0
111 97 0
120 110 44
103 93 0
113 108 0
108 101 0
123 116 36
103 85 7
140 122 16
86 80 0
116 108 7
138 134 0
123 119 0
115 107 11
84 79 0
123 115 36
112 100 7
125 117 16
105 93 0
121 115 0
88 83 0
112 96 7
131 124 25
90 88 0
144 134 7
155 149 0
132 127 0
138 132 0
141 136 36
121 115 0
155 143 51
105 99 0
117 109 0
150 143 0
144 136 7
123 115 1
133 123 3
137 130 0
141 129 51
136 132 0
132 121 0
135 122 51
146 144 0
137 124 36
128 110 7
144 127 36
131 117 3
134 125 51
130 129 0
149 137 36
153 149 36
168 160 72
153 145 51
144 132 16
157 152 36
157 152 36
139 134 0
164 154 51
157 148 53
157 147 39
158 144 53
157 143 51
156 146 53
151 141 51
153 149 0
157 146 62
135 115 36
142 135 51
148 140 62
141 131 0
156 145 62
143 138 51
147 139 51
132 122 3
153 146 39
167 159 62
152 145 36
160 154 51
156 146 36
142 129 51
154 143 63
134 121 0
152 137 62
132 119 51
154 149 36
154 141 39
152 141 7
148 140 51
146 133 51
143 130 36
175 165 80
160 144 62
154 142 51
153 141 36
150 136 51
151 142 22
155 149 62
156 150 51
141 136 51
139 128 51
162 153 51
164 156 51
152 144 51
128 119 36
140 130 36
140 129 51
150 145 51
130 120 36
142 127 16
147 133 51
128 114 0
149 137 51
158 149 0
143 127 7
139 121 16
147 168 0
152 173 0
153 175 0
156 177 0
153 174 0
147 167 0
155 176 0
152 174 0
155 175 0
153 175 0
146 166 0
145 166 0
155 176 0
154 176 0
152 175 0
156 176 0
144 165 0
155 176 0
160 179 0
154 174 0
155 177 0
152 175 0
140 157 0
147 168 0
154 174 0
145 166 0
149 171 0
142 161 0
146 165 0
150 171 0
142 163 0
151 171 0
147 166 0
143 165 0
154 174 0
147 167 0
151 170 0
153 173 0
152 172 0
155 176 0
151 173 0
136 151 0
149 171 0
132 151 0
154 173 0
155 177 0
153 173 0
139 160 0
144 162 0
145 165 0
149 170 0
155 177 0
149 170 0
144 164 0
152 173 0
141 162 0
146 164 0
149 165 0
142 160 0
152 172 0
134 153 0
143 163 0
159 178 0
126 144 0
135 153 0
146 165 0
139 156 0
154 175 0
148 167 0
131 150 0
146 166 0
145 167 0
143 163 0
136 158 0
124 144 0
142 158 0
146 167 0
151 172 0
145 165 0
140 157 0
131 151 0
131 146 0
156 173 0
144 161 0
138 157 0
110 127 0
118 134 0
128 148 0
132 147 0
128 146 0
137 156 0
144 164 0
128 144 0
108 125 0
141 159 0
135 154 0
113 128 0
126 144 0
114 129 0
115 132 0
121 138 0
139 156 0
133 147 0
137 155 0
108 128 0
129 146 0
155 173 0
98 114 0
118 133 0
122 138 0
136 152 0
119 132 0
85 101 0
120 135 0
103 117 0
118 136 0
102 117 0
120 133 0
108 121 0
99 114 0
119 135 0
97 109 0
99 116 0
97 108 0
90 103 0
109 125 51
95 109 0
123 136 56
130 145 57
153 172 0
139 158 0
162 182 0
169 189 0
143 159 0
152 169 0
147 164 0
147 167 0
147 166 0
155 175 0
126 142 0
130 151 0
156 177 0
128 145 0
149 171 0
125 145 0
113 129 0
124 143 0
141 161 0
146 166 0
148 169 0
120 143 0
146 166 0
153 172 0
128 147 0
156 175 0
143 166 0
164 186 0
113 131 0
128 146 0
129 147 0
124 145 0
152 174 0
109 131 0
129 149 0
157 177 0
153 175 0
96 114 0
48 76 80
50 80 80
51 82 80
46 73 76
42 69 0
46 73 57
42 69 0
51 81 57
45 72 80
49 80 57
43 71 0
41 69 57
44 71 80
52 82 95
50 78 99
54 86 99
55 87 114
54 86 80
47 76 57
50 82 57
55 87 99
56 89 99
54 87 57
52 83 80
52 82 0
49 78 80
40 67 0
51 82 57
55 86 114
46 75 99
55 88 99
53 83 99
54 84 80
49 78 25
47 77 0
55 86 99
50 80 57
58 89 114
55 86 114
57 89 127
47 73 80
45 69 57
57 90 114
41 66 25
52 82 114
36 61 0
51 82 80
46 74 57
57 91 99
56 85 62
39 63 0
48 77 57
49 72 80
43 68 57
47 73 80
51 80 57
53 84 57
53 85 114
54 83 99
42 65 0
52 80 99
58 90 140
40 62 25
55 85 80
38 54 0
116 135 0
86 105 0
145 150 0
136 148 0
132 146 0
145 158 0
125 135 0
120 138 0
118 124 0
142 160 0
142 160 0
102 112 0
126 142 0
129 145 0
153 175 0
164 187 0
112 123 0
140 151 0
140 158 0
132 139 0
115 130 0
149 167 0
154 168 0
135 145 0
149 161 0
136 142 0
146 156 0
133 146 0
134 155 0
146 156 0
142 155 0
162 171 0
145 163 0
139 145 0
151 161 0
148 150 0
158 173 0
144 148 0
173 194 0
154 164 7
99 72 3
107 86 4
110 95 39
104 77 10
113 91 17
118 92 7
84 83 7
114 106 25
130 113 16
83 75 0
117 105 1
99 84 3
105 86 3
96 87 7
119 111 0
94 94 0
127 113 7
94 81 0
127 118 0
129 126 0
97 88 25
125 115 0
114 111 0
139 131 0
117 97 0
113 103 0
128 115 3
116 96 7
120 109 0
122 119 0
136 126 0
105 86 1
119 112 0
98 87 3
130 117 51
132 122 36
125 120 0
134 129 36
147 143 0
140 133 0
132 125 36
126 113 0
152 145 0
136 131 0
104 96 0
126 122 0
133 126 0
141 132 0
141 127 0
130 121 36
139 128 3
130 125 0
145 136 36
159 149 51
143 135 0
144 131 36
150 146 36
126 113 36
159 145 51
152 145 36
139 129 0
128 116 36
153 148 51
116 106 36
119 102 0
141 132 16
156 147 36
156 145 0
142 133 37
153 142 62
141 132 3
119 115 0
142 131 7
131 116 36
132 114 16
136 123 1
139 131 36
137 130 16
157 153 36
159 146 51
140 135 0
152 139 51
144 137 0
138 129 0
159 144 51
150 146 0
152 136 51
148 138 3
147 141 36
155 148 51
158 146 53
159 147 62
146 129 51
143 131 36
138 122 51
155 150 51
150 144 51
151 142 36
137 125 36
160 147 51
142 138 0
153 140 36
159 148 63
149 135 62
150 144 51
169 159 72
137 123 39
140 115 16
137 123 36
155 145 51
138 122 7
159 154 51
150 144 36
155 146 62
153 147 39
139 129 0
139 126 36
152 146 62
148 130 51
171 162 72
159 144 56
166 157 80
146 136 62
151 149 0
154 147 36
148 139 0
156 144 51
133 120 0
153 175 0
156 174 0
160 179 0
148 167 0
152 174 0
158 178 0
154 175 0
141 162 0
153 172 0
149 170 0
159 179 0
151 173 0
145 166 0
152 170 0
155 175 0
150 172 0
153 173 0
147 166 0
138 156 0
155 173 0
141 160 0
153 173 0
151 170 0
157 177 0
152 173 0
151 172 0
147 168 0
132 152 0
141 161 0
144 164 0
144 166 0
141 160 0
151 174 0
144 164 0
128 145 0
133 151 0
126 146 0
158 175 0
141 160 0
148 163 0
142 161 0
149 170 0
147 168 0
152 173 0
154 173 0
155 175 0
140 160 0
149 169 0
152 173 0
136 159 0
146 165 0
135 153 0
153 173 0
141 162 0
151 170 0
140 158 0
151 173 0
152 171 0
132 152 0
149 169 0
145 166 0
142 164 0
140 159 0
140 156 0
130 147 0
132 151 0
138 156 0
150 172 0
136 150 0
141 160 0
150 169 0
135 152 0
122 139 0
139 160 0
131 152 0
141 159 0
153 173 0
142 161 0
132 151 0
122 140 0
141 159 0
153 173 0
139 159 0
134 149 0
147 166 0
156 174 0
107 123 0
139 158 0
144 161 0
146 160 0
137 155 0
115 131 0
128 143 0
147 163 0
134 150 0
141 159 0
109 127 0
136 154 0
134 154 0
131 145 0
137 156 0
109 125 0
107 123 0
111 126 0
131 145 0
138 155 0
150 167 0
106 122 0
110 127 0
119 140 0
113 129 0
107 121 0
119 135 0
119 134 0
128 143 0
98 114 0
123 137 0
119 134 0
110 125 0
90 106 0
93 107 0
92 108 0
57 71 0
95 112 0
141 157 0
114 126 0
111 129 0
115 132 51
152 175 0
133 152 0
149 167 0
160 181 0
156 173 0
143 161 0
147 167 0
146 165 0
156 176 0
107 127 0
149 166 0
170 194 0
93 109 0
135 155 0
99 116 0
115 134 0
136 152 0
149 167 0
143 162 0
141 162 0
141 161 0
142 160 0
119 137 0
142 164 0
144 163 0
127 145 0
154 174 0
135 155 0
127 149 0
125 144 0
150 173 0
107 128 0
142 163 0
107 130 0
147 165 0
129 147 0
130 146 0
118 137 0
107 124 0
128 149 0
130 152 80
40 65 57
45 71 99
45 73 57
47 77 57
48 74 99
53 84 99
50 79 99
43 71 57
51 80 80
37 61 80
49 78 57
58 90 114
47 76 57
60 93 140
53 84 99
49 78 0
59 92 114
50 80 99
50 81 57
51 81 57
50 80 57
49 79 80
46 74 57
48 78 80
54 85 99
53 84 99
49 79 99
50 78 80
54 86 114
49 80 80
49 79 57
53 84 99
60 93 127
57 89 80
47 76 80
47 74 80
53 82 99
50 81 80
55 88 80
51 82 99
55 84 115
48 77 57
50 81 57
46 75 99
50 77 62
56 85 114
50 81 57
42 68 57
55 86 114
47 76 0
50 80 127
54 86 99
57 89 114
57 87 102
51 80 80
53 85 57
50 79 80
47 73 62
42 65 0
41 67 57
53 80 80
39 61 0
108 119 0
129 143 0
98 122 0
147 166 0
126 143 0
128 139 0
123 138 0
93 102 0
128 138 0
140 155 0
146 167 0
131 151 0
152 165 0
115 123 0
121 133 0
163 179 0
111 124 0
119 130 0
128 139 0
100 120 0
142 161 0
156 172 0
151 166 0
153 162 0
146 164 0
124 141 0
145 157 0
141 159 0
135 146 0
131 140 0
133 147 0
78 82 0
137 143 0
157 165 0
168 170 0
146 161 0
133 132 0
139 147 0
129 117 0
125 132 0
107 98 0
152 157 0
120 120 36
115 102 1
112 92 27
89 71 0
94 68 3
116 92 10
105 89 0
94 77 0
128 105 7
117 105 0
106 96 7
108 93 19
115 96 16
118 93 7
124 118 0
104 90 16
119 108 0
101 86 3
123 114 0
115 102 0
114 102 0
126 110 7
132 124 0
143 128 7
131 122 36
131 118 0
122 108 1
123 110 8
116 109 0
118 114 0
110 104 36
155 150 0
121 114 0
140 126 0
109 93 1
144 128 16
132 123 0
129 123 0
106 99 0
127 124 36
114 108 7
129 114 0
111 98 0
135 129 25
131 121 0
127 112 3
123 113 0
123 111 0
130 119 7
135 123 1
141 130 7
146 135 0
157 148 36
149 141 36
144 131 36
138 127 36
124 119 0
138 124 0
150 144 51
138 129 0
157 149 36
142 130 36
153 146 0
144 133 36
143 136 3
140 128 0
137 129 0
147 141 36
143 132 39
133 116 36
146 136 51
128 121 0
145 139 0
131 121 0
145 142 0
146 139 36
150 140 51
141 132 51
143 136 36
141 133 36
131 125 0
152 136 51
136 123 0
148 133 36
140 131 36
154 139 72
153 146 36
124 115 0
144 138 51
136 123 36
150 132 39
147 131 36
139 131 36
147 139 16
170 158 64
124 102 16
146 133 51
157 143 53
150 135 36
153 146 36
154 144 51
132 120 36
157 146 62
148 137 3
163 151 53
134 132 0
155 143 51
148 135 53
149 132 37
138 128 0
153 146 36
136 125 36
165 158 72
166 152 64
156 145 36
151 148 36
149 139 36
157 153 62
148 128 51
170 158 64
160 150 51
145 129 40
129 114 16
160 152 72
158 148 51
135 121 7
155 132 46
156 176 0
149 169 0
151 170 0
144 163 0
147 168 0
155 174 0
152 175 0
153 174 0
147 168 0
152 175 0
152 174 0
144 163 0
152 171 0
137 153 0
155 175 0
155 176 0
156 176 0
154 174 0
158 177 0
149 168 0
157 176 0
147 169 0
155 175 0
155 176 0
158 178 0
146 169 0
150 170 0
152 173 0
152 173 0
147 168 0
150 166 0
154 173 0
154 173 0
146 165 0
156 174 0
155 176 0
152 170 0
140 157 0
139 158 0
143 161 0
146 167 0
154 173 0
143 162 0
138 157 0
144 164 0
154 174 0
151 172 0
149 170 0
148 167 0
142 159 0
156 175 0
139 156 0
139 156 0
145 165 0
149 171 0
139 155 0
123 143 0
149 168 0
137 158 0
127 147 0
126 143 0
127 144 0
131 150 0
142 160 0
130 149 0
125 141 0
122 138 0
154 171 0
139 157 0
152 172 0
119 138 0
140 155 0
142 162 0
121 136 0
152 170 0
129 147 0
144 161 0
141 154 0
134 154 0
150 169 0
154 172 0
123 142 0
133 147 0
143 160 0
129 149 0
137 157 0
128 145 0
137 153 0
121 142 0
147 165 0
123 136 0
143 160 0
128 148 0
138 156 0
145 162 0
124 143 0
116 135 0
117 135 0
139 153 0
128 146 0
110 123 0
127 140 0
112 129 0
111 125 0
87 103 0
122 139 0
145 166 0
108 123 0
129 146 0
107 123 0
105 119 0
69 86 0
126 144 0
131 147 0
125 141 0
115 126 0
119 133 0
119 134 0
133 147 0
115 128 0
102 117 0
107 121 37
131 146 0
98 112 0
119 131 0
142 159 0
143 160 0
120 134 0
148 165 0
157 175 0
143 162 0
137 158 0
150 169 0
145 163 0
160 178 0
128 145 0
148 165 0
148 170 0
146 167 0
102 123 0
129 148 0
120 139 0
126 142 0
145 166 0
120 137 0
138 157 0
140 159 0
122 144 0
152 174 0
117 137 0
135 152 0
145 169 0
138 156 0
126 146 0
144 162 0
127 146 0
139 159 0
128 145 0
142 163 0
129 148 0
150 171 0
148 165 0
98 116 0
146 167 0
123 139 0
98 114 0
100 118 0
142 162 0
137 154 0
146 165 0
47 74 99
47 74 80
48 75 80
49 78 51
52 83 80
46 74 57
55 88 114
54 86 114
44 69 80
43 69 0
58 92 99
49 79 80
55 88 95
45 71 57
45 74 80
51 80 80
42 67 80
42 67 0
56 89 114
52 81 57
54 85 80
61 94 140
50 80 99
53 81 99
50 78 99
58 89 114
55 86 99
53 85 99
58 91 114
60 95 114
51 81 99
50 80 80
61 96 127
53 83 99
55 88 99
50 77 57
55 87 114
55 86 99
56 87 99
53 81 80
58 90 114
61 95 114
56 87 114
42 68 80
55 83 99
59 93 99
42 67 57
47 74 80
47 76 57
45 71 80
57 88 127
48 76 80
58 92 127
49 77 99
48 75 57
42 68 57
50 77 80
55 83 114
46 69 62
31 47 0
96 113 0
133 148 0
127 144 0
104 119 0
122 140 0
81 93 0
136 153 0
135 151 0
125 142 0
126 140 0
139 155 0
131 145 0
133 145 0
146 164 0
133 139 0
107 117 0
142 158 0
135 145 0
129 144 0
116 134 0
148 157 0
129 148 0
152 166 0
167 185 0
132 130 0
117 122 0
126 136 0
124 131 0
146 156 0
131 137 0
117 120 0
113 114 0
161 168 0
128 139 0
122 135 0
141 158 0
136 140 0
132 137 0
132 130 0
160 173 0
125 123 0
156 158 0
155 164 0
112 112 0
126 120 1
119 85 17
114 91 7
141 123 17
124 111 0
120 97 7
100 88 3
126 108 3
108 92 26
118 97 3
103 93 36
102 76 0
110 99 7
103 93 0
72 65 25
118 107 0
121 112 0
105 91 16
131 120 0
109 98 0
106 89 36
119 112 0
139 127 7
105 100 0
121 119 25
114 100 36
149 129 10
106 94 0
110 97 0
112 102 0
113 104 0
128 123 0
136 129 0
118 111 0
108 96 0
116 96 0
93 82 25
135 129 36
128 112 0
108 90 7
125 118 0
129 123 0
142 128 51
122 111 3
135 129 36
131 119 0
158 149 1
157 144 36
113 91 1
125 114 0
146 132 51
133 129 51
118 109 1
143 134 0
126 121 0
145 135 0
141 129 36
123 115 0
150 143 51
157 148 0
138 131 0
139 135 36
137 118 3
154 141 51
148 133 40
149 142 36
137 124 3
142 126 7
145 134 51
134 125 0
145 135 0
148 134 39
148 140 36
148 131 36
140 127 36
145 129 51
162 153 62
150 138 0
150 141 0
133 125 36
134 126 0
135 123 0
136 124 51
142 135 0
135 127 0
155 148 51
148 134 39
132 114 36
138 131 36
163 151 51
145 135 39
157 148 51
139 129 51
154 144 51
149 141 39
168 158 64
156 146 51
153 140 51
150 136 51
145 134 36
150 138 51
161 149 51
149 137 36
147 140 0
153 140 63
142 127 51
145 133 51
147 128 4
156 150 0
164 151 74
139 123 36
143 136 36
159 150 72
155 142 51
159 152 36
144 133 36
127 115 39
156 144 53
137 127 36
126 99 36
154 139 51
140 130 36
136 127 0
152 140 36
152 143 53
156 143 54
160 178 0
148 168 0
157 176 0
157 175 0
140 162 0
150 169 0
149 171 0
151 172 0
146 169 0
147 165 0
150 170 0
154 175 0
143 164 0
147 168 0
161 180 0
128 145 0
147 169 0
154 174 0
158 177 0
154 172 0
141 162 0
152 174 0
146 166 0
153 170 0
157 176 0
145 166 0
151 170 0
153 171 0
153 173 0
151 171 0
148 169 0
144 161 0
151 171 0
139 159 0
149 169 0
150 169 0
154 174 0
146 163 0
143 163 0
142 162 0
146 169 0
135 154 0
149 172 0
148 168 0
143 162 0
146 165 0
157 176 0
127 146 0
147 167 0
140 159 0
150 168 0
150 170 0
150 167 0
126 143 0
149 168 0
151 171 0
144 161 0
148 164 0
122 140 0
154 172 0
148 165 0
131 153 0
144 160 0
145 164 0
140 159 0
120 135 0
130 145 0
145 163 0
137 154 0
129 145 0
136 155 0
128 148 0
123 141 0
140 159 0
152 173 0
143 165 0
151 170 0
131 149 0
120 138 0
151 171 0
134 155 0
127 149 0
141 161 0
106 125 0
143 161 0
119 134 0
126 143 0
119 137 0
103 115 0
123 139 0
153 169 0
121 135 0
137 154 0
125 141 0
115 135 0
95 110 0
131 148 0
118 135 0
121 135 0
122 142 0
129 141 0
128 144 0
117 130 0
125 142 0
119 134 0
88 99 0
138 156 0
122 139 0
104 115 0
119 136 0
134 152 0
136 154 0
111 127 0
125 138 0
116 125 0
97 113 0
135 152 0
96 111 0
110 123 0
113 128 0
131 146 0
108 123 0
103 118 0
93 103 4
164 180 0
136 154 0
128 145 0
148 168 0
124 141 0
109 124 0
145 161 0
147 164 0
138 159 0
111 130 0
140 158 0
120 138 0
132 153 0
131 150 0
126 142 0
140 159 0
136 157 0
158 179 0
134 151 0
145 164 0
147 164 0
136 149 0
157 174 0
134 149 0
145 168 0
122 139 0
120 139 0
131 150 0
95 112 0
129 147 0
141 164 0
151 174 0
136 155 0
113 131 0
113 132 0
137 155 0
105 126 0
119 137 0
125 145 0
110 128 0
117 137 0
140 158 0
103 119 0
119 137 0
133 153 0
158 179 0
98 116 0
100 117 0
48 77 57
49 79 57
49 78 80
47 75 80
44 71 80
52 83 99
44 70 57
50 80 80
55 86 99
48 76 99
57 88 127
43 70 57
55 87 127
52 83 99
47 76 80
51 84 57
57 90 99
52 83 127
50 79 99
49 78 57
57 91 114
56 88 114
56 88 127
50 80 114
58 91 114
58 91 114
48 79 0
52 83 80
52 84 0
48 76 80
50 80 99
50 80 57
46 72 80
52 82 114
46 74 57
51 80 84
51 80 57
56 88 127
47 75 57
44 69 99
54 84 114
45 73 0
51 80 99
52 83 57
48 75 57
47 74 80
42 65 57
42 66 57
48 77 57
44 70 80
52 82 57
45 71 0
49 78 80
48 78 0
42 66 0
43 69 57
97 109 80
128 134 0
91 97 0
119 122 0
108 115 0
119 135 0
90 99 0
134 150 0
130 147 0
99 117 0
116 135 0
133 143 0
126 141 0
135 151 0
131 142 0
118 127 0
135 151 0
87 102 0
99 114 0
115 127 0
122 124 0
71 81 0
116 129 0
152 167 0
132 147 0
136 153 0
133 145 0
119 140 0
108 116 0
89 87 0
131 147 0
152 167 0
118 123 0
134 141 0
144 144 0
136 144 0
117 125 0
102 107 0
99 117 0
154 169 0
136 147 0
157 169 0
110 116 0
130 128 0
147 148 0
119 131 0
152 164 0
136 120 16
113 92 19
104 84 36
130 99 24
96 72 0
119 108 0
127 112 36
89 68 0
105 91 0
116 95 1
115 109 0
125 120 0
133 109 10
117 106 7
110 110 0
134 123 3
130 116 1
109 104 0
116 101 7
140 127 0
107 100 0
135 115 7
115 96 1
109 103 0
128 113 0
125 117 3
112 105 16
129 114 0
137 127 0
128 115 7
124 116 0
115 107 3
153 144 0
132 114 0
140 137 0
140 125 4
133 123 0
125 109 7
125 120 0
108 104 0
126 115 0
131 124 3
152 143 0
134 127 0
134 124 36
143 134 7
132 119 36
116 99 7
134 122 36
147 136 0
134 123 39
126 122 0
130 127 0
150 140 36
137 129 0
130 112 36
139 126 3
154 140 51
136 133 0
143 139 0
144 132 36
149 137 0
131 125 0
129 117 0
122 115 0
151 142 3
153 141 51
141 138 0
146 139 0
138 124 36
144 133 0
149 139 36
152 149 0
143 134 0
132 115 39
151 145 36
157 145 36
145 135 36
96 80 2
148 141 51
134 116 3
159 149 62
151 142 0
142 132 51
166 156 62
131 124 3
139 117 36
143 134 36
157 153 51
139 134 36
155 144 51
154 147 36
140 131 51
131 122 0
146 133 3
150 141 51
159 143 51
132 126 0
123 112 1
155 140 63
157 148 39
137 125 7
166 157 72
135 119 16
144 135 39
148 134 7
150 140 39
157 150 51
156 145 51
150 135 62
148 124 42
148 136 0
144 133 51
152 141 36
136 122 24
142 133 51
143 125 52
150 137 39
159 148 53
134 126 3
148 145 0
156 142 53
148 132 53
143 126 54
164 150 28
157 175 0
157 175 0
152 174 0
153 174 0
151 170 0
140 156 0
151 173 0
160 179 0
157 177 0
142 160 0
153 176 0
146 165 0
155 176 0
152 175 0
140 160 0
148 171 0
152 170 0
154 174 0
154 173 0
154 173 0
153 175 0
150 171 0
144 164 0
152 175 0
140 158 0
155 175 0
134 152 0
148 166 0
146 167 0
155 176 0
157 175 0
155 172 0
145 165 0
148 167 0
156 175 0
136 154 0
154 172 0
148 167 0
151 172 0
151 169 0
150 168 0
144 162 0
148 167 0
135 154 0
139 157 0
125 145 0
156 175 0
128 143 0
138 154 0
146 166 0
145 164 0
152 173 0
158 177 0
148 168 0
139 160 0
142 161 0
147 166 0
145 165 0
151 170 0
136 157 0
153 171 0
147 167 0
148 168 0
143 162 0
148 168 0
140 156 0
145 166 0
152 171 0
140 159 0
147 166 0
133 151 0
133 149 0
143 154 0
145 163 0
147 164 0
128 146 0
138 156 0
130 148 0
136 154 0
149 168 0
134 151 0
127 145 0
143 162 0
143 161 0
137 153 0
135 152 0
129 151 0
131 150 0
132 151 0
132 150 0
120 135 0
134 151 0
134 152 0
116 135 0
140 160 0
141 157 0
116 131 0
118 134 0
127 143 0
112 127 0
123 141 0
124 141 0
118 131 0
113 128 0
111 127 0
125 141 0
110 126 0
135 152 0
129 146 0
122 139 0
125 140 0
113 126 0
88 102 0
115 128 0
110 123 0
111 126 0
127 143 0
94 110 0
122 139 0
126 140 0
113 128 51
123 137 0
120 135 0
138 155 0
114 130 0
123 139 0
159 177 0
139 157 0
101 117 0
138 152 0
138 156 0
151 171 0
123 142 0
119 135 0
102 118 0
138 156 0
119 134 0
134 151 0
135 155 0
123 139 0
132 150 0
121 140 0
110 126 0
170 188 0
113 130 0
116 135 0
127 142 0
130 147 0
155 177 0
108 127 0
128 148 0
132 154 0
149 168 0
128 147 0
111 131 0
152 173 0
132 152 0
62 84 0
112 131 0
104 124 0
118 137 0
109 126 0
138 155 0
136 151 0
105 119 0
138 157 0
112 133 0
136 156 0
126 142 0
94 105 0
90 106 0
87 102 0
105 122 0
74 97 80
38 63 57
32 54 0
43 69 57
53 84 99
43 70 57
49 78 57
39 62 57
42 67 80
43 69 80
42 67 57
42 70 0
53 81 80
47 77 57
55 88 99
51 83 80
51 80 80
48 76 0
38 63 57
53 84 99
55 86 80
55 87 114
37 61 0
45 73 57
50 79 80
49 77 99
35 59 0
52 83 57
54 87 80
62 95 127
49 77 80
49 76 99
57 91 114
55 88 99
53 84 80
51 82 99
50 79 80
48 77 57
51 80 99
53 82 57
55 87 140
43 69 0
55 87 99
49 79 80
55 86 84
48 76 57
47 77 80
47 72 0
41 62 62
53 83 57
47 76 99
39 60 80
46 70 80
82 93 57
107 118 0
141 158 0
101 112 0
117 129 0
142 156 0
90 93 0
126 135 0
95 109 0
113 128 0
106 118 0
85 96 0
128 145 0
88 98 0
113 125 0
144 156 0
147 155 0
92 105 0
118 134 0
128 143 0
102 112 0
111 117 0
122 140 0
118 126 0
109 122 0
93 100 0
123 135 0
122 123 0
153 166 0
136 145 0
114 126 0
121 135 0
124 138 0
125 135 0
136 143 0
119 125 0
124 123 0
133 141 0
139 150 0
138 144 0
157 176 0
132 145 0
131 138 0
159 165 0
130 135 0
146 156 0
157 173 0
143 154 0
120 124 0
101 99 0
129 129 0
120 96 40
118 97 16
108 96 36
103 83 22
117 110 0
106 92 36
108 94 0
87 77 0
88 67 0
119 106 3
108 91 0
106 91 3
114 101 0
97 71 4
107 100 0
116 104 1
95 88 16
109 102 0
123 112 7
138 130 0
139 126 0
78 52 1
131 119 0
125 110 0
96 85 0
126 123 0
130 123 0
140 133 0
112 98 7
100 95 0
122 115 0
112 99 0
132 123 0
130 119 7
115 107 0
123 121 0
133 128 0
137 133 0
123 112 0
107 93 1
157 144 0
105 98 0
121 116 0
88 59 0
111 102 0
129 121 0
126 112 0
109 93 0
161 151 36
133 131 0
149 136 36
133 123 36
124 115 0
132 122 0
122 107 0
129 125 0
135 129 0
130 126 0
127 118 0
121 116 0
129 125 0
140 129 51
137 126 0
148 138 36
133 124 36
120 93 8
136 127 0
144 132 0
153 146 36
130 117 0
143 121 53
148 139 0
145 138 0
149 134 36
138 125 36
135 116 7
143 133 36
136 125 36
141 134 36
137 118 39
158 155 36
157 148 62
155 139 51
134 123 0
122 107 1
143 135 62
136 124 7
151 144 7
146 135 37
145 130 36
161 154 51
147 141 0
135 108 10
148 138 0
157 151 0
143 138 51
147 125 51
146 136 1
148 133 52
155 147 51
126 111 0
142 130 7
153 141 39
151 139 36
128 111 0
164 155 72
137 127 7
137 124 36
136 114 40
160 148 53
155 144 36
141 130 36
158 148 51
149 135 51
145 132 51
132 116 36
149 142 36
147 139 51
132 116 39
140 127 51
160 149 62
144 128 7
157 139 22
141 162 0
154 175 0
145 165 0
156 175 0
152 172 0
146 165 0
148 167 0
153 174 0
154 174 0
153 175 0
156 177 0
154 172 0
133 151 0
143 161 0
149 170 0
151 170 0
147 166 0
150 168 0
156 176 0
146 167 0
140 156 0
156 177 0
152 174 0
156 174 0
151 170 0
148 171 0
151 171 0
147 168 0
144 164 0
151 171 0
141 158 0
144 163 0
154 174 0
151 172 0
151 170 0
132 150 0
151 172 0
145 165 0
147 169 0
145 166 0
134 152 0
141 156 0
155 175 0
145 164 0
144 163 0
156 174 0
140 160 0
138 158 0
146 166 0
133 151 0
148 168 0
144 163 0
154 174 0
134 152 0
143 161 0
142 161 0
139 153 0
156 173 0
151 171 0
124 141 0
139 156 0
141 159 0
138 153 0
133 151 0
133 150 0
155 174 0
128 146 0
126 145 0
131 151 0
126 141 0
139 154 0
155 173 0
139 160 0
120 138 0
125 143 0
125 143 0
127 144 0
128 146 0
142 159 0
142 160 0
104 121 0
143 160 0
130 151 0
142 161 0
141 158 0
126 144 0
137 157 0
122 139 0
133 148 0
124 140 0
130 151 0
135 155 0
127 145 0
102 118 0
115 131 0
141 160 0
106 122 0
136 153 0
114 129 0
131 150 0
113 130 0
129 145 0
107 123 0
129 147 0
122 135 0
122 137 0
105 116 0
68 83 0
139 157 0
93 107 0
95 107 0
84 95 0
102 117 0
125 140 0
129 145 0
115 130 0
106 122 0
93 106 37
75 83 0
115 130 0
124 137 37
135 150 0
135 152 0
146 163 0
112 126 0
118 136 0
120 135 0
122 140 0
135 151 0
119 138 0
118 135 0
133 150 0
115 134 0
112 128 0
135 152 0
136 151 0
146 166 0
125 144 0
128 146 0
119 138 0
153 172 0
153 173 0
144 161 0
146 162 0
139 158 0
90 108 0
145 163 0
123 140 0
117 136 0
156 175 0
130 148 0
112 130 0
149 167 0
144 162 0
116 136 0
136 153 0
121 138 0
109 126 0
100 116 0
137 157 0
113 132 0
110 128 0
77 98 0
88 105 0
101 117 0
117 134 0
96 110 0
129 146 0
113 129 0
128 145 0
93 113 0
72 84 0
91 106 0
106 125 0
101 116 0
71 94 57
51 81 80
55 87 99
43 69 57
51 81 80
39 62 57
56 86 99
46 74 80
52 84 80
47 73 57
46 74 80
48 77 57
51 80 114
37 59 0
50 80 80
46 75 57
49 79 57
54 84 99
38 62 57
52 82 99
51 81 57
53 84 80
44 72 57
55 87 114
48 76 99
43 72 0
54 87 57
54 86 80
54 86 114
41 64 57
35 58 57
50 79 99
48 75 57
50 80 80
51 79 80
47 75 57
41 65 57
53 84 99
40 63 57
49 80 0
49 78 80
60 93 114
52 83 114
46 73 57
49 77 81
48 78 0
43 68 57
41 63 57
46 70 57
41 62 57
75 86 0
109 116 0
82 97 0
104 112 0
88 96 0
91 104 0
118 132 0
156 178 0
94 100 0
83 80 0
105 111 0
123 129 0
120 136 0
151 167 0
132 143 0
131 144 0
143 153 0
143 153 0
131 151 0
141 149 0
128 130 0
153 173 0
140 149 0
119 129 0
147 157 0
144 156 0
112 125 0
131 145 0
126 138 0
156 172 0
115 120 0
108 119 0
148 157 0
110 112 0
158 173 0
140 142 0
123 129 0
146 153 0
120 117 0
111 113 0
119 121 0
135 140 0
122 125 0
141 151 0
126 117 0
158 163 0
140 141 0
142 143 0
151 161 0
139 139 0
122 122 0
148 155 0
131 121 1
101 90 0
122 102 17
118 90 16
108 81 7
117 106 3
103 81 7
103 88 1
95 79 1
117 104 7
115 91 0
114 95 16
112 96 16
80 60 7
119 110 3
122 110 0
113 100 0
125 111 0
85 76 0
115 102 7
140 130 7
75 64 0
132 118 0
86 77 0
121 111 3
107 86 0
95 87 7
115 98 0
120 108 0
110 104 0
124 116 7
139 128 0
116 108 0
113 113 0
137 124 0
141 127 0
135 125 0
110 106 1
116 104 16
118 101 3
111 98 3
139 126 36
127 119 7
149 140 51
141 126 36
121 105 36
141 129 16
140 130 16
155 143 51
134 127 36
132 118 0
139 125 3
129 115 0
147 139 36
144 140 36
125 111 36
129 120 36
151 142 16
121 106 1
133 125 0
106 101 0
158 148 51
119 108 0
143 125 0
141 134 36
126 109 3
136 129 36
144 133 16
155 147 36
152 144 3
139 127 7
143 137 0
152 142 36
125 120 0
153 140 39
148 130 36
124 111 0
129 118 0
151 149 36
146 142 36
142 137 51
145 144 0
148 138 36
153 142 36
143 134 0
137 131 36
128 116 0
133 119 16
146 141 36
163 152 62
99 91 0
146 137 36
146 133 3
160 147 63
148 137 51
147 132 36
149 132 51
159 144 52
139 129 36
141 124 7
132 108 41
144 132 36
146 139 36
145 139 36
135 122 36
148 137 53
129 112 7
163 155 62
149 137 72
150 138 63
139 124 36
153 141 62
140 125 36
131 119 36
142 121 36
149 135 51
146 135 0
146 133 51
152 139 36
160 147 39
151 129 40
157 141 53
158 144 53
152 174 0
144 165 0
150 169 0
147 166 0
154 176 0
155 175 0
148 170 0
152 172 0
152 173 0
156 176 0
137 156 0
155 175 0
160 178 0
147 168 0
151 171 0
143 161 0
154 173 0
153 173 0
145 167 0
143 165 0
143 164 0
147 166 0
151 170 0
146 169 0
136 157 0
141 162 0
155 175 0
147 166 0
141 163 0
140 159 0
153 173 0
136 156 0
142 159 0
153 170 0
142 159 0
145 166 0
151 171 0
150 167 0
145 165 0
146 165 0
152 173 0
153 174 0
157 177 0
150 166 0
147 167 0
152 171 0
144 163 0
147 166 0
128 146 0
144 164 0
153 170 0
149 170 0
152 172 0
124 142 0
153 175 0
151 170 0
131 149 0
137 154 0
133 152 0
156 173 0
148 167 0
148 166 0
123 137 0
137 156 0
143 163 0
142 159 0
144 162 0
145 162 0
140 159 0
126 142 0
112 126 0
137 153 0
144 163 0
126 142 0
150 166 0
130 148 0
130 148 0
139 158 0
134 150 0
125 138 0
143 162 0
108 124 0
129 149 0
148 166 0
140 159 0
129 147 0
138 150 0
106 120 0
139 156 0
123 136 0
127 140 0
147 161 0
117 134 0
134 149 0
112 128 0
129 145 0
107 125 0
127 142 0
113 128 0
105 122 0
132 150 0
125 141 0
119 133 0
124 141 0
149 167 0
122 137 0
118 135 0
137 153 0
84 98 0
117 133 0
96 110 0
88 99 0
108 123 0
122 134 0
104 118 0
116 130 0
106 120 0
111 123 0
118 129 0
119 133 26
111 125 0
148 166 0
145 162 0
149 166 0
120 134 0
132 149 0
135 153 0
136 153 0
146 162 0
143 160 0
123 140 0
110 127 0
115 132 0
150 169 0
105 122 0
149 166 0
141 160 0
147 165 0
113 129 0
149 166 0
107 125 0
127 146 0
126 145 0
138 158 0
139 154 0
136 153 0
116 135 0
132 150 0
119 136 0
132 152 0
131 149 0
119 136 0
153 174 0
117 134 0
98 116 0
87 102 0
88 109 0
125 141 0
93 113 0
129 148 0
115 131 0
139 159 0
134 153 0
127 147 0
100 115 0
83 102 0
105 122 0
73 89 0
121 140 0
100 118 0
87 106 0
121 136 0
100 117 0
106 123 0
92 108 0
110 126 0
88 104 0
46 74 80
45 74 57
46 74 57
42 69 0
49 79 80
43 71 0
38 62 57
50 82 57
61 93 114
49 78 99
49 78 80
45 73 0
48 78 80
51 81 99
46 73 99
45 72 57
45 71 99
41 68 0
39 62 0
40 65 57
50 80 99
50 81 99
47 76 0
55 86 114
49 78 57
48 78 57
53 84 80
46 74 80
45 74 57
49 75 99
58 89 114
50 78 99
55 85 99
45 69 57
50 78 114
40 63 57
39 61 0
45 73 57
51 79 99
43 66 0
52 82 0
43 66 0
43 68 0
44 68 0
50 79 114
41 63 57
40 61 57
52 55 0
80 85 0
98 109 0
87 104 0
101 116 0
123 141 0
125 136 0
82 99 0
55 64 0
70 76 0
150 164 0
82 89 0
31 46 0
119 131 0
137 151 0
97 111 0
131 135 0
89 106 0
91 101 0
115 126 0
100 111 0
132 146 0
139 158 0
119 135 0
117 133 0
130 144 0
128 139 0
134 148 0
97 110 0
171 179 0
159 173 0
143 155 0
125 136 0
111 118 0
102 103 0
152 158 0
157 173 0
63 67 0
142 155 0
108 114 0
118 128 0
137 150 0
142 147 0
144 153 0
130 135 0
111 106 0
140 145 0
135 136 0
137 150 0
128 136 0
131 134 0
129 134 0
118 119 0
156 153 0
141 132 0
117 107 36
91 69 7
86 58 3
99 75 22
142 121 40
141 120 17
137 123 7
109 90 0
122 104 3
107 88 16
119 99 0
122 105 0
123 95 7
120 103 3
109 102 0
103 91 16
92 82 0
115 98 13
114 110 0
119 106 0
103 88 7
114 93 7
83 70 3
126 117 0
138 123 16
124 111 0
128 124 0
113 95 0
129 119 7
133 114 7
134 130 0
135 115 1
131 126 0
108 100 0
112 101 0
144 132 3
137 129 3
112 101 0
128 114 1
115 109 1
130 116 1
141 127 0
129 122 0
144 139 0
153 142 16
124 110 7
137 124 36
150 132 39
147 145 0
136 122 3
135 124 0
138 121 36
125 121 0
144 135 16
149 137 36
158 153 51
146 139 51
129 122 36
132 125 0
145 132 0
140 127 7
130 125 0
140 124 36
128 119 0
154 143 51
138 135 36
144 130 51
144 133 36
149 138 51
148 136 53
138 126 3
155 146 36
132 116 36
144 133 0
139 129 36
140 136 36
144 139 0
155 148 0
150 140 51
138 124 1
130 119 16
130 120 51
127 112 16
127 115 36
143 133 36
133 123 36
144 134 0
146 135 36
150 141 36
145 130 16
137 125 62
149 135 36
151 143 42
128 117 36
138 127 0
134 124 0
167 160 51
125 113 7
157 141 62
162 148 64
139 121 17
151 136 51
148 131 64
158 145 53
147 131 36
131 121 0
108 94 16
139 125 53
155 152 51
149 133 36
138 126 0
137 125 7
139 124 36
159 145 72
141 123 10
142 133 36
150 140 39
139 123 3
142 128 39
148 135 51
149 132 39
154 175 0
155 175 0
152 172 0
154 173 0
154 174 0
155 174 0
147 167 0
155 176 0
152 169 0
151 169 0
144 165 0
152 172 0
150 169 0
141 160 0
156 174 0
154 171 0
148 169 0
150 172 0
147 169 0
157 177 0
155 174 0
158 178 0
147 164 0
147 166 0
137 155 0
152 171 0
147 168 0
141 161 0
149 169 0
154 176 0
150 168 0
127 146 0
155 176 0
146 165 0
149 167 0
151 172 0
154 173 0
149 168 0
117 137 0
147 166 0
147 166 0
153 170 0
151 169 0
147 165 0
141 159 0
135 155 0
139 154 0
142 162 0
131 151 0
151 169 0
151 170 0
139 158 0
129 143 0
127 144 0
146 166 0
151 172 0
138 156 0
155 173 0
124 145 0
112 130 0
134 152 0
147 167 0
141 164 0
147 167 0
138 153 0
118 138 0
145 161 0
127 144 0
134 147 0
126 143 0
138 154 0
124 137 0
127 143 0
130 148 0
151 170 0
148 168 0
118 132 0
122 140 0
149 167 0
152 168 0
129 142 0
113 126 0
134 151 0
139 153 0
119 135 0
136 150 0
136 154 0
139 152 0
109 126 0
130 151 0
129 140 0
144 159 0
131 145 0
129 146 0
137 156 0
130 146 0
138 156 0
130 146 0
124 136 0
107 125 0
135 150 0
117 131 0
123 136 0
142 160 0
101 116 0
114 130 0
119 135 0
126 140 0
120 136 0
117 134 0
84 95 0
87 101 0
77 89 0
120 135 0
113 128 0
120 132 0
97 108 37
121 135 0
87 99 37
130 143 0
141 158 0
119 136 0
152 166 0
137 153 0
123 139 0
105 119 0
125 142 0
140 157 0
118 135 0
134 151 0
149 167 0
107 122 0
133 151 0
128 144 0
108 125 0
111 127 0
148 164 0
127 142 0
126 142 0
117 136 0
144 159 0
110 130 0
127 143 0
140 158 0
147 164 0
106 121 0
116 133 0
132 148 0
135 155 0
144 159 0
138 158 0
113 129 0
121 139 0
142 162 0
126 144 0
139 158 0
106 124 0
126 143 0
87 103 0
97 118 0
86 104 0
117 133 0
79 92 0
113 131 0
98 114 0
121 140 0
119 135 0
125 140 0
106 120 0
128 145 0
84 95 0
81 97 0
139 157 0
70 86 0
113 125 0
128 144 0
88 103 0
78 91 0
77 91 0
69 90 80
34 56 57
48 75 80
46 74 57
45 70 99
49 78 80
33 56 0
39 61 80
54 84 99
47 76 57
47 77 57
49 80 80
44 70 80
48 77 57
49 79 80
45 73 57
47 75 80
48 77 57
55 86 114
48 73 99
41 67 0
53 84 114
52 82 114
53 81 99
49 76 80
40 62 57
52 81 99
57 89 114
48 76 99
38 62 0
48 76 80
42 69 0
42 69 57
51 82 80
46 72 80
47 76 0
50 79 80
39 62 57
40 60 62
47 74 80
38 60 0
43 66 0
24 41 0
71 84 0
111 118 0
106 114 0
107 122 0
59 58 0
96 108 0
102 107 0
122 135 0
97 116 0
85 89 0
84 98 0
120 126 0
127 147 0
109 119 0
132 147 0
128 145 0
127 144 0
101 115 0
127 148 0
51 62 0
124 127 0
126 138 0
144 154 0
120 130 0
122 127 0
99 107 0
111 120 0
136 147 0
142 153 0
125 139 0
133 143 0
111 113 0
144 160 0
125 137 0
125 133 0
129 133 0
134 151 0
123 132 0
76 82 0
152 165 0
113 117 0
151 163 0
108 108 0
139 148 0
100 103 0
87 92 0
142 146 0
127 131 0
139 154 0
153 152 0
153 159 0
140 147 0
142 140 0
92 89 0
84 70 0
118 119 0
159 166 0
135 140 0
118 113 0
109 95 16
97 82 7
104 89 3
109 92 10
115 102 0
128 111 17
107 87 16
125 108 16
106 90 7
122 104 17
109 89 10
86 79 16
128 117 11
104 84 16
110 99 16
133 120 0
109 96 0
126 117 3
120 108 0
130 116 3
114 99 0
125 109 7
125 116 7
101 91 0
116 102 3
139 131 0
125 116 0
118 111 0
110 103 16
132 118 0
130 119 0
120 115 0
127 114 7
133 118 0
138 127 7
121 106 7
132 118 0
146 140 36
134 123 0
128 118 1
133 124 0
141 126 3
111 100 0
115 106 36
148 142 0
127 120 0
146 133 7
139 133 7
147 137 3
149 137 0
139 122 0
125 112 0
120 116 0
124 100 36
139 131 0
135 121 36
144 135 0
144 133 36
131 123 0
145 141 0
119 114 7
131 115 36
134 126 0
139 135 0
136 126 0
149 142 7
122 112 3
149 134 7
130 114 7
148 143 36
148 139 0
147 144 36
129 109 3
137 119 7
112 95 0
137 130 0
150 138 36
154 147 0
132 127 36
151 144 7
140 128 10
141 121 51
155 137 51
146 131 36
150 139 16
148 131 37
151 138 22
129 120 3
120 102 36
126 124 0
131 113 36
135 122 16
133 120 36
147 135 36
141 136 0
135 115 38
160 147 72
163 158 51
140 130 16
155 144 62
151 142 53
156 142 36
147 136 39
155 142 51
148 132 54
141 131 36
135 123 16
142 127 51
140 127 36
142 124 37
164 149 72
155 151 16
134 123 36
143 132 7
150 137 42
123 107 7
146 131 63
146 128 43
158 145 62
145 163 0
154 175 0
149 170 0
154 173 0
153 174 0
158 177 0
152 171 0
148 165 0
146 165 0
144 164 0
141 159 0
138 158 0
146 165 0
154 173 0
142 161 0
148 166 0
157 174 0
159 175 0
139 157 0
159 178 0
151 171 0
146 167 0
145 164 0
146 167 0
149 172 0
149 169 0
143 163 0
151 169 0
145 165 0
148 169 0
158 177 0
153 173 0
151 169 0
137 153 0
152 171 0
145 163 0
138 155 0
147 166 0
140 160 0
149 170 0
141 161 0
143 163 0
153 170 0
152 171 0
152 173 0
150 170 0
137 153 0
139 158 0
146 165 0
139 158 0
142 161 0
141 159 0
134 149 0
149 167 0
129 149 0
133 151 0
134 150 0
143 163 0
150 169 0
146 167 0
137 153 0
148 170 0
115 133 0
138 156 0
136 151 0
145 162 0
137 156 0
117 133 0
123 138 0
152 169 0
145 165 0
130 150 0
128 146 0
125 143 0
139 153 0
143 159 0
126 142 0
138 157 0
148 166 0
122 142 0
109 124 0
135 153 0
142 160 0
113 128 0
127 145 0
139 156 0
130 145 0
123 140 0
132 148 0
126 147 0
113 131 0
124 141 0
122 136 0
100 116 0
99 112 0
133 148 0
138 155 0
129 144 0
110 129 0
97 112 0
122 137 0
111 126 0
99 111 0
125 140 0
110 124 0
117 132 0
112 126 0
121 135 0
126 140 0
98 109 0
113 129 0
127 142 0
87 99 0
103 114 4
126 140 0
126 140 0
87 98 8
135 148 0
105 123 0
124 141 0
137 156 0
121 136 0
136 152 0
125 141 0
130 145 0
132 147 0
103 116 0
157 175 0
103 119 0
100 117 0
102 116 0
115 131 0
137 157 0
140 156 0
121 142 0
130 147 0
139 155 0
133 155 0
129 148 0
143 160 0
133 150 0
112 130 0
132 147 0
140 158 0
125 140 0
113 127 0
133 151 0
97 118 0
112 131 0
158 178 0
153 168 0
129 144 0
98 113 0
135 150 0
119 134 0
137 155 0
135 154 0
95 112 0
122 139 0
110 122 0
101 115 0
86 100 0
119 136 0
113 129 0
98 115 0
104 119 0
107 119 0
77 92 0
75 88 0
118 134 0
108 123 0
97 114 0
26 44 0
98 112 0
118 133 0
124 142 0
61 77 0
92 107 0
65 79 0
9 20 0
65 78 0
33 55 0
47 75 57
47 76 99
45 72 80
42 67 80
44 70 57
41 67 57
50 81 80
40 63 80
37 60 57
36 59 0
38 65 0
52 84 80
51 81 80
41 66 57
38 60 57
48 76 0
41 67 57
60 94 114
40 63 57
52 82 57
42 68 57
45 70 57
52 82 114
34 54 57
40 64 57
44 70 80
46 72 80
47 76 0
52 81 80
40 61 57
43 67 0
48 73 80
47 74 57
52 81 80
26 46 57
44 68 57
65 77 0
75 78 57
91 102 0
95 113 0
88 95 0
24 38 0
75 72 0
71 75 0
81 94 0
83 87 0
121 131 0
114 123 0
114 122 0
116 131 0
88 98 0
37 57 0
109 120 0
101 99 0
86 97 0
102 114 0
95 102 0
84 91 0
114 121 0
130 147 0
109 123 0
111 128 0
99 119 0
111 126 0
100 110 0
96 86 0
134 145 0
103 105 0
111 124 0
116 128 0
87 96 0
116 130 0
126 142 0
106 120 0
141 143 0
117 134 0
131 146 0
144 144 0
153 169 0
116 125 0
120 128 0
149 160 0
139 150 0
127 128 0
134 136 0
112 121 0
123 104 0
151 149 0
130 142 0
115 116 0
140 148 0
142 144 0
139 138 0
120 111 0
100 99 0
147 145 0
109 106 0
125 125 0
132 135 0
142 140 0
126 132 0
95 62 0
64 55 0
107 89 16
112 94 7
104 86 0
102 87 3
115 88 16
115 99 16
87 65 1
110 100 0
83 66 1
113 96 3
116 100 16
108 92 3
144 132 0
121 105 0
121 112 7
112 98 3
99 88 0
102 85 1
117 101 3
115 103 0
138 120 1
110 95 0
114 102 1
133 125 0
134 122 7
128 108 22
85 68 0
117 97 16
132 120 1
139 125 17
135 126 0
124 113 0
130 115 0
131 120 0
153 149 0
144 132 16
119 113 0
156 146 36
137 127 0
127 118 0
98 82 1
129 114 7
136 125 0
115 106 0
143 132 39
127 118 0
146 129 3
151 144 0
120 108 0
142 134 1
150 141 36
120 112 0
126 116 0
139 126 42
148 128 10
132 124 36
137 125 0
139 130 0
137 118 1
135 124 16
135 124 51
139 129 3
156 148 51
139 135 36
149 137 36
143 132 39
127 124 0
109 82 7
124 118 0
158 149 62
129 120 0
140 129 16
148 134 51
127 109 0
134 127 1
136 115 0
116 109 0
126 117 0
109 99 36
154 138 39
144 141 0
132 117 36
131 117 16
141 129 51
125 119 36
157 150 51
150 139 39
128 127 0
149 136 36
134 127 16
155 148 0
140 135 0
143 128 40
147 131 53
133 119 3
147 142 36
136 122 37
148 141 36
143 133 51
154 142 40
150 142 0
153 146 36
124 111 0
142 124 36
160 151 62
137 116 39
152 143 53
153 142 51
147 135 36
154 146 51
154 141 64
150 139 51
138 128 7
160 154 51
157 143 53
145 166 0
155 174 0
146 162 0
153 172 0
157 176 0
155 174 0
152 173 0
152 171 0
147 168 0
149 172 0
153 172 0
141 161 0
148 165 0
153 173 0
152 170 0
154 172 0
157 174 0
145 163 0
158 176 0
143 164 0
143 161 0
146 165 0
144 162 0
145 163 0
152 170 0
144 165 0
138 156 0
155 175 0
148 167 0
143 160 0
154 173 0
139 159 0
143 159 0
155 175 0
156 174 0
137 155 0
152 171 0
144 163 0
145 162 0
145 164 0
152 174 0
138 156 0
146 165 0
150 173 0
136 152 0
142 161 0
135 154 0
134 151 0
137 153 0
148 163 0
152 170 0
142 161 0
140 158 0
145 163 0
139 156 0
140 154 0
140 159 0
145 166 0
132 148 0
147 164 0
126 147 0
150 168 0
131 153 0
139 154 0
120 138 0
127 144 0
138 158 0
132 150 0
133 151 0
151 168 0
131 150 0
147 164 0
146 159 0
139 157 0
144 162 0
136 150 0
142 159 0
136 151 0
129 145 0
118 133 0
117 134 0
135 151 0
144 162 0
116 132 0
114 131 0
140 154 0
118 134 0
137 151 0
110 127 0
132 149 0
133 150 0
142 159 0
117 131 0
137 155 0
113 127 0
137 153 0
97 110 0
129 145 0
113 128 0
95 109 0
120 134 0
110 123 0
107 121 0
111 124 0
102 112 0
96 110 0
120 136 0
104 118 0
123 136 0
81 97 0
84 98 0
101 112 23
100 113 12
127 141 0
100 114 44
72 78 0
97 113 0
124 137 0
121 132 0
150 166 0
127 141 0
126 142 0
135 150 0
104 119 0
109 125 0
110 124 0
154 169 0
111 125 0
135 152 0
119 135 0
122 138 0
126 143 0
143 158 0
112 131 0
147 164 0
142 159 0
128 145 0
149 167 0
90 106 0
122 140 0
85 104 0
112 132 0
100 117 0
114 133 0
129 145 0
150 167 0
130 146 0
108 127 0
111 131 0
124 143 0
124 142 0
150 170 0
91 102 0
125 140 0
150 168 0
132 152 0
104 122 0
123 140 0
95 113 0
115 135 0
141 159 0
116 134 0
102 117 0
65 80 0
125 142 0
95 109 0
88 102 0
94 112 0
113 130 0
99 111 0
30 52 0
97 113 0
95 111 0
84 96 0
99 116 0
97 114 0
106 119 0
106 121 0
63 79 0
110 120 0
75 86 0
88 101 0
78 89 0
26 39 0
13 29 0
52 81 57
45 72 57
51 80 80
43 70 0
48 75 80
42 66 57
35 58 0
41 66 0
41 65 0
33 55 57
49 75 99
28 48 57
36 59 0
46 73 80
44 71 57
33 54 80
43 68 99
48 75 99
44 70 57
52 84 0
48 77 80
48 75 99
43 70 0
45 73 80
48 75 80
46 70 57
47 75 0
42 66 57
47 73 80
45 69 0
71 87 80
91 107 57
106 111 0
34 53 0
80 90 0
118 128 0
87 82 0
88 103 0
66 81 0
86 99 0
88 100 0
80 88 0
91 104 0
98 107 0
98 109 0
118 127 0
97 111 0
92 99 0
112 126 0
91 103 0
112 119 0
83 94 0
95 107 0
99 110 0
136 141 0
110 120 0
112 123 0
132 144 0
121 137 0
73 72 0
103 113 0
152 168 0
118 127 0
133 141 0
132 149 0
142 159 0
103 115 0
126 136 0
150 159 0
112 129 0
108 111 0
131 141 0
140 150 0
106 118 0
121 131 0
114 125 0
82 96 0
146 162 0
128 132 0
130 136 0
144 155 0
156 168 0
146 148 0
116 116 0
152 161 0
113 117 0
127 127 0
104 115 0
107 112 0
88 95 0
149 150 0
110 104 0
112 120 0
115 123 0
127 136 0
129 134 0
120 121 0
114 108 0
124 113 0
112 107 1
104 88 7
90 75 0
99 73 2
115 93 7
109 90 3
113 86 1
119 109 7
118 94 17
121 106 16
122 109 7
113 91 7
105 84 10
131 111 16
101 90 0
148 135 7
125 107 0
130 122 0
94 75 7
134 122 16
124 115 0
120 99 3
114 96 7
113 98 1
100 98 0
107 98 0
124 116 1
111 99 0
123 112 7
117 101 0
126 118 0
80 68 0
138 130 7
123 112 0
132 122 3
125 116 0
132 123 1
150 133 22
142 126 0
141 131 0
125 115 16
117 111 0
111 103 2
136 125 0
121 115 0
127 114 16
130 118 0
123 114 0
105 95 36
145 136 0
126 111 0
119 107 0
140 137 0
133 115 36
142 128 16
130 112 36
133 118 0
148 131 36
131 123 36
143 129 0
111 97 0
138 126 36
134 125 36
136 128 0
150 138 62
137 133 0
141 127 7
139 132 0
140 128 0
141 134 36
148 140 36
151 140 36
147 138 0
155 149 36
153 136 63
147 131 39
142 129 36
156 143 51
133 120 0
133 122 36
146 134 62
147 138 39
150 140 36
148 135 4
140 137 0
137 125 36
143 136 36
148 139 51
161 154 51
157 146 64
144 133 36
136 127 36
141 134 36
135 124 0
148 138 7
138 129 51
158 145 62
123 108 51
152 143 16
140 130 0
113 100 3
130 120 0
153 139 64
131 119 23
145 134 53
145 133 51
146 133 36
156 146 62
136 121 36
134 120 51
157 144 36
153 135 39
167 148 75
162 143 66
116 99 36
137 129 36
149 169 0
150 171 0
155 175 0
153 171 0
152 168 0
155 173 0
148 167 0
151 170 0
147 166 0
153 170 0
155 171 0
157 176 0
147 165 0
151 171 0
143 164 0
151 170 0
156 175 0
147 164 0
137 152 0
143 159 0
147 165 0
134 153 0
141 161 0
146 165 0
147 164 0
145 164 0
150 170 0
152 172 0
148 166 0
144 163 0
144 161 0
136 156 0
150 169 0
144 165 0
144 164 0
149 170 0
140 160 0
151 172 0
143 161 0
152 168 0
151 169 0
128 145 0
147 164 0
136 155 0
143 163 0
119 137 0
133 152 0
137 156 0
151 170 0
137 154 0
139 156 0
130 146 0
137 157 0
139 157 0
136 154 0
135 155 0
156 173 0
142 160 0
149 167 0
122 140 0
139 157 0
122 136 0
139 156 0
149 166 0
146 164 0
143 159 0
149 165 0
137 154 0
130 149 0
144 162 0
139 158 0
147 164 0
133 150 0
134 148 0
128 143 0
139 153 0
140 155 0
141 159 0
157 174 0
142 159 0
141 155 0
146 164 0
126 141 0
154 172 0
116 134 0
111 128 0
138 156 0
141 159 0
138 155 0
133 149 0
135 154 0
117 131 0
141 157 0
135 151 0
127 143 0
133 152 0
126 140 0
127 144 0
113 129 0
95 112 0
124 138 0
108 119 0
119 134 0
118 133 0
114 129 0
128 141 0
106 120 0
86 99 0
98 110 0
86 97 0
100 113 0
117 133 0
93 107 58
132 144 0
123 135 0
116 128 0
96 109 0
114 126 0
98 109 0
149 163 0
106 119 0
138 154 0
111 124 0
109 124 0
138 157 0
126 141 0
81 93 0
120 135 0
126 145 0
107 122 0
120 135 0
119 135 0
118 133 0
135 149 0
133 151 0
114 129 0
121 137 0
114 132 0
143 162 0
107 119 0
134 153 0
112 131 0
134 150 0
134 153 0
128 146 0
116 134 0
160 178 0
97 111 0
80 98 0
87 102 0
117 133 0
138 154 0
111 124 0
145 163 0
114 132 0
169 191 0
139 155 0
88 104 0
118 137 0
112 132 0
126 146 0
77 93 0
106 121 0
113 130 0
116 133 0
98 115 0
130 146 0
64 81 0
117 128 0
49 68 0
115 133 0
115 133 0
117 133 0
57 76 0
69 74 0
126 141 0
88 106 0
82 96 0
45 54 0
66 79 0
100 115 0
88 99 0
68 83 0
95 105 0
66 80 0
27 42 0
48 62 57
28 48 0
70 88 80
27 44 0
44 71 80
50 80 80
40 62 80
44 70 57
44 72 0
46 72 99
33 55 0
45 72 99
38 61 0
46 74 57
48 77 0
34 56 0
43 69 57
43 69 57
59 89 114
35 57 57
53 82 99
49 76 57
40 66 0
46 73 57
48 74 114
63 75 57
39 62 57
31 49 0
87 99 0
65 76 0
65 78 0
23 39 0
70 86 0
88 101 0
84 98 0
96 108 0
120 122 0
71 77 0
67 84 0
101 117 0
57 66 0
63 71 0
27 44 0
93 102 0
109 117 0
107 122 0
101 110 0
101 104 0
69 72 0
147 162 0
26 38 0
121 126 0
97 104 0
139 157 0
70 79 0
138 153 0
120 137 0
127 136 0
146 162 0
109 115 0
117 126 0
115 133 0
110 118 0
141 152 0
120 129 0
119 135 0
117 118 0
133 142 0
140 154 0
64 69 0
110 120 0
131 140 0
130 134 0
122 131 0
119 126 0
111 120 0
127 136 0
151 161 0
107 108 0
109 121 0
136 146 0
100 98 0
102 102 0
111 112 0
121 127 0
130 135 0
146 165 0
133 138 0
121 114 0
120 120 0
141 145 0
104 105 0
93 92 0
116 119 0
120 117 0
113 103 0
113 101 0
112 90 0
113 112 0
100 81 0
91 68 0
125 92 37
80 46 3
104 94 0
120 102 7
112 93 7
112 96 7
59 38 0
105 80 7
107 96 0
123 118 7
116 107 0
111 89 0
85 75 0
116 96 1
113 97 3
109 96 0
123 115 0
112 88 8
124 120 0
136 117 0
121 109 1
107 93 7
120 106 0
104 86 0
88 72 0
131 112 0
123 109 16
132 111 3
123 108 0
132 120 16
103 91 36
125 120 0
141 126 0
125 100 16
111 102 0
123 111 10
126 115 16
122 113 0
127 112 0
117 105 3
134 127 7
123 110 3
128 111 7
111 101 0
143 128 1
141 130 7
142 135 0
143 128 0
136 126 0
128 107 16
123 113 0
123 102 0
152 145 36
139 122 7
126 111 7
112 100 36
142 126 16
142 136 36
141 132 36
145 135 36
118 101 3
155 141 39
125 112 3
161 154 51
130 115 7
148 143 36
138 125 0
132 113 7
143 131 36
128 114 0
123 107 0
136 119 3
136 120 7
149 137 16
138 123 0
139 121 7
137 126 0
158 143 62
138 121 1
128 114 0
139 131 36
146 135 36
146 137 36
131 111 36
133 122 51
145 129 36
134 120 0
137 118 39
115 102 0
151 138 36
159 151 64
161 149 64
151 132 52
150 144 51
115 99 0
156 139 53
139 126 7
120 97 17
126 109 3
143 126 1
158 143 36
144 129 39
145 123 39
139 123 23
145 132 7
146 134 36
160 149 64
140 125 39
153 146 64
135 109 17
133 120 36
146 127 37
133 122 51
140 157 0
140 160 0
149 171 0
148 168 0
153 174 0
153 172 0
154 174 0
135 156 0
146 165 0
151 171 0
148 166 0
145 163 0
145 165 0
142 160 0
145 163 0
142 163 0
149 169 0
142 162 0
137 154 0
141 160 0
151 168 0
150 171 0
155 176 0
152 171 0
154 174 0
152 171 0
143 163 0
149 165 0
146 164 0
146 166 0
145 162 0
144 161 0
154 176 0
153 170 0
147 167 0
153 172 0
143 161 0
153 170 0
149 163 0
139 157 0
142 160 0
152 170 0
141 159 0
153 173 0
145 163 0
139 158 0
140 158 0
137 154 0
123 140 0
145 163 0
140 158 0
127 143 0
140 161 0
138 155 0
144 162 0
140 158 0
133 151 0
120 136 0
134 152 0
151 170 0
142 159 0
153 172 0
142 158 0
148 167 0
136 153 0
143 161 0
139 158 0
130 149 0
128 143 0
133 151 0
123 139 0
137 156 0
129 146 0
152 169 0
123 140 0
135 152 0
134 150 0
130 143 0
144 162 0
131 144 0
126 141 0
136 156 0
122 137 0
131 146 0
112 124 0
122 138 0
129 144 0
144 159 0
139 153 0
130 147 0
136 153 0
116 132 0
113 128 0
122 135 0
105 118 0
109 120 0
102 119 0
80 91 0
108 122 0
110 123 0
123 135 0
125 139 0
137 153 0
102 117 0
122 136 37
118 132 0
64 74 0
96 109 0
116 128 0
86 99 0
100 110 58
69 78 0
121 130 0
89 100 0
117 130 0
82 95 0
117 130 0
139 153 0
109 119 0
109 124 0
94 105 0
106 120 0
89 100 0
91 107 0
117 131 0
115 130 0
129 145 0
117 134 0
141 156 0
100 115 0
118 135 0
110 121 0
116 134 0
122 137 0
125 144 0
110 127 0
129 150 0
116 133 0
74 86 0
135 153 0
134 152 0
128 149 0
95 110 0
133 150 0
115 129 0
107 125 0
110 130 0
113 131 0
104 121 0
155 172 0
124 144 0
123 139 0
84 104 0
72 90 0
76 92 0
120 137 0
115 131 0
96 114 0
125 144 0
118 137 0
109 128 0
140 160 0
107 121 0
133 150 0
103 117 0
117 132 0
93 108 0
21 36 0
63 82 0
110 125 0
107 121 0
84 99 0
115 131 0
96 110 0
101 114 0
74 85 0
60 73 0
132 149 0
18 31 0
62 74 0
102 114 0
68 84 0
18 30 0
75 86 0
90 102 0
72 82 0
91 102 0
62 76 0
74 88 0
59 65 0
37 41 0
66 77 0
38 61 57
68 81 0
52 64 0
33 54 0
15 27 0
40 64 57
28 46 57
34 55 57
49 78 80
42 67 57
38 62 0
49 75 57
32 50 0
23 37 0
29 45 0
25 43 0
77 88 0
25 36 0
58 65 0
52 64 0
61 67 0
104 112 0
57 70 0
62 70 0
82 88 0
73 79 0
59 68 0
63 68 0
85 100 0
95 107 0
85 98 0
120 127 0
48 58 0
102 117 0
92 107 0
95 106 0
77 88 0
33 51 0
120 133 0
130 144 0
84 94 0
114 123 0
109 114 0
73 81 0
110 121 0
120 131 0
92 103 0
120 129 0
97 105 0
128 142 0
102 120 0
94 107 0
109 109 0
104 115 0
112 122 0
135 152 0
119 121 0
144 153 0
113 123 0
106 117 0
127 135 0
128 143 0
135 137 0
116 129 0
103 118 0
99 105 0
156 169 0
105 111 0
129 138 0
108 124 0
114 119 0
123 129 0
146 158 0
130 135 0
88 93 0
107 120 0
111 113 0
118 125 0
118 127 0
136 146 0
130 130 0
127 126 0
136 142 0
117 120 0
124 119 0
121 131 0
111 114 0
122 126 0
115 106 0
121 106 0
121 121 0
90 83 0
100 87 0
115 110 0
130 122 0
109 104 0
99 74 3
123 99 39
88 66 7
103 81 1
88 74 7
130 109 16
117 92 7
113 102 16
109 89 0
98 78 1
118 109 0
86 68 3
139 121 17
109 107 0
124 93 18
102 92 7
123 113 7
121 100 7
120 107 1
109 93 0
127 109 7
96 82 0
120 106 3
121 102 16
127 110 0
130 112 3
112 108 0
125 111 0
134 115 3
116 97 3
117 101 7
96 74 1
108 97 0
141 133 7
134 125 1
132 111 3
131 117 0
125 121 0
141 131 0
145 138 0
137 125 36
133 122 0
144 127 16
137 131 0
132 118 39
149 140 7
139 130 0
122 102 3
118 104 1
138 123 1
108 95 0
143 126 0
130 116 16
146 130 53
127 109 36
128 114 0
131 118 7
156 148 0
126 113 0
147 133 36
123 110 7
134 118 0
124 108 0
123 107 1
148 131 16
138 119 36
158 146 40
142 129 1
134 120 51
146 129 36
137 122 1
133 116 0
130 114 7
133 115 7
135 127 16
137 123 3
153 137 51
144 128 51
130 116 0
143 130 51
148 138 39
129 117 36
150 135 51
155 150 0
149 138 39
142 132 36
134 124 0
143 131 51
140 131 36
145 134 39
161 147 39
117 99 3
152 135 36
127 109 3
134 126 0
150 137 39
126 116 0
139 118 36
146 138 36
154 147 36
160 145 64
139 123 63
147 132 51
144 132 36
153 141 64
142 135 36
137 111 40
143 127 37
140 124 39
124 99 36
149 137 51
135 121 39
142 161 0
142 158 0
152 171 0
154 173 0
150 169 0
162 179 0
156 176 0
153 170 0
147 166 0
146 168 0
146 163 0
146 166 0
149 168 0
136 155 0
150 167 0
144 162 0
147 167 0
145 165 0
138 156 0
147 164 0
155 174 0
153 173 0
144 162 0
151 170 0
137 156 0
137 154 0
150 172 0
150 168 0
145 163 0
146 163 0
153 169 0
146 163 0
148 168 0
136 154 0
154 174 0
151 172 0
154 173 0
150 167 0
134 150 0
161 180 0
144 165 0
147 166 0
139 155 0
143 159 0
152 168 0
155 172 0
146 164 0
145 162 0
145 164 0
147 165 0
128 145 0
150 167 0
133 146 0
135 152 0
151 166 0
141 160 0
140 157 0
143 161 0
155 173 0
143 162 0
144 164 0
140 159 0
134 150 0
144 160 0
145 160 0
148 165 0
132 148 0
151 167 0
127 143 0
131 145 0
127 143 0
125 141 0
135 152 0
142 160 0
133 151 0
141 160 0
118 131 0
126 138 0
136 151 0
119 133 0
129 143 0
141 158 0
128 144 0
129 145 0
144 162 0
125 140 0
137 153 0
130 146 0
101 118 0
112 127 0
137 152 0
129 142 0
112 126 0
117 134 0
129 142 0
121 136 0
123 134 0
133 147 0
132 146 0
127 143 0
103 114 0
91 103 0
97 106 0
108 121 0
99 113 0
103 114 0
73 86 58
95 107 23
103 112 51
75 85 33
92 102 0
136 148 0
118 132 0
129 142 0
102 114 0
122 138 0
103 118 0
125 141 0
94 106 0
97 112 0
121 135 0
135 150 0
126 139 0
128 143 0
130 145 0
128 143 0
138 153 0
126 142 0
126 139 0
83 97 0
128 143 0
135 150 0
134 153 0
100 115 0
118 129 0
137 152 0
106 120 0
147 163 0
152 169 0
97 113 0
113 129 0
113 130 0
135 153 0
102 119 0
110 126 0
140 155 0
109 125 0
110 127 0
81 102 0
125 141 0
125 140 0
101 117 0
113 132 0
127 145 0
91 107 0
103 122 0
87 104 0
94 109 0
87 104 0
123 139 0
123 144 0
135 153 0
122 143 0
112 128 0
63 82 0
52 67 0
120 136 0
92 106 0
76 93 0
68 87 0
116 131 0
133 149 0
70 90 0
102 113 0
103 120 0
91 105 0
63 73 0
48 64 0
76 91 0
66 80 0
61 71 0
62 75 0
64 73 0
21 34 0
85 100 0
95 111 0
24 39 0
88 100 0
87 98 0
64 74 0
82 87 0
16 26 0
61 69 0
87 96 0
5 14 0
24 39 0
60 65 0
61 66 0
17 28 0
23 36 0
29 45 0
2 7 0
58 66 0
18 28 0
58 66 0
19 29 0
26 41 0
63 72 0
62 69 0
60 68 0
62 68 0
59 67 0
59 70 0
98 103 0
89 104 0
30 47 0
63 77 0
62 72 0
51 63 0
77 90 0
86 101 0
93 100 0
79 92 0
55 67 0
64 77 0
71 80 0
33 53 0
69 84 0
118 130 0
89 95 0
50 58 0
102 113 0
137 154 0
111 122 0
98 115 0
144 160 0
87 99 0
127 135 0
114 124 0
95 106 0
126 145 0
104 108 0
108 120 0
129 143 0
118 126 0
99 114 0
104 116 0
102 110 0
111 112 0
131 145 0
114 126 0
111 119 0
113 124 0
104 115 0
76 75 0
115 112 0
110 95 0
106 118 0
107 115 0
127 132 0
85 88 0
128 140 0
113 114 0
137 154 0
121 131 0
133 144 0
129 140 0
132 138 0
104 102 0
116 117 0
103 102 0
119 124 0
110 105 0
117 115 0
85 82 0
128 137 0
147 150 0
114 119 0
126 123 0
83 72 0
120 117 0
118 121 0
125 124 0
133 128 0
92 92 0
102 83 0
125 125 0
119 113 0
86 68 0
109 91 0
113 95 16
127 110 16
103 76 16
127 104 17
93 72 0
102 88 7
94 71 0
99 87 3
120 102 10
121 103 0
121 111 0
124 101 27
107 79 10
123 94 8
122 106 7
136 126 0
126 94 7
110 94 3
135 111 7
98 80 3
100 82 0
117 102 0
126 114 7
132 120 22
74 55 3
122 103 7
138 115 18
136 126 0
127 113 0
138 124 0
125 111 0
112 105 0
139 129 0
111 92 7
132 115 7
120 99 18
138 125 0
158 147 36
131 122 0
133 123 3
122 107 7
134 122 16
136 125 16
139 123 16
141 129 0
137 132 0
116 107 0
137 124 3
137 123 22
108 94 0
142 136 0
133 123 36
147 134 51
141 128 7
133 121 0
140 129 7
121 104 3
129 113 0
126 113 7
117 106 0
146 132 0
130 112 16
138 133 36
139 121 7
130 122 0
148 126 36
140 130 51
129 123 0
133 124 0
128 115 0
135 124 0
125 108 7
150 138 62
148 135 51
115 102 1
118 106 1
151 139 51
144 132 36
126 106 36
136 124 3
165 155 62
133 114 36
136 124 16
130 113 7
115 98 3
127 115 0
149 137 51
141 128 51
149 139 36
124 114 0
143 126 16
141 134 36
128 114 3
144 132 36
140 127 36
167 157 62
149 135 36
158 149 72
140 120 23
141 116 39
130 120 22
139 123 36
159 144 42
149 137 36
146 130 16
146 136 36
129 119 36
148 131 42
166 155 66
151 135 63
143 159 21
147 169 0
149 167 0
147 169 0
132 151 0
147 164 0
138 154 0
150 167 0
150 169 0
146 166 0
148 168 0
153 171 0
158 178 0
153 172 0
140 156 0
153 172 0
136 153 0
158 176 0
158 176 0
140 157 0
155 176 0
155 174 0
146 162 0
160 177 0
144 164 0
145 163 0
146 166 0
152 170 0
153 172 0
143 162 0
147 167 0
157 176 0
154 172 0
151 174 0
151 170 0
144 161 0
135 151 0
130 149 0
128 146 0
140 159 0
153 174 0
136 154 0
131 149 0
154 171 0
143 164 0
117 134 0
153 170 0
152 169 0
149 166 0
138 154 0
145 163 0
135 151 0
144 164 0
137 154 0
151 170 0
125 143 0
145 164 0
140 156 0
139 155 0
155 176 0
148 165 0
131 146 0
147 165 0
121 140 0
123 139 0
129 145 0
135 153 0
133 149 0
136 153 0
126 142 0
118 132 0
130 146 0
148 167 0
139 156 0
134 150 0
130 145 0
137 154 0
128 146 0
136 152 0
108 124 0
150 166 0
121 137 0
123 140 0
135 152 0
123 137 0
137 152 0
145 163 0
113 127 0
118 132 0
109 121 0
117 132 0
128 140 0
134 148 0
121 134 0
130 146 0
106 121 0
79 90 0
102 117 0
111 127 0
81 90 0
103 115 0
85 98 0
106 119 0
98 112 0
111 126 0
97 107 15
76 85 37
109 121 0
98 110 0
101 111 0
105 116 0
116 129 0
107 117 0
119 131 0
125 137 0
117 128 0
120 136 0
125 138 0
91 107 0
121 136 0
94 107 0
119 134 0
110 122 0
106 120 0
127 142 0
128 144 0
89 104 0
124 143 0
132 146 0
90 104 0
115 133 0
100 113 0
135 150 0
97 113 0
110 127 0
153 172 0
147 166 0
158 176 0
134 150 0
120 136 0
84 98 0
122 136 0
125 140 0
127 145 0
127 145 0
119 137 0
119 136 0
139 157 0
129 148 0
143 162 0
125 144 0
97 116 0
114 130 0
113 132 0
114 126 0
107 126 0
90 108 0
124 144 0
86 102 0
110 129 0
125 140 0
117 135 0
124 143 0
144 160 0
102 115 0
104 123 0
97 111 0
97 115 0
93 108 0
98 114 0
100 120 0
93 102 0
89 109 0
103 123 0
81 100 0
115 133 0
114 131 0
117 133 0
80 94 0
54 67 0
64 77 0
106 122 0
30 48 0
67 80 0
89 103 0
81 94 0
62 71 0
68 81 0
43 53 0
118 130 0
92 104 0
77 88 0
64 78 0
35 53 0
73 83 0
75 85 0
63 71 0
75 86 0
86 99 0
15 24 0
6 14 0
3 9 0
58 65 0
57 64 0
85 98 0
61 72 0
101 109 0
68 81 0
68 81 0
25 39 0
72 80 0
62 73 0
66 77 0
61 73 0
49 51 0
104 115 0
68 83 0
43 66 0
79 83 0
76 81 0
118 135 0
105 120 0
82 90 0
94 103 0
106 110 0
64 81 0
97 108 0
112 122 0
107 124 0
86 94 0
92 99 0
107 123 0
90 101 0
120 131 0
119 136 0
140 157 0
104 118 0
92 103 0
161 176 0
112 127 0
68 79 0
108 100 0
105 121 0
118 128 0
99 111 0
121 123 0
104 120 0
126 138 0
118 130 0
117 124 0
120 133 0
118 128 0
115 121 0
104 102 0
133 140 0
104 117 0
122 131 0
131 131 0
100 110 0
113 120 0
82 92 0
88 97 0
139 147 0
97 95 0
123 136 0
113 118 0
116 114 0
102 108 0
124 120 0
104 109 0
118 120 0
140 151 0
123 121 0
93 95 0
145 152 0
93 88 0
111 113 0
116 115 0
106 96 0
114 114 0
115 114 0
112 106 0
100 92 0
119 116 0
101 95 0
120 112 0
102 93 0
103 83 0
101 95 0
102 100 0
82 71 0
106 93 0
106 90 7
112 92 10
116 105 3
82 60 0
103 70 10
112 89 0
111 90 0
114 95 16
106 85 16
105 100 0
124 97 10
114 92 7
111 86 3
130 113 16
116 91 1
120 108 3
116 103 0
121 90 4
115 106 0
133 131 0
124 106 36
119 103 0
138 127 3
118 96 0
120 110 0
124 108 16
129 108 0
121 100 0
115 103 0
115 109 0
136 115 16
120 107 3
131 123 0
123 106 0
111 86 7
122 106 0
97 74 0
119 94 22
122 112 1
129 116 0
131 111 16
142 129 0
127 121 0
126 107 3
108 97 36
137 125 10
130 113 16
143 133 36
142 127 0
141 125 7
142 134 16
126 114 7
124 106 3
128 121 0
132 118 39
151 136 36
153 142 39
127 116 0
153 135 36
127 111 16
135 118 1
140 124 7
146 128 36
116 101 0
116 105 0
138 122 7
146 136 36
152 138 42
144 137 36
155 145 0
132 121 16
141 126 39
144 129 36
130 116 36
141 129 16
149 142 0
142 126 17
163 154 51
128 115 7
133 123 36
129 112 22
149 143 36
131 127 0
149 131 24
142 123 23
161 152 51
154 132 51
147 128 39
165 152 52
133 120 0
148 133 0
118 107 36
138 123 17
139 124 51
126 108 16
155 139 40
138 120 17
148 135 36
117 95 10
142 128 51
112 88 17
147 129 51
135 124 0
159 145 51
151 134 42
148 129 44
147 126 39
150 131 56
140 159 0
148 167 0
140 156 57
136 155 29
143 162 1
155 175 0
147 164 0
155 176 0
147 164 0
137 156 0
157 176 0
151 169 0
145 164 0
153 172 0
140 159 0
154 171 0
146 165 0
147 166 0
140 159 0
148 169 0
148 169 0
151 169 0
144 161 0
143 161 0
142 158 0
144 161 0
154 171 0
143 161 0
143 161 0
139 160 0
150 168 0
157 175 0
155 174 0
143 159 0
137 152 0
138 157 0
140 157 0
153 175 0
144 161 0
147 163 0
147 165 0
144 163 0
143 161 0
150 167 0
139 155 0
152 170 0
130 149 0
142 158 0
147 163 0
142 159 0
150 168 0
141 161 0
135 154 0
140 155 0
133 148 0
127 146 0
144 161 0
146 165 0
125 142 0
141 158 0
146 163 0
140 155 0
125 141 0
130 147 0
140 158 0
129 144 0
147 163 0
137 153 0
114 128 0
129 147 0
147 164 0
97 109 0
142 161 0
127 142 0
147 166 0
117 130 0
135 148 0
127 141 0
130 145 0
120 138 0
118 132 0
124 137 0
129 142 0
118 132 0
118 129 0
126 142 0
136 152 0
125 140 0
118 132 0
132 148 0
122 136 0
123 137 0
123 138 0
130 143 0
114 128 0
106 118 0
119 132 0
104 116 0
94 106 0
107 118 0
100 113 0
94 105 0
125 137 0
99 110 41
95 106 2
106 115 0
89 98 0
84 91 0
92 102 0
102 114 0
137 149 0
108 120 0
111 123 0
108 123 0
107 117 0
143 158 0
96 107 0
113 126 0
91 102 0
119 133 0
118 132 0
110 123 0
163 179 0
138 153 0
138 153 0
126 142 0
167 184 0
117 134 0
94 110 0
130 145 0
115 133 0
135 152 0
119 136 0
135 150 0
121 138 0
114 130 0
131 148 0
142 158 0
113 128 0
151 171 0
114 130 0
72 86 0
116 131 0
136 158 0
103 121 0
125 141 0
127 146 0
153 172 0
123 138 0
111 129 0
88 104 0
92 110 0
145 164 0
118 136 0
137 161 0
150 170 0
156 174 0
123 137 0
118 132 0
93 113 0
137 156 0
82 100 0
134 151 0
84 104 0
93 110 0
92 108 0
124 141 0
124 141 0
110 126 0
105 121 0
90 108 0
43 69 0
55 72 0
103 120 0
115 132 0
107 120 0
108 125 0
141 159 0
84 99 0
59 74 0
102 117 0
107 121 0
85 99 0
110 124 0
77 88 0
59 67 0
90 106 0
25 40 0
86 99 0
63 75 0
22 35 0
63 75 0
118 131 0
51 59 0
87 97 0
78 91 0
27 41 0
12 20 0
84 98 0
28 38 0
59 66 0
63 74 0
52 64 0
65 69 0
67 77 0
105 118 0
88 101 0
101 116 0
7 16 0
62 70 0
89 104 0
24 41 0
101 111 0
31 49 0
66 80 0
124 137 0
88 104 0
65 81 0
72 83 0
32 49 0
91 110 0
74 88 0
61 73 0
25 39 0
101 115 0
99 110 0
37 56 0
121 136 0
81 96 0
64 73 0
81 94 0
113 128 0
85 95 0
61 72 0
124 136 0
71 76 0
89 102 0
92 107 0
110 108 0
138 149 0
111 125 0
109 122 0
88 96 0
106 114 0
106 125 0
136 155 0
120 125 0
109 111 0
88 98 0
71 82 0
104 119 0
100 113 0
118 138 0
146 160 0
86 99 0
78 75 0
153 167 0
122 127 0
141 160 0
154 163 0
113 122 0
104 112 0
140 142 0
128 134 0
126 137 0
123 136 0
104 105 0
139 149 0
112 120 0
137 141 0
112 115 0
148 153 0
93 83 0
113 109 0
124 121 0
104 112 0
131 123 0
108 108 0
115 104 0
91 86 0
127 123 0
108 107 0
114 113 0
113 103 0
103 91 0
98 93 0
96 90 0
93 81 0
95 81 0
98 100 0
87 78 0
94 99 0
79 62 0
88 59 0
64 42 0
114 92 7
116 95 16
127 100 7
103 80 7
116 94 3
92 68 0
110 93 1
98 73 2
107 87 3
126 113 16
115 92 4
114 93 2
120 106 0
125 108 0
104 92 0
102 80 16
120 104 0
117 98 3
122 106 0
143 133 0
135 122 1
120 109 16
134 119 0
118 104 0
102 87 7
122 103 0
127 111 7
119 100 0
140 124 0
124 111 7
120 108 3
128 112 10
130 112 1
138 125 0
126 108 2
153 144 0
136 116 1
126 105 16
135 123 7
134 122 7
124 112 0
109 91 3
117 101 1
152 140 0
140 129 36
145 129 53
117 100 0
113 93 3
116 100 0
124 106 0
140 128 1
145 129 39
127 113 1
105 90 0
147 137 0
134 119 1
138 126 16
152 140 51
130 124 1
142 126 36
139 130 0
150 140 0
131 110 37
139 133 7
133 121 7
141 132 39
115 95 3
161 154 51
149 139 39
143 125 36
140 127 3
156 142 51
110 98 0
148 135 51
132 117 16
135 118 51
112 92 6
144 130 36
136 119 16
137 117 36
144 133 22
155 141 40
163 153 62
121 105 17
142 125 36
118 101 36
152 143 36
130 113 17
140 123 22
134 115 39
137 114 36
146 136 51
156 145 36
139 130 7
128 112 39
137 125 39
150 139 51
143 124 40
121 101 36
156 139 67
132 110 19
157 148 39
153 142 36
137 117 42
151 136 64
140 155 33
138 152 72
141 158 0
145 161 77
139 155 41
136 154 26
147 166 2
126 144 29
140 157 2
148 169 0
147 166 0
151 169 0
149 168 0
138 158 0
155 175 0
149 170 0
145 165 0
153 174 0
149 168 0
151 169 0
155 175 0
151 169 0
137 156 0
146 163 0
138 155 0
153 172 0
135 151 0
140 158 0
150 169 0
148 166 0
155 173 0
145 164 0
151 170 0
143 160 0
138 154 0
153 174 0
147 165 0
141 159 0
150 167 0
141 159 0
141 158 0
147 168 0
146 164 0
158 175 0
111 128 0
152 169 0
145 161 0
127 142 0
132 149 0
117 134 0
133 150 0
147 165 0
142 156 0
135 153 0
140 160 0
148 164 0
149 167 0
139 157 0
136 152 0
126 142 0
138 155 0
141 155 0
136 154 0
112 125 0
134 150 0
104 117 0
141 158 0
137 151 0
140 157 0
149 167 0
128 142 0
137 155 0
137 151 0
134 150 0
111 122 0
131 144 0
136 154 0
145 161 0
130 145 0
134 150 0
137 152 0
100 114 0
122 137 0
110 124 0
116 131 0
113 126 0
116 131 0
124 138 0
95 105 0
93 109 0
100 115 0
124 139 0
108 125 0
91 106 0
109 121 0
88 100 0
117 129 0
78 88 46
106 116 0
108 120 0
62 71 47
82 91 55
85 94 0
90 100 0
108 117 0
121 133 0
94 103 0
68 76 0
95 105 0
95 106 0
101 116 0
120 131 0
99 110 0
91 103 0
113 128 0
110 127 0
122 134 0
104 119 0
109 120 0
107 121 0
97 110 0
93 108 0
117 132 0
101 113 0
111 128 0
130 143 0
114 134 0
108 123 0
125 138 0
120 135 0
106 123 0
119 136 0
122 139 0
141 154 0
84 103 0
117 136 0
120 138 0
123 141 0
118 136 0
134 155 0
98 116 0
97 110 0
113 130 0
179 196 0
127 143 0
119 137 0
127 143 0
129 148 0
148 169 0
141 156 0
94 108 0
88 105 0
98 114 0
123 135 0
125 142 0
100 120 0
119 134 0
95 109 0
116 133 0
68 91 0
117 135 0
94 112 0
105 121 0
64 81 0
116 133 0
115 134 0
118 135 0
125 142 0
85 102 0
72 93 0
117 135 0
66 79 0
101 114 0
65 77 0
105 119 0
61 74 0
126 144 0
75 91 0
126 145 0
100 114 0
91 104 0
64 74 0
93 107 0
19 32 0
87 102 0
65 79 0
62 74 0
84 99 0
54 65 0
118 134 0
77 87 0
74 87 0
85 100 0
84 95 0
69 82 0
65 81 0
61 74 0
30 48 0
66 82 0
65 76 0
118 131 0
65 80 0
66 80 0
90 106 0
83 94 0
85 98 0
67 82 0
88 97 0
110 123 0
103 116 0
33 52 0
53 65 0
64 74 0
128 139 0
59 69 0
117 134 0
99 113 0
34 53 0
83 99 0
86 93 0
103 114 0
96 115 0
130 139 0
126 133 0
112 127 0
104 121 0
116 130 0
87 98 0
96 110 0
104 113 0
96 103 0
117 131 0
119 132 0
83 97 0
89 97 0
104 122 0
57 70 0
100 118 0
88 91 0
131 138 0
98 109 0
119 134 0
126 136 0
132 138 0
118 134 0
113 127 0
125 136 0
108 115 0
93 88 0
130 148 0
150 169 0
139 144 0
154 168 0
131 137 0
87 92 0
134 151 0
118 122 0
134 146 0
114 123 0
135 144 0
85 96 0
123 137 0
98 105 0
161 171 0
97 95 0
129 140 0
134 145 0
106 104 0
145 150 0
150 161 0
128 138 0
107 111 0
153 161 0
124 126 0
126 131 0
92 87 0
127 129 0
110 109 0
122 131 0
105 102 0
111 114 0
104 97 0
107 91 0
108 105 0
94 89 0
129 132 0
90 75 0
94 88 0
96 80 0
104 95 0
135 124 0
87 83 0
135 140 0
104 95 0
101 88 0
86 85 0
138 126 0
100 77 0
123 103 3
129 98 23
124 95 8
102 83 10
119 90 18
104 80 7
83 64 0
102 76 7
117 91 7
112 87 4
117 93 17
120 104 0
73 50 0
97 77 0
120 94 17
108 90 0
119 101 3
99 77 16
117 99 17
120 100 7
116 104 0
109 90 7
77 69 0
127 108 3
113 95 0
141 131 0
100 72 1
113 90 2
130 114 7
130 118 0
121 106 16
122 95 7
131 111 16
113 95 5
134 121 0
128 111 7
110 94 10
129 114 16
126 115 0
133 122 0
132 117 3
135 124 3
107 91 0
143 123 10
133 115 1
131 122 0
131 119 0
135 120 36
135 116 3
138 122 7
145 135 36
130 122 0
130 114 36
130 115 36
137 132 0
145 136 36
127 107 0
149 133 36
141 133 36
120 103 7
127 105 16
132 112 36
142 122 39
126 117 16
136 126 0
127 117 0
130 113 3
131 116 0
165 150 53
125 111 16
131 114 7
130 112 7
145 132 0
102 76 1
144 131 51
141 129 36
153 146 36
141 123 16
125 110 10
136 128 36
152 130 37
147 137 16
151 142 51
139 121 3
144 128 7
135 119 16
116 100 16
163 153 39
129 112 40
151 145 36
140 123 17
132 109 36
157 148 53
144 130 62
138 122 54
109 95 1
133 115 1
131 115 1
163 148 63
156 146 53
137 118 51
153 130 42
134 152 47
151 171 64
138 155 74
127 142 26
147 164 23
142 162 65
137 153 41
141 160 0
146 164 51
147 166 0
148 167 0
139 155 0
137 155 0
121 138 0
154 172 0
144 162 0
147 165 0
156 175 0
154 172 0
133 149 0
152 172 0
141 159 0
142 160 0
149 168 0
132 150 0
144 160 0
151 168 0
139 156 0
139 156 0
129 145 0
142 159 0
145 163 0
148 164 0
146 165 0
144 162 0
137 153 0
140 157 0
141 160 0
141 158 0
143 161 0
149 170 0
145 165 0
128 145 0
151 166 0
134 149 0
143 158 0
133 148 0
143 161 0
136 153 0
141 158 0
146 164 0
153 172 0
138 155 0
130 148 0
138 154 0
130 147 0
148 164 0
137 150 0
150 168 0
144 158 0
137 152 0
136 151 0
134 149 0
136 153 0
146 160 0
122 137 0
121 139 0
140 154 0
145 160 0
111 125 0
119 134 0
142 159 0
119 132 0
139 153 0
117 132 0
138 151 0
119 134 0
120 134 0
120 131 0
126 142 0
124 141 0
104 116 0
128 144 0
130 146 0
120 135 0
132 147 0
136 151 0
100 112 0
124 138 0
127 140 0
107 122 0
87 96 0
135 148 0
93 104 0
122 135 0
94 108 12
93 102 6
62 73 46
121 131 0
88 97 33
92 100 0
82 92 0
99 110 0
79 92 0
57 64 0
108 117 0
140 154 0
112 125 0
82 94 0
67 73 0
122 135 0
94 106 0
117 129 0
95 108 0
114 128 0
133 147 0
139 154 0
123 136 0
61 74 0
130 147 0
112 127 0
123 140 0
137 151 0
126 141 0
130 147 0
128 143 0
112 128 0
142 160 0
105 123 0
115 134 0
89 107 0
125 142 0
121 136 0
102 117 0
135 152 0
109 126 0
86 102 0
158 177 0
121 137 0
127 143 0
146 165 0
141 161 0
106 126 0
133 151 0
102 120 0
109 124 0
104 120 0
142 159 0
152 170 0
154 173 0
117 136 0
97 115 0
108 125 0
139 157 0
110 124 0
107 126 0
118 135 0
120 139 0
117 131 0
115 133 0
134 151 0
109 125 0
84 105 0
138 155 0
118 134 0
104 121 0
68 84 0
73 93 0
113 128 0
99 117 0
45 71 0
105 121 0
97 115 0
123 143 0
83 100 0
126 140 0
92 107 0
104 116 0
129 143 0
110 125 0
111 128 0
111 126 0
88 102 0
117 132 0
108 125 0
78 93 0
65 78 0
108 123 0
63 75 0
79 91 0
81 94 0
94 104 0
62 77 0
18 30 0
64 76 0
62 76 0
55 65 0
21 34 0
24 40 0
111 123 0
102 116 0
84 94 0
64 75 0
25 40 0
104 115 0
104 118 0
83 91 0
55 70 0
86 97 0
67 78 0
101 116 0
86 99 0
83 98 0
128 143 0
76 85 0
99 114 0
106 122 0
105 121 0
108 124 0
86 102 0
102 119 0
133 150 0
38 60 0
102 118 0
135 147 0
40 51 0
132 135 0
87 96 0
121 142 0
93 108 0
110 123 0
115 127 0
62 79 0
85 97 0
106 118 0
139 159 0
127 141 0
148 157 0
102 108 0
90 103 0
131 143 0
125 138 0
132 143 0
105 118 0
81 94 0
123 135 0
101 112 0
76 80 0
140 154 0
101 115 0
110 121 0
140 152 0
125 136 0
122 136 0
89 101 0
137 148 0
105 112 0
122 132 0
119 132 0
146 156 0
142 159 0
125 131 0
152 166 0
109 117 0
122 124 0
97 103 0
129 148 0
131 144 0
135 147 0
128 127 0
116 122 0
122 124 0
128 129 0
134 142 0
115 125 0
107 118 0
125 129 0
98 94 0
108 98 0
98 96 0
108 112 0
112 116 0
120 117 0
122 110 0
131 130 0
126 122 0
131 121 0
120 120 0
89 72 0
103 98 0
117 107 0
120 118 0
119 112 0
91 75 0
55 52 0
102 89 0
76 66 0
102 94 0
75 61 0
80 63 7
110 89 10
124 103 16
117 89 3
105 80 4
116 92 5
125 103 24
109 91 7
127 113 22
119 88 19
139 112 22
125 104 17
128 116 16
121 103 16
116 103 0
116 102 16
90 76 0
113 96 0
120 111 0
141 128 16
124 105 1
129 114 1
105 82 0
136 116 23
123 111 7
116 105 10
122 110 16
126 102 10
135 123 7
137 121 16
123 105 0
141 129 3
100 90 3
132 108 23
135 111 16
145 130 0
125 114 0
131 120 0
130 116 7
155 148 0
125 110 3
149 136 36
142 125 3
122 106 0
119 107 0
136 121 7
120 108 0
143 124 3
142 126 36
129 112 7
113 101 3
131 111 39
132 118 3
136 123 0
145 129 1
149 132 51
117 103 0
110 97 0
138 127 36
126 109 5
124 110 2
132 118 36
126 115 0
141 126 36
137 125 36
129 113 36
155 136 36
127 104 7
119 101 18
119 106 0
144 134 7
144 132 10
148 137 0
142 124 36
135 121 36
140 126 51
147 136 39
151 140 53
137 125 0
133 117 7
134 119 51
125 109 3
131 123 36
134 116 39
134 112 37
150 128 37
126 107 53
121 99 16
143 131 36
131 115 51
138 128 36
123 103 3
125 107 7
140 122 36
135 118 36
148 134 62
141 121 42
128 98 24
139 120 36
146 125 40
144 128 36
179 200 0
163 182 0
145 165 51
161 178 88
132 149 76
143 161 0
138 155 46
140 160 0
145 164 0
140 158 0
143 161 15
147 161 46
127 141 0
143 160 0
154 172 0
157 177 0
123 142 0
140 158 0
139 159 0
144 161 0
158 176 0
143 157 0
155 171 0
146 164 0
150 170 0
151 167 0
147 164 0
145 162 0
134 151 0
135 151 0
142 160 0
139 155 0
140 156 0
126 142 0
143 160 0
131 146 0
152 167 0
148 166 0
135 150 0
146 163 0
125 141 0
145 162 0
127 143 0
143 157 0
147 164 0
139 158 0
124 141 0
134 150 0
128 142 0
141 159 0
142 158 0
140 157 0
131 147 0
149 166 0
150 163 0
151 169 0
128 146 0
140 157 0
135 152 0
140 156 0
127 141 0
116 128 0
135 151 0
143 159 0
143 160 0
109 124 0
124 141 0
144 161 0
120 133 0
121 135 0
123 137 0
137 154 0
145 161 0
131 147 0
127 141 0
146 161 0
139 153 0
136 150 0
125 137 0
120 130 0
136 151 0
120 131 0
99 110 0
118 133 0
112 124 0
113 123 0
137 152 0
120 135 0
98 108 0
103 112 7
97 110 0
85 96 0
97 108 51
103 115 0
100 112 0
89 97 1
68 78 37
63 69 18
73 81 0
104 113 0
110 123 0
95 103 0
84 94 0
104 114 0
80 90 0
85 97 0
88 100 0
127 138 0
110 122 0
108 122 0
103 117 0
105 118 0
129 141 0
123 137 0
128 142 0
127 141 0
116 131 0
115 128 0
97 112 0
119 136 0
115 129 0
100 111 0
114 132 0
114 133 0
124 140 0
110 124 0
120 141 0
134 154 0
142 159 0
95 110 0
146 167 0
115 130 0
110 126 0
137 153 0
145 161 0
132 151 0
105 120 0
114 130 0
133 148 0
118 135 0
100 118 0
144 165 0
115 132 0
136 153 0
132 153 0
158 178 0
107 126 0
89 101 0
146 168 0
139 157 0
125 148 0
124 143 0
126 144 0
120 136 0
94 114 0
114 130 0
103 120 0
118 135 0
126 143 0
93 103 0
129 149 0
117 132 0
100 118 0
130 148 0
68 82 0
67 82 0
91 105 0
110 128 0
108 122 0
78 96 0
111 129 0
125 143 0
65 83 0
83 100 0
108 122 0
108 126 0
62 77 0
116 131 0
111 126 0
74 92 0
133 152 0
65 83 0
105 121 0
113 132 0
99 114 0
65 83 0
57 66 0
102 118 0
105 118 0
101 116 0
40 64 0
55 65 0
55 76 0
85 100 0
101 115 0
77 87 0
69 81 0
32 51 0
87 99 0
66 83 0
71 87 0
82 95 0
89 103 0
81 95 0
98 109 0
86 96 0
132 149 0
89 100 0
103 112 0
81 94 0
88 104 0
87 104 0
100 111 0
143 155 0
59 69 0
93 106 0
100 111 0
107 118 0
103 119 0
101 116 0
109 118 0
37 57 0
131 147 0
113 124 0
126 139 0
87 98 0
68 72 0
108 124 0
104 111 0
126 143 0
122 136 0
86 100 0
89 100 0
36 46 0
104 119 0
118 137 0
128 141 0
97 108 0
101 109 0
110 126 0
111 126 0
105 125 0
115 133 0
101 110 0
140 148 0
159 180 0
108 119 0
131 146 0
112 125 0
128 140 0
90 99 0
88 111 0
130 140 0
118 129 0
108 115 0
120 122 0
128 137 0
113 129 0
107 107 0
110 110 0
131 139 0
135 143 0
141 148 0
127 136 0
127 135 0
109 113 0
124 134 0
86 93 0
107 108 0
112 121 0
136 140 0
116 118 0
142 153 0
129 127 0
128 140 0
110 122 0
124 132 0
110 118 0
124 118 0
95 87 0
112 111 0
137 141 0
126 129 0
138 135 0
116 117 0
138 143 0
80 73 0
82 78 0
133 129 0
143 136 0
109 89 0
114 104 0
105 99 0
101 90 0
118 106 0
118 103 0
84 63 0
119 120 0
105 95 0
71 47 0
111 95 0
67 53 0
107 80 16
99 75 4
130 108 7
98 76 7
110 99 0
99 77 3
129 111 17
107 87 0
111 87 3
119 100 3
95 77 0
126 104 22
121 105 0
128 110 22
137 125 0
108 85 0
137 118 16
72 58 0
116 99 0
109 85 1
112 97 0
114 97 0
141 126 0
108 89 16
102 93 0
113 92 0
124 109 3
113 93 3
130 122 0
127 111 3
133 123 16
118 91 7
125 121 0
146 128 16
139 127 7
136 118 3
132 121 3
138 124 3
145 131 22
120 105 0
143 121 1
121 106 0
131 106 7
125 99 3
134 116 3
129 111 38
120 101 16
111 97 16
136 119 17
112 102 0
109 91 16
136 118 10
132 115 7
152 143 0
140 124 16
140 126 36
133 113 39
132 119 3
143 125 37
145 133 36
138 126 7
154 148 51
136 118 36
143 129 24
160 146 62
140 119 36
118 108 1
134 121 36
129 108 0
120 103 36
131 118 3
109 96 0
143 131 40
155 141 51
138 126 39
143 132 39
127 100 17
140 122 36
141 129 0
139 121 40
118 97 0
143 133 37
114 99 7
146 128 62
150 138 36
142 126 37
147 134 40
137 124 16
121 100 23
150 130 46
151 130 44
154 144 51
136 109 40
140 126 56
159 148 64
155 158 0
167 188 0
177 199 0
167 192 0
165 191 0
167 188 0
171 193 0
168 190 64
152 169 64
137 156 33
138 156 95
135 151 46
141 157 57
139 153 46
147 166 29
137 154 0
139 157 23
143 162 0
153 172 0
144 162 0
151 171 0
151 172 51
143 161 41
148 167 0
152 169 0
149 169 0
152 168 0
149 167 0
135 154 0
146 163 0
154 173 0
146 165 0
153 171 0
148 168 0
137 151 0
143 159 0
146 165 0
145 162 0
134 150 0
146 162 0
134 150 0
132 148 0
146 165 0
135 152 0
140 158 0
141 162 0
132 150 0
150 164 0
130 147 0
134 151 0
131 149 0
146 159 0
131 145 0
136 151 0
141 156 0
122 137 0
130 145 0
126 142 0
110 126 0
147 165 0
137 154 0
132 147 0
120 133 0
126 141 0
137 154 0
128 143 0
132 146 0
148 165 0
136 152 0
129 145 0
132 150 0
138 157 0
129 140 0
114 134 0
128 145 0
128 142 0
131 148 0
122 136 0
99 112 0
134 149 0
92 104 0
116 132 0
123 135 0
125 139 0
124 139 0
95 106 0
108 121 0
103 118 0
128 141 0
117 129 0
122 134 1
94 106 0
119 132 0
76 84 6
102 111 51
111 124 0
78 86 51
53 62 0
75 83 29
68 74 0
93 101 0
107 118 0
94 103 0
89 101 0
119 132 0
97 110 0
93 104 0
119 131 0
120 131 0
112 126 0
102 116 0
91 104 0
115 131 0
127 142 0
129 144 0
126 140 0
93 111 0
93 107 0
135 150 0
120 134 0
119 133 0
139 154 0
120 136 0
141 154 0
112 126 0
125 141 0
138 156 0
123 138 0
160 178 0
112 127 0
115 129 0
86 102 0
124 140 0
100 116 0
118 136 0
102 116 0
120 138 0
119 136 0
125 140 0
150 167 0
150 167 0
134 154 0
108 128 0
90 111 0
146 164 0
131 151 0
117 141 0
127 146 0
151 170 0
108 127 0
123 140 0
114 134 0
158 177 0
115 134 0
114 132 0
131 151 0
109 127 0
109 127 0
115 133 0
143 165 0
127 145 0
36 57 0
116 132 0
106 122 0
113 132 0
98 117 0
121 137 0
130 147 0
79 98 0
110 128 0
84 101 0
80 99 0
98 115 0
101 119 0
92 108 0
128 142 0
59 79 0
97 114 0
55 71 0
101 114 0
82 99 0
95 111 0
101 113 0
113 124 0
81 95 0
113 129 0
121 139 0
99 116 0
81 88 0
98 112 0
59 75 0
93 109 0
105 121 0
105 117 0
96 105 0
108 123 0
69 83 0
82 94 0
75 81 0
36 57 0
24 38 0
91 104 0
88 103 0
18 29 0
113 127 0
87 103 0
30 48 0
133 149 0
92 101 0
102 116 0
101 112 0
36 59 0
85 91 0
84 96 0
102 118 0
131 148 0
60 72 0
97 114 0
27 48 0
99 114 0
50 55 0
84 100 0
116 128 0
150 160 0
114 131 0
144 163 0
115 133 0
82 97 0
79 88 0
113 127 0
67 85 0
108 124 0
32 53 0
91 97 0
76 81 0
119 130 0
94 108 0
113 127 0
123 132 0
125 137 0
141 156 0
130 137 0
127 145 0
124 142 0
136 146 0
50 59 0
101 116 0
115 131 0
98 102 0
82 98 0
140 154 0
91 98 0
109 119 0
117 116 0
100 115 0
89 97 0
101 98 0
130 144 0
114 125 0
129 143 0
150 154 0
136 147 0
118 135 0
105 112 0
72 71 0
151 171 0
125 136 0
140 152 0
96 107 0
132 140 0
133 142 0
114 127 0
122 132 0
115 129 0
132 133 0
109 109 0
133 131 0
121 125 0
117 115 0
98 102 0
119 112 0
143 150 0
101 101 0
132 124 0
110 102 0
110 115 0
138 134 0
112 111 0
106 100 0
133 136 0
146 155 0
134 128 0
107 106 0
108 112 0
120 108 0
124 126 0
100 84 0
124 112 0
133 135 0
103 100 0
136 127 0
115 114 0
104 99 0
99 92 0
99 81 0
101 94 0
110 103 0
98 87 0
82 58 7
123 95 0
92 67 16
119 93 1
85 53 0
112 94 0
121 109 0
118 88 3
105 80 7
105 81 10
126 97 0
108 85 7
112 90 7
114 99 1
123 102 16
143 125 22
126 110 0
115 98 0
118 105 16
132 114 23
141 126 17
114 92 3
141 125 16
131 104 16
133 117 3
147 128 10
121 99 7
117 102 7
135 121 3
126 120 16
126 108 16
132 113 40
97 82 3
111 102 0
114 102 0
122 103 0
140 121 36
136 117 36
122 105 16
107 93 0
126 108 3
125 95 25
134 114 16
125 113 0
148 135 36
124 113 3
144 132 3
133 114 0
137 124 3
129 115 16
134 116 16
140 126 3
140 127 3
140 122 40
134 119 39
149 137 36
168 152 74
112 89 16
132 109 16
125 110 16
132 110 17
143 129 7
146 128 19
128 117 0
109 97 3
155 145 36
124 110 1
140 125 62
132 118 0
132 115 3
140 128 39
132 112 16
123 105 7
142 127 36
151 132 24
120 99 7
160 137 28
148 129 7
129 118 1
143 125 39
137 117 37
156 141 51
142 130 0
123 116 51
132 103 17
155 135 54
117 98 18
117 105 0
138 118 42
147 155 16
138 146 0
174 194 0
173 197 0
170 189 0
167 188 0
165 187 0
164 186 0
166 187 0
178 200 0
172 197 0
170 194 0
172 193 0
158 176 57
161 179 0
133 154 41
129 144 0
133 148 0
133 152 71
148 164 90
140 154 66
136 155 46
146 164 0
144 160 10
145 161 0
153 170 0
144 160 0
138 153 0
142 159 0
137 156 0
145 163 0
136 154 0
131 150 0
147 167 0
150 168 37
147 164 0
143 160 0
148 167 0
136 153 0
138 153 0
135 150 0
150 169 0
139 154 0
153 170 0
153 168 0
128 143 0
132 145 0
144 160 0
145 160 0
137 155 0
121 137 0
140 155 0
137 155 0
143 160 0
131 147 0
142 156 0
149 168 0
137 153 0
140 157 0
153 169 0
124 138 0
143 161 0
145 162 0
127 143 0
148 163 0
126 140 0
135 149 0
125 143 0
146 161 0
115 129 0
136 152 0
134 149 0
117 132 0
129 142 0
129 144 0
124 139 0
130 146 0
115 128 0
140 155 0
114 129 0
110 123 0
134 149 0
114 128 0
119 130 0
88 101 0
114 127 0
105 117 0
130 142 0
108 121 0
126 142 0
123 136 0
85 95 0
89 98 51
99 108 0
103 115 0
88 95 8
77 84 1
85 94 71
91 95 0
81 89 0
105 115 0
53 60 0
112 123 0
119 132 0
116 128 0
63 72 0
114 125 0
103 116 0
103 116 0
117 131 0
91 103 0
93 105 0
126 139 0
91 103 0
124 141 0
124 139 0
127 144 0
118 132 0
106 122 0
104 120 0
100 115 0
143 162 0
76 92 0
105 121 0
144 160 0
135 151 0
121 133 0
110 126 0
107 125 0
148 164 0
121 136 0
117 135 0
115 134 0
145 165 0
114 130 0
126 144 0
142 159 0
114 130 0
138 158 0
142 161 0
140 157 0
141 158 0
101 117 0
119 137 0
141 159 0
135 154 0
112 128 0
89 103 0
100 117 0
74 91 0
127 147 0
133 152 0
124 141 0
113 133 0
118 137 0
166 187 0
134 154 0
133 155 0
81 99 0
119 135 0
145 164 0
109 125 0
134 151 0
112 130 0
124 141 0
129 149 0
141 158 0
92 109 0
112 130 0
120 142 0
129 145 0
132 150 0
128 146 0
148 168 0
106 124 0
113 130 0
112 130 0
67 86 0
131 147 0
107 123 0
113 128 0
113 133 0
66 82 0
79 96 0
102 121 0
101 120 0
72 91 0
117 130 0
109 124 0
127 139 0
28 46 0
102 118 0
118 132 0
128 144 0
103 115 0
82 94 0
96 114 0
71 87 0
70 90 0
92 109 0
59 70 0
66 84 0
102 120 0
91 102 0
99 115 0
114 125 0
83 95 0
154 171 0
99 113 0
34 54 0
61 64 0
27 45 0
118 132 0
62 72 0
89 99 0
101 118 0
91 104 0
102 119 0
50 65 0
105 119 0
108 120 0
87 104 0
103 114 0
92 100 0
100 110 0
80 94 0
115 128 0
126 142 0
115 135 0
119 134 0
102 104 0
113 116 0
79 88 0
90 111 0
62 72 0
132 147 0
125 138 0
43 68 0
131 148 0
138 157 0
116 123 0
59 62 0
117 134 0
132 148 0
107 122 0
77 88 0
130 141 0
85 100 0
148 161 0
147 164 0
144 162 0
102 109 0
138 147 0
141 156 0
150 160 0
92 112 0
126 135 0
82 96 0
167 185 0
118 132 0
113 133 0
130 138 0
117 124 0
128 140 0
117 128 0
152 164 0
95 104 0
94 104 0
113 115 0
132 146 0
143 144 0
118 132 0
102 102 0
131 148 0
117 131 0
135 141 0
106 113 0
119 123 0
123 129 0
147 156 0
117 131 0
100 100 0
121 129 0
124 129 0
111 121 0
107 100 0
132 137 0
118 118 0
126 126 0
123 133 0
120 106 0
113 110 0
119 119 0
125 123 0
124 123 0
107 100 0
133 133 0
125 113 0
114 107 0
145 145 0
94 93 0
104 98 0
109 104 0
98 83 0
136 130 0
97 90 0
103 86 0
129 120 0
112 106 0
94 73 0
93 89 0
57 36 0
78 61 0
116 106 0
107 96 0
106 78 5
99 77 16
131 113 7
115 98 7
122 97 7
116 92 0
114 91 7
122 93 19
111 92 16
104 90 0
135 110 18
141 130 0
112 87 0
113 93 1
99 85 3
99 83 7
130 119 0
104 78 7
96 77 1
133 117 1
133 125 16
124 112 3
136 124 0
101 83 0
126 108 16
116 98 3
117 95 16
122 108 1
129 109 7
131 117 1
153 140 16
150 139 36
108 84 7
107 87 1
118 92 16
119 104 3
138 121 17
111 93 3
135 120 36
152 136 16
129 111 18
154 146 0
133 121 0
140 118 7
122 106 0
128 104 0
141 123 53
156 144 36
113 91 0
113 97 5
136 117 16
135 125 36
141 127 0
139 132 36
136 127 0
151 142 51
142 130 16
140 132 0
136 120 16
133 117 3
143 128 16
142 126 16
135 113 16
146 134 16
126 104 7
154 128 24
141 122 19
114 88 3
148 129 37
141 123 37
135 120 36
133 109 36
110 94 3
127 104 12
116 101 1
118 94 22
119 103 0
153 144 0
137 113 43
124 109 0
118 104 0
151 147 22
149 158 5
168 184 0
171 193 0
168 185 0
171 192 0
174 197 0
173 193 0
170 185 0
179 200 0
172 196 0
171 193 0
177 198 0
172 195 0
158 180 0
174 194 0
167 191 0
169 191 0
170 191 0
180 200 0
161 181 51
155 176 41
161 181 0
153 170 61
140 155 58
143 159 33
128 141 57
143 161 0
142 159 0
153 167 74
135 151 0
127 143 0
150 171 0
134 151 33
131 149 8
132 147 0
131 148 33
124 140 0
139 156 0
141 158 0
132 149 0
132 147 0
129 143 0
153 173 0
153 171 0
143 160 0
141 159 0
127 142 0
142 160 0
147 164 0
133 149 0
124 141 0
141 155 0
141 157 0
152 168 0
141 155 0
143 160 0
132 149 0
128 142 0
126 142 0
141 156 0
110 124 0
115 131 0
129 145 0
145 161 0
131 143 0
141 157 0
144 162 0
115 129 0
137 153 0
119 136 0
133 147 0
135 151 0
134 150 0
134 150 0
135 151 0
116 130 0
132 148 0
134 148 0
108 122 0
141 156 0
96 108 0
126 142 0
129 145 0
121 134 0
132 145 0
125 138 0
105 118 0
111 123 0
105 117 33
121 135 51
103 117 0
81 92 1
99 110 0
96 106 0
119 130 21
75 82 4
119 131 0
60 67 33
98 104 0
76 83 0
77 85 0
111 121 0
65 76 0
112 124 0
104 115 0
116 130 0
127 137 0
89 97 0
112 122 0
110 121 0
133 144 0
119 130 0
139 153 0
113 127 0
136 150 0
108 121 0
134 149 0
129 142 0
119 134 0
107 122 0
111 123 0
129 146 0
121 135 0
115 130 0
131 145 0
115 127 0
142 158 0
77 94 0
123 139 0
133 150 0
138 155 0
131 149 0
120 133 0
104 122 0
113 129 0
156 172 0
129 145 0
111 129 0
133 151 0
105 122 0
113 129 0
123 142 0
159 177 0
124 140 0
139 157 0
140 159 0
120 138 0
116 130 0
152 170 0
120 141 0
110 127 0
156 174 0
113 131 0
117 134 0
103 120 0
107 125 0
128 149 0
113 136 0
135 154 0
117 131 0
138 153 0
96 111 0
151 171 0
129 145 0
145 164 0
93 114 0
101 119 0
126 147 0
93 113 0
155 176 0
129 150 0
120 137 0
128 146 0
136 153 0
120 143 0
109 126 0
113 132 0
83 99 0
108 123 0
119 135 0
126 142 0
102 116 0
92 112 0
124 140 0
120 135 0
135 150 0
115 132 0
122 143 0
48 63 0
96 111 0
82 102 0
129 144 0
86 100 0
96 113 0
78 93 0
108 126 0
93 113 0
132 151 0
105 121 0
87 107 0
105 115 0
88 105 0
114 127 0
112 129 0
84 103 0
88 102 0
65 85 0
136 155 0
95 109 0
87 104 0
115 131 0
65 80 0
142 157 0
71 92 0
104 119 0
97 110 0
34 55 0
87 101 0
42 55 0
122 143 0
89 106 0
123 142 0
104 119 0
157 171 0
133 146 0
37 59 0
104 123 0
115 122 0
140 154 0
119 135 0
123 132 0
113 128 0
106 123 0
134 150 0
96 112 0
132 145 0
85 106 0
72 82 0
80 96 0
102 113 0
120 135 0
141 158 0
163 186 0
134 151 0
123 141 0
106 117 0
107 120 0
128 145 0
97 100 0
122 133 0
84 80 0
101 111 0
112 125 0
130 141 0
124 138 0
95 114 0
122 133 0
106 117 0
112 128 0
94 110 0
135 152 0
118 120 0
101 110 0
102 107 0
118 124 0
148 155 0
156 168 0
139 153 0
120 129 0
90 106 0
102 105 0
115 129 0
115 129 0
139 158 0
113 120 0
74 88 0
116 126 0
159 172 0
108 113 0
169 181 0
121 133 0
129 136 0
108 106 0
119 123 0
130 132 0
93 99 0
121 129 0
134 133 0
119 121 0
139 137 0
131 135 0
133 131 0
93 94 0
107 110 0
126 128 0
122 107 0
110 109 0
93 98 0
111 118 0
124 123 0
104 110 0
84 75 0
119 119 0
112 102 0
91 89 0
113 101 0
89 74 0
89 90 0
127 109 0
99 85 0
85 70 0
112 95 0
110 106 0
101 97 0
123 114 0
90 79 0
78 62 0
91 80 0
95 74 0
105 98 0
109 94 16
92 66 0
104 78 7
95 68 3
117 93 7
105 88 0
114 94 16
133 111 7
104 76 7
113 79 10
110 81 3
122 101 7
113 79 7
129 114 16
135 114 3
122 103 7
115 91 7
115 95 7
134 115 0
95 73 7
118 106 0
126 97 8
120 101 18
124 103 0
134 119 22
130 112 3
143 125 7
127 113 3
115 103 16
135 115 16
116 101 0
122 104 7
145 132 0
147 125 18
111 93 6
120 102 7
114 89 7
163 148 17
120 113 7
138 122 36
137 119 36
136 124 0
132 109 16
137 121 16
118 99 1
109 85 16
127 117 7
139 119 16
127 110 7
140 126 16
124 105 36
114 90 36
136 125 16
143 129 36
143 119 18
149 123 40
116 104 0
124 112 3
120 106 7
112 99 7
135 122 0
141 122 37
118 84 7
152 136 24
149 131 22
140 131 0
134 115 39
144 132 51
132 117 3
137 116 17
146 126 42
143 135 0
142 126 53
128 111 0
135 117 37
123 110 36
156 146 42
152 159 7
171 188 0
153 169 0
170 192 0
161 172 0
164 181 0
170 190 0
171 189 0
171 196 0
170 189 0
176 194 0
170 192 0
175 198 0
167 190 0
165 190 0
173 194 0
169 191 0
159 180 0
170 192 0
161 181 0
171 194 0
177 196 0
165 188 0
170 192 0
170 191 0
166 187 0
163 183 0
154 172 68
155 173 0
134 152 55
137 153 37
144 163 52
133 148 0
138 154 0
120 134 37
141 158 0
145 162 37
147 163 0
137 156 0
150 169 0
136 153 0
146 164 69
146 163 0
147 166 51
143 156 0
134 152 0
141 158 0
128 146 0
146 163 0
148 166 0
133 149 0
147 165 0
143 159 0
136 148 0
142 158 0
120 130 0
128 148 0
133 150 0
138 156 0
138 155 0
142 159 0
131 144 0
138 152 0
139 155 0
136 153 0
130 143 0
131 146 0
138 156 0
132 147 0
126 142 0
127 141 0
142 156 0
141 155 0
125 138 0
113 128 0
118 131 0
129 141 0
126 141 0
118 133 0
114 127 0
119 133 0
123 137 0
109 122 0
144 158 0
116 128 0
135 148 0
111 122 0
114 126 0
118 131 46
125 139 0
100 111 26
98 107 4
80 90 59
98 108 51
97 106 0
88 98 0
100 111 0
89 96 0
101 111 0
108 118 0
79 86 0
80 88 0
142 154 0
130 141 0
102 112 0
106 116 0
52 63 0
102 113 0
105 118 0
82 89 0
111 123 0
114 126 0
89 101 0
107 118 0
113 127 0
75 87 0
128 143 0
117 132 0
107 122 0
134 151 0
145 161 0
125 144 0
119 134 0
124 139 0
150 167 0
120 137 0
120 133 0
138 152 0
149 167 0
156 175 0
127 147 0
147 162 0
137 156 0
130 146 0
103 117 0
120 139 0
124 143 0
125 141 0
130 147 0
113 128 0
146 162 0
140 156 0
148 169 0
138 156 0
128 147 0
142 158 0
140 155 0
122 140 0
142 160 0
138 156 0
115 131 0
134 154 0
152 174 0
120 139 0
119 140 0
61 79 0
123 142 0
130 148 0
94 113 0
95 115 0
136 154 0
136 155 0
150 167 0
115 134 0
125 143 0
125 146 0
123 142 0
89 104 0
115 134 0
106 119 0
152 170 0
89 109 0
128 148 0
100 120 0
152 170 0
95 112 0
69 89 0
98 112 0
123 140 0
129 148 0
109 124 0
102 115 0
121 135 0
147 166 0
124 145 0
112 133 0
84 102 0
96 112 0
128 142 0
91 110 0
84 102 0
94 113 0
109 125 0
116 132 0
101 117 0
103 122 0
69 90 0
106 121 0
79 98 0
86 105 0
80 95 0
114 124 0
80 93 0
102 121 0
69 91 0
96 109 0
58 73 0
121 138 0
112 132 0
102 120 0
121 141 0
81 100 0
24 40 0
61 77 0
84 102 0
120 135 0
62 75 0
108 125 0
36 58 0
68 86 0
65 79 0
99 119 0
115 128 0
124 134 0
126 143 0
73 84 0
112 129 0
80 91 0
112 125 0
123 139 0
134 148 0
95 113 0
89 100 0
43 65 0
86 105 0
113 122 0
86 106 0
109 121 0
131 136 0
128 139 0
100 115 0
136 158 0
117 131 0
99 106 0
107 120 0
111 115 0
141 152 0
103 115 0
125 143 0
122 135 0
121 133 0
136 149 0
132 145 0
140 155 0
117 136 0
128 145 0
137 150 0
116 131 0
127 140 0
129 139 0
143 152 0
118 125 0
147 164 0
148 168 0
115 129 0
103 116 0
114 128 0
153 167 0
82 91 0
120 136 0
149 158 0
108 126 0
136 146 0
80 97 0
114 130 0
128 146 0
131 144 0
114 122 0
146 163 0
105 119 0
122 137 0
105 123 0
139 149 0
170 181 0
138 151 0
130 136 0
112 115 0
114 120 0
112 111 0
77 74 0
157 170 0
126 134 0
142 145 0
133 138 0
128 137 0
102 109 0
146 154 0
121 115 0
105 114 0
104 107 0
133 142 0
128 132 0
104 113 0
129 124 0
107 103 0
99 85 0
126 120 0
120 125 0
120 125 0
129 118 0
84 72 0
107 110 0
105 92 0
106 82 0
122 118 0
99 98 0
110 88 0
77 64 0
116 117 0
99 89 0
64 48 0
83 66 0
73 55 0
106 88 0
116 103 0
93 83 0
85 63 0
110 107 0
82 56 0
96 61 2
114 89 10
114 88 16
136 112 24
112 93 3
108 91 0
114 92 16
85 59 0
103 75 1
126 107 0
138 119 10
112 89 0
108 85 0
113 101 0
134 110 37
107 91 0
114 99 1
126 105 16
126 106 40
102 86 0
135 112 0
119 102 1
116 98 7
134 109 10
122 100 17
119 106 0
142 128 16
122 108 0
104 88 0
128 114 36
127 108 1
130 116 16
132 110 16
124 110 0
117 92 10
115 93 4
136 114 17
120 101 7
116 102 16
142 121 3
125 112 36
133 124 7
137 126 36
120 107 36
130 112 16
133 112 16
133 118 0
129 98 8
116 99 0
131 115 16
146 125 51
123 101 10
158 136 43
154 129 41
117 100 7
121 101 39
136 115 36
117 97 7
138 111 39
110 86 0
148 132 36
139 110 40
148 126 72
121 109 1
132 111 23
146 144 51
154 154 7
158 162 36
156 161 0
171 182 0
170 183 0
170 187 0
174 191 0
177 199 0
155 175 0
172 193 0
165 178 0
168 185 0
174 189 0
174 191 0
169 190 0
159 178 0
168 191 0
168 191 0
172 193 0
176 198 0
172 191 0
176 198 0
174 194 0
169 193 0
163 186 0
169 193 0
174 196 0
175 198 0
168 190 0
171 190 0
171 192 0
165 185 0
170 189 0
171 192 0
170 191 0
168 189 0
154 174 29
151 170 46
157 174 73
126 141 62
142 159 0
141 157 0
125 136 77
128 143 46
129 144 15
135 152 0
129 144 0
131 148 37
134 149 15
146 162 1
126 141 51
142 161 0
143 156 0
150 165 0
141 155 51
122 136 1
146 163 0
121 136 0
128 144 5
108 121 0
126 141 0
140 156 0
150 163 0
147 163 0
138 155 0
134 149 0
133 149 0
133 149 0
138 154 41
131 144 0
116 129 0
134 151 0
124 140 0
119 133 0
136 152 0
141 156 0
125 139 0
105 117 0
117 130 0
107 116 0
125 140 0
116 130 0
101 111 0
133 146 0
132 145 0
104 116 49
117 131 51
139 150 0
104 117 18
99 108 46
120 132 57
99 110 46
99 110 66
109 120 26
93 102 51
111 119 0
103 113 0
126 137 80
113 124 57
62 68 0
88 96 0
80 90 0
111 123 0
118 128 0
66 75 0
103 112 0
125 137 0
92 105 0
61 70 0
104 115 0
89 98 0
106 116 0
124 134 0
97 109 0
128 143 0
116 127 0
102 117 0
142 159 0
109 121 0
114 128 0
104 117 0
107 120 0
117 129 0
124 137 0
112 128 0
108 126 0
127 143 0
149 163 0
83 98 0
134 150 0
114 131 0
120 136 0
119 136 0
134 151 0
132 149 0
79 94 0
119 135 0
155 172 0
140 158 0
155 173 0
92 108 0
117 135 0
110 131 0
103 122 0
143 161 0
117 131 0
139 158 0
146 162 0
132 148 0
91 108 0
117 136 0
113 128 0
146 164 0
123 143 0
89 106 0
154 173 0
140 159 0
136 152 0
127 145 0
126 145 0
146 165 0
128 146 0
127 145 0
103 118 0
132 154 0
103 123 0
125 143 0
139 157 0
101 117 0
108 126 0
116 133 0
138 157 0
143 165 0
144 165 0
136 157 0
152 170 0
115 131 0
105 123 0
127 146 0
113 133 0
110 126 0
117 137 0
97 113 0
111 131 0
125 145 0
134 152 0
85 101 0
112 133 0
117 137 0
120 138 0
138 155 0
126 149 0
127 146 0
103 120 0
101 118 0
123 143 0
105 126 0
84 99 0
92 110 0
135 154 0
79 93 0
119 138 0
121 142 0
115 131 0
81 98 0
110 121 0
103 119 0
68 80 0
74 88 0
106 119 0
146 165 0
105 116 0
83 99 0
118 132 0
67 86 0
86 102 0
137 151 0
89 101 0
128 148 0
139 161 0
108 125 0
77 89 0
127 139 0
114 132 0
67 88 0
133 145 0
115 131 0
86 96 0
123 140 0
132 146 0
114 131 0
104 119 0
110 128 0
136 147 0
114 127 0
126 139 0
103 115 0
121 138 0
124 133 0
129 147 0
81 97 0
93 113 0
100 111 0
111 129 0
130 145 0
35 56 0
136 150 0
113 124 0
126 141 0
124 136 0
96 112 0
98 115 0
141 153 0
126 141 0
136 152 0
141 158 0
97 105 0
124 141 0
115 126 0
148 155 0
127 141 0
96 107 0
129 146 0
123 137 0
136 151 0
134 153 0
133 145 0
127 140 0
139 148 0
138 156 0
91 100 0
110 119 0
142 158 0
128 145 0
146 158 0
119 133 0
121 127 0
137 152 0
119 128 0
118 131 0
111 118 0
146 157 0
118 122 0
108 113 0
160 181 0
144 157 0
136 148 0
116 126 0
117 121 0
150 163 0
109 112 0
87 86 0
129 130 0
148 160 0
126 133 0
133 142 0
142 138 0
131 134 0
101 103 0
126 137 0
135 140 0
109 112 0
147 150 0
136 142 0
142 154 0
103 102 0
118 115 0
126 129 0
119 123 0
130 127 0
124 129 0
121 120 0
120 116 0
72 63 0
139 131 0
77 65 0
110 99 0
84 63 0
120 115 0
113 102 0
111 108 0
112 100 0
84 67 0
132 122 0
106 102 0
104 100 0
92 67 0
121 121 0
108 101 0
76 67 0
77 59 0
75 60 0
90 66 0
119 105 0
123 110 0
114 107 0
114 100 0
123 109 1
69 46 0
109 82 7
125 97 7
111 88 12
108 96 0
104 88 16
136 114 10
131 103 10
101 84 7
120 98 0
110 90 3
126 110 0
126 108 3
130 114 7
137 119 16
124 107 0
123 100 3
125 116 0
137 123 16
141 119 7
102 76 1
105 86 10
129 106 7
123 105 10
131 112 16
104 84 7
120 102 36
142 125 39
122 109 36
118 93 7
132 114 16
121 94 18
124 106 16
128 110 3
136 110 16
127 105 0
129 115 16
135 111 7
119 102 0
134 121 39
139 124 36
123 108 4
116 98 10
140 122 16
123 110 16
123 108 1
121 102 7
124 101 37
143 132 16
124 102 24
123 105 51
133 120 51
148 131 37
118 95 10
130 109 1
132 118 36
129 108 7
138 129 39
156 156 1
154 158 16
129 132 0
156 168 0
163 180 0
162 175 0
170 186 0
171 183 0
159 171 0
176 189 0
163 182 0
165 181 0
176 196 0
155 173 0
169 189 0
176 192 0
165 183 0
157 169 0
167 184 0
175 198 0
174 193 0
167 187 0
172 194 0
174 196 0
174 194 0
173 194 0
178 198 0
170 191 0
171 193 0
166 188 0
164 186 0
170 194 0
164 186 0
170 193 0
171 193 0
174 196 0
160 177 0
167 189 0
158 181 0
169 189 0
166 184 0
158 178 0
171 191 0
162 182 0
167 185 0
151 171 51
155 173 0
152 168 81
142 158 57
140 155 64
120 135 61
120 134 41
136 153 0
118 133 51
127 141 0
137 151 0
138 152 15
124 139 0
111 124 37
111 125 46
128 142 37
117 133 42
132 147 0
137 154 0
128 142 4
135 152 0
121 136 33
128 140 5
138 151 0
124 138 0
132 147 0
134 149 0
123 139 51
123 136 65
116 129 0
138 153 0
127 140 0
143 156 0
128 141 0
118 129 41
126 139 0
98 111 37
110 123 0
136 150 0
119 131 0
127 139 51
109 122 41
95 108 0
106 118 0
128 139 0
103 116 16
99 109 51
107 118 76
100 111 0
81 90 18
69 75 57
102 111 0
85 95 0
97 107 0
134 144 0
69 76 0
115 126 0
78 87 0
84 92 0
113 124 0
134 145 0
100 110 0
73 78 0
97 107 0
110 122 0
128 143 0
91 103 0
127 138 0
111 124 0
103 117 0
128 141 0
101 114 0
79 88 0
124 139 0
105 119 0
114 126 0
89 106 0
140 155 0
126 142 0
114 129 0
119 132 0
118 130 0
151 167 0
165 183 0
126 136 0
147 166 0
138 157 0
90 104 0
100 114 0
117 133 0
119 137 0
134 152 0
105 121 0
138 154 0
114 130 0
117 133 0
162 182 0
131 150 0
131 149 0
70 88 0
122 139 0
128 148 0
150 167 0
144 162 0
117 136 0
117 135 0
103 122 0
118 133 0
89 109 0
136 154 0
98 114 0
122 140 0
142 158 0
136 154 0
145 162 0
125 142 0
91 108 0
128 146 0
139 158 0
100 121 0
148 165 0
124 145 0
143 159 0
128 148 0
127 144 0
128 147 0
150 170 0
101 120 0
128 148 0
117 133 0
95 113 0
114 134 0
127 148 0
118 135 0
123 139 0
152 175 0
101 119 0
149 167 0
81 94 0
141 163 0
123 143 0
111 133 0
139 156 0
148 168 0
94 108 0
139 158 0
129 147 0
98 116 0
111 132 0
81 100 0
116 135 0
99 116 0
111 127 0
86 106 0
115 134 0
138 157 0
104 123 0
114 129 0
62 80 0
114 134 0
80 98 0
95 114 0
103 123 0
99 115 0
125 141 0
82 97 0
114 129 0
117 129 0
109 124 0
129 150 0
108 122 0
78 92 0
91 105 0
127 146 0
65 79 0
84 99 0
109 126 0
68 86 0
125 143 0
127 141 0
127 146 0
99 112 0
99 118 0
102 109 0
99 117 0
108 129 0
97 113 0
146 165 0
103 116 0
96 111 0
131 149 0
100 120 0
141 162 0
133 140 0
112 134 0
156 175 0
73 93 0
118 126 0
112 127 0
135 151 0
123 132 0
106 119 0
116 135 0
123 134 0
84 100 0
130 149 0
104 118 0
115 134 0
107 114 0
119 138 0
107 120 0
128 146 0
118 134 0
127 144 0
121 137 0
126 141 0
146 153 0
95 111 0
112 128 0
156 170 0
138 158 0
148 161 0
95 112 0
116 131 0
111 123 0
110 124 0
105 112 0
126 142 0
114 120 0
123 143 0
133 149 0
145 157 0
145 161 0
145 158 0
105 120 0
150 170 0
120 134 0
145 158 0
157 171 0
148 165 0
116 122 0
110 127 0
128 128 0
138 149 0
145 170 0
136 150 0
127 141 0
123 141 0
104 102 0
101 116 0
125 138 0
117 121 0
127 132 0
126 140 0
123 136 0
115 124 0
116 123 0
121 123 0
134 142 0
138 136 0
120 134 0
124 130 0
122 128 0
98 98 0
104 98 0
139 150 0
100 100 0
119 121 0
126 128 0
142 151 0
142 146 0
132 136 0
96 101 0
129 133 0
123 113 0
111 105 0
105 105 0
83 82 0
114 114 0
131 126 0
100 77 0
127 125 0
137 128 0
114 106 0
123 114 0
101 91 0
123 122 0
104 101 0
93 87 0
124 121 0
108 97 0
60 44 0
108 91 0
82 63 0
101 86 0
103 89 0
70 49 0
104 79 0
83 71 0
90 78 0
117 102 7
114 90 18
94 70 16
102 89 0
124 100 22
111 88 17
114 82 24
118 93 7
126 105 4
97 70 3
155 128 20
138 127 0
113 93 7
123 113 0
117 92 0
131 103 3
141 134 0
126 106 0
145 129 16
115 88 16
140 129 7
134 113 3
137 118 40
130 108 16
115 91 7
110 92 0
121 97 7
134 121 36
142 129 7
117 98 7
103 87 1
139 116 16
144 126 36
126 109 10
144 121 23
129 108 16
129 105 39
118 95 3
122 94 17
118 96 16
140 125 16
139 119 17
115 101 0
109 88 3
113 86 22
158 144 56
124 90 18
153 134 46
151 152 7
138 136 7
164 170 0
171 185 0
160 174 0
164 175 0
144 154 0
162 174 0
164 177 0
164 178 0
149 158 0
157 166 0
161 169 0
165 179 0
179 194 0
168 182 0
163 174 0
171 193 0
158 179 0
174 187 0
172 190 0
167 190 0
161 178 0
166 180 0
162 170 0
140 156 0
172 190 0
168 186 0
160 183 0
165 183 0
167 189 0
163 184 0
166 188 0
168 191 0
176 197 0
169 189 0
170 191 0
170 193 0
168 188 0
170 189 0
173 195 0
156 174 0
172 195 0
166 189 0
139 160 0
163 185 0
164 183 0
167 190 0
172 195 0
173 196 0
149 168 0
170 189 0
164 178 0
168 187 0
166 185 0
165 183 0
145 161 0
166 185 0
165 183 0
140 158 0
139 156 67
148 167 0
147 161 57
137 152 0
127 142 1
133 149 0
136 151 51
136 153 10
138 153 66
135 150 0
130 143 46
98 109 59
119 135 0
123 136 10
122 134 1
133 149 33
135 148 0
124 138 0
106 117 51
127 141 0
105 117 10
129 142 0
107 120 29
133 146 37
119 132 2
112 126 46
117 130 59
136 151 0
88 97 51
105 116 53
131 142 51
104 116 0
121 134 46
84 94 26
110 120 63
71 77 51
124 135 64
92 99 2
109 119 0
105 114 0
118 130 0
95 106 0
105 116 0
119 129 0
104 113 0
100 113 0
108 117 0
101 111 0
98 107 0
113 122 0
117 127 0
119 129 0
127 138 0
132 146 0
118 131 0
124 139 0
143 158 0
109 121 0
90 100 0
123 136 0
137 150 0
141 157 0
134 145 0
150 163 0
115 127 0
124 141 0
109 120 0
157 172 0
133 148 0
96 113 0
140 156 0
112 125 0
120 136 0
132 146 0
119 139 0
122 140 0
155 173 0
123 141 0
141 161 0
117 133 0
108 121 0
126 144 0
137 150 0
142 163 0
140 159 0
99 118 0
112 129 0
120 138 0
99 114 0
137 155 0
111 131 0
108 124 0
121 141 0
137 156 0
158 174 0
134 154 0
117 134 0
144 162 0
114 130 0
132 149 0
137 155 0
114 135 0
142 162 0
146 166 0
104 122 0
137 152 0
147 168 0
134 153 0
132 153 0
133 153 0
131 152 0
140 160 0
114 132 0
146 166 0
143 160 0
145 164 0
148 169 0
126 144 0
128 147 0
135 157 0
100 119 0
119 138 0
138 157 0
154 173 0
106 128 0
117 135 0
106 126 0
123 145 0
84 103 0
126 143 0
132 151 0
124 136 0
121 144 0
96 114 0
133 149 0
64 83 0
126 147 0
127 147 0
74 91 0
134 153 0
118 136 0
108 125 0
143 163 0
78 95 0
134 156 0
125 142 0
114 135 0
124 139 0
115 128 0
79 96 0
104 121 0
96 114 0
120 139 0
108 123 0
91 109 0
115 133 0
85 108 0
129 147 0
118 132 0
120 138 0
114 133 0
97 109 0
66 87 0
114 129 0
126 146 0
124 139 0
118 138 0
117 137 0
110 127 0
91 102 0
115 133 0
112 126 0
144 161 0
104 121 0
114 132 0
104 119 0
88 107 0
102 118 0
104 123 0
147 166 0
102 121 0
128 142 0
123 134 0
128 142 0
112 134 0
119 133 0
102 121 0
68 86 0
105 124 0
83 101 0
142 155 0
101 119 0
64 75 0
134 152 0
153 170 0
97 109 0
121 135 0
116 135 0
135 153 0
101 117 0
135 151 0
105 123 0
124 131 0
101 119 0
132 150 0
142 160 0
140 154 0
120 127 0
139 140 0
113 127 0
136 139 0
116 132 0
119 140 0
149 165 0
144 154 0
123 142 0
111 118 0
139 159 0
99 120 0
138 156 0
126 148 0
152 168 0
112 128 0
143 154 0
114 132 0
148 160 0
153 168 0
143 159 0
117 130 0
131 145 0
131 143 0
136 153 0
107 115 0
153 174 0
113 125 0
140 151 0
98 104 0
105 109 0
148 160 0
135 148 0
106 99 0
129 145 0
126 123 0
108 123 0
106 94 0
145 153 0
116 124 0
135 142 0
141 146 0
111 116 0
147 164 0
101 109 0
133 144 0
135 135 0
116 120 0
146 149 0
118 111 0
135 140 0
118 121 0
126 130 0
147 155 0
146 146 0
90 80 0
139 142 0
122 120 0
128 132 0
147 157 0
125 120 0
105 91 0
101 91 0
138 131 0
121 104 0
127 126 0
119 114 0
118 108 0
143 151 0
117 100 0
145 148 0
105 100 0
129 125 0
116 110 0
136 130 0
114 99 0
141 125 0
110 109 0
129 126 0
117 105 0
114 109 0
107 90 0
81 64 0
93 85 0
137 130 0
102 83 0
105 90 0
129 117 0
119 107 0
107 101 0
122 108 0
85 64 0
104 91 0
127 102 17
106 78 7
122 94 10
114 97 0
114 91 0
96 64 7
122 108 3
124 101 3
124 102 16
134 110 46
124 109 0
133 111 7
109 84 7
122 97 22
115 84 17
122 104 36
130 112 39
123 98 17
117 90 19
129 111 0
143 114 40
131 117 16
127 107 16
88 72 2
122 102 3
121 97 7
130 106 36
130 106 19
138 114 0
83 65 1
160 143 48
130 116 0
145 121 40
137 122 53
134 123 16
148 139 0
130 118 0
156 155 3
175 188 36
159 174 0
162 166 0
156 168 0
175 190 0
164 170 0
155 173 0
163 176 0
147 147 0
161 173 0
160 169 0
168 189 0
171 191 0
161 175 0
170 182 0
167 180 0
160 177 0
161 178 0
166 186 0
162 175 0
162 173 0
178 189 0
171 186 0
153 167 0
166 184 0
163 180 0
174 194 0
170 193 0
165 169 0
168 188 0
173 194 0
165 187 0
163 185 0
162 185 0
171 194 0
165 185 0
167 190 0
177 196 0
170 190 0
172 193 0
166 189 0
165 186 0
168 187 0
167 185 0
174 193 0
156 175 0
162 181 0
163 186 0
147 163 0
163 183 0
166 184 0
165 187 0
166 184 0
154 172 0
161 181 0
169 189 0
170 189 0
144 161 0
160 181 0
165 186 0
157 175 0
157 173 0
163 181 0
160 179 0
170 188 0
166 183 0
164 179 0
162 179 0
168 187 0
143 161 13
148 166 37
147 161 26
155 173 46
132 149 12
120 134 83
131 143 0
136 149 83
132 145 57
124 137 0
119 130 0
135 150 46
130 144 0
147 163 0
148 163 0
131 144 0
121 132 18
134 148 3
126 137 41
128 140 0
119 134 0
127 141 0
113 125 0
123 136 0
126 139 0
110 119 0
130 144 0
116 126 0
107 118 0
126 137 0
93 102 0
114 123 0
105 116 0
77 85 0
123 134 0
100 110 0
116 127 0
116 126 0
120 132 0
103 117 0
122 135 0
146 159 0
102 110 0
94 105 0
110 122 0
116 127 0
130 146 0
137 151 0
124 136 0
123 138 0
138 151 0
133 147 0
128 142 0
133 149 0
134 149 0
105 114 0
146 163 0
143 160 0
133 150 0
126 139 0
101 115 0
134 150 0
142 160 0
140 155 0
141 155 0
128 143 0
138 158 0
114 130 0
154 171 0
106 114 0
141 158 0
108 124 0
104 118 0
123 143 0
126 144 0
122 138 0
130 149 0
123 141 0
147 167 0
97 111 0
143 163 0
99 117 0
148 166 0
117 133 0
113 128 0
114 132 0
126 146 0
133 148 0
116 135 0
139 159 0
109 127 0
117 135 0
142 160 0
139 155 0
123 143 0
112 131 0
121 141 0
123 137 0
142 159 0
137 154 0
143 161 0
132 150 0
115 133 0
112 131 0
145 164 0
129 150 0
118 141 0
129 145 0
93 110 0
105 124 0
103 122 0
134 157 0
144 166 0
93 116 0
126 145 0
154 177 0
131 152 0
141 155 0
115 131 0
126 147 0
124 141 0
102 120 0
79 98 0
124 142 0
141 157 0
104 122 0
130 148 0
150 170 0
148 169 0
141 160 0
116 137 0
137 156 0
99 118 0
143 161 0
99 121 0
153 173 0
127 146 0
113 130 0
97 115 0
86 97 0
142 163 0
102 122 0
131 150 0
130 150 0
107 125 0
128 149 0
125 142 0
162 184 0
112 125 0
87 104 0
121 140 0
92 98 0
130 151 0
122 143 0
115 139 0
129 144 0
108 122 0
118 133 0
98 115 0
96 111 0
97 118 0
109 127 0
138 156 0
103 121 0
99 120 0
119 131 0
113 131 0
75 92 0
97 119 0
87 102 0
132 148 0
99 114 0
145 162 0
114 132 0
146 162 0
116 135 0
95 114 0
101 117 0
121 139 0
116 131 0
107 123 0
131 150 0
125 141 0
127 141 0
133 149 0
132 147 0
94 105 0
126 145 0
152 171 0
105 113 0
114 126 0
117 137 0
112 122 0
129 147 0
115 132 0
125 136 0
137 152 0
135 147 0
152 171 0
168 186 0
103 122 0
87 101 0
113 129 0
111 130 0
134 148 0
137 154 0
106 118 0
105 121 0
124 141 0
116 123 0
100 121 0
111 128 0
147 163 0
120 134 0
108 125 0
104 119 0
122 138 0
134 157 0
157 172 0
121 138 0
160 180 0
115 123 0
148 160 0
120 131 0
108 118 0
128 136 0
142 148 0
140 154 0
144 155 0
123 132 0
122 130 0
133 147 0
129 141 0
150 160 0
126 139 0
157 166 0
124 129 0
144 145 0
88 94 0
133 151 0
104 104 0
122 128 0
141 153 0
120 130 0
137 144 0
140 151 0
109 127 0
120 122 0
133 139 0
135 144 0
113 111 0
105 105 0
126 126 0
107 106 0
124 120 0
153 162 0
105 107 0
129 117 0
122 105 0
111 101 0
150 151 0
131 123 0
131 133 0
118 127 0
100 96 0
132 138 0
134 137 0
119 110 0
155 161 0
109 105 0
110 98 0
123 125 0
126 116 0
124 118 0
142 131 0
85 72 0
115 106 0
117 106 0
123 123 0
106 85 0
143 143 0
91 84 0
121 121 0
99 81 0
152 157 0
118 113 0
116 112 0
128 119 0
122 116 0
110 91 0
103 86 0
109 102 0
98 77 0
133 114 0
102 91 0
130 129 0
83 62 0
105 97 0
111 90 0
138 126 0
128 127 0
130 116 16
129 116 7
106 90 0
122 100 0
128 123 0
139 135 39
127 112 7
130 106 7
129 113 0
126 106 0
117 89 4
139 132 22
149 136 23
136 123 39
127 116 0
136 116 36
132 120 10
120 107 1
149 147 0
125 126 0
140 141 0
151 158 0
142 135 0
146 133 0
143 147 0
159 162 0
157 165 0
148 141 0
163 169 0
142 144 0
159 173 0
162 169 0
156 160 0
129 124 0
170 187 0
162 176 0
161 169 0
158 170 0
165 173 0
168 178 0
165 172 0
166 178 0
157 169 0
169 184 0
167 181 0
152 160 0
164 179 0
176 182 0
159 173 0
161 167 0
160 167 0
171 189 0
163 179 0
158 173 0
170 189 0
154 168 0
163 178 0
165 181 0
154 175 0
164 178 0
174 195 0
179 199 0
160 178 0
173 197 0
164 185 0
159 182 0
162 184 0
170 189 0
159 179 0
172 191 0
170 193 0
166 187 0
169 190 0
173 192 0
170 192 0
162 179 0
170 189 0
159 179 0
165 185 0
157 177 0
156 175 0
145 163 0
159 178 0
171 193 0
161 180 0
168 188 0
165 184 0
171 190 0
169 185 0
143 157 0
143 158 0
147 162 0
165 182 0
161 181 0
160 180 0
154 173 0
152 169 0
138 154 0
129 145 0
150 169 0
168 186 0
161 176 0
137 152 0
142 158 0
146 164 0
137 151 0
129 143 0
129 143 0
159 177 0
151 167 0
128 141 0
139 155 0
139 152 0
151 166 0
132 146 0
137 151 0
125 139 0
118 128 0
124 137 0
119 133 0
111 121 0
136 149 0
143 158 0
127 133 0
120 132 0
123 135 0
139 152 0
137 149 0
140 153 0
112 123 0
138 151 0
121 133 0
109 118 0
117 130 0
116 128 0
135 150 0
106 117 0
103 112 0
128 141 0
114 124 0
134 148 0
123 135 0
131 143 0
97 108 0
140 155 0
124 139 0
110 124 0
121 131 0
141 157 0
128 139 0
140 154 0
75 80 0
142 158 0
116 128 0
128 142 0
107 119 0
132 148 0
128 141 0
147 165 0
124 137 0
143 158 0
117 132 0
112 126 0
143 161 0
111 125 0
138 154 0
135 150 0
146 162 0
134 153 0
100 115 0
157 174 0
107 125 0
144 160 0
131 146 0
141 158 0
112 130 0
143 162 0
147 166 0
144 161 0
129 148 0
128 144 0
122 137 0
134 154 0
122 135 0
143 160 0
127 144 0
137 155 0
138 153 0
125 143 0
141 159 0
152 171 0
98 116 0
152 173 0
152 174 0
143 162 0
119 139 0
160 177 0
130 150 0
110 125 0
144 165 0
147 166 0
111 128 0
141 161 0
116 138 0
136 154 0
135 152 0
134 152 0
106 126 0
130 149 0
127 146 0
155 175 0
110 126 0
130 150 0
147 167 0
125 145 0
144 160 0
84 105 0
131 152 0
109 127 0
145 161 0
99 119 0
124 142 0
115 133 0
133 155 0
131 150 0
116 134 0
138 159 0
122 142 0
123 141 0
115 133 0
117 137 0
95 114 0
124 145 0
118 133 0
103 122 0
131 150 0
149 168 0
109 128 0
115 135 0
77 92 0
118 136 0
131 152 0
98 119 0
97 116 0
118 135 0
134 153 0
133 156 0
112 126 0
129 149 0
123 139 0
129 147 0
124 140 0
91 110 0
131 150 0
87 106 0
99 118 0
88 104 0
126 143 0
89 103 0
114 132 0
122 139 0
115 136 0
114 128 0
87 107 0
116 135 0
91 109 0
131 151 0
129 151 0
113 129 0
129 148 0
101 120 0
111 133 0
81 96 0
95 113 0
111 121 0
114 135 0
81 98 0
126 143 0
118 136 0
116 131 0
105 125 0
151 171 0
124 138 0
126 146 0
143 163 0
108 127 0
136 150 0
93 107 0
113 124 0
136 153 0
136 149 0
112 129 0
99 113 0
132 150 0
112 126 0
132 146 0
113 126 0
85 103 0
160 178 0
132 145 0
117 135 0
139 159 0
130 147 0
139 155 0
124 140 0
136 147 0
143 161 0
120 133 0
102 106 0
112 131 0
128 147 0
111 129 0
118 130 0
113 111 0
155 174 0
139 146 0
140 158 0
130 143 0
166 184 0
141 161 0
114 131 0
129 132 0
135 154 0
116 136 0
114 125 0
144 158 0
158 173 0
158 176 0
134 148 0
118 133 0
118 130 0
125 136 0
149 162 0
153 169 0
136 137 0
128 122 0
90 95 0
133 154 0
103 107 0
106 121 0
129 140 0
127 135 0
133 143 0
164 167 0
146 147 0
129 131 0
136 135 0
129 138 0
139 155 0
128 131 0
143 150 0
116 125 0
110 109 0
130 123 0
122 130 0
155 167 0
128 136 0
109 114 0
134 142 0
114 119 0
120 126 0
126 129 0
122 112 0
131 132 0
138 141 0
140 139 0
124 127 0
103 92 0
118 122 0
120 118 0
131 128 0
101 104 0
136 142 0
114 102 0
117 113 0
114 100 0
109 103 0
124 111 0
132 127 0
115 101 0
126 115 0
136 135 0
132 130 0
127 123 0
135 134 0
121 106 0
131 118 0
143 137 0
120 115 0
124 112 0
103 93 0
122 119 0
122 110 0
130 124 0
120 108 0
123 113 0
111 97 0
85 70 0
131 105 0
120 110 0
128 121 0
116 114 0
145 138 0
137 128 0
134 122 0
114 101 0
127 121 0
141 124 0
163 161 0
140 143 0
161 159 0
140 138 0
155 160 0
127 126 0
145 140 0
160 170 0
149 147 0
165 168 0
134 120 0
139 132 0
130 121 0
165 172 0
150 161 0
159 159 0
171 180 0
125 135 0
166 169 0
142 141 0
167 176 0
173 183 0
156 164 0
157 159 0
160 167 0
140 151 0
174 194 0
164 172 0
141 145 0
163 179 0
168 178 0
172 188 0
149 160 0
163 179 0
157 161 0
160 174 0
159 171 0
153 168 0
167 187 0
178 196 0
168 179 0
167 182 0
175 191 0
167 181 0
179 200 0
166 184 0
163 181 0
164 184 0
161 177 0
164 179 0
172 190 0
166 183 0
168 188 0
168 192 0
167 187 0
172 191 0
170 191 0
161 180 0
174 196 0
163 181 0
149 169 0
170 194 0
160 179 0
164 183 0
163 185 0
165 187 0
166 185 0
162 180 0
166 185 0
170 189 0
166 186 0
168 189 0
163 183 0
157 175 0
163 181 0
156 173 0
175 195 0
159 179 0
155 174 0
151 167 0
164 184 0
173 192 0
144 159 0
147 166 0
164 183 0
161 179 0
150 168 0
144 160 0
173 191 0
140 160 0
162 178 0
154 172 0
155 171 0
162 181 0
149 166 0
163 182 0
139 152 0
152 166 0
142 157 0
150 166 0
151 166 0
155 171 0
139 153 0
131 145 0
124 134 0
124 137 0
132 146 0
120 133 0
126 139 0
111 123 0
125 140 0
126 139 0
148 162 0
139 152 0
130 144 0
116 126 0
114 126 0
131 142 0
119 130 0
123 133 0
128 140 0
87 95 0
100 110 0
111 123 0
95 104 0
98 107 0
121 132 0
126 138 0
140 155 0
125 137 0
117 129 0
125 139 0
141 153 0
136 150 0
132 148 0
106 120 0
132 148 0
135 150 0
145 159 0
128 140 0
98 111 0
132 147 0
132 146 0
110 128 0
106 122 0
122 137 0
152 167 0
159 176 0
123 138 0
84 102 0
134 147 0
162 178 0
138 155 0
143 164 0
120 138 0
124 143 0
118 133 0
110 123 0
139 159 0
136 153 0
95 113 0
128 147 0
112 131 0
135 156 0
146 162 0
148 167 0
124 140 0
135 152 0
89 104 0
120 136 0
156 177 0
161 180 0
152 171 0
121 138 0
161 179 0
163 181 0
141 158 0
119 137 0
149 170 0
143 158 0
144 163 0
128 148 0
140 159 0
102 124 0
138 156 0
123 142 0
160 182 0
149 170 0
141 160 0
121 140 0
126 147 0
132 151 0
110 128 0
125 147 0
151 172 0
140 158 0
134 152 0
122 145 0
138 153 0
145 165 0
115 133 0
137 158 0
72 93 0
127 146 0
147 169 0
86 102 0
115 132 0
137 156 0
145 168 0
123 140 0
101 120 0
170 190 0
120 141 0
102 119 0
134 152 0
112 133 0
135 156 0
132 154 0
141 157 0
98 110 0
115 133 0
139 162 0
105 125 0
98 118 0
113 131 0
112 127 0
130 148 0
101 119 0
61 81 0
130 152 0
126 147 0
125 145 0
141 162 0
126 145 0
87 108 0
127 140 0
120 133 0
92 113 0
146 167 0
118 135 0
133 150 0
124 145 0
117 134 0
93 111 0
133 146 0
142 161 0
61 75 0
82 97 0
122 140 0
117 132 0
130 148 0
86 102 0
148 167 0
120 138 0
67 89 0
115 136 0
99 116 0
130 149 0
121 135 0
121 131 0
112 131 0
113 133 0
89 111 0
133 150 0
109 126 0
135 152 0
104 119 0
116 136 0
140 156 0
118 133 0
133 152 0
100 114 0
108 126 0
104 122 0
94 109 0
157 179 0
94 112 0
96 109 0
96 104 0
99 113 0
135 151 0
105 124 0
113 132 0
98 113 0
152 169 0
123 143 0
164 187 0
155 172 0
144 161 0
97 112 0
150 162 0
159 176 0
117 138 0
105 122 0
143 162 0
123 140 0
127 142 0
132 144 0
98 118 0
129 142 0
116 129 0
108 116 0
125 139 0
146 153 0
135 151 0
97 107 0
150 161 0
141 157 0
149 164 0
145 167 0
160 170 0
127 139 0
157 176 0
130 138 0
122 136 0
103 105 0
143 159 0
97 115 0
142 153 0
140 147 0
111 128 0
139 148 0
139 152 0
144 152 0
97 109 0
153 173 0
112 117 0
120 127 0
118 128 0
121 130 0
127 131 0
140 154 0
129 150 0
140 150 0
132 130 0
149 154 0
122 122 0
150 162 0
144 151 0
127 129 0
148 163 0
160 172 0
133 143 0
105 103 0
153 160 0
136 143 0
121 113 0
127 129 0
147 150 0
163 169 0
152 158 0
100 100 0
139 148 0
147 151 0
112 103 0
101 99 0
131 143 0
142 137 0
132 130 0
132 136 0
149 148 0
124 123 0
123 129 0
146 140 0
131 116 0
131 129 0
105 92 0
129 129 0
122 118 0
123 115 0
99 87 0
112 100 0
107 97 0
133 128 0
107 89 0
118 120 0
94 84 0
131 125 0
154 158 0
119 111 0
113 106 0
126 118 0
120 113 0
136 138 0
132 118 0
92 71 0
113 105 0
138 134 0
130 121 0
122 119 0
146 146 0
124 112 0
137 132 0
115 102 0
127 114 0
128 114 0
116 107 0
136 132 0
119 99 0
161 162 0
109 102 0
139 140 0
126 115 0
154 150 0
144 139 0
120 110 0
136 130 0
138 127 0
134 127 0
161 167 0
141 144 0
153 158 0
137 135 0
146 144 0
153 158 0
138 128 0
152 147 0
148 151 0
142 154 0
158 170 0
158 164 0
170 181 0
167 175 0
157 157 0
151 158 0
174 187 0
162 176 0
158 168 0
171 183 0
155 162 0
164 175 0
166 175 0
167 180 0
173 191 0
166 181 0
157 170 0
155 164 0
166 174 0
169 182 0
163 178 0
170 180 0
172 190 0
158 174 0
170 188 0
164 181 0
164 174 0
151 161 0
173 194 0
162 174 0
168 183 0
169 185 0
169 181 0
158 182 0
176 193 0
152 173 0
166 187 0
167 187 0
171 195 0
169 191 0
166 187 0
155 178 0
169 190 0
150 173 0
168 189 0
165 184 0
160 180 0
161 181 0
173 191 0
167 185 0
165 185 0
166 185 0
164 185 0
153 171 0
167 187 0
170 190 0
164 183 0
154 171 0
160 176 0
158 176 0
138 156 0
163 180 0
155 173 0
152 170 0
152 170 0
161 180 0
154 169 0
151 167 0
158 175 0
139 154 0
144 163 0
148 162 0
162 178 0
138 152 0
158 176 0
145 162 0
139 154 0
152 171 0
146 163 0
138 152 0
139 153 0
151 166 0
147 164 0
114 126 0
136 150 0
128 141 0
137 151 0
145 159 0
131 144 0
142 154 0
130 143 0
127 141 0
99 109 0
115 127 0
103 115 0
116 129 0
151 166 0
105 116 0
121 134 0
102 113 0
111 122 0
133 146 0
126 137 0
136 145 0
92 105 0
132 144 0
147 160 0
120 133 0
127 139 0
108 122 0
129 144 0
107 118 0
120 132 0
115 127 0
129 143 0
120 134 0
118 133 0
115 129 0
134 148 0
118 134 0
131 144 0
126 143 0
123 136 0
134 150 0
129 145 0
123 137 0
127 142 0
132 148 0
149 162 0
140 155 0
132 148 0
137 152 0
148 166 0
148 168 0
79 92 0
141 160 0
133 150 0
119 140 0
115 132 0
131 146 0
134 151 0
154 174 0
119 135 0
128 143 0
138 154 0
111 127 0
106 124 0
108 122 0
143 159 0
143 158 0
141 154 0
135 152 0
143 160 0
136 155 0
134 149 0
146 165 0
128 144 0
135 156 0
145 164 0
148 173 0
155 176 0
133 152 0
149 170 0
141 161 0
98 117 0
139 156 0
134 151 0
132 150 0
119 137 0
118 137 0
111 123 0
123 143 0
139 158 0
134 151 0
115 136 0
154 178 0
156 179 0
141 161 0
109 129 0
113 131 0
147 168 0
136 158 0
150 171 0
139 160 0
133 157 0
87 103 0
118 138 0
157 178 0
116 136 0
114 128 0
137 158 0
114 137 0
134 154 0
106 124 0
114 132 0
106 125 0
149 171 0
129 148 0
122 135 0
120 142 0
142 166 0
140 156 0
122 141 0
102 121 0
117 134 0
98 118 0
130 152 0
121 140 0
123 140 0
115 133 0
121 141 0
107 126 0
94 108 0
102 122 0
125 145 0
89 110 0
129 146 0
112 133 0
119 139 0
126 146 0
123 140 0
115 132 0
151 172 0
109 130 0
128 146 0
106 121 0
126 147 0
161 185 0
130 149 0
120 135 0
115 137 0
100 116 0
126 141 0
140 161 0
132 150 0
124 142 0
99 115 0
129 149 0
103 125 0
115 132 0
95 115 0
83 100 0
132 147 0
83 101 0
120 140 0
121 139 0
85 99 0
139 160 0
126 144 0
118 135 0
111 127 0
149 171 0
136 153 0
116 136 0
139 161 0
139 156 0
154 172 0
85 99 0
124 146 0
144 163 0
111 132 0
76 82 0
102 115 0
138 159 0
113 127 0
111 123 0
122 131 0
143 162 0
130 148 0
149 160 0
138 158 0
105 120 0
112 131 0
143 166 0
157 172 0
88 103 0
148 167 0
133 143 0
117 126 0
174 194 0
156 176 0
145 162 0
126 139 0
124 140 0
95 110 0
121 131 0
128 134 0
121 135 0
152 171 0
150 169 0
97 116 0
124 141 0
140 159 0
153 172 0
115 133 0
120 132 0
121 134 0
135 153 0
135 141 0
155 172 0
158 179 0
140 153 0
159 175 0
120 129 0
148 166 0
118 132 0
132 150 0
104 108 0
126 133 0
157 171 0
116 130 0
158 164 0
143 157 0
115 123 0
120 128 0
132 142 0
151 158 0
169 190 0
141 161 0
141 153 0
120 118 0
139 151 0
107 115 0
113 119 0
151 170 0
151 159 0
150 157 0
121 121 0
118 114 0
159 174 0
116 109 0
144 149 0
97 104 0
153 156 0
124 133 0
135 138 0
122 118 0
152 167 0
125 128 0
165 165 0
144 144 0
121 130 0
104 94 0
148 148 0
138 147 0
118 121 0
122 120 0
118 113 0
106 99 0
122 123 0
135 135 0
126 120 0
149 157 0
114 102 0
107 97 0
108 90 0
89 82 0
121 117 0
125 114 0
127 110 0
115 104 0
151 145 0
135 122 0
123 124 0
119 108 0
119 103 0
93 69 0
139 132 0
147 146 0
132 135 0
167 177 0
107 99 0
107 88 0
154 150 0
137 127 0
134 128 0
146 147 0
129 113 0
130 129 0
149 150 0
120 106 0
111 97 0
133 128 0
146 141 0
139 141 0
149 146 0
144 147 0
128 122 0
146 153 0
163 173 0
133 123 0
157 161 0
134 130 0
144 134 0
168 177 0
149 145 0
135 136 0
163 167 0
156 163 0
170 181 0
168 179 0
162 167 0
160 164 0
163 178 0
140 137 0
158 166 0
161 164 0
171 189 0
157 169 0
154 160 0
156 162 0
156 165 0
160 170 0
150 157 0
163 173 0
157 166 0
160 167 0
160 168 0
146 155 0
148 153 0
151 152 0
159 163 0
174 188 0
169 186 0
169 184 0
167 183 0
159 169 0
163 172 0
166 180 0
170 190 0
170 184 0
170 192 0
171 190 0
166 184 0
169 191 0
163 183 0
166 186 0
171 190 0
164 186 0
167 191 0
163 185 0
173 192 0
165 186 0
159 177 0
169 191 0
166 185 0
171 194 0
148 168 0
178 198 0
160 177 0
160 180 0
158 178 0
147 165 0
160 181 0
161 182 0
170 189 0
149 165 0
173 190 0
156 175 0
157 180 0
162 179 0
154 174 0
157 176 0
143 158 0
159 177 0
155 172 0
150 165 0
134 149 0
161 179 0
166 181 0
136 149 0
140 152 0
153 169 0
152 169 0
162 179 0
146 163 0
153 168 0
145 160 0
148 162 0
150 166 0
163 179 0
147 162 0
137 149 0
140 152 0
145 161 0
143 158 0
142 157 0
139 154 0
149 164 0
110 121 0
160 175 0
113 123 0
133 148 0
132 145 0
141 153 0
127 140 0
151 165 0
119 129 0
147 161 0
138 151 0
127 139 0
136 150 0
143 158 0
144 159 0
131 144 0
116 129 0
114 128 0
134 150 0
127 138 0
125 138 0
149 162 0
141 158 0
137 151 0
145 158 0
123 136 0
134 150 0
141 154 0
127 140 0
133 148 0
122 138 0
124 140 0
137 154 0
154 169 0
147 163 0
102 117 0
139 157 0
135 154 0
143 159 0
127 141 0
135 154 0
138 153 0
122 140 0
132 150 0
141 157 0
136 152 0
123 139 0
131 148 0
149 166 0
168 188 0
131 149 0
130 147 0
151 169 0
138 159 0
131 148 0
136 151 0
115 134 0
120 136 0
150 168 0
106 125 0
126 144 0
126 144 0
155 173 0
132 147 0
96 112 0
110 128 0
149 167 0
154 177 0
147 168 0
135 154 0
149 170 0
152 171 0
136 155 0
145 160 0
158 180 0
159 176 0
138 159 0
143 166 0
123 140 0
141 161 0
144 164 0
155 179 0
130 151 0
139 157 0
109 124 0
128 147 0
132 151 0
134 158 0
128 148 0
90 110 0
145 168 0
146 167 0
146 162 0
151 171 0
132 151 0
143 163 0
123 145 0
145 166 0
152 175 0
144 164 0
135 158 0
110 122 0
127 147 0
135 153 0
148 170 0
112 134 0
93 110 0
97 114 0
109 128 0
86 105 0
150 168 0
144 163 0
149 168 0
157 179 0
115 135 0
144 164 0
139 159 0
125 145 0
140 161 0
112 130 0
113 132 0
92 110 0
130 151 0
85 100 0
139 157 0
136 159 0
128 147 0
116 132 0
116 137 0
146 162 0
138 157 0
121 139 0
134 151 0
110 124 0
116 128 0
115 139 0
102 122 0
104 120 0
131 149 0
114 135 0
90 109 0
105 120 0
135 154 0
148 171 0
118 127 0
107 125 0
138 157 0
88 107 0
129 148 0
60 74 0
119 141 0
137 161 0
103 125 0
144 164 0
115 136 0
137 157 0
105 122 0
115 131 0
140 159 0
111 130 0
133 154 0
152 174 0
108 131 0
89 105 0
141 159 0
138 157 0
138 149 0
132 140 0
137 153 0
135 149 0
159 177 0
144 160 0
139 159 0
102 123 0
110 132 0
81 96 0
127 145 0
113 130 0
133 152 0
139 153 0
141 150 0
134 151 0
141 160 0
129 146 0
141 157 0
129 142 0
145 167 0
163 183 0
147 162 0
150 168 0
159 177 0
123 137 0
125 144 0
136 157 0
163 181 0
135 150 0
152 169 0
118 139 0
141 151 0
133 149 0
146 163 0
120 134 0
135 150 0
165 177 0
158 169 0
143 157 0
119 131 0
119 129 0
147 163 0
147 163 0
98 111 0
138 151 0
133 145 0
125 138 0
133 146 0
150 164 0
106 103 0
137 148 0
131 143 0
139 153 0
137 158 0
141 156 0
118 129 0
125 143 0
133 144 0
122 127 0
156 168 0
117 120 0
143 159 0
124 141 0
138 150 0
102 107 0
121 130 0
127 134 0
127 120 0
131 143 0
101 110 0
154 154 0
144 161 0
95 93 0
119 118 0
134 135 0
135 139 0
143 153 0
112 105 0
142 152 0
127 128 0
131 132 0
130 133 0
108 98 0
143 143 0
115 108 0
125 132 0
128 120 0
116 104 0
128 131 0
147 154 0
128 118 0
130 131 0
120 123 0
130 130 0
138 132 0
130 135 0
125 123 0
130 129 0
104 89 0
119 106 0
129 122 0
127 120 0
144 135 0
147 147 0
124 127 0
129 121 0
133 133 0
100 86 0
130 119 0
142 139 0
125 117 0
130 119 0
116 93 0
124 119 0
120 107 0
125 118 0
143 145 0
127 119 0
119 119 0
130 122 0
145 145 0
154 144 0
118 105 0
140 137 0
130 117 0
140 138 0
135 133 0
138 141 0
137 140 0
133 123 0
139 135 0
123 117 0
129 126 0
156 158 0
156 159 0
122 109 0
146 138 0
162 176 0
142 145 0
153 159 0
134 133 0
141 143 0
164 165 0
152 159 0
125 122 0
131 127 0
145 141 0
139 131 0
150 150 0
145 142 0
154 159 0
169 174 0
153 154 0
151 158 0
152 160 0
163 174 0
145 149 0
165 179 0
163 175 0
166 175 0
151 153 0
167 172 0
158 166 0
148 157 0
139 139 0
167 176 0
168 180 0
163 169 0
171 185 0
171 189 0
173 192 0
153 162 0
170 186 0
167 181 0
168 177 0
153 164 0
157 172 0
163 187 0
161 182 0
167 188 0
166 184 0
161 182 0
161 180 0
171 190 0
167 184 0
162 182 0
156 176 0
175 196 0
172 191 0
153 174 0
156 176 0
157 175 0
167 187 0
153 172 0
174 193 0
144 163 0
154 174 0
154 175 0
149 168 0
169 184 0
161 177 0
159 179 0
165 187 0
172 190 0
170 188 0
165 184 0
162 181 0
158 176 0
165 179 0
162 182 0
159 174 0
170 188 0
150 165 0
174 189 0
152 168 0
152 165 0
150 165 0
127 141 0
144 159 0
161 179 0
158 175 0
168 183 0
161 177 0
150 166 0
149 166 0
154 168 0
151 167 0
142 156 0
147 162 0
132 146 0
143 159 0
147 164 0
138 151 0
114 125 0
133 147 0
138 152 0
135 148 0
135 151 0
148 161 0
108 122 0
173 190 0
155 168 0
126 137 0
138 151 0
119 132 0
137 151 0
124 137 0
145 159 0
122 135 0
114 125 0
127 140 0
133 147 0
117 128 0
147 164 0
126 141 0
136 151 0
118 129 0
134 149 0
144 161 0
128 144 0
154 170 0
111 125 0
123 138 0
135 148 0
123 138 0
143 155 0
138 153 0
143 159 0
132 146 0
136 153 0
126 142 0
131 146 0
116 133 0
136 152 0
143 161 0
147 162 0
115 130 0
133 154 0
129 147 0
141 159 0
139 154 0
137 154 0
108 127 0
138 155 0
151 171 0
141 160 0
143 162 0
155 176 0
132 149 0
141 160 0
145 165 0
142 161 0
134 148 0
131 149 0
158 178 0
141 163 0
133 153 0
144 164 0
137 155 0
140 158 0
136 156 0
147 163 0
134 151 0
135 155 0
104 124 0
119 141 0
139 156 0
140 157 0
126 142 0
125 147 0
150 168 0
142 161 0
128 149 0
140 159 0
122 139 0
100 122 0
131 151 0
148 166 0
132 150 0
113 133 0
129 149 0
93 113 0
141 161 0
136 158 0
108 127 0
123 142 0
143 163 0
150 169 0
131 153 0
112 132 0
127 146 0
86 105 0
114 134 0
127 145 0
142 164 0
148 170 0
113 134 0
142 160 0
110 132 0
147 163 0
137 159 0
114 132 0
137 158 0
116 130 0
123 144 0
109 130 0
122 139 0
131 151 0
120 140 0
120 139 0
121 137 0
144 165 0
153 172 0
129 150 0
130 151 0
128 149 0
105 121 0
148 168 0
135 152 0
154 172 0
147 163 0
111 128 0
149 168 0
145 166 0
108 123 0
137 155 0
135 157 0
136 157 0
117 134 0
121 140 0
137 157 0
117 135 0
94 115 0
146 167 0
112 133 0
111 131 0
112 132 0
147 167 0
123 143 0
107 123 0
111 128 0
127 143 0
133 152 0
138 151 0
103 122 0
100 122 0
135 153 0
160 181 0
138 159 0
118 138 0
156 176 0
136 153 0
128 147 0
130 147 0
71 90 0
105 124 0
145 158 0
84 100 0
101 126 0
81 102 0
138 159 0
113 133 0
142 162 0
115 131 0
140 160 0
134 145 0
175 198 0
129 150 0
133 148 0
137 151 0
138 152 0
114 133 0
124 136 0
147 160 0
141 160 0
142 158 0
138 159 0
123 143 0
138 152 0
169 191 0
143 154 0
111 127 0
143 160 0
153 168 0
149 165 0
128 150 0
131 149 0
122 140 0
121 136 0
115 129 0
107 115 0
134 152 0
91 97 0
103 121 0
153 171 0
145 160 0
155 170 0
133 152 0
120 132 0
138 158 0
145 161 0
158 177 0
135 148 0
131 145 0
143 155 0
129 138 0
161 174 0
143 155 0
104 117 0
131 142 0
141 143 0
152 163 0
152 170 0
126 143 0
100 125 0
144 159 0
130 140 0
118 124 0
143 151 0
110 129 0
152 164 0
156 167 0
145 146 0
144 150 0
156 171 0
129 136 0
137 148 0
130 138 0
144 147 0
122 122 0
156 168 0
121 113 0
115 121 0
127 125 0
130 131 0
163 175 0
142 152 0
147 148 0
130 127 0
140 141 0
144 152 0
151 159 0
131 132 0
162 174 0
121 122 0
116 108 0
152 159 0
120 112 0
121 115 0
113 112 0
124 118 0
124 124 0
113 101 0
123 119 0
141 129 0
120 109 0
134 129 0
116 109 0
121 107 0
100 92 0
115 107 0
149 153 0
147 141 0
130 129 0
132 126 0
111 111 0
122 115 0
112 99 0
137 140 0
144 146 0
127 126 0
122 112 0
140 138 0
120 111 0
113 97 0
130 130 0
143 144 0
115 111 0
143 144 0
137 134 0
144 135 0
126 127 0
137 124 0
150 154 0
121 113 0
147 144 0
138 136 0
134 132 0
153 151 0
139 131 0
139 130 0
137 130 0
122 112 0
127 120 0
169 172 0
146 145 0
148 146 0
129 123 0
149 147 0
120 110 0
155 148 0
153 150 0
137 135 0
155 156 0
142 140 0
163 167 0
160 162 0
147 146 0
166 174 0
162 170 0
144 140 0
157 161 0
156 167 0
165 176 0
171 182 0
148 153 0
140 141 0
166 183 0
150 157 0
149 160 0
158 166 0
154 153 0
163 171 0
151 162 0
150 159 0
161 174 0
157 169 0
161 174 0
164 176 0
162 175 0
168 191 0
165 176 0
160 175 0
169 187 0
177 195 0
171 190 0
150 158 0
163 184 0
159 179 0
151 172 0
162 185 0
155 174 0
185 203 0
164 184 0
163 182 0
160 178 0
175 195 0
170 188 0
160 177 0
167 186 0
158 176 0
148 164 0
167 188 0
162 179 0
147 163 0
164 182 0
169 187 0
155 171 0
165 186 0
140 158 0
162 181 0
169 188 0
142 158 0
153 173 0
150 166 0
160 176 0
162 183 0
164 182 0
163 181 0
171 189 0
159 177 0
156 173 0
150 168 0
157 174 0
159 178 0
137 151 0
155 171 0
134 149 0
149 164 0
161 178 0
154 170 0
149 165 0
161 178 0
138 152 0
157 172 0
151 167 0
139 154 0
139 153 0
125 136 0
136 152 0
128 140 0
152 170 0
129 146 0
155 171 0
124 139 0
127 141 0
141 157 0
111 122 0
149 164 0
137 151 0
128 140 0
125 139 0
117 130 0
111 122 0
113 127 0
133 142 0
147 161 0
123 134 0
157 174 0
106 118 0
133 146 0
134 145 0
149 164 0
142 156 0
132 146 0
133 146 0
117 131 0
127 144 0
130 145 0
153 171 0
136 151 0
150 167 0
115 133 0
132 147 0
127 141 0
155 170 0
151 166 0
133 146 0
142 165 0
131 149 0
140 156 0
156 176 0
158 174 0
116 130 0
150 168 0
115 131 0
158 178 0
124 143 0
114 131 0
119 136 0
131 145 0
142 161 0
113 131 0
118 136 0
129 144 0
135 154 0
146 162 0
127 147 0
142 162 0
154 173 0
155 174 0
150 168 0
146 166 0
132 153 0
150 170 0
128 151 0
124 145 0
160 181 0
139 160 0
121 143 0
127 145 0
138 158 0
146 165 0
127 144 0
107 123 0
138 161 0
135 154 0
154 172 0
150 168 0
144 166 0
122 144 0
141 161 0
129 150 0
130 144 0
160 181 0
148 167 0
158 177 0
136 157 0
140 162 0
116 130 0
162 182 0
149 166 0
139 156 0
129 150 0
142 163 0
116 136 0
113 130 0
134 153 0
140 162 0
148 171 0
102 121 0
123 145 0
141 157 0
126 146 0
102 122 0
140 160 0
137 153 0
147 169 0
130 152 0
149 169 0
133 151 0
95 113 0
146 170 0
130 151 0
126 144 0
113 134 0
140 162 0
114 136 0
108 129 0
136 159 0
159 180 0
121 137 0
113 131 0
110 135 0
110 132 0
172 193 0
135 160 0
124 143 0
100 120 0
123 145 0
86 103 0
120 141 0
99 122 0
82 103 0
121 144 0
106 114 0
142 162 0
123 137 0
104 123 0
86 107 0
132 152 0
126 147 0
124 146 0
146 169 0
115 133 0
145 168 0
158 178 0
100 113 0
139 162 0
124 145 0
86 103 0
115 135 0
136 148 0
133 152 0
104 121 0
126 145 0
136 159 0
113 134 0
129 150 0
95 109 0
115 127 0
150 171 0
124 143 0
114 123 0
148 169 0
102 114 0
132 141 0
103 120 0
118 130 0
96 113 0
127 138 0
123 144 0
132 150 0
139 152 0
111 129 0
152 170 0
148 164 0
142 158 0
84 97 0
135 152 0
131 152 0
133 155 0
135 157 0
104 120 0
91 106 0
133 154 0
153 170 0
144 160 0
138 154 0
132 150 0
137 154 0
144 165 0
113 131 0
145 159 0
141 153 0
113 129 0
131 140 0
130 145 0
139 150 0
137 151 0
154 175 0
85 102 0
117 135 0
146 154 0
123 143 0
149 160 0
117 136 0
137 150 0
126 141 0
176 198 0
129 143 0
132 151 0
132 144 0
124 135 0
119 137 0
153 172 0
126 141 0
141 152 0
96 107 0
140 154 0
137 151 0
134 148 0
123 140 0
128 135 0
132 148 0
141 146 0
158 162 0
128 135 0
135 143 0
108 123 0
138 152 0
131 137 0
142 152 0
102 113 0
160 159 0
101 115 0
136 150 0
130 142 0
148 155 0
142 156 0
124 124 0
139 152 0
149 160 0
159 172 0
135 147 0
128 135 0
89 93 0
150 162 0
143 152 0
136 142 0
151 154 0
160 175 0
154 159 0
149 147 0
147 157 0
134 139 0
146 155 0
117 107 0
138 142 0
137 141 0
124 120 0
164 173 0
129 131 0
129 120 0
148 155 0
144 152 0
129 136 0
135 134 0
129 122 0
141 136 0
150 151 0
119 110 0
108 108 0
135 139 0
149 152 0
132 122 0
128 115 0
136 130 0
125 131 0
133 123 0
141 142 0
143 142 0
103 96 0
134 134 0
129 120 0
114 106 0
120 108 0
143 143 0
101 85 0
138 125 0
145 141 0
133 135 0
148 145 0
164 168 0
149 145 0
144 142 0
137 135 0
152 149 0
130 125 0
152 153 0
142 138 0
142 143 0
147 143 0
169 182 0
158 164 0
144 139 0
137 125 0
149 149 0
155 160 0
155 150 0
139 140 0
150 154 0
167 176 0
150 147 0
161 162 0
152 159 0
137 136 0
148 146 0
165 176 0
150 152 0
156 157 0
166 177 0
155 158 0
154 162 0
156 161 0
150 146 0
156 169 0
160 172 0
159 171 0
154 160 0
167 177 0
159 163 0
160 168 0
156 156 0
175 194 0
157 174 0
168 179 0
164 175 0
169 178 0
164 180 0
158 169 0
148 148 0
167 187 0
155 160 0
166 177 0
155 169 0
173 194 0
163 182 0
171 191 0
164 184 0
173 193 0
158 175 0
166 186 0
164 183 0
164 186 0
175 190 0
167 186 0
163 183 0
165 186 0
166 184 0
139 156 0
164 185 0
160 180 0
148 166 0
156 174 0
160 178 0
158 175 0
141 157 0
167 184 0
164 185 0
137 154 0
132 148 0
139 155 0
122 139 0
160 175 0
148 162 0
128 144 0
160 179 0
153 169 0
159 174 0
141 157 0
152 170 0
147 164 0
137 156 0
140 156 0
143 156 0
142 155 0
150 164 0
153 168 0
144 160 0
131 146 0
149 165 0
153 168 0
151 167 0
139 152 0
140 154 0
134 147 0
148 163 0
136 152 0
128 140 0
152 170 0
137 151 0
130 144 0
156 169 0
144 161 0
134 147 0
135 150 0
139 150 0
132 147 0
152 168 0
146 161 0
120 133 0
126 143 0
130 144 0
101 115 0
140 156 0
149 164 0
118 127 0
133 149 0
153 167 0
141 155 0
153 170 0
143 157 0
141 156 0
146 163 0
127 143 0
129 146 0
153 174 0
158 174 0
99 112 0
127 144 0
130 147 0
118 134 0
128 140 0
121 135 0
123 140 0
152 169 0
126 142 0
155 169 0
146 164 0
128 147 0
131 150 0
124 141 0
150 170 0
141 158 0
105 118 0
151 171 0
162 178 0
131 149 0
154 171 0
144 163 0
145 165 0
122 141 0
148 164 0
151 171 0
123 140 0
137 156 0
150 167 0
133 152 0
145 165 0
146 165 0
111 130 0
127 147 0
162 183 0
125 143 0
133 152 0
131 149 0
158 177 0
136 155 0
159 178 0
166 187 0
158 176 0
124 147 0
133 154 0
149 168 0
141 158 0
126 145 0
113 131 0
159 175 0
161 185 0
93 112 0
126 147 0
136 157 0
158 179 0
133 153 0
124 144 0
148 167 0
125 146 0
140 160 0
147 167 0
131 150 0
138 158 0
122 135 0
132 154 0
123 145 0
114 133 0
120 137 0
110 132 0
128 149 0
132 152 0
137 159 0
128 151 0
147 170 0
144 165 0
122 141 0
74 93 0
130 150 0
126 147 0
123 140 0
113 136 0
151 169 0
152 174 0
109 127 0
97 116 0
151 169 0
112 132 0
136 154 0
138 159 0
119 138 0
123 143 0
147 171 0
109 126 0
118 137 0
122 143 0
122 134 0
123 146 0
96 120 0
84 103 0
122 144 0
146 165 0
133 156 0
141 156 0
125 144 0
125 146 0
129 149 0
129 145 0
115 130 0
129 150 0
126 147 0
135 156 0
125 140 0
144 165 0
126 142 0
149 168 0
148 170 0
102 121 0
147 166 0
133 150 0
138 154 0
136 157 0
115 135 0
124 137 0
126 140 0
114 132 0
109 121 0
137 154 0
113 131 0
127 147 0
148 168 0
115 135 0
101 109 0
114 136 0
133 152 0
143 158 0
71 92 0
115 134 0
142 156 0
126 141 0
117 132 0
122 139 0
127 149 0
119 137 0
146 162 0
149 168 0
124 140 0
126 145 0
148 169 0
136 153 0
139 162 0
145 163 0
111 129 0
144 165 0
131 150 0
158 179 0
89 109 0
114 132 0
109 127 0
123 144 0
145 164 0
139 158 0
146 164 0
164 178 0
95 115 0
121 133 0
137 155 0
138 150 0
105 125 0
170 181 0
157 175 0
158 177 0
152 165 0
112 128 0
133 150 0
154 172 0
140 159 0
157 175 0
135 150 0
148 161 0
101 118 0
148 171 0
152 172 0
123 145 0
126 137 0
153 172 0
132 151 0
150 165 0
139 153 0
108 111 0
166 184 0
146 165 0
131 145 0
135 148 0
154 166 0
130 139 0
118 136 0
156 175 0
139 150 0
143 151 0
133 141 0
160 174 0
130 141 0
127 130 0
141 159 0
142 149 0
165 177 0
134 152 0
136 143 0
131 145 0
138 151 0
137 150 0
110 115 0
166 183 0
147 154 0
143 147 0
127 136 0
116 117 0
124 132 0
141 150 0
142 160 0
148 159 0
128 128 0
141 145 0
119 115 0
123 122 0
102 110 0
121 121 0
127 128 0
101 104 0
130 141 0
145 154 0
146 146 0
139 142 0
132 135 0
130 125 0
121 116 0
109 108 0
119 112 0
127 118 0
136 137 0
139 141 0
122 126 0
119 112 0
150 154 0
149 148 0
139 139 0
107 96 0
129 130 0
138 132 0
134 132 0
135 135 0
126 125 0
144 147 0
126 122 0
136 134 0
141 138 0
125 108 0
144 149 0
162 169 0
113 96 0
124 103 0
125 122 0
128 120 0
153 159 0
142 142 0
144 146 0
148 151 0
133 121 0
154 160 0
127 113 0
140 143 0
152 145 0
145 147 0
125 123 0
140 138 0
143 145 0
135 131 0
168 175 0
113 108 0
156 159 0
140 140 0
145 146 0
146 146 0
138 129 0
147 151 0
149 148 0
157 168 0
153 156 0
130 136 0
174 189 0
144 138 0
177 192 0
139 144 0
150 148 0
155 160 0
121 110 0
172 176 0
164 170 0
164 177 0
146 145 0
142 143 0
178 196 0
150 152 0
156 162 0
159 161 0
164 175 0
166 177 0
162 178 0
168 172 0
169 185 0
158 162 0
154 164 0
164 173 0
159 171 0
171 189 0
166 182 0
147 145 0
176 194 0
168 186 0
173 191 0
168 190 0
162 180 0
162 180 0
162 180 0
160 181 0
159 178 0
167 186 0
148 166 0
140 157 0
175 195 0
157 177 0
162 180 0
164 183 0
174 194 0
156 174 0
166 186 0
152 172 0
160 179 0
161 177 0
170 189 0
158 175 0
161 177 0
147 167 0
125 141 0
139 154 0
144 161 0
146 162 0
147 162 0
153 172 0
154 173 0
161 177 0
156 171 0
136 152 0
141 154 0
160 175 0
144 160 0
147 161 0
158 177 0
161 178 0
152 170 0
110 121 0
135 148 0
132 149 0
162 181 0
141 155 0
149 164 0
153 167 0
147 160 0
140 156 0
134 147 0
151 164 0
139 156 0
142 156 0
152 165 0
127 142 0
136 150 0
139 155 0
136 151 0
115 127 0
122 137 0
153 168 0
153 170 0
149 165 0
127 143 0
129 142 0
139 157 0
131 145 0
165 184 0
156 173 0
143 157 0
135 149 0
137 149 0
126 142 0
96 115 0
120 134 0
141 155 0
136 156 0
158 176 0
113 125 0
121 132 0
137 155 0
144 161 0
142 156 0
140 157 0
136 152 0
134 152 0
142 162 0
138 151 0
163 179 0
156 177 0
130 146 0
146 161 0
138 155 0
150 168 0
111 124 0
154 172 0
158 177 0
154 178 0
104 122 0
122 139 0
162 181 0
123 139 0
137 158 0
149 170 0
130 149 0
136 154 0
124 147 0
150 170 0
120 140 0
140 158 0
145 162 0
132 155 0
136 155 0
156 175 0
107 124 0
142 165 0
107 125 0
122 140 0
130 150 0
154 177 0
133 150 0
111 128 0
132 153 0
128 151 0
96 115 0
155 176 0
133 153 0
145 164 0
152 172 0
140 159 0
149 164 0
98 117 0
143 164 0
131 155 0
143 165 0
152 176 0
157 178 0
125 143 0
149 166 0
140 159 0
156 176 0
134 156 0
139 153 0
156 176 0
147 165 0
144 168 0
142 163 0
135 155 0
144 168 0
140 158 0
109 128 0
124 139 0
131 152 0
143 162 0
120 141 0
144 167 0
149 166 0
155 175 0
153 176 0
145 165 0
103 123 0
146 167 0
142 163 0
117 133 0
143 166 0
116 136 0
143 163 0
142 159 0
130 149 0
129 146 0
118 135 0
115 137 0
113 134 0
125 146 0
160 181 0
128 147 0
114 128 0
124 141 0
80 94 0
125 144 0
103 122 0
110 133 0
119 133 0
86 106 0
141 159 0
141 161 0
111 134 0
136 158 0
128 148 0
131 147 0
144 165 0
152 177 0
144 162 0
152 175 0
104 126 0
131 152 0
129 149 0
134 155 0
95 114 0
129 147 0
121 137 0
144 166 0
96 111 0
160 182 0
143 162 0
123 139 0
122 143 0
125 144 0
137 157 0
121 142 0
143 166 0
135 156 0
112 133 0
127 144 0
128 151 0
149 172 0
140 163 0
103 120 0
111 130 0
97 118 0
123 144 0
72 82 0
151 170 0
103 115 0
135 153 0
132 144 0
144 158 0
125 131 0
97 110 0
111 133 0
160 180 0
137 158 0
147 163 0
148 166 0
139 153 0
116 127 0
155 174 0
119 133 0
171 189 0
135 151 0
103 118 0
160 176 0
120 134 0
134 150 0
134 145 0
107 118 0
149 168 0
131 148 0
123 131 0
118 132 0
113 125 0
123 136 0
153 172 0
139 148 0
145 160 0
148 161 0
169 184 0
140 162 0
138 153 0
137 152 0
152 167 0
143 156 0
133 146 0
159 165 0
122 143 0
152 162 0
124 145 0
118 127 0
137 150 0
165 181 0
122 126 0
127 143 0
154 178 0
118 139 0
169 191 0
117 130 0
151 163 0
102 109 0
123 138 0
153 156 0
143 154 0
107 110 0
138 154 0
121 138 0
133 139 0
147 161 0
112 117 0
151 156 0
152 158 0
143 149 0
128 140 0
143 146 0
133 137 0
127 139 0
133 144 0
113 121 0
140 149 0
161 174 0
114 118 0
168 178 0
123 131 0
146 155 0
132 141 0
140 150 0
142 144 0
151 154 0
126 126 0
150 161 0
133 146 0
102 107 0
164 171 0
165 175 0
144 152 0
148 147 0
117 102 0
137 148 0
144 146 0
140 141 0
118 118 0
133 127 0
147 150 0
120 117 0
136 129 0
142 150 0
140 141 0
147 141 0
145 145 0
142 139 0
133 131 0
122 118 0
139 134 0
121 112 0
129 128 0
133 129 0
161 171 0
130 127 0
139 142 0
142 150 0
126 122 0
139 136 0
151 152 0
149 146 0
143 136 0
125 115 0
115 101 0
150 148 0
110 96 0
129 122 0
142 141 0
148 142 0
154 152 0
135 133 0
148 143 0
134 134 0
143 139 0
131 133 0
122 120 0
154 161 0
138 141 0
151 160 0
140 141 0
158 166 0
161 164 0
136 129 0
164 174 0
160 163 0
154 155 0
149 148 0
139 139 0
152 154 0
156 167 0
145 137 0
162 168 0
165 174 0
127 130 0
142 138 0
139 141 0
168 174 0
142 149 0
149 145 0
151 153 0
156 161 0
164 175 0
163 180 0
166 177 0
166 183 0
156 161 0
138 133 0
150 154 0
161 165 0
162 169 0
146 145 0
164 173 0
157 165 0
166 177 0
176 195 0
171 184 0
157 167 0
164 182 0
159 180 0
157 176 0
176 194 0
163 181 0
172 193 0
162 183 0
167 186 0
149 167 0
140 160 0
139 156 0
167 186 0
155 173 0
171 188 0
153 172 0
152 171 0
147 165 0
147 165 0
160 180 0
163 183 0
164 184 0
161 181 0
170 186 0
149 168 0
154 170 0
167 186 0
142 161 0
167 187 0
148 167 0
152 171 0
151 167 0
152 169 0
148 166 0
160 176 0
146 164 0
136 151 0
138 152 0
158 172 0
157 172 0
129 144 0
139 157 0
159 175 0
142 158 0
139 153 0
156 174 0
140 156 0
136 149 0
147 163 0
143 160 0
146 160 0
152 171 0
121 132 0
147 163 0
131 145 0
141 156 0
144 158 0
164 180 0
138 153 0
139 153 0
120 132 0
141 156 0
148 162 0
145 160 0
133 147 0
147 162 0
139 153 0
126 142 0
131 144 0
134 150 0
131 148 0
107 119 0
147 161 0
116 128 0
151 165 0
145 162 0
134 150 0
146 160 0
156 172 0
142 158 0
135 152 0
138 151 0
137 153 0
153 171 0
148 164 0
159 176 0
143 160 0
151 167 0
153 169 0
162 182 0
137 153 0
165 183 0
130 147 0
126 140 0
134 149 0
134 149 0
137 156 0
138 156 0
155 173 0
103 122 0
126 142 0
150 170 0
133 151 0
144 163 0
155 175 0
154 172 0
121 138 0
120 140 0
135 152 0
146 165 0
141 160 0
143 159 0
99 111 0
141 158 0
117 136 0
151 170 0
131 152 0
149 167 0
134 152 0
130 152 0
98 115 0
142 161 0
142 163 0
150 167 0
130 147 0
137 158 0
143 166 0
73 94 0
147 168 0
127 144 0
142 164 0
146 168 0
112 130 0
128 148 0
143 163 0
137 158 0
135 152 0
129 148 0
152 171 0
148 167 0
121 140 0
142 164 0
146 168 0
127 146 0
129 150 0
155 176 0
155 180 0
131 154 0
144 166 0
158 178 0
132 148 0
153 174 0
149 170 0
149 169 0
141 161 0
150 169 0
135 157 0
155 177 0
135 153 0
114 132 0
106 127 0
101 120 0
143 165 0
116 134 0
137 156 0
142 162 0
129 149 0
120 140 0
107 126 0
96 118 0
165 187 0
112 134 0
138 158 0
116 134 0
97 115 0
105 124 0
147 167 0
137 156 0
148 172 0
132 155 0
124 141 0
145 167 0
118 137 0
135 153 0
151 166 0
135 157 0
119 136 0
145 168 0
139 156 0
113 134 0
129 147 0
128 149 0
129 148 0
124 145 0
125 147 0
146 163 0
139 155 0
135 154 0
157 179 0
80 101 0
113 136 0
154 174 0
144 162 0
135 153 0
123 143 0
149 169 0
117 133 0
139 158 0
101 118 0
127 148 0
103 121 0
114 132 0
116 136 0
128 143 0
123 143 0
139 161 0
130 144 0
125 138 0
90 109 0
149 169 0
147 162 0
141 162 0
148 164 0
140 161 0
131 146 0
131 151 0
135 153 0
149 165 0
133 156 0
116 130 0
140 160 0
98 108 0
126 143 0
144 160 0
137 156 0
103 120 0
133 156 0
125 145 0
147 158 0
160 183 0
139 155 0
139 158 0
141 154 0
142 158 0
129 147 0
125 143 0
148 161 0
152 171 0
128 144 0
140 158 0
130 147 0
114 131 0
154 169 0
132 152 0
123 146 0
125 140 0
126 138 0
104 121 0
122 127 0
134 151 0
97 113 0
131 137 0
118 136 0
145 162 0
160 171 0
159 178 0
142 154 0
158 175 0
143 159 0
142 153 0
119 122 0
107 118 0
150 162 0
135 148 0
133 139 0
140 161 0
101 115 0
132 147 0
151 164 0
140 147 0
172 185 0
134 149 0
134 148 0
138 151 0
147 156 0
139 157 0
125 141 0
135 147 0
145 160 0
119 122 0
146 151 0
117 122 0
118 130 0
139 139 0
147 159 0
133 145 0
171 189 0
138 154 0
141 153 0
141 155 0
140 153 0
153 169 0
153 164 0
128 127 0
145 154 0
116 119 0
112 110 0
158 168 0
150 159 0
110 108 0
138 145 0
117 117 0
136 144 0
132 136 0
139 141 0
146 149 0
149 159 0
122 129 0
145 147 0
142 158 0
155 157 0
144 148 0
168 186 0
120 109 0
154 153 0
131 130 0
107 98 0
123 122 0
140 139 0
129 135 0
147 147 0
149 147 0
130 126 0
150 156 0
153 155 0
129 126 0
154 156 0
137 140 0
140 139 0
108 100 0
145 139 0
139 140 0
133 138 0
118 108 0
150 150 0
128 130 0
137 133 0
139 146 0
150 152 0
144 145 0
153 151 0
129 128 0
132 130 0
147 143 0
161 156 0
157 159 0
151 157 0
130 119 0
161 166 0
156 160 0
132 132 0
122 101 0
163 170 0
155 168 0
149 155 0
129 127 0
131 119 0
137 124 0
136 135 0
162 164 0
148 149 0
135 142 0
147 149 0
150 153 0
150 152 0
161 170 0
147 148 0
158 156 0
160 168 0
136 139 0
147 152 0
146 151 0
134 127 0
157 165 0
142 139 0
126 130 0
162 179 0
161 170 0
162 173 0
156 150 0
162 174 0
159 173 0
152 155 0
156 173 0
154 163 0
175 188 0
162 170 0
158 169 0
158 170 0
165 174 0
173 190 0
154 174 0
157 175 0
157 178 0
157 178 0
155 171 0
162 180 0
166 187 0
172 193 0
167 188 0
169 188 0
157 174 0
160 178 0
171 191 0
164 181 0
157 174 0
165 185 0
147 167 0
156 174 0
174 192 0
163 180 0
168 188 0
165 182 0
162 180 0
139 157 0
113 128 0
151 169 0
167 187 0
167 185 0
167 184 0
152 169 0
149 168 0
151 164 0
145 160 0
157 173 0
163 182 0
162 179 0
163 182 0
166 183 0
120 133 0
162 177 0
119 130 0
158 174 0
145 161 0
156 174 0
153 171 0
157 173 0
138 154 0
141 156 0
129 143 0
141 158 0
145 160 0
151 165 0
156 172 0
140 158 0
123 136 0
146 161 0
142 156 0
130 146 0
126 142 0
143 156 0
146 159 0
171 191 0
156 170 0
144 160 0
140 157 0
151 168 0
151 167 0
122 139 0
163 181 0
143 161 0
137 154 0
135 148 0
149 165 0
146 165 0
124 140 0
154 173 0
138 155 0
143 162 0
135 148 0
155 172 0
162 179 0
140 159 0
143 159 0
138 157 0
150 166 0
153 171 0
141 159 0
150 170 0
135 149 0
124 145 0
151 169 0
118 137 0
118 132 0
143 161 0
148 164 0
115 129 0
133 151 0
143 159 0
143 161 0
148 164 0
156 173 0
154 173 0
142 162 0
141 158 0
148 164 0
132 152 0
106 119 0
118 141 0
143 160 0
139 160 0
144 159 0
137 157 0
160 182 0
140 160 0
150 170 0
124 145 0
148 169 0
159 177 0
147 166 0
151 172 0
141 162 0
120 138 0
139 160 0
144 161 0
160 183 0
121 138 0
151 170 0
129 148 0
132 152 0
126 144 0
149 171 0
130 153 0
145 166 0
134 158 0
141 160 0
110 124 0
129 149 0
138 157 0
137 158 0
102 121 0
120 143 0
118 139 0
140 161 0
153 175 0
130 150 0
139 159 0
163 180 0
115 129 0
131 155 0
149 169 0
146 166 0
141 159 0
115 135 0
130 149 0
158 179 0
113 134 0
142 164 0
100 118 0
110 129 0
99 114 0
153 172 0
103 120 0
102 122 0
152 175 0
117 138 0
71 93 0
114 136 0
134 157 0
135 156 0
100 116 0
176 196 0
110 129 0
120 141 0
106 124 0
136 158 0
134 155 0
144 165 0
139 159 0
111 133 0
133 155 0
140 158 0
98 116 0
122 144 0
156 180 0
153 174 0
140 159 0
136 153 0
134 155 0
140 160 0
141 162 0
146 162 0
117 131 0
133 157 0
110 134 0
147 163 0
99 115 0
133 152 0
107 123 0
159 181 0
153 171 0
135 158 0
137 156 0
146 166 0
123 143 0
112 128 0
132 149 0
135 154 0
126 147 0
114 138 0
131 152 0
140 158 0
124 142 0
114 133 0
157 179 0
144 168 0
123 140 0
139 158 0
136 157 0
144 165 0
143 163 0
99 122 0
122 139 0
135 149 0
125 146 0
138 160 0
165 184 0
123 145 0
128 142 0
128 137 0
123 145 0
162 184 0
133 147 0
116 135 0
164 188 0
135 152 0
93 110 0
163 175 0
88 109 0
143 161 0
139 159 0
130 147 0
132 151 0
109 126 0
139 151 0
110 117 0
122 136 0
133 141 0
147 165 0
137 157 0
114 124 0
136 158 0
145 154 0
143 157 0
136 154 0
106 115 0
107 123 0
122 136 0
122 139 0
151 171 0
148 166 0
151 169 0
147 164 0
158 174 0
136 158 0
140 159 0
148 165 0
145 163 0
112 121 0
130 154 0
140 154 0
159 172 0
155 167 0
130 146 0
171 189 0
147 162 0
169 183 0
139 151 0
155 172 0
121 136 0
136 150 0
131 149 0
145 157 0
145 152 0
149 161 0
154 170 0
134 146 0
147 168 0
135 150 0
115 115 0
116 120 0
129 135 0
154 173 0
148 160 0
142 145 0
119 131 0
132 134 0
128 139 0
136 147 0
164 172 0
157 168 0
159 167 0
112 114 0
94 103 0
139 147 0
141 136 0
96 95 0
113 116 0
145 154 0
149 165 0
127 130 0
131 135 0
140 144 0
116 104 0
146 160 0
126 134 0
159 159 0
155 168 0
152 150 0
161 173 0
149 157 0
145 150 0
135 136 0
130 140 0
126 132 0
142 132 0
174 187 0
109 112 0
138 137 0
148 154 0
122 119 0
142 148 0
151 159 0
149 153 0
127 134 0
132 124 0
138 140 0
136 144 0
139 139 0
139 130 0
136 130 0
127 125 0
125 124 0
137 143 0
129 134 0
170 173 0
147 143 0
144 138 0
161 170 0
130 137 0
146 149 0
143 143 0
125 120 0
120 102 0
124 110 0
145 139 0
146 144 0
166 174 0
120 118 0
160 172 0
145 140 0
137 125 0
140 128 0
129 132 0
155 160 0
133 135 0
157 163 0
159 159 0
164 173 0
132 127 0
170 186 0
156 165 0
156 159 0
151 157 0
166 176 0
147 146 0
148 145 0
174 185 0
167 179 0
159 168 0
167 181 0
155 158 0
158 170 0
156 163 0
143 139 0
162 166 0
160 167 0
161 175 0
169 180 0
147 161 0
124 126 0
176 185 0
140 142 0
155 157 0
164 168 0
160 170 0
149 160 0
164 174 0
165 182 0
160 173 0
169 188 0
152 172 0
160 181 0
160 178 0
155 173 0
160 181 0
166 186 0
168 190 0
158 176 0
134 150 0
138 157 0
170 189 0
151 170 0
163 183 0
162 178 0
150 166 0
160 178 0
158 177 0
156 171 0
169 190 0
152 171 0
150 166 0
160 177 0
157 175 0
160 176 0
161 180 0
152 170 0
160 178 0
161 180 0
135 151 0
151 170 0
148 165 0
148 166 0
129 141 0
142 157 0
159 178 0
131 149 0
146 163 0
146 161 0
140 149 0
139 154 0
146 162 0
159 177 0
133 150 0
150 167 0
154 168 0
160 179 0
138 153 0
146 163 0
137 153 0
151 165 0
132 147 0
145 160 0
148 163 0
152 171 0
144 161 0
157 175 0
139 157 0
123 139 0
152 167 0
145 161 0
152 170 0
157 176 0
149 167 0
129 147 0
148 167 0
127 142 0
130 144 0
130 144 0
144 158 0
147 165 0
151 167 0
112 127 0
142 159 0
164 183 0
133 150 0
155 170 0
140 155 0
152 171 0
129 145 0
103 119 0
128 145 0
146 163 0
156 175 0
146 162 0
162 182 0
146 164 0
152 171 0
141 157 0
139 157 0
147 164 0
131 147 0
103 120 0
159 178 0
148 166 0
129 146 0
155 177 0
144 161 0
130 150 0
124 145 0
128 146 0
97 115 0
145 161 0
114 131 0
148 170 0
145 165 0
140 158 0
135 157 0
149 171 0
94 111 0
143 157 0
141 162 0
128 148 0
155 176 0
171 193 0
143 161 0
149 171 0
97 112 0
131 153 0
118 137 0
152 170 0
146 166 0
164 186 0
148 171 0
114 128 0
138 160 0
124 143 0
163 185 0
148 169 0
138 153 0
153 174 0
131 152 0
126 149 0
158 182 0
160 181 0
157 179 0
148 169 0
151 176 0
133 152 0
115 133 0
145 169 0
138 158 0
142 159 0
132 153 0
144 165 0
153 176 0
140 162 0
176 196 0
104 117 0
158 182 0
145 164 0
139 157 0
141 162 0
145 163 0
120 141 0
131 151 0
94 117 0
131 151 0
121 140 0
125 145 0
133 156 0
153 177 0
158 179 0
134 151 0
130 149 0
146 170 0
153 174 0
139 162 0
150 170 0
133 151 0
125 148 0
136 155 0
166 188 0
126 144 0
130 149 0
123 145 0
133 157 0
145 167 0
118 136 0
109 123 0
100 118 0
136 158 0
117 138 0
95 105 0
88 103 0
137 155 0
146 169 0
134 156 0
140 164 0
141 163 0
128 146 0
137 161 0
118 141 0
134 155 0
140 157 0
109 130 0
110 130 0
80 98 0
138 157 0
126 149 0
142 162 0
149 170 0
169 190 0
119 139 0
135 155 0
129 145 0
152 174 0
126 149 0
137 155 0
137 155 0
141 160 0
122 140 0
132 152 0
116 135 0
156 175 0
124 145 0
138 157 0
133 151 0
98 119 0
125 147 0
125 144 0
100 116 0
141 152 0
135 152 0
144 166 0
112 133 0
146 166 0
90 103 0
163 183 0
138 152 0
121 134 0
158 180 0
137 154 0
136 147 0
117 137 0
115 130 0
90 100 0
156 176 0
153 170 0
146 167 0
122 137 0
146 165 0
130 152 0
131 144 0
144 163 0
118 134 0
101 122 0
145 164 0
159 173 0
132 149 0
147 169 0
121 134 0
138 159 0
138 147 0
133 154 0
135 159 0
144 166 0
153 170 0
153 165 0
133 153 0
127 136 0
141 157 0
127 130 0
147 165 0
125 140 0
105 114 0
134 148 0
122 141 0
122 138 0
136 150 0
136 143 0
118 130 0
139 134 0
145 167 0
79 76 0
143 157 0
139 153 0
150 167 0
140 156 0
118 125 0
134 153 0
95 110 0
141 157 0
156 160 0
156 169 0
145 157 0
146 156 0
142 156 0
142 159 0
140 151 0
141 149 0
163 178 0
121 134 0
146 163 0
127 146 0
140 152 0
140 155 0
137 143 0
146 163 0
152 167 0
136 140 0
156 167 0
129 137 0
149 163 0
139 148 0
131 143 0
158 171 0
145 158 0
152 158 0
145 158 0
138 147 0
159 163 0
135 143 0
122 128 0
164 175 0
137 143 0
144 153 0
137 147 0
117 115 0
124 132 0
130 138 0
149 155 0
129 126 0
133 134 0
151 159 0
121 107 0
144 145 0
161 165 0
152 161 0
126 123 0
146 153 0
149 154 0
142 153 0
139 141 0
136 142 0
151 153 0
160 155 0
144 143 0
126 121 0
150 157 0
143 144 0
112 114 0
143 148 0
114 116 0
154 154 0
115 107 0
150 147 0
143 140 0
147 146 0
131 124 0
154 164 0
140 131 0
143 144 0
140 143 0
144 145 0
143 140 0
139 141 0
154 155 0
160 164 0
158 162 0
153 143 0
145 141 0
148 148 0
138 135 0
165 170 0
147 151 0
150 153 0
161 165 0
135 128 0
166 180 0
142 133 0
136 136 0
146 149 0
135 128 0
154 159 0
153 161 0
163 171 0
165 167 0
149 152 0
144 147 0
155 155 0
146 152 0
152 155 0
144 143 0
139 146 0
156 163 0
152 166 0
156 149 0
158 163 0
137 134 0
158 172 0
168 173 0
154 159 0
157 161 0
153 157 0
165 177 0
150 155 0
155 160 0
168 179 0
154 149 0
156 164 0
170 192 0
159 177 0
154 172 0
155 173 0
165 184 0
170 188 0
156 176 0
161 181 0
163 185 0
160 177 0
168 187 0
152 171 0
155 171 0
166 184 0
164 183 0
163 180 0
158 176 0
145 165 0
153 172 0
148 166 0
160 175 0
141 159 0
147 163 0
162 179 0
148 165 0
137 154 0
146 163 0
164 182 0
150 168 0
146 163 0
155 172 0
155 171 0
152 168 0
144 160 0
150 165 0
152 166 0
162 178 0
152 167 0
160 178 0
160 175 0
141 156 0
151 169 0
157 174 0
153 170 0
147 164 0
146 164 0
136 150 0
152 168 0
159 175 0
147 163 0
172 189 0
141 156 0
144 161 0
157 174 0
135 149 0
168 187 0
164 181 0
126 139 0
145 163 0
137 153 0
158 175 0
125 139 0
159 176 0
148 166 0
159 176 0
148 165 0
152 170 0
148 161 0
143 159 0
154 171 0
148 166 0
138 153 0
145 163 0
133 152 0
130 145 0
112 128 0
147 167 0
136 152 0
142 160 0
146 164 0
155 174 0
131 142 0
153 169 0
121 139 0
154 173 0
110 125 0
158 174 0
139 158 0
130 146 0
141 157 0
155 176 0
150 166 0
133 154 0
142 160 0
126 147 0
131 148 0
120 137 0
139 158 0
131 151 0
141 163 0
97 110 0
121 137 0
154 173 0
159 178 0
136 156 0
131 152 0
138 159 0
152 172 0
135 153 0
130 148 0
128 143 0
134 150 0
138 160 0
136 156 0
134 158 0
129 151 0
128 151 0
143 167 0
136 157 0
167 187 0
143 163 0
145 166 0
123 141 0
162 186 0
148 169 0
153 173 0
150 169 0
152 175 0
108 125 0
116 131 0
148 165 0
119 139 0
146 166 0
140 159 0
128 151 0
149 171 0
137 158 0
138 160 0
129 148 0
157 178 0
133 151 0
146 163 0
134 152 0
150 172 0
130 149 0
146 165 0
131 153 0
139 163 0
119 141 0
141 160 0
147 167 0
139 157 0
123 149 0
126 139 0
168 189 0
136 157 0
137 156 0
151 171 0
147 168 0
155 176 0
157 173 0
148 170 0
144 164 0
144 164 0
144 163 0
126 148 0
125 147 0
125 145 0
130 153 0
115 130 0
134 156 0
97 115 0
130 147 0
140 164 0
116 139 0
114 135 0
138 159 0
145 165 0
111 131 0
153 172 0
141 162 0
147 166 0
171 191 0
141 161 0
123 145 0
147 165 0
115 138 0
103 122 0
131 148 0
117 135 0
143 159 0
146 165 0
124 139 0
135 156 0
129 145 0
161 180 0
142 158 0
101 122 0
141 160 0
145 163 0
149 169 0
135 156 0
105 127 0
121 138 0
133 160 0
129 152 0
142 152 0
119 139 0
121 133 0
119 134 0
111 130 0
149 159 0
129 148 0
140 162 0
112 127 0
158 180 0
142 160 0
140 158 0
149 169 0
132 154 0
129 151 0
165 185 0
148 171 0
132 152 0
149 171 0
113 126 0
146 160 0
135 154 0
137 158 0
156 178 0
126 144 0
148 171 0
166 184 0
153 172 0
152 178 0
143 162 0
161 182 0
150 173 0
103 114 0
150 167 0
144 163 0
152 173 0
143 161 0
158 174 0
130 147 0
154 175 0
133 150 0
129 140 0
139 155 0
158 176 0
133 154 0
131 150 0
125 141 0
123 144 0
142 160 0
133 147 0
114 130 0
159 176 0
144 159 0
91 101 0
152 172 0
141 154 0
130 142 0
122 143 0
158 176 0
106 121 0
153 169 0
150 171 0
155 173 0
147 165 0
138 153 0
155 164 0
137 158 0
137 144 0
134 151 0
134 147 0
136 151 0
153 172 0
132 136 0
152 167 0
116 133 0
135 147 0
155 164 0
145 158 0
139 144 0
138 152 0
123 132 0
139 156 0
151 166 0
124 134 0
147 161 0
123 136 0
139 149 0
172 186 0
107 123 0
140 149 0
132 138 0
160 177 0
133 148 0
153 167 0
112 119 0
150 168 0
143 154 0
131 141 0
124 139 0
139 150 0
130 148 0
128 126 0
129 141 0
128 129 0
116 122 0
157 169 0
151 150 0
144 154 0
151 158 0
135 146 0
123 131 0
137 148 0
137 144 0
162 169 0
154 158 0
146 159 0
153 160 0
129 130 0
154 166 0
134 140 0
136 135 0
134 142 0
145 150 0
124 127 0
149 160 0
127 131 0
123 124 0
135 130 0
163 174 0
137 145 0
125 130 0
160 166 0
132 118 0
143 143 0
161 171 0
152 152 0
147 140 0
156 154 0
149 148 0
152 149 0
154 154 0
147 151 0
149 150 0
145 144 0
153 154 0
159 166 0
144 146 0
126 129 0
166 175 0
160 161 0
152 159 0
135 134 0
115 118 0
140 146 0
149 153 0
162 170 0
157 160 0
148 156 0
149 145 0
158 163 0
156 164 0
129 128 0
149 154 0
138 138 0
155 162 0
149 152 0
162 172 0
164 176 0
174 180 0
147 149 0
145 143 0
142 142 0
131 132 0
133 127 0
151 158 0
149 157 0
161 173 0
172 187 0
156 160 0
144 153 0
141 145 0
161 171 0
149 153 0
166 183 0
167 181 0
149 152 0
154 165 0
138 136 0
161 173 0
169 182 0
150 158 0
165 184 0
164 178 0
157 170 0
170 187 0
157 179 0
169 185 0
160 179 0
164 182 0
147 163 0
150 167 0
164 182 0
153 171 0
162 179 0
161 181 0
163 181 0
159 176 0
150 165 0
152 172 0
161 178 0
151 168 0
151 167 0
146 163 0
166 185 0
151 169 0
153 172 0
159 178 0
148 165 0
158 179 0
158 176 0
154 172 0
119 133 0
164 181 0
156 174 0
160 177 0
158 175 0
157 176 0
160 177 0
153 169 0
158 175 0
156 171 0
123 135 0
135 150 0
159 177 0
158 176 0
158 173 0
145 161 0
143 158 0
146 160 0
161 179 0
135 148 0
142 158 0
169 186 0
129 145 0
145 163 0
150 167 0
152 169 0
137 154 0
156 173 0
135 148 0
121 134 0
153 172 0
151 166 0
150 167 0
164 182 0
151 169 0
128 142 0
148 165 0
140 155 0
140 158 0
134 154 0
125 141 0
130 146 0
152 170 0
155 172 0
135 152 0
165 185 0
143 158 0
133 149 0
163 181 0
155 174 0
144 164 0
148 166 0
128 144 0
140 162 0
129 145 0
116 136 0
167 187 0
139 157 0
123 141 0
137 158 0
155 174 0
143 160 0
148 166 0
166 186 0
122 141 0
147 166 0
163 180 0
128 146 0
133 152 0
156 176 0
153 173 0
152 173 0
131 150 0
151 171 0
136 152 0
149 169 0
124 144 0
138 156 0
140 160 0
129 148 0
147 170 0
134 155 0
144 164 0
142 162 0
137 158 0
137 153 0
128 147 0
150 172 0
151 174 0
150 172 0
134 153 0
118 137 0
120 138 0
139 159 0
156 176 0
144 162 0
159 182 0
152 175 0
146 167 0
151 175 0
166 186 0
140 161 0
138 158 0
119 143 0
155 173 0
85 103 0
103 120 0
128 150 0
91 108 0
151 170 0
140 158 0
107 126 0
146 166 0
139 161 0
135 153 0
154 176 0
132 151 0
141 160 0
156 177 0
134 155 0
151 168 0
143 161 0
159 183 0
141 159 0
121 141 0
147 168 0
113 134 0
137 156 0
146 166 0
147 169 0
150 171 0
145 165 0
151 170 0
143 163 0
161 183 0
137 155 0
137 156 0
160 181 0
142 163 0
145 166 0
115 134 0
155 175 0
77 91 0
127 145 0
129 153 0
127 150 0
135 149 0
155 177 0
125 144 0
147 168 0
142 166 0
124 148 0
147 167 0
150 171 0
141 156 0
129 148 0
126 148 0
125 141 0
115 131 0
131 153 0
124 145 0
115 136 0
143 164 0
146 159 0
157 176 0
133 153 0
125 139 0
102 125 0
130 155 0
125 144 0
123 144 0
110 127 0
129 145 0
126 147 0
157 179 0
147 167 0
140 158 0
153 175 0
152 170 0
136 159 0
126 139 0
152 177 0
121 140 0
138 155 0
125 147 0
126 148 0
145 165 0
156 180 0
113 131 0
124 141 0
135 151 0
136 161 0
127 147 0
88 108 0
138 155 0
150 172 0
123 144 0
145 161 0
137 159 0
123 146 0
120 141 0
163 185 0
136 159 0
131 155 0
147 169 0
136 158 0
119 133 0
155 174 0
145 163 0
141 161 0
125 146 0
128 145 0
115 136 0
136 158 0
126 146 0
156 174 0
153 169 0
94 109 0
150 170 0
154 173 0
120 135 0
124 139 0
119 132 0
130 144 0
155 170 0
145 159 0
140 151 0
113 134 0
160 178 0
124 138 0
134 149 0
157 168 0
118 135 0
142 156 0
134 158 0
140 157 0
124 138 0
147 166 0
125 140 0
119 120 0
146 165 0
124 134 0
127 149 0
115 132 0
143 160 0
139 153 0
169 180 0
149 165 0
152 172 0
143 153 0
126 142 0
141 155 0
153 168 0
167 181 0
141 157 0
145 160 0
143 149 0
146 159 0
136 152 0
153 168 0
145 153 0
159 176 0
133 142 0
144 158 0
147 156 0
105 101 0
128 130 0
152 165 0
153 172 0
143 155 0
165 177 0
145 151 0
145 163 0
158 176 0
113 119 0
149 160 0
155 160 0
143 154 0
111 114 0
132 135 0
150 161 0
156 165 0
120 120 0
124 129 0
117 129 0
127 130 0
135 142 0
134 134 0
113 114 0
138 146 0
115 129 0
158 176 0
145 152 0
152 160 0
148 158 0
166 183 0
161 173 0
137 139 0
137 147 0
123 123 0
144 153 0
136 143 0
149 158 0
143 143 0
137 140 0
149 155 0
149 158 0
142 149 0
156 161 0
131 127 0
145 142 0
147 154 0
126 127 0
129 135 0
148 154 0
123 120 0
152 158 0
130 123 0
138 144 0
162 168 0
133 131 0
161 170 0
143 146 0
154 157 0
134 130 0
138 133 0
140 136 0
144 144 0
161 164 0
139 140 0
141 147 0
148 157 0
142 134 0
162 158 0
129 133 0
148 154 0
148 139 0
152 156 0
160 169 0
155 165 0
149 153 0
146 146 0
137 128 0
173 188 0
160 165 0
146 144 0
142 147 0
165 173 0
156 160 0
140 136 0
160 160 0
165 176 0
146 155 0
163 172 0
165 170 0
159 166 0
169 177 0
151 150 0
169 179 0
156 155 0
161 171 0
150 158 0
158 171 0
168 176 0
143 144 0
167 181 0
158 163 0
155 163 0
162 171 0
164 169 0
148 157 0
164 182 0
150 154 0
173 192 0
158 177 0
166 184 0
156 174 0
174 194 0
160 179 0
161 182 0
161 181 0
167 186 0
167 185 0
163 184 0
158 179 0
152 173 0
160 178 0
160 179 0
159 178 0
151 169 0
166 187 0
147 163 0
173 194 0
156 174 0
157 176 0
152 169 0
162 181 0
151 169 0
165 184 0
156 172 0
148 165 0
152 170 0
157 175 0
155 173 0
138 156 0
158 175 0
158 178 0
136 154 0
160 178 0
153 168 0
136 153 0
133 150 0
158 175 0
142 158 0
142 156 0
152 168 0
128 144 0
158 176 0
126 139 0
153 169 0
131 145 0
142 159 0
148 167 0
164 184 0
149 164 0
140 157 0
146 163 0
156 173 0
149 167 0
123 138 0
141 156 0
124 142 0
160 176 0
132 151 0
153 171 0
125 141 0
139 155 0
140 156 0
164 182 0
151 169 0
167 185 0
142 159 0
143 165 0
153 171 0
162 181 0
143 161 0
154 172 0
128 142 0
128 143 0
160 174 0
143 161 0
139 159 0
154 173 0
136 154 0
152 170 0
165 184 0
143 163 0
142 161 0
136 153 0
129 146 0
145 165 0
136 152 0
167 188 0
164 180 0
131 146 0
151 169 0
169 186 0
144 162 0
161 183 0
133 153 0
147 169 0
111 119 0
140 157 0
155 175 0
147 167 0
152 173 0
135 156 0
134 153 0
135 153 0
125 144 0
145 167 0
122 138 0
156 172 0
166 188 0
150 173 0
158 178 0
132 153 0
147 164 0
123 142 0
133 152 0
155 177 0
144 167 0
171 190 0
142 159 0
136 152 0
128 153 0
147 170 0
123 143 0
153 174 0
130 152 0
153 174 0
153 172 0
150 169 0
134 154 0
160 180 0
133 151 0
175 197 0
132 155 0
153 171 0
147 166 0
131 151 0
123 145 0
127 146 0
141 164 0
143 163 0
140 160 0
143 163 0
156 177 0
156 179 0
146 167 0
145 169 0
120 141 0
127 142 0
141 162 0
165 187 0
128 150 0
143 163 0
156 175 0
141 161 0
119 139 0
148 167 0
112 133 0
137 158 0
126 146 0
135 155 0
160 181 0
126 148 0
147 167 0
150 169 0
145 165 0
141 162 0
158 181 0
132 155 0
131 156 0
139 157 0
138 159 0
100 121 0
128 146 0
117 137 0
145 164 0
154 173 0
136 159 0
138 159 0
92 103 0
159 184 0
156 178 0
113 134 0
140 158 0
113 137 0
118 135 0
128 152 0
102 120 0
154 175 0
146 163 0
111 128 0
126 149 0
132 151 0
164 185 0
125 149 0
125 139 0
160 181 0
137 156 0
117 132 0
131 151 0
149 171 0
128 145 0
138 160 0
165 187 0
118 131 0
130 148 0
144 160 0
146 165 0
143 164 0
126 149 0
119 131 0
139 162 0
135 146 0
113 135 0
166 189 0
115 131 0
155 169 0
123 142 0
132 152 0
136 154 0
142 156 0
148 171 0
132 152 0
129 151 0
113 137 0
154 174 0
124 140 0
117 135 0
139 159 0
124 142 0
148 170 0
136 159 0
132 146 0
116 137 0
155 168 0
139 154 0
148 170 0
163 188 0
153 172 0
124 141 0
125 148 0
134 146 0
162 178 0
154 168 0
135 156 0
128 150 0
136 160 0
162 179 0
165 189 0
137 144 0
142 160 0
124 139 0
146 166 0
135 153 0
146 168 0
133 151 0
115 132 0
144 163 0
126 147 0
135 154 0
148 163 0
164 187 0
117 129 0
124 146 0
129 143 0
160 176 0
159 171 0
138 153 0
149 170 0
144 163 0
124 145 0
157 176 0
152 173 0
131 143 0
127 146 0
154 175 0
140 152 0
152 172 0
140 159 0
129 140 0
118 133 0
131 152 0
143 159 0
149 160 0
130 144 0
162 177 0
148 153 0
170 184 0
166 175 0
145 159 0
159 170 0
149 164 0
154 167 0
159 171 0
152 153 0
131 147 0
150 161 0
105 116 0
163 172 0
133 133 0
149 158 0
138 148 0
145 157 0
120 124 0
136 147 0
99 109 0
155 163 0
161 173 0
133 139 0
153 169 0
130 133 0
145 155 0
108 108 0
168 182 0
158 170 0
127 138 0
139 148 0
162 172 0
145 149 0
148 154 0
149 149 0
164 172 0
151 154 0
142 152 0
141 139 0
159 166 0
146 150 0
114 112 0
163 172 0
156 170 0
159 166 0
117 121 0
158 169 0
133 141 0
134 139 0
145 147 0
134 129 0
137 141 0
145 145 0
148 147 0
145 148 0
148 158 0
142 135 0
139 133 0
162 171 0
154 149 0
144 138 0
145 144 0
159 163 0
144 149 0
154 160 0
134 136 0
145 145 0
144 142 0
131 139 0
113 107 0
158 160 0
135 135 0
155 163 0
150 146 0
151 156 0
154 149 0
152 160 0
155 155 0
159 167 0
138 128 0
165 166 0
144 150 0
156 163 0
143 144 0
140 145 0
136 133 0
156 156 0
167 170 0
140 142 0
145 147 0
147 149 0
166 172 0
150 155 0
153 159 0
161 178 0
149 159 0
160 163 0
153 161 0
150 151 0
148 160 0
161 165 0
154 163 0
156 165 0
152 164 0
167 185 0
164 174 0
155 169 0
144 159 0
152 150 0
130 119 0
155 160 0
168 177 0
168 186 0
169 188 0
149 166 0
170 191 0
156 178 0
164 181 0
158 176 0
159 176 0
160 179 0
143 158 0
166 181 0
141 158 0
152 168 0
168 188 0
163 181 0
122 136 0
150 170 0
159 179 0
164 181 0
137 153 0
142 160 0
147 161 0
151 166 0
134 151 0
159 178 0
154 171 0
151 171 0
149 167 0
155 174 0
154 173 0
161 178 0
164 183 0
154 172 0
158 175 0
161 179 0
157 175 0
142 157 0
123 134 0
161 181 0
152 169 0
133 149 0
162 180 0
157 174 0
135 153 0
155 172 0
148 165 0
155 174 0
155 171 0
152 171 0
163 180 0
158 176 0
137 154 0
137 153 0
144 160 0
138 153 0
148 168 0
144 161 0
141 158 0
154 170 0
128 143 0
147 163 0
130 150 0
140 155 0
148 166 0
135 152 0
145 163 0
122 140 0
154 170 0
155 171 0
152 171 0
155 172 0
151 167 0
153 175 0
163 185 0
135 150 0
147 166 0
141 161 0
147 164 0
139 156 0
139 161 0
145 160 0
119 138 0
156 175 0
145 162 0
152 171 0
120 140 0
116 135 0
168 187 0
149 167 0
162 184 0
158 178 0
93 110 0
127 147 0
135 150 0
143 160 0
131 148 0
164 185 0
150 170 0
133 148 0
128 147 0
120 139 0
154 175 0
148 168 0
146 165 0
130 152 0
146 166 0
149 168 0
158 178 0
163 182 0
142 162 0
157 178 0
122 141 0
151 168 0
118 138 0
131 151 0
133 151 0
127 149 0
142 160 0
140 161 0
143 164 0
141 163 0
168 190 0
134 156 0
140 161 0
121 140 0
148 169 0
145 167 0
149 172 0
147 167 0
135 151 0
130 155 0
134 155 0
143 164 0
154 175 0
154 175 0
135 152 0
127 148 0
138 160 0
156 178 0
126 141 0
146 167 0
144 167 0
141 157 0
137 157 0
139 160 0
136 159 0
151 170 0
154 176 0
151 176 0
137 157 0
122 141 0
154 178 0
145 167 0
123 145 0
156 179 0
139 161 0
151 174 0
149 172 0
145 163 0
151 170 0
103 120 0
104 123 0
157 180 0
147 165 0
147 170 0
134 148 0
129 148 0
133 154 0
87 107 0
130 150 0
106 126 0
142 163 0
131 150 0
166 188 0
152 175 0
124 145 0
118 136 0
161 186 0
160 182 0
115 133 0
158 176 0
152 178 0
131 151 0
139 156 0
136 152 0
165 187 0
144 165 0
102 120 0
129 150 0
135 152 0
143 166 0
136 160 0
145 165 0
132 150 0
165 184 0
128 147 0
127 148 0
115 137 0
128 145 0
129 150 0
145 167 0
122 140 0
130 148 0
138 160 0
114 131 0
148 169 0
146 162 0
134 155 0
150 169 0
115 131 0
122 133 0
121 138 0
117 137 0
106 129 0
141 164 0
137 153 0
136 160 0
161 182 0
112 130 0
139 158 0
138 157 0
154 177 0
105 121 0
146 167 0
123 146 0
127 146 0
107 120 0
114 135 0
135 152 0
165 187 0
139 157 0
120 133 0
150 168 0
131 149 0
147 165 0
91 108 0
137 151 0
129 149 0
155 174 0
130 143 0
142 158 0
148 168 0
160 174 0
154 169 0
142 156 0
132 156 0
109 124 0
131 146 0
153 170 0
158 176 0
145 165 0
152 175 0
150 166 0
121 140 0
139 155 0
108 117 0
137 152 0
120 132 0
113 134 0
148 169 0
161 177 0
154 173 0
133 151 0
113 134 0
131 150 0
134 150 0
144 158 0
144 155 0
124 141 0
143 160 0
134 156 0
139 151 0
157 173 0
158 176 0
138 158 0
148 169 0
132 143 0
154 170 0
144 158 0
157 174 0
160 176 0
144 164 0
162 179 0
130 146 0
144 160 0
147 164 0
165 179 0
135 145 0
129 140 0
153 164 0
143 162 0
103 113 0
143 151 0
141 159 0
134 145 0
130 141 0
144 161 0
138 155 0
152 167 0
140 153 0
136 147 0
156 161 0
137 149 0
159 177 0
140 153 0
158 175 0
143 157 0
123 128 0
156 158 0
150 158 0
140 151 0
130 133 0
105 117 0
137 148 0
156 165 0
144 146 0
144 158 0
138 143 0
135 147 0
161 168 0
157 164 0
155 162 0
123 122 0
150 159 0
170 183 0
159 163 0
158 167 0
154 169 0
154 160 0
157 158 0
122 118 0
152 164 0
110 111 0
140 154 0
149 145 0
159 169 0
156 161 0
136 144 0
146 139 0
150 157 0
157 169 0
152 165 0
155 164 0
159 168 0
156 165 0
138 134 0
139 136 0
119 118 0
134 121 0
137 144 0
133 133 0
164 170 0
137 144 0
137 132 0
147 154 0
154 151 0
159 167 0
126 124 0
136 130 0
135 128 0
147 163 0
145 144 0
149 156 0
156 162 0
122 113 0
138 127 0
137 124 0
159 173 0
151 157 0
158 169 0
138 133 0
154 156 0
152 144 0
148 156 0
138 136 0
157 166 0
131 140 0
141 150 0
159 163 0
149 153 0
153 164 0
153 159 0
149 152 0
158 161 0
168 180 0
150 149 0
154 154 0
146 146 0
170 179 0
161 162 0
151 150 0
144 152 0
157 163 0
154 167 0
166 180 0
155 162 0
167 174 0
162 167 0
160 173 0
139 150 0
152 159 0
159 177 0
171 193 0
160 177 0
151 166 0
147 166 0
151 169 0
163 180 0
150 168 0
158 178 0
156 176 0
172 190 0
162 181 0
162 182 0
164 184 0
158 174 0
167 187 0
176 194 0
168 189 0
165 186 0
154 174 0
138 155 0
128 146 0
164 183 0
159 177 0
146 164 0
162 178 0
164 182 0
140 157 0
142 160 0
162 180 0
133 148 0
146 162 0
158 177 0
160 179 0
159 178 0
147 165 0
167 186 0
168 185 0
127 141 0
136 153 0
127 145 0
162 181 0
152 165 0
122 136 0
136 152 0
138 157 0
156 174 0
157 174 0
117 132 0
149 165 0
154 172 0
153 169 0
148 167 0
127 143 0
160 177 0
137 154 0
160 178 0
153 170 0
143 163 0
146 159 0
145 164 0
145 163 0
136 152 0
143 162 0
162 184 0
131 142 0
147 164 0
146 163 0
145 165 0
136 155 0
139 156 0
145 162 0
137 154 0
158 174 0
149 168 0
138 157 0
162 181 0
156 175 0
136 154 0
173 193 0
148 171 0
105 122 0
148 170 0
154 173 0
139 160 0
141 163 0
156 174 0
124 144 0
142 159 0
150 169 0
131 149 0
145 163 0
156 176 0
148 165 0
131 152 0
144 161 0
142 161 0
147 168 0
137 155 0
158 180 0
129 153 0
135 151 0
156 178 0
153 174 0
161 182 0
151 171 0
135 148 0
166 187 0
114 133 0
139 157 0
134 152 0
161 184 0
131 149 0
135 154 0
131 151 0
137 159 0
104 121 0
166 187 0
147 166 0
165 185 0
147 166 0
157 178 0
71 89 0
145 168 0
143 165 0
114 134 0
152 174 0
147 169 0
149 168 0
150 170 0
139 161 0
164 186 0
134 149 0
155 178 0
145 169 0
125 137 0
140 158 0
124 145 0
136 157 0
149 172 0
141 164 0
154 173 0
144 166 0
140 162 0
149 169 0
97 119 0
130 151 0
138 158 0
140 161 0
117 138 0
147 166 0
118 137 0
126 148 0
134 156 0
137 157 0
120 142 0
98 122 0
150 173 0
144 166 0
142 161 0
128 146 0
153 174 0
153 175 0
133 156 0
146 169 0
116 136 0
117 134 0
144 167 0
124 141 0
136 158 0
156 176 0
133 155 0
143 165 0
142 167 0
112 130 0
141 159 0
131 150 0
133 155 0
144 164 0
141 165 0
145 161 0
158 176 0
115 136 0
149 167 0
148 169 0
144 162 0
132 151 0
138 161 0
87 96 0
104 126 0
115 136 0
138 160 0
127 148 0
145 163 0
144 162 0
127 147 0
143 159 0
119 139 0
132 148 0
147 168 0
162 185 0
167 186 0
139 161 0
160 180 0
130 153 0
144 165 0
165 185 0
147 169 0
156 175 0
116 138 0
119 138 0
160 182 0
131 150 0
139 163 0
152 171 0
111 137 0
124 141 0
144 163 0
132 150 0
159 181 0
133 151 0
114 131 0
105 116 0
108 125 0
113 129 0
132 152 0
142 156 0
147 170 0
148 170 0
85 108 0
159 180 0
131 149 0
137 156 0
162 181 0
149 166 0
165 175 0
102 116 0
144 163 0
117 131 0
142 159 0
166 184 0
133 157 0
137 152 0
110 126 0
146 165 0
135 146 0
141 164 0
125 142 0
146 166 0
124 145 0
154 177 0
129 142 0
139 156 0
141 157 0
119 127 0
128 141 0
155 178 0
143 159 0
130 142 0
118 137 0
142 162 0
157 171 0
138 158 0
137 157 0
151 168 0
114 121 0
139 159 0
135 150 0
147 167 0
139 154 0
143 160 0
137 154 0
148 166 0
152 170 0
112 121 0
139 152 0
149 171 0
153 174 0
148 164 0
159 173 0
165 185 0
143 155 0
157 172 0
128 140 0
133 151 0
144 163 0
165 176 0
124 139 0
146 158 0
129 136 0
137 158 0
159 176 0
127 135 0
123 124 0
151 164 0
141 151 0
124 131 0
124 137 0
146 159 0
145 167 0
152 166 0
137 149 0
152 167 0
162 177 0
133 141 0
119 128 0
120 127 0
142 159 0
133 150 0
111 110 0
134 150 0
134 144 0
142 150 0
147 155 0
172 190 0
139 151 0
163 177 0
137 146 0
151 152 0
164 176 0
136 143 0
139 154 0
150 165 0
156 170 0
133 134 0
145 155 0
118 123 0
145 155 0
152 167 0
130 130 0
146 144 0
157 169 0
132 137 0
151 150 0
152 153 0
157 172 0
149 150 0
145 151 0
156 171 0
160 170 0
156 162 0
167 176 0
142 140 0
153 162 0
124 131 0
150 151 0
137 132 0
151 143 0
147 154 0
145 149 0
136 141 0
149 146 0
110 101 0
141 142 0
152 156 0
146 150 0
115 115 0
146 143 0
145 143 0
141 138 0
156 163 0
166 173 0
167 176 0
157 158 0
146 147 0
152 151 0
135 129 0
135 128 0
112 107 0
148 155 0
136 142 0
146 136 0
141 149 0
150 158 0
152 159 0
134 129 0
153 158 0
144 145 0
151 153 0
146 153 0
157 165 0
155 159 0
147 155 0
159 169 0
155 158 0
157 153 0
159 168 0
160 171 0
159 171 0
130 129 0
153 156 0
162 174 0
165 171 0
155 154 0
160 168 0
156 164 0
157 167 0
162 174 0
134 132 0
160 170 0
152 171 0
148 160 0
166 184 0
159 176 0
160 177 0
162 182 0
150 168 0
152 172 0
159 180 0
159 177 0
170 189 0
172 189 0
175 193 0
162 178 0
171 190 0
151 167 0
147 161 0
157 175 0
172 187 0
171 193 0
161 181 0
151 169 0
159 174 0
153 171 0
154 169 0
155 175 0
147 165 0
140 158 0
149 164 0
151 168 0
142 160 0
154 172 0
154 172 0
154 171 0
156 173 0
137 156 0
158 174 0
162 182 0
168 184 0
138 155 0
164 182 0
152 168 0
151 169 0
143 159 0
142 159 0
161 179 0
137 155 0
133 149 0
162 180 0
118 131 0
155 175 0
147 167 0
156 177 0
136 155 0
147 166 0
156 176 0
151 169 0
162 182 0
144 161 0
169 189 0
146 165 0
152 169 0
164 178 0
145 164 0
133 149 0
162 179 0
147 167 0
145 166 0
148 168 0
138 157 0
140 157 0
154 174 0
154 171 0
168 191 0
143 161 0
162 184 0
163 181 0
136 154 0
111 122 0
152 171 0
134 150 0
144 161 0
150 169 0
142 161 0
154 173 0
128 145 0
145 165 0
162 181 0
156 173 0
170 191 0
115 135 0
164 185 0
150 170 0
135 154 0
143 163 0
166 179 0
167 184 0
146 167 0
136 157 0
144 161 0
131 154 0
151 173 0
132 153 0
168 189 0
143 163 0
146 168 0
151 174 0
151 169 0
130 149 0
149 171 0
144 163 0
152 171 0
128 145 0
153 173 0
165 186 0
169 193 0
162 183 0
146 163 0
147 168 0
150 173 0
149 166 0
135 154 0
137 157 0
127 145 0
148 170 0
164 188 0
146 164 0
143 163 0
149 171 0
143 162 0
144 167 0
153 177 0
150 167 0
148 170 0
121 143 0
152 176 0
153 175 0
154 175 0
156 178 0
156 176 0
141 164 0
154 176 0
161 184 0
161 183 0
130 151 0
158 178 0
136 158 0
141 159 0
145 164 0
149 170 0
108 128 0
136 158 0
147 169 0
141 161 0
152 173 0
132 154 0
153 175 0
128 146 0
111 130 0
124 142 0
166 188 0
128 150 0
148 164 0
138 158 0
145 166 0
130 150 0
151 168 0
157 176 0
142 166 0
141 160 0
166 189 0
154 174 0
122 143 0
137 160 0
153 173 0
154 173 0
148 173 0
123 139 0
139 160 0
146 163 0
152 173 0
138 158 0
119 134 0
144 162 0
141 161 0
142 160 0
108 123 0
148 169 0
109 131 0
147 167 0
138 158 0
95 113 0
151 171 0
119 136 0
84 104 0
129 147 0
154 172 0
140 160 0
147 168 0
148 167 0
141 159 0
168 190 0
119 144 0
155 174 0
151 165 0
164 189 0
149 171 0
141 164 0
133 156 0
111 136 0
151 176 0
145 159 0
135 156 0
140 158 0
131 145 0
146 159 0
117 139 0
127 150 0
124 143 0
128 146 0
134 153 0
155 170 0
130 154 0
157 175 0
122 140 0
156 179 0
161 183 0
150 167 0
108 122 0
147 171 0
146 164 0
137 160 0
113 130 0
124 144 0
127 150 0
148 166 0
157 180 0
127 149 0
141 152 0
158 181 0
148 168 0
147 168 0
152 167 0
124 146 0
133 151 0
141 154 0
146 162 0
163 188 0
136 150 0
153 170 0
112 136 0
150 167 0
92 111 0
103 123 0
137 157 0
147 163 0
150 167 0
142 158 0
153 170 0
161 175 0
156 176 0
164 184 0
154 168 0
157 167 0
131 151 0
134 151 0
149 159 0
128 141 0
140 164 0
119 133 0
131 140 0
131 152 0
158 174 0
156 174 0
131 148 0
148 168 0
147 165 0
138 157 0
126 135 0
136 157 0
168 185 0
122 140 0
118 136 0
157 169 0
125 138 0
125 142 0
125 133 0
152 169 0
153 167 0
153 166 0
149 155 0
150 168 0
144 163 0
163 179 0
138 156 0
124 130 0
138 151 0
136 150 0
137 147 0
133 148 0
158 171 0
148 160 0
156 175 0
130 143 0
149 162 0
119 123 0
139 155 0
128 136 0
141 151 0
132 144 0
122 127 0
124 134 0
128 146 0
160 174 0
160 172 0
138 148 0
130 134 0
165 180 0
152 161 0
152 162 0
158 162 0
122 133 0
141 150 0
131 144 0
115 116 0
147 151 0
153 159 0
161 174 0
145 149 0
161 173 0
149 150 0
131 130 0
148 143 0
152 153 0
161 176 0
135 137 0
148 164 0
151 150 0
134 132 0
153 164 0
130 129 0
144 141 0
160 172 0
150 146 0
154 156 0
148 147 0
163 172 0
130 130 0
129 127 0
155 165 0
123 122 0
152 152 0
142 139 0
131 127 0
142 146 0
141 151 0
148 146 0
161 167 0
149 156 0
126 117 0
143 144 0
170 183 0
156 160 0
153 165 0
155 162 0
161 168 0
156 162 0
149 141 0
164 170 0
157 160 0
160 166 0
136 146 0
128 126 0
156 156 0
146 152 0
158 169 0
153 165 0
148 157 0
148 153 0
165 172 0
158 156 0
165 174 0
150 159 0
167 177 0
161 172 0
154 164 0
156 163 0
150 157 0
152 145 0
158 157 0
148 144 0
149 153 0
160 163 0
153 150 0
149 151 0
157 172 0
146 153 0
155 163 0
161 174 0
146 144 0
162 181 0
169 190 0
160 180 0
162 184 0
146 165 0
154 172 0
162 183 0
155 173 0
162 180 0
174 191 0
151 169 0
141 159 0
161 181 0
171 191 0
162 182 0
171 189 0
168 191 0
160 178 0
168 189 0
158 175 0
147 163 0
161 178 0
150 167 0
160 178 0
154 174 0
150 166 0
165 184 0
133 150 0
145 162 0
140 155 0
158 177 0
135 149 0
144 157 0
147 165 0
161 177 0
165 183 0
148 166 0
144 160 0
152 171 0
144 159 0
142 155 0
160 176 0
157 172 0
136 152 0
148 166 0
171 191 0
162 180 0
156 173 0
160 179 0
168 187 0
141 159 0
150 166 0
100 113 0
143 161 0
159 178 0
160 180 0
169 188 0
167 188 0
140 157 0
170 188 0
167 182 0
144 161 0
142 160 0
149 168 0
141 162 0
166 183 0
150 166 0
156 174 0
159 179 0
163 181 0
154 174 0
150 170 0
147 164 0
158 179 0
144 161 0
140 159 0
154 170 0
148 165 0
159 176 0
141 162 0
147 166 0
153 172 0
135 152 0
113 130 0
144 162 0
151 172 0
155 178 0
156 177 0
160 182 0
137 158 0
124 146 0
135 154 0
149 170 0
147 169 0
148 166 0
140 157 0
136 154 0
163 180 0
139 161 0
158 181 0
163 186 0
164 185 0
145 165 0
121 138 0
151 171 0
148 167 0
140 160 0
156 175 0
144 167 0
136 158 0
161 182 0
151 177 0
133 155 0
155 175 0
155 177 0
131 153 0
113 131 0
143 165 0
134 156 0
133 152 0
150 170 0
163 186 0
134 154 0
157 180 0
146 169 0
134 157 0
154 178 0
144 164 0
137 159 0
156 179 0
159 175 0
154 177 0
141 160 0
137 156 0
135 155 0
142 162 0
137 159 0
142 162 0
153 176 0
138 159 0
160 182 0
148 167 0
160 180 0
142 158 0
130 152 0
141 162 0
156 180 0
155 178 0
157 180 0
127 150 0
137 154 0
138 160 0
150 168 0
148 170 0
160 182 0
106 130 0
158 177 0
153 176 0
151 169 0
126 148 0
113 135 0
149 170 0
159 178 0
163 177 0
125 146 0
150 170 0
119 141 0
145 162 0
132 153 0
135 156 0
161 180 0
138 156 0
102 122 0
153 176 0
112 134 0
149 171 0
135 155 0
129 149 0
112 131 0
157 174 0
133 156 0
123 141 0
123 146 0
123 143 0
136 154 0
157 179 0
140 159 0
112 133 0
140 162 0
126 141 0
143 161 0
138 157 0
146 169 0
164 187 0
145 168 0
103 125 0
135 157 0
134 152 0
144 168 0
140 161 0
143 166 0
138 158 0
105 123 0
148 168 0
126 142 0
137 161 0
147 164 0
155 174 0
143 168 0
114 132 0
137 158 0
121 138 0
112 132 0
148 171 0
92 101 0
157 176 0
113 130 0
131 149 0
147 163 0
135 157 0
137 153 0
135 154 0
167 186 0
139 161 0
155 176 0
147 161 0
108 131 0
133 146 0
130 151 0
126 149 0
164 186 0
126 144 0
152 170 0
146 170 0
164 184 0
163 186 0
159 176 0
102 122 0
127 139 0
157 177 0
145 164 0
140 156 0
145 170 0
153 172 0
152 173 0
164 188 0
157 177 0
153 169 0
141 160 0
131 151 0
135 155 0
142 163 0
119 128 0
135 150 0
157 175 0
128 148 0
124 144 0
132 149 0
147 162 0
136 143 0
164 185 0
143 153 0
129 137 0
140 154 0
144 157 0
151 171 0
147 165 0
138 157 0
136 156 0
132 146 0
151 169 0
154 168 0
149 167 0
142 159 0
151 170 0
159 178 0
122 137 0
156 173 0
147 161 0
158 173 0
159 177 0
155 173 0
130 142 0
142 148 0
153 171 0
152 168 0
131 134 0
153 164 0
123 135 0
146 160 0
150 173 0
167 182 0
160 171 0
139 157 0
142 161 0
132 137 0
152 166 0
131 143 0
131 143 0
130 134 0
142 147 0
161 180 0
151 163 0
161 175 0
156 174 0
143 151 0
142 161 0
125 146 0
150 157 0
128 136 0
147 154 0
137 152 0
153 169 0
139 139 0
152 166 0
148 157 0
142 157 0
162 173 0
150 162 0
142 150 0
164 173 0
140 147 0
153 170 0
118 124 0
152 169 0
171 189 0
153 159 0
152 157 0
151 160 0
123 122 0
133 126 0
150 160 0
140 148 0
164 175 0
126 128 0
143 149 0
159 172 0
157 167 0
145 156 0
141 137 0
160 168 0
135 141 0
145 159 0
146 142 0
167 178 0
145 145 0
146 148 0
142 141 0
162 160 0
154 154 0
147 150 0
151 152 0
154 163 0
159 165 0
156 165 0
163 173 0
149 157 0
145 155 0
161 170 0
135 134 0
147 149 0
161 160 0
149 152 0
146 152 0
157 165 0
146 161 0
157 164 0
149 151 0
138 135 0
161 165 0
140 147 0
157 155 0
138 132 0
151 149 0
151 158 0
151 155 0
163 168 0
166 175 0
149 152 0
162 168 0
145 152 0
120 118 0
163 175 0
115 106 0
151 155 0
170 182 0
151 158 0
164 177 0
152 152 0
136 139 0
137 141 0
161 169 0
153 160 0
163 175 0
157 165 0
146 152 0
158 160 0
144 146 0
173 188 0
144 151 0
163 183 0
168 187 0
163 185 0
156 175 0
168 186 0
154 173 0
149 168 0
158 178 0
166 187 0
160 177 0
159 178 0
161 178 0
154 172 0
143 159 0
165 184 0
156 176 0
165 182 0
168 189 0
165 183 0
171 189 0
164 184 0
151 166 0
155 174 0
151 170 0
145 162 0
162 183 0
148 167 0
147 161 0
141 156 0
140 158 0
152 170 0
155 175 0
164 182 0
145 160 0
147 165 0
161 179 0
133 149 0
146 164 0
160 177 0
139 158 0
140 159 0
160 178 0
163 184 0
136 153 0
153 168 0
141 160 0
165 184 0
140 162 0
147 164 0
152 171 0
154 174 0
164 182 0
142 155 0
141 158 0
151 170 0
138 158 0
159 177 0
148 166 0
139 156 0
142 161 0
152 171 0
170 189 0
149 170 0
145 163 0
152 170 0
166 182 0
175 194 0
140 157 0
155 173 0
130 147 0
148 168 0
126 145 0
168 186 0
164 182 0
125 146 0
136 157 0
143 161 0
168 189 0
148 166 0
155 175 0
155 173 0
122 142 0
161 182 0
140 159 0
136 158 0
148 165 0
128 144 0
124 141 0
160 180 0
158 179 0
167 188 0
148 168 0
154 174 0
121 142 0
153 173 0
133 149 0
139 153 0
152 169 0
161 184 0
165 186 0
147 167 0
166 189 0
161 183 0
122 140 0
149 167 0
138 163 0
145 164 0
161 185 0
155 175 0
142 158 0
162 182 0
134 152 0
149 170 0
158 181 0
157 178 0
156 178 0
135 151 0
147 169 0
132 153 0
141 161 0
111 133 0
120 139 0
140 160 0
152 175 0
141 162 0
162 182 0
135 155 0
162 186 0
160 183 0
170 191 0
106 125 0
159 180 0
142 160 0
150 173 0
132 155 0
155 179 0
148 167 0
113 134 0
156 179 0
139 159 0
156 178 0
142 163 0
149 170 0
120 136 0
129 149 0
150 171 0
127 147 0
132 148 0
107 127 0
126 146 0
131 156 0
123 144 0
126 148 0
146 167 0
133 153 0
144 164 0
156 177 0
155 178 0
138 162 0
143 166 0
149 170 0
139 161 0
158 180 0
147 170 0
115 136 0
167 187 0
151 169 0
121 140 0
144 161 0
161 181 0
119 139 0
156 177 0
174 197 0
126 147 0
159 181 0
134 157 0
128 149 0
149 172 0
153 174 0
147 171 0
159 182 0
135 158 0
135 155 0
144 161 0
162 187 0
161 180 0
134 154 0
119 135 0
167 188 0
133 154 0
162 184 0
109 128 0
135 154 0
172 192 0
112 132 0
153 172 0
151 171 0
140 163 0
98 116 0
158 180 0
126 145 0
105 126 0
160 182 0
109 123 0
128 150 0
124 145 0
140 161 0
158 179 0
159 179 0
113 136 0
165 187 0
155 174 0
135 151 0
142 163 0
118 134 0
150 171 0
162 182 0
115 139 0
144 168 0
149 175 0
106 127 0
135 153 0
144 165 0
125 142 0
169 190 0
151 172 0
145 168 0
158 177 0
162 173 0
130 152 0
125 149 0
157 172 0
150 171 0
165 185 0
145 168 0
155 177 0
142 160 0
133 154 0
150 172 0
124 144 0
145 166 0
173 193 0
135 150 0
114 128 0
125 148 0
171 193 0
132 147 0
151 175 0
139 155 0
161 184 0
140 157 0
145 167 0
127 144 0
133 150 0
120 141 0
139 154 0
166 186 0
125 141 0
164 181 0
151 168 0
129 146 0
163 183 0
158 179 0
142 159 0
153 170 0
142 159 0
120 133 0
154 168 0
156 175 0
158 176 0
149 169 0
144 167 0
157 172 0
157 176 0
132 145 0
125 136 0
157 178 0
111 120 0
143 155 0
130 149 0
126 144 0
164 180 0
129 145 0
146 161 0
154 178 0
122 134 0
139 153 0
168 190 0
147 163 0
149 163 0
160 174 0
139 152 0
161 173 0
134 151 0
162 179 0
146 165 0
156 160 0
139 145 0
150 167 0
151 168 0
133 144 0
143 155 0
142 156 0
147 161 0
148 166 0
155 160 0
147 155 0
167 187 0
143 140 0
149 163 0
135 136 0
156 175 0
168 181 0
152 162 0
159 171 0
148 153 0
133 139 0
138 150 0
145 164 0
147 156 0
147 161 0
153 154 0
147 158 0
155 171 0
133 143 0
146 163 0
139 145 0
149 159 0
134 141 0
152 164 0
152 161 0
133 147 0
147 158 0
166 181 0
157 165 0
140 142 0
149 154 0
163 172 0
134 139 0
160 167 0
141 143 0
153 148 0
137 138 0
155 157 0
154 162 0
152 162 0
152 158 0
160 170 0
140 140 0
137 142 0
161 161 0
140 149 0
147 142 0
126 133 0
171 185 0
142 136 0
154 158 0
153 154 0
151 154 0
139 143 0
139 146 0
161 171 0
164 176 0
159 164 0
118 120 0
159 161 0
152 151 0
154 152 0
147 156 0
153 160 0
155 161 0
126 123 0
165 176 0
149 151 0
157 170 0
138 125 0
142 138 0
165 175 0
163 160 0
166 172 0
159 175 0
164 176 0
150 153 0
164 173 0
139 134 0
160 169 0
156 159 0
157 156 0
121 119 0
149 159 0
163 175 0
144 140 0
146 157 0
153 160 0
154 157 0
157 167 0
147 150 0
146 146 0
168 184 0
156 169 0
161 181 0
169 189 0
172 193 0
165 185 0
144 162 0
154 173 0
160 178 0
170 190 0
171 190 0
157 173 0
144 161 0
151 170 0
155 170 0
155 172 0
161 182 0
159 178 0
156 175 0
149 169 0
164 185 0
142 155 0
174 194 0
151 168 0
167 185 0
165 185 0
164 182 0
161 182 0
145 164 0
161 176 0
151 166 0
148 168 0
158 177 0
156 172 0
161 181 0
147 163 0
151 169 0
141 159 0
138 154 0
151 165 0
140 156 0
156 170 0
145 166 0
166 185 0
144 165 0
129 140 0
157 175 0
145 163 0
135 146 0
168 187 0
152 171 0
150 169 0
159 178 0
142 162 0
132 148 0
144 164 0
151 167 0
156 174 0
161 177 0
148 167 0
153 170 0
149 167 0
163 178 0
170 189 0
146 164 0
138 156 0
151 171 0
165 185 0
136 157 0
131 147 0
138 158 0
161 179 0
164 187 0
153 171 0
161 183 0
134 155 0
142 161 0
144 161 0
155 176 0
130 150 0
139 160 0
147 168 0
154 174 0
160 185 0
144 162 0
164 182 0
125 140 0
163 186 0
162 182 0
142 163 0
157 175 0
148 168 0
144 165 0
149 168 0
125 145 0
161 182 0
161 180 0
145 166 0
148 168 0
136 153 0
165 187 0
163 183 0
149 166 0
163 182 0
165 186 0
158 180 0
151 170 0
175 198 0
162 181 0
162 183 0
149 171 0
132 151 0
146 167 0
158 178 0
140 161 0
146 165 0
158 180 0
146 170 0
144 167 0
131 150 0
140 165 0
142 161 0
154 174 0
137 158 0
129 149 0
135 155 0
151 171 0
164 186 0
152 171 0
111 132 0
135 155 0
143 163 0
152 171 0
148 170 0
145 164 0
136 158 0
134 156 0
169 191 0
121 145 0
148 171 0
122 142 0
148 168 0
150 169 0
146 168 0
148 171 0
167 185 0
146 167 0
127 145 0
158 181 0
146 167 0
140 162 0
120 131 0
146 166 0
101 119 0
122 147 0
156 177 0
106 125 0
135 158 0
162 183 0
157 179 0
101 121 0
156 178 0
138 161 0
141 162 0
137 158 0
154 177 0
162 186 0
146 166 0
152 176 0
127 149 0
151 174 0
135 155 0
140 162 0
132 157 0
136 160 0
144 167 0
147 171 0
127 145 0
157 178 0
130 153 0
138 161 0
162 185 0
122 144 0
114 140 0
150 171 0
179 200 0
130 149 0
148 170 0
164 185 0
151 171 0
143 162 0
138 162 0
153 177 0
151 169 0
143 164 0
127 150 0
153 179 0
110 131 0
117 137 0
118 140 0
138 161 0
165 187 0
139 160 0
145 167 0
165 186 0
140 161 0
165 188 0
172 193 0
144 162 0
129 144 0
132 153 0
144 161 0
144 165 0
148 171 0
145 165 0
165 189 0
151 172 0
140 163 0
123 144 0
151 173 0
114 133 0
122 141 0
114 136 0
151 164 0
143 165 0
140 162 0
127 149 0
157 180 0
150 173 0
144 163 0
126 146 0
126 150 0
140 160 0
135 154 0
124 145 0
120 140 0
146 168 0
134 154 0
154 175 0
157 171 0
131 148 0
121 141 0
122 141 0
123 146 0
137 152 0
130 144 0
145 168 0
139 151 0
141 152 0
144 167 0
129 148 0
109 127 0
147 167 0
114 136 0
144 156 0
117 134 0
147 165 0
154 174 0
96 112 0
135 158 0
156 180 0
151 171 0
161 176 0
129 142 0
163 187 0
110 125 0
154 170 0
151 172 0
103 123 0
160 174 0
157 177 0
150 160 0
154 175 0
144 166 0
115 129 0
154 169 0
148 169 0
136 149 0
142 158 0
131 150 0
153 169 0
125 143 0
150 166 0
144 154 0
143 162 0
148 163 0
145 166 0
165 186 0
147 165 0
151 164 0
137 150 0
156 172 0
154 163 0
146 165 0
138 156 0
166 185 0
163 180 0
142 154 0
144 157 0
139 155 0
156 176 0
139 140 0
142 159 0
149 164 0
132 138 0
120 128 0
125 124 0
144 160 0
129 141 0
149 161 0
147 161 0
136 142 0
161 179 0
143 158 0
154 164 0
148 164 0
158 168 0
170 192 0
145 149 0
131 143 0
146 159 0
136 133 0
145 150 0
107 111 0
123 118 0
145 152 0
149 159 0
152 164 0
164 177 0
131 138 0
135 150 0
165 178 0
161 168 0
145 151 0
162 169 0
151 168 0
147 161 0
148 153 0
115 129 0
157 166 0
150 162 0
136 141 0
158 170 0
153 158 0
137 148 0
156 165 0
141 149 0
144 142 0
158 172 0
127 133 0
159 163 0
152 164 0
156 167 0
159 165 0
161 172 0
146 143 0
161 169 0
163 157 0
151 157 0
145 149 0
142 152 0
151 158 0
166 181 0
153 153 0
147 151 0
172 187 0
174 184 0
164 176 0
132 131 0
162 174 0
137 132 0
148 148 0
164 168 0
136 130 0
156 178 0
134 135 0
143 152 0
159 166 0
163 173 0
158 170 0
147 147 0
155 166 0
131 123 0
165 176 0
152 157 0
151 160 0
155 165 0
157 159 0
161 173 0
163 168 0
154 160 0
158 160 0
161 160 0
158 167 0
141 144 0
153 153 0
154 160 0
150 163 0
157 170 0
151 155 0
163 171 0
175 195 0
161 180 0
158 174 0
165 184 0
162 178 0
152 171 0
160 180 0
169 190 0
129 148 0
148 166 0
153 174 0
158 175 0
150 168 0
156 176 0
156 171 0
153 169 0
172 192 0
158 172 0
155 174 0
161 178 0
169 190 0
165 183 0
151 168 0
135 151 0
159 178 0
155 175 0
133 151 0
134 151 0
153 172 0
143 159 0
165 185 0
146 163 0
159 176 0
158 176 0
148 167 0
166 186 0
162 181 0
153 166 0
144 159 0
157 176 0
159 177 0
165 184 0
151 170 0
145 160 0
148 165 0
151 170 0
139 155 0
155 175 0
151 169 0
146 167 0
144 161 0
146 162 0
158 177 0
154 171 0
160 178 0
161 183 0
137 154 0
164 182 0
146 165 0
140 155 0
151 169 0
144 160 0
154 176 0
142 155 0
160 175 0
164 185 0
149 168 0
152 171 0
154 176 0
143 158 0
155 177 0
117 135 0
149 169 0
126 142 0
149 170 0
158 177 0
156 176 0
144 162 0
137 157 0
152 172 0
111 127 0
170 189 0
161 180 0
148 169 0
143 163 0
137 160 0
131 150 0
140 162 0
136 156 0
148 167 0
134 148 0
150 171 0
121 140 0
143 161 0
157 177 0
152 175 0
140 162 0
138 157 0
157 180 0
149 172 0
167 185 0
160 180 0
168 188 0
157 177 0
169 191 0
136 155 0
162 181 0
164 186 0
163 184 0
125 141 0
162 187 0
124 142 0
138 160 0
154 174 0
141 161 0
163 185 0
130 144 0
143 165 0
169 191 0
146 169 0
146 170 0
139 160 0
164 187 0
133 154 0
159 185 0
157 180 0
170 195 0
144 169 0
125 143 0
142 164 0
128 144 0
149 168 0
149 174 0
148 169 0
145 171 0
156 178 0
139 157 0
140 159 0
119 142 0
127 150 0
138 160 0
164 188 0
138 163 0
122 144 0
133 155 0
164 185 0
166 189 0
142 161 0
152 177 0
135 156 0
139 161 0
122 142 0
125 145 0
129 150 0
158 184 0
137 155 0
135 157 0
110 130 0
139 163 0
152 173 0
133 156 0
139 159 0
108 122 0
136 160 0
125 150 0
138 157 0
152 170 0
163 186 0
109 131 0
156 179 0
150 171 0
138 159 0
151 172 0
165 189 0
138 157 0
129 151 0
152 177 0
145 164 0
157 179 0
157 179 0
114 131 0
164 186 0
148 166 0
158 180 0
151 172 0
119 133 0
146 169 0
127 150 0
98 116 0
146 170 0
152 165 0
149 170 0
145 166 0
143 161 0
151 172 0
145 163 0
155 174 0
118 140 0
133 149 0
123 140 0
175 195 0
141 161 0
145 161 0
102 117 0
119 139 0
167 190 0
122 144 0
165 187 0
158 179 0
103 123 0
145 166 0
146 166 0
146 164 0
148 168 0
143 167 0
137 156 0
157 180 0
119 136 0
138 154 0
127 148 0
118 132 0
148 171 0
130 152 0
140 160 0
145 165 0
128 150 0
152 169 0
146 164 0
150 164 0
145 165 0
152 170 0
132 149 0
141 164 0
136 155 0
164 188 0
145 164 0
121 141 0
138 160 0
114 136 0
155 173 0
138 155 0
143 159 0
171 191 0
154 170 0
126 144 0
154 171 0
138 148 0
131 152 0
150 170 0
154 175 0
133 156 0
141 161 0
146 154 0
114 127 0
155 169 0
157 176 0
140 156 0
127 145 0
177 199 0
172 193 0
167 190 0
140 159 0
149 167 0
161 182 0
140 159 0
150 173 0
152 168 0
154 176 0
137 157 0
132 152 0
160 170 0
117 132 0
167 186 0
131 144 0
129 143 0
159 173 0
136 148 0
134 151 0
162 182 0
141 161 0
148 159 0
138 143 0
124 134 0
118 120 0
147 156 0
152 168 0
165 176 0
151 170 0
130 144 0
154 171 0
124 139 0
157 173 0
161 173 0
148 158 0
139 157 0
166 179 0
126 146 0
143 161 0
148 156 0
140 151 0
123 134 0
130 136 0
136 145 0
145 158 0
133 145 0
148 163 0
143 162 0
132 150 0
150 166 0
139 152 0
134 147 0
155 166 0
153 167 0
142 154 0
150 158 0
146 159 0
152 164 0
130 144 0
156 169 0
132 145 0
134 144 0
131 142 0
156 172 0
148 164 0
147 155 0
137 144 0
140 153 0
138 144 0
154 161 0
150 162 0
147 153 0
148 163 0
160 176 0
120 118 0
122 134 0
137 140 0
142 151 0
172 182 0
135 138 0
146 157 0
151 160 0
137 144 0
156 174 0
144 149 0
139 151 0
140 141 0
150 159 0
123 132 0
140 140 0
117 119 0
151 149 0
166 172 0
156 163 0
139 138 0
142 149 0
135 138 0
164 175 0
161 168 0
154 168 0
133 139 0
132 139 0
160 170 0
128 125 0
142 150 0
107 101 0
153 162 0
170 181 0
150 153 0
152 148 0
150 157 0
168 167 0
152 157 0
148 148 0
140 131 0
152 161 0
155 164 0
149 154 0
122 126 0
144 143 0
133 131 0
148 141 0
155 163 0
150 161 0
153 163 0
155 158 0
157 166 0
158 153 0
156 161 0
134 127 0
170 178 0
157 167 0
158 161 0
163 174 0
153 160 0
154 157 0
159 169 0
135 137 0
148 147 0
138 138 0
168 176 0
164 170 0
152 169 0
165 186 0
164 180 0
163 183 0
155 176 0
165 184 0
165 185 0
161 178 0
155 174 0
158 174 0
143 160 0
157 177 0
160 179 0
160 181 0
150 168 0
142 160 0
152 170 0
144 160 0
161 179 0
165 186 0
145 163 0
148 167 0
157 178 0
149 170 0
141 157 0
162 183 0
162 181 0
160 180 0
163 183 0
165 183 0
171 191 0
160 181 0
162 181 0
156 176 0
161 180 0
133 151 0
151 172 0
147 167 0
146 164 0
152 170 0
146 161 0
151 170 0
138 155 0
164 184 0
156 179 0
141 158 0
167 185 0
150 168 0
152 169 0
149 167 0
150 168 0
159 178 0
156 174 0
131 147 0
145 162 0
165 187 0
169 191 0
147 164 0
132 149 0
143 160 0
152 173 0
158 176 0
156 178 0
125 140 0
113 129 0
155 177 0
142 161 0
159 177 0
154 173 0
154 172 0
146 166 0
134 152 0
161 182 0
144 164 0
156 173 0
145 160 0
139 155 0
152 170 0
146 162 0
143 164 0
162 188 0
161 184 0
152 172 0
156 173 0
146 161 0
156 177 0
162 182 0
151 171 0
142 159 0
154 176 0
158 178 0
163 184 0
133 152 0
132 156 0
165 186 0
158 178 0
143 167 0
130 153 0
168 189 0
158 181 0
155 177 0
141 161 0
145 168 0
169 190 0
150 173 0
144 165 0
131 149 0
149 169 0
171 191 0
134 155 0
168 190 0
169 189 0
160 182 0
154 175 0
168 189 0
148 170 0
138 156 0
134 153 0
176 198 0
162 187 0
141 156 0
145 164 0
141 162 0
137 159 0
161 184 0
162 185 0
159 179 0
142 160 0
158 178 0
163 184 0
147 169 0
151 170 0
123 143 0
139 155 0
148 169 0
142 162 0
133 152 0
169 193 0
119 139 0
126 142 0
115 134 0
156 174 0
133 149 0
159 183 0
137 157 0
159 181 0
149 172 0
139 161 0
155 176 0
124 146 0
130 151 0
148 169 0
147 165 0
155 180 0
145 166 0
150 172 0
119 141 0
137 160 0
164 185 0
140 161 0
130 148 0
132 155 0
127 147 0
132 151 0
134 157 0
150 173 0
169 189 0
138 159 0
162 185 0
151 172 0
116 135 0
155 178 0
157 179 0
148 171 0
157 179 0
135 157 0
160 184 0
89 106 0
150 173 0
134 156 0
149 171 0
135 158 0
149 171 0
134 156 0
142 167 0
119 139 0
139 156 0
124 144 0
149 171 0
150 172 0
140 161 0
127 142 0
152 172 0
135 155 0
141 167 0
135 153 0
154 173 0
133 156 0
131 153 0
145 170 0
123 148 0
130 150 0
165 188 0
126 142 0
145 168 0
128 146 0
136 156 0
145 167 0
155 178 0
154 175 0
143 167 0
132 147 0
148 167 0
153 172 0
131 152 0
173 197 0
129 149 0
133 155 0
145 167 0
150 170 0
126 145 0
144 164 0
135 160 0
168 189 0
139 151 0
149 171 0
96 113 0
134 159 0
152 173 0
135 156 0
164 187 0
156 177 0
166 183 0
153 168 0
99 120 0
121 140 0
138 156 0
136 156 0
136 158 0
159 178 0
126 146 0
141 158 0
136 151 0
134 149 0
143 166 0
146 163 0
131 146 0
126 143 0
125 141 0
170 189 0
164 186 0
143 162 0
150 166 0
154 166 0
151 169 0
150 171 0
132 143 0
153 173 0
152 174 0
163 181 0
130 147 0
156 175 0
151 172 0
162 183 0
156 179 0
141 156 0
159 178 0
133 149 0
130 147 0
149 174 0
134 151 0
144 159 0
123 139 0
139 160 0
164 185 0
132 146 0
138 153 0
140 158 0
149 168 0
156 178 0
144 164 0
146 158 0
146 164 0
151 170 0
147 159 0
152 167 0
162 180 0
116 131 0
153 167 0
114 134 0
166 184 0
137 149 0
149 169 0
155 170 0
152 169 0
152 164 0
113 128 0
134 129 0
150 166 0
164 180 0
153 166 0
162 173 0
141 159 0
151 167 0
149 165 0
150 164 0
171 188 0
168 184 0
155 165 0
160 168 0
123 140 0
133 142 0
158 175 0
112 112 0
153 167 0
168 179 0
164 170 0
138 147 0
109 112 0
157 170 0
154 162 0
136 148 0
157 170 0
146 158 0
136 151 0
111 114 0
159 167 0
139 156 0
142 154 0
154 149 0
145 156 0
151 158 0
160 168 0
104 110 0
145 152 0
144 152 0
137 136 0
166 172 0
114 114 0
150 154 0
174 182 0
129 134 0
160 172 0
138 147 0
172 176 0
157 162 0
165 174 0
146 154 0
138 139 0
155 156 0
130 122 0
166 183 0
140 146 0
136 138 0
155 170 0
151 147 0
117 119 0
150 157 0
162 175 0
118 119 0
163 177 0
162 171 0
150 154 0
157 167 0
160 159 0
167 180 0
154 164 0
157 167 0
162 175 0
143 143 0
135 134 0
159 164 0
146 147 0
142 149 0
148 152 0
137 141 0
156 161 0
133 137 0
155 168 0
153 159 0
156 164 0
158 165 0
155 168 0
142 146 0
144 153 0
166 172 0
171 187 0
143 148 0
147 143 0
162 165 0
137 146 0
170 186 0
156 161 0
162 174 0
147 150 0
157 165 0
159 167 0
159 163 0
159 163 0
162 165 0
165 186 0
156 175 0
159 179 0
163 181 0
174 194 0
145 161 0
167 186 0
160 177 0
152 172 0
158 178 0
153 174 0
146 164 0
164 179 0
164 182 0
138 153 0
139 155 0
147 165 0
159 178 0
160 180 0
152 169 0
163 182 0
160 178 0
154 174 0
157 174 0
168 188 0
156 172 0
160 180 0
160 178 0
164 181 0
156 174 0
165 185 0
175 197 0
147 164 0
160 175 0
155 176 0
159 177 0
166 185 0
147 164 0
149 165 0
145 163 0
152 171 0
149 167 0
159 175 0
145 164 0
172 190 0
152 170 0
165 185 0
132 153 0
152 168 0
149 165 0
165 183 0
169 189 0
147 165 0
154 172 0
161 181 0
167 186 0
165 182 0
137 154 0
151 172 0
157 179 0
161 177 0
161 179 0
164 183 0
161 183 0
134 147 0
154 176 0
156 176 0
160 178 0
162 182 0
152 172 0
144 161 0
153 173 0
143 163 0
119 136 0
167 191 0
144 165 0
126 144 0
133 155 0
138 158 0
174 196 0
124 139 0
158 181 0
144 160 0
146 164 0
124 140 0
142 164 0
156 178 0
142 161 0
154 174 0
160 179 0
144 164 0
129 147 0
142 161 0
148 165 0
158 179 0
151 174 0
152 173 0
153 174 0
116 135 0
139 161 0
164 188 0
153 177 0
149 172 0
158 179 0
165 186 0
142 161 0
148 168 0
155 175 0
142 162 0
138 159 0
145 166 0
127 150 0
130 154 0
141 163 0
139 163 0
138 157 0
150 168 0
153 175 0
165 188 0
140 162 0
123 146 0
146 170 0
163 186 0
156 176 0
138 160 0
163 185 0
152 173 0
146 166 0
131 151 0
137 159 0
150 170 0
150 173 0
147 169 0
135 153 0
163 184 0
145 166 0
145 169 0
144 166 0
164 187 0
133 158 0
149 169 0
132 153 0
164 187 0
133 153 0
135 150 0
137 158 0
150 173 0
161 184 0
135 159 0
157 180 0
124 144 0
162 180 0
146 169 0
139 160 0
143 166 0
125 147 0
152 175 0
145 166 0
139 160 0
109 131 0
145 164 0
123 143 0
167 194 0
137 157 0
150 173 0
137 152 0
153 169 0
149 171 0
141 158 0
140 162 0
149 170 0
113 131 0
154 168 0
111 132 0
123 147 0
137 151 0
121 133 0
126 146 0
155 168 0
139 155 0
128 148 0
154 176 0
122 143 0
133 155 0
134 155 0
155 180 0
155 179 0
157 180 0
110 132 0
164 183 0
135 158 0
150 172 0
154 176 0
136 156 0
131 149 0
130 153 0
144 164 0
131 154 0
143 168 0
160 183 0
137 158 0
167 190 0
93 108 0
152 174 0
148 172 0
154 178 0
144 167 0
139 160 0
156 181 0
172 188 0
132 152 0
125 148 0
158 179 0
154 174 0
161 177 0
155 178 0
146 167 0
154 175 0
129 142 0
147 167 0
119 141 0
128 151 0
114 132 0
140 161 0
153 177 0
129 143 0
170 195 0
136 157 0
141 163 0
132 155 0
146 169 0
140 160 0
111 129 0
119 132 0
163 188 0
145 165 0
139 157 0
154 174 0
162 181 0
125 147 0
127 139 0
141 155 0
139 158 0
123 134 0
153 170 0
126 145 0
139 157 0
153 175 0
158 179 0
155 176 0
149 169 0
138 158 0
141 158 0
138 153 0
135 159 0
156 176 0
149 169 0
162 177 0
146 165 0
145 162 0
134 154 0
164 179 0
133 150 0
136 154 0
172 194 0
125 145 0
135 155 0
133 152 0
146 169 0
143 159 0
153 175 0
151 171 0
127 146 0
163 184 0
129 148 0
165 181 0
163 179 0
150 163 0
155 172 0
164 182 0
127 146 0
140 160 0
157 171 0
164 186 0
139 159 0
143 163 0
138 156 0
156 176 0
97 106 0
156 172 0
170 187 0
118 128 0
148 161 0
153 171 0
152 172 0
138 147 0
134 153 0
151 173 0
156 173 0
168 177 0
148 165 0
152 169 0
147 157 0
163 183 0
124 129 0
151 166 0
163 174 0
125 140 0
174 188 0
154 173 0
125 140 0
141 154 0
152 167 0
168 188 0
170 190 0
150 163 0
152 168 0
170 182 0
168 182 0
153 164 0
163 171 0
135 141 0
153 165 0
125 143 0
166 182 0
129 132 0
139 146 0
150 155 0
160 172 0
155 162 0
148 161 0
156 163 0
147 156 0
148 152 0
138 155 0
160 173 0
151 159 0
141 149 0
168 171 0
161 176 0
151 166 0
129 136 0
148 154 0
139 145 0
170 183 0
138 139 0
136 151 0
150 164 0
150 153 0
159 175 0
131 130 0
126 129 0
152 155 0
156 166 0
141 151 0
157 160 0
135 139 0
158 172 0
144 157 0
126 120 0
163 168 0
144 150 0
165 171 0
150 149 0
137 134 0
139 142 0
160 172 0
165 171 0
145 151 0
148 152 0
144 150 0
171 179 0
137 149 0
134 135 0
161 165 0
134 128 0
160 167 0
152 150 0
143 142 0
151 152 0
164 172 0
152 160 0
162 174 0
165 175 0
153 164 0
153 161 0
137 136 0
159 162 0
147 143 0
133 141 0
154 161 0
163 173 0
164 177 0
131 134 0
165 171 0
163 181 0
160 169 0
159 167 0
162 173 0
147 154 0
152 168 0
163 183 0
157 173 0
147 168 0
155 174 0
159 177 0
165 182 0
162 183 0
162 180 0
160 178 0
164 184 0
135 155 0
157 175 0
168 188 0
164 182 0
161 183 0
164 183 0
141 158 0
160 180 0
136 155 0
151 171 0
168 185 0
168 184 0
159 178 0
155 175 0
145 161 0
170 188 0
151 166 0
160 176 0
141 159 0
116 135 0
148 165 0
135 151 0
159 180 0
150 165 0
169 188 0
137 158 0
150 170 0
164 185 0
147 164 0
151 170 0
164 184 0
155 170 0
165 182 0
161 182 0
157 176 0
154 174 0
123 142 0
164 182 0
145 166 0
150 170 0
134 153 0
152 173 0
159 181 0
170 188 0
167 187 0
168 186 0
141 162 0
168 188 0
160 182 0
163 182 0
161 183 0
149 167 0
155 174 0
139 157 0
147 169 0
109 126 0
151 169 0
161 180 0
148 170 0
146 169 0
154 172 0
132 151 0
155 175 0
141 160 0
163 182 0
157 179 0
156 180 0
138 158 0
160 179 0
137 155 0
162 183 0
161 182 0
138 158 0
148 170 0
150 174 0
171 191 0
154 177 0
130 151 0
151 173 0
147 167 0
155 176 0
145 170 0
167 191 0
154 178 0
153 172 0
146 167 0
153 176 0
129 152 0
132 153 0
161 182 0
159 183 0
151 170 0
132 154 0
156 180 0
144 164 0
146 164 0
146 166 0
144 166 0
142 166 0
161 186 0
133 155 0
155 178 0
158 184 0
126 147 0
147 168 0
146 166 0
116 137 0
140 157 0
151 170 0
137 156 0
156 180 0
131 156 0
123 142 0
147 169 0
141 165 0
160 179 0
112 132 0
156 178 0
117 139 0
163 186 0
161 181 0
145 168 0
157 178 0
146 169 0
164 185 0
128 150 0
154 172 0
156 178 0
171 192 0
152 177 0
140 156 0
169 193 0
155 177 0
157 184 0
153 173 0
150 168 0
150 175 0
156 177 0
119 135 0
141 164 0
143 162 0
158 179 0
144 167 0
150 170 0
163 184 0
152 172 0
167 190 0
151 175 0
121 141 0
132 158 0
129 151 0
154 176 0
145 168 0
160 185 0
129 146 0
146 169 0
127 146 0
147 169 0
145 167 0
126 148 0
113 135 0
154 175 0
138 157 0
155 179 0
153 177 0
130 152 0
147 169 0
113 133 0
147 172 0
156 178 0
140 161 0
150 173 0
149 170 0
175 198 0
146 167 0
133 156 0
154 174 0
123 144 0
137 160 0
148 171 0
132 149 0
144 166 0
146 165 0
136 155 0
162 184 0
155 175 0
141 163 0
140 161 0
134 153 0
148 170 0
146 166 0
142 162 0
168 186 0
162 183 0
133 156 0
148 170 0
141 159 0
146 169 0
137 156 0
144 161 0
154 178 0
110 134 0
150 172 0
148 166 0
95 115 0
144 164 0
143 167 0
146 166 0
138 159 0
149 171 0
140 163 0
146 167 0
166 186 0
130 149 0
149 169 0
126 148 0
151 169 0
138 160 0
130 148 0
160 181 0
127 143 0
125 147 0
145 165 0
158 177 0
156 173 0
131 153 0
137 150 0
127 148 0
154 172 0
114 129 0
138 159 0
140 159 0
145 167 0
153 166 0
157 174 0
146 167 0
139 150 0
115 130 0
115 135 0
156 180 0
126 148 0
144 165 0
133 155 0
141 164 0
166 186 0
122 140 0
153 173 0
121 145 0
166 188 0
147 161 0
114 122 0
151 173 0
162 177 0
175 185 0
138 155 0
154 166 0
149 169 0
144 156 0
149 171 0
166 183 0
145 168 0
138 154 0
156 176 0
148 160 0
157 173 0
138 147 0
121 145 0
133 155 0
148 169 0
138 159 0
143 161 0
152 170 0
132 147 0
125 138 0
157 178 0
164 181 0
144 163 0
155 167 0
150 168 0
139 158 0
152 164 0
158 166 0
163 179 0
175 198 0
127 142 0
148 165 0
141 157 0
156 173 0
143 160 0
138 152 0
159 177 0
140 153 0
149 170 0
136 146 0
147 165 0
150 164 0
152 170 0
142 149 0
156 173 0
156 174 0
154 168 0
138 150 0
161 173 0
157 166 0
164 182 0
146 162 0
145 159 0
141 154 0
144 154 0
155 177 0
149 174 0
163 175 0
140 150 0
155 175 0
129 149 0
145 156 0
142 163 0
128 130 0
167 180 0
154 166 0
158 174 0
141 150 0
150 169 0
139 152 0
132 140 0
154 162 0
148 161 0
162 182 0
162 179 0
139 148 0
128 132 0
145 154 0
144 145 0
153 155 0
150 169 0
162 169 0
153 164 0
145 150 0
161 181 0
149 151 0
155 169 0
152 161 0
151 156 0
140 139 0
140 152 0
165 179 0
155 166 0
153 159 0
143 157 0
148 158 0
164 175 0
151 164 0
144 143 0
153 162 0
120 126 0
150 156 0
154 160 0
155 163 0
155 158 0
157 158 0
146 153 0
141 141 0
165 173 0
145 156 0
148 151 0
163 179 0
149 160 0
155 164 0
125 114 0
164 171 0
158 170 0
128 133 0
156 164 0
120 118 0
151 150 0
158 164 0
163 171 0
132 137 0
177 190 0
155 168 0
161 168 0
154 156 0
166 176 0
156 164 0
160 172 0
141 144 0
152 160 0
143 142 0
168 183 0
159 174 0
149 169 0
169 186 0
160 180 0
160 179 0
155 173 0
163 181 0
154 173 0
151 171 0
163 180 0
168 182 0
172 190 0
152 169 0
165 183 0
157 176 0
166 184 0
165 185 0
158 177 0
136 154 0
163 182 0
152 171 0
159 180 0
156 173 0
153 173 0
156 175 0
150 170 0
161 179 0
160 180 0
148 166 0
165 184 0
144 161 0
151 169 0
163 182 0
157 177 0
160 177 0
165 183 0
156 172 0
129 143 0
142 158 0
157 178 0
152 168 0
143 162 0
166 182 0
155 175 0
170 192 0
139 157 0
147 164 0
145 163 0
163 184 0
144 163 0
162 181 0
166 186 0
134 155 0
160 179 0
138 158 0
165 185 0
154 168 0
145 160 0
151 172 0
152 173 0
137 159 0
156 174 0
157 178 0
148 166 0
135 154 0
148 169 0
125 147 0
145 165 0
149 169 0
151 172 0
144 161 0
154 175 0
128 146 0
151 166 0
132 152 0
154 171 0
132 153 0
165 187 0
150 170 0
131 152 0
145 167 0
153 171 0
147 163 0
150 171 0
168 187 0
133 157 0
141 161 0
121 143 0
124 149 0
156 177 0
145 163 0
162 180 0
157 179 0
125 141 0
161 185 0
159 184 0
154 174 0
136 155 0
121 140 0
150 173 0
167 189 0
172 190 0
154 173 0
159 176 0
166 186 0
140 163 0
156 179 0
141 160 0
149 171 0
152 175 0
155 179 0
141 163 0
120 144 0
118 139 0
140 160 0
123 143 0
162 183 0
164 185 0
164 185 0
156 182 0
147 171 0
162 187 0
117 137 0
145 163 0
126 146 0
157 180 0
146 166 0
177 199 0
148 172 0
129 151 0
146 169 0
150 171 0
146 168 0
144 165 0
144 167 0
167 187 0
146 167 0
105 125 0
163 190 0
124 141 0
157 177 0
145 169 0
150 175 0
157 177 0
135 157 0
165 185 0
161 183 0
169 189 0
146 165 0
149 172 0
135 156 0
165 186 0
162 180 0
149 168 0
142 162 0
165 189 0
142 164 0
135 157 0
159 178 0
121 138 0
135 156 0
136 159 0
160 183 0
118 138 0
142 166 0
151 174 0
121 142 0
144 159 0
147 167 0
136 157 0
142 162 0
137 160 0
161 185 0
126 146 0
149 171 0
137 160 0
149 170 0
161 184 0
155 177 0
137 153 0
135 159 0
129 146 0
152 172 0
167 191 0
136 159 0
154 176 0
154 176 0
149 172 0
148 171 0
131 151 0
151 171 0
151 173 0
122 141 0
119 138 0
151 173 0
157 179 0
167 186 0
118 140 0
144 160 0
143 168 0
145 166 0
155 179 0
135 154 0
136 156 0
128 147 0
138 158 0
137 153 0
133 153 0
136 160 0
145 165 0
142 163 0
144 166 0
149 170 0
129 152 0
141 158 0
151 171 0
153 167 0
140 159 0
138 158 0
128 149 0
151 168 0
110 122 0
124 144 0
158 180 0
122 139 0
142 163 0
144 165 0
100 113 0
114 135 0
138 160 0
163 184 0
163 178 0
147 162 0
141 166 0
151 168 0
152 172 0
149 171 0
156 175 0
169 189 0
147 165 0
138 151 0
132 154 0
136 147 0
153 178 0
158 178 0
162 183 0
138 159 0
139 162 0
123 143 0
175 198 0
154 175 0
147 164 0
134 151 0
157 172 0
154 173 0
164 184 0
149 172 0
161 181 0
135 152 0
124 133 0
158 182 0
159 180 0
141 167 0
137 157 0
155 169 0
148 169 0
145 154 0
161 182 0
139 159 0
131 147 0
142 158 0
131 152 0
154 174 0
123 141 0
148 166 0
158 180 0
165 182 0
158 174 0
137 160 0
150 170 0
161 181 0
146 158 0
118 136 0
129 133 0
144 157 0
112 117 0
142 153 0
142 156 0
158 175 0
167 182 0
159 177 0
156 176 0
151 172 0
165 184 0
159 182 0
163 183 0
154 173 0
137 156 0
141 149 0
153 165 0
155 171 0
136 150 0
151 172 0
141 146 0
144 155 0
163 183 0
140 161 0
154 169 0
149 166 0
159 175 0
150 164 0
153 168 0
156 166 0
130 135 0
141 156 0
158 174 0
145 165 0
164 182 0
147 157 0
153 167 0
137 148 0
137 140 0
137 148 0
151 164 0
158 177 0
129 138 0
149 160 0
147 165 0
125 136 0
156 171 0
135 156 0
151 160 0
155 173 0
160 178 0
149 151 0
143 158 0
117 129 0
152 165 0
157 166 0
153 171 0
150 154 0
160 167 0
156 168 0
148 154 0
141 153 0
149 159 0
147 149 0
142 143 0
147 154 0
134 137 0
144 156 0
147 156 0
125 125 0
143 155 0
162 174 0
168 186 0
164 173 0
143 145 0
141 139 0
145 154 0
148 160 0
152 163 0
141 147 0
152 149 0
137 145 0
152 158 0
156 169 0
151 159 0
147 150 0
149 149 0
161 165 0
169 180 0
149 156 0
153 159 0
152 167 0
147 146 0
157 160 0
159 173 0
168 175 0
169 192 0
155 167 0
151 160 0
154 162 0
149 162 0
145 154 0
164 168 0
150 160 0
163 172 0
153 160 0
148 153 0
159 171 0
156 161 0
145 146 0
161 167 0
153 163 0
156 165 0
164 180 0
164 181 0
153 159 0
158 174 0
164 181 0
144 162 0
156 174 0
156 174 0
149 167 0
163 181 0
150 173 0
165 186 0
155 173 0
166 186 0
163 184 0
161 178 0
152 170 0
153 175 0
162 182 0
148 162 0
158 177 0
163 183 0
158 176 0
167 188 0
154 168 0
160 181 0
152 170 0
173 193 0
153 171 0
151 169 0
168 187 0
166 186 0
162 184 0
158 177 0
142 159 0
159 180 0
161 179 0
148 166 0
160 178 0
165 183 0
164 183 0
151 168 0
162 180 0
172 194 0
157 177 0
139 155 0
155 175 0
165 188 0
151 173 0
166 187 0
162 182 0
152 171 0
160 182 0
166 184 0
153 171 0
157 176 0
168 186 0
159 172 0
147 165 0
147 166 0
167 186 0
148 166 0
153 175 0
155 175 0
146 167 0
150 171 0
158 176 0
165 188 0
135 155 0
160 178 0
109 129 0
162 186 0
155 177 0
134 152 0
134 157 0
139 155 0
144 165 0
121 137 0
149 173 0
125 145 0
153 177 0
149 168 0
167 187 0
144 163 0
157 179 0
161 184 0
149 171 0
151 170 0
140 162 0
160 181 0
137 154 0
170 192 0
141 161 0
164 185 0
151 169 0
170 191 0
155 173 0
151 175 0
149 172 0
163 185 0
144 167 0
166 185 0
156 178 0
130 152 0
136 156 0
140 156 0
126 144 0
143 161 0
125 146 0
145 166 0
171 190 0
132 150 0
150 170 0
122 143 0
150 171 0
131 154 0
163 185 0
161 183 0
157 177 0
150 169 0
139 163 0
162 186 0
139 162 0
156 177 0
161 184 0
129 151 0
145 167 0
141 162 0
139 158 0
151 172 0
158 178 0
146 168 0
141 164 0
160 182 0
125 145 0
137 160 0
162 186 0
128 147 0
111 131 0
135 153 0
152 171 0
121 139 0
143 165 0
148 172 0
137 161 0
133 156 0
131 154 0
170 196 0
140 158 0
121 141 0
151 174 0
152 176 0
124 142 0
144 163 0
141 160 0
168 190 0
146 167 0
171 192 0
143 164 0
165 187 0
142 166 0
133 147 0
156 177 0
159 180 0
141 164 0
166 185 0
146 167 0
157 174 0
171 196 0
155 178 0
152 177 0
164 186 0
157 174 0
135 157 0
163 182 0
138 160 0
165 186 0
151 175 0
140 161 0
112 132 0
169 195 0
147 169 0
175 198 0
147 161 0
137 159 0
151 171 0
152 175 0
127 149 0
125 148 0
138 158 0
155 175 0
152 171 0
133 158 0
150 171 0
147 170 0
137 156 0
148 170 0
140 160 0
133 153 0
113 132 0
157 180 0
159 179 0
143 163 0
151 173 0
150 173 0
147 169 0
160 180 0
126 152 0
140 159 0
143 162 0
130 149 0
160 181 0
125 144 0
137 159 0
164 188 0
150 165 0
147 168 0
139 162 0
121 142 0
133 156 0
155 174 0
131 147 0
160 182 0
139 155 0
137 158 0
116 133 0
142 164 0
126 144 0
159 175 0
126 145 0
131 150 0
144 157 0
170 187 0
167 190 0
147 166 0
159 182 0
153 172 0
141 160 0
165 185 0
157 181 0
151 168 0
156 174 0
148 166 0
144 164 0
115 133 0
166 189 0
109 129 0
157 179 0
126 140 0
159 186 0
156 178 0
175 195 0
122 144 0
138 158 0
122 143 0
151 170 0
140 158 0
161 182 0
93 109 0
157 177 0
134 149 0
151 171 0
131 147 0
133 143 0
152 169 0
139 156 0
147 170 0
149 168 0
146 166 0
140 160 0
152 172 0
159 182 0
132 149 0
143 163 0
153 171 0
159 176 0
129 150 0
144 163 0
140 154 0
146 164 0
141 156 0
115 135 0
159 181 0
167 185 0
151 172 0
163 179 0
145 151 0
146 159 0
155 169 0
139 156 0
163 184 0
145 163 0
154 172 0
168 185 0
149 170 0
162 183 0
153 172 0
151 167 0
139 155 0
162 174 0
126 145 0
133 148 0
142 155 0
139 156 0
132 145 0
150 165 0
133 150 0
136 159 0
161 174 0
150 165 0
159 177 0
142 148 0
146 164 0
161 171 0
150 165 0
156 165 0
159 177 0
151 157 0
144 159 0
153 153 0
151 161 0
159 177 0
161 178 0
131 149 0
124 132 0
162 174 0
142 152 0
112 124 0
151 167 0
121 127 0
160 173 0
147 157 0
159 173 0
125 141 0
146 157 0
162 178 0
154 164 0
150 159 0
161 174 0
155 173 0
169 180 0
150 170 0
140 150 0
144 149 0
173 184 0
143 157 0
147 156 0
157 165 0
142 152 0
149 166 0
155 158 0
141 145 0
157 166 0
164 178 0
118 127 0
123 131 0
149 162 0
156 169 0
164 178 0
136 142 0
159 164 0
156 159 0
165 180 0
153 162 0
158 173 0
148 159 0
159 170 0
130 122 0
158 170 0
140 132 0
145 154 0
156 164 0
111 109 0
154 158 0
137 145 0
141 145 0
156 168 0
153 164 0
157 159 0
150 156 0
155 162 0
166 174 0
154 166 0
162 173 0
139 142 0
162 171 0
162 171 0
141 147 0
128 130 0
147 155 0
152 165 0
143 157 0
154 166 0
147 146 0
154 160 0
176 192 0
152 160 0
161 171 0
156 161 0
153 164 0
153 164 0
161 168 0
151 157 0
163 177 0
160 180 0
153 172 0
166 187 0
174 196 0
160 178 0
152 169 0
166 183 0
142 158 0
170 189 0
167 184 0
153 172 0
159 179 0
163 181 0
142 159 0
149 170 0
159 178 0
152 171 0
170 187 0
154 174 0
159 178 0
159 179 0
156 173 0
150 170 0
150 169 0
164 183 0
152 172 0
156 174 0
150 167 0
167 187 0
158 176 0
168 189 0
163 180 0
163 186 0
161 179 0
159 177 0
156 178 0
167 187 0
162 181 0
159 181 0
156 174 0
161 181 0
149 169 0
158 175 0
161 181 0
147 163 0
154 174 0
166 189 0
165 186 0
166 184 0
130 149 0
164 188 0
137 156 0
130 148 0
144 163 0
153 175 0
132 150 0
141 160 0
129 150 0
153 171 0
141 161 0
156 173 0
170 189 0
141 163 0
158 176 0
156 178 0
154 172 0
165 183 0
163 184 0
127 143 0
143 160 0
133 152 0
156 177 0
168 187 0
162 181 0
166 184 0
143 162 0
152 172 0
155 173 0
158 178 0
157 178 0
153 173 0
158 179 0
164 184 0
153 176 0
159 176 0
151 171 0
167 188 0
119 141 0
157 178 0
149 170 0
163 183 0
148 168 0
127 146 0
162 184 0
174 193 0
140 161 0
140 161 0
168 188 0
172 190 0
146 167 0
139 160 0
133 153 0
154 177 0
159 175 0
157 181 0
146 166 0
159 180 0
138 158 0
151 175 0
167 191 0
138 161 0
132 152 0
136 156 0
165 188 0
140 162 0
131 154 0
172 195 0
143 162 0
145 167 0
157 183 0
145 166 0
143 168 0
150 171 0
132 156 0
159 177 0
151 173 0
154 168 0
157 181 0
141 158 0
108 128 0
158 178 0
167 189 0
134 155 0
153 176 0
138 155 0
157 179 0
161 181 0
151 172 0
130 153 0
163 183 0
147 170 0
166 188 0
152 175 0
165 189 0
139 161 0
155 176 0
137 159 0
147 166 0
151 171 0
133 153 0
157 180 0
153 173 0
172 196 0
145 166 0
147 169 0
162 188 0
142 159 0
147 168 0
146 167 0
146 170 0
132 147 0
148 170 0
141 160 0
166 188 0
146 165 0
153 176 0
153 175 0
144 161 0
116 137 0
113 129 0
159 179 0
144 166 0
171 190 0
124 146 0
155 179 0
165 188 0
133 155 0
135 155 0
145 163 0
137 156 0
169 195 0
144 164 0
134 155 0
124 141 0
140 158 0
132 151 0
112 129 0
140 157 0
169 193 0
132 150 0
116 136 0
140 159 0
161 183 0
130 149 0
150 169 0
113 138 0
131 151 0
160 181 0
145 166 0
145 165 0
142 159 0
144 167 0
163 183 0
153 178 0
133 157 0
161 175 0
97 116 0
174 198 0
149 169 0
155 171 0
134 151 0
146 165 0
160 183 0
135 159 0
133 150 0
142 161 0
140 163 0
124 142 0
141 163 0
154 175 0
162 184 0
163 185 0
148 164 0
160 177 0
133 155 0
156 178 0
157 175 0
139 155 0
125 145 0
124 146 0
148 169 0
147 165 0
146 169 0
165 182 0
135 152 0
131 140 0
148 169 0
148 169 0
149 170 0
172 193 0
132 152 0
148 167 0
148 163 0
137 146 0
121 133 0
157 178 0
125 149 0
140 154 0
127 140 0
162 184 0
166 182 0
148 170 0
148 161 0
125 142 0
156 176 0
148 167 0
177 199 0
144 158 0
149 174 0
137 150 0
124 141 0
126 141 0
154 162 0
147 164 0
146 169 0
159 181 0
151 167 0
162 186 0
139 161 0
89 103 0
143 156 0
118 139 0
126 143 0
166 185 0
136 155 0
141 157 0
128 140 0
159 170 0
164 188 0
154 172 0
169 188 0
134 155 0
150 166 0
162 181 0
142 156 0
139 156 0
151 167 0
160 179 0
159 180 0
146 164 0
123 132 0
144 151 0
114 128 0
145 160 0
142 162 0
133 149 0
144 153 0
161 182 0
165 182 0
135 157 0
155 167 0
152 170 0
134 152 0
136 145 0
157 182 0
108 130 0
154 166 0
129 143 0
157 175 0
169 191 0
153 170 0
159 174 0
131 149 0
143 155 0
164 179 0
135 155 0
156 170 0
150 160 0
124 132 0
163 168 0
146 163 0
154 169 0
126 133 0
143 157 0
167 186 0
150 157 0
139 153 0
151 162 0
153 168 0
166 184 0
147 160 0
169 191 0
130 144 0
157 167 0
130 138 0
168 188 0
155 169 0
153 166 0
150 158 0
159 177 0
168 178 0
150 162 0
172 196 0
163 187 0
130 145 0
139 141 0
148 161 0
141 154 0
159 173 0
144 151 0
165 175 0
165 175 0
161 174 0
133 132 0
153 164 0
159 169 0
145 152 0
143 152 0
150 149 0
150 165 0
152 161 0
148 160 0
163 176 0
156 161 0
158 168 0
176 185 0
147 158 0
162 177 0
171 182 0
159 170 0
133 130 0
146 159 0
162 174 0
156 161 0
157 158 0
174 189 0
166 179 0
134 144 0
165 169 0
151 156 0
159 170 0
154 165 0
172 190 0
169 185 0
159 160 0
155 163 0
133 142 0
150 157 0
158 167 0
160 166 0
174 188 0
156 166 0
139 147 0
153 159 0
162 173 0
162 176 0
154 161 0
147 150 0
151 162 0
144 144 0
160 179 0
155 175 0
152 167 0
152 171 0
163 182 0
153 172 0
149 165 0
167 188 0
175 195 0
151 170 0
166 188 0
157 174 0
160 180 0
162 181 0
143 162 0
148 166 0
145 163 0
153 171 0
160 181 0
147 164 0
166 186 0
159 176 0
170 188 0
135 150 0
147 165 0
148 167 0
164 183 0
162 181 0
139 156 0
156 177 0
167 188 0
168 189 0
151 166 0
155 173 0
162 180 0
145 167 0
135 153 0
175 197 0
168 189 0
153 174 0
156 175 0
163 182 0
170 193 0
142 157 0
147 167 0
169 190 0
162 184 0
160 181 0
142 161 0
165 186 0
157 177 0
172 192 0
170 191 0
164 183 0
143 159 0
158 176 0
157 177 0
148 168 0
147 167 0
128 149 0
144 165 0
169 191 0
168 188 0
146 167 0
165 185 0
148 168 0
157 177 0
169 188 0
138 158 0
163 182 0
161 184 0
157 178 0
144 164 0
136 156 0
130 150 0
144 166 0
154 171 0
148 164 0
103 124 0
142 164 0
157 177 0
160 182 0
159 184 0
142 167 0
135 157 0
157 174 0
162 184 0
164 186 0
162 184 0
142 161 0
153 171 0
159 179 0
133 153 0
174 193 0
161 182 0
121 141 0
146 159 0
153 177 0
117 135 0
144 164 0
159 178 0
171 193 0
121 139 0
159 179 0
139 161 0
148 165 0
145 166 0
167 189 0
122 144 0
155 176 0
122 138 0
142 163 0
142 167 0
154 179 0
155 179 0
147 166 0
140 163 0
160 182 0
154 171 0
158 182 0
160 184 0
152 175 0
149 174 0
158 178 0
160 182 0
145 164 0
164 185 0
155 178 0
126 148 0
138 156 0
146 169 0
152 171 0
131 153 0
156 182 0
135 158 0
159 180 0
161 180 0
88 108 0
158 181 0
155 180 0
145 165 0
126 144 0
164 187 0
164 183 0
165 186 0
161 183 0
155 179 0
160 183 0
156 173 0
123 142 0
132 153 0
125 146 0
143 166 0
159 181 0
131 152 0
121 139 0
145 164 0
129 150 0
136 157 0
164 186 0
145 168 0
175 198 0
129 149 0
157 180 0
127 146 0
126 147 0
125 148 0
128 150 0
141 165 0
125 147 0
148 168 0
152 171 0
116 138 0
130 153 0
137 156 0
156 178 0
89 111 0
123 148 0
164 186 0
117 136 0
138 162 0
137 160 0
136 155 0
134 157 0
137 155 0
140 160 0
150 173 0
148 169 0
149 171 0
142 164 0
138 160 0
132 152 0
133 154 0
134 153 0
121 142 0
147 171 0
140 161 0
159 180 0
138 157 0
126 149 0
151 172 0
132 153 0
156 177 0
154 177 0
149 170 0
142 164 0
133 151 0
140 159 0
158 178 0
129 150 0
148 168 0
125 142 0
127 142 0
136 154 0
125 144 0
156 176 0
164 188 0
147 171 0
113 134 0
180 201 0
159 182 0
152 171 0
123 145 0
156 178 0
153 178 0
140 160 0
156 174 0
154 173 0
146 169 0
133 156 0
131 149 0
147 159 0
152 164 0
149 170 0
151 172 0
147 171 0
162 183 0
150 170 0
112 136 0
144 165 0
134 156 0
144 169 0
158 180 0
150 177 0
138 153 0
160 186 0
165 180 0
157 174 0
137 152 0
152 174 0
146 161 0
123 143 0
124 143 0
146 165 0
123 147 0
157 177 0
162 181 0
135 159 0
160 174 0
137 155 0
158 179 0
161 176 0
125 147 0
170 191 0
145 160 0
144 160 0
145 169 0
140 164 0
150 171 0
137 158 0
146 162 0
140 161 0
126 137 0
125 146 0
133 157 0
148 164 0
142 159 0
149 162 0
161 180 0
156 177 0
154 173 0
113 134 0
141 149 0
120 132 0
165 177 0
157 165 0
145 156 0
152 173 0
143 163 0
133 150 0
162 177 0
131 138 0
154 165 0
145 161 0
134 150 0
143 159 0
139 156 0
176 198 0
139 157 0
146 167 0
161 177 0
139 149 0
141 160 0
172 188 0
155 172 0
145 159 0
147 163 0
164 183 0
161 178 0
145 165 0
127 141 0
160 175 0
150 165 0
148 170 0
141 157 0
149 163 0
143 156 0
146 157 0
143 162 0
129 146 0
147 162 0
142 156 0
157 172 0
170 186 0
155 171 0
152 161 0
153 173 0
146 161 0
157 171 0
132 142 0
147 160 0
145 161 0
144 159 0
156 172 0
137 152 0
165 174 0
147 159 0
155 164 0
146 152 0
141 156 0
152 164 0
170 187 0
159 166 0
141 144 0
126 141 0
152 158 0
156 172 0
136 151 0
155 158 0
171 183 0
132 146 0
158 172 0
152 163 0
160 177 0
137 144 0
154 158 0
138 145 0
176 195 0
145 156 0
158 172 0
146 152 0
132 136 0
130 138 0
164 177 0
158 167 0
159 166 0
158 164 0
141 144 0
151 163 0
152 168 0
166 174 0
142 145 0
161 174 0
141 152 0
157 166 0
148 154 0
154 160 0
152 161 0
149 157 0
158 169 0
166 181 0
159 167 0
169 183 0
170 185 0
149 162 0
124 117 0
148 161 0
141 140 0
154 162 0
142 147 0
171 183 0
132 137 0
164 176 0
149 153 0
170 180 0
169 176 0
143 149 0
151 167 0
150 163 0
162 175 0
163 179 0
143 163 0
167 188 0
162 182 0
145 161 0
165 185 0
154 175 0
153 171 0
143 163 0
176 196 0
146 167 0
157 178 0
150 173 0
147 164 0
143 162 0
153 174 0
155 172 0
139 158 0
164 186 0
163 179 0
153 170 0
138 156 0
170 189 0
157 176 0
157 172 0
154 171 0
146 167 0
159 179 0
150 168 0
159 180 0
147 163 0
159 180 0
152 173 0
146 165 0
170 191 0
155 174 0
142 160 0
156 175 0
145 166 0
163 183 0
172 191 0
137 154 0
168 187 0
161 181 0
154 174 0
164 183 0
132 152 0
153 174 0
175 195 0
154 174 0
161 183 0
169 190 0
132 151 0
144 157 0
165 184 0
148 163 0
139 157 0
149 169 0
149 170 0
140 159 0
148 168 0
134 150 0
161 179 0
165 181 0
159 179 0
130 149 0
130 150 0
135 157 0
162 183 0
151 174 0
146 167 0
137 157 0
171 196 0
162 182 0
151 171 0
148 171 0
146 168 0
142 164 0
155 176 0
159 182 0
149 170 0
131 152 0
145 165 0
135 154 0
129 150 0
164 185 0
160 182 0
149 171 0
138 154 0
160 183 0
156 174 0
138 159 0
141 160 0
138 160 0
123 139 0
138 158 0
168 189 0
146 169 0
129 147 0
175 194 0
169 187 0
167 188 0
154 176 0
163 185 0
157 179 0
134 157 0
166 192 0
144 167 0
144 162 0
156 179 0
145 162 0
134 155 0
152 173 0
160 183 0
146 168 0
138 158 0
122 143 0
149 169 0
163 187 0
135 155 0
155 177 0
142 166 0
140 160 0
151 173 0
160 184 0
172 195 0
150 173 0
150 174 0
142 165 0
133 154 0
143 162 0
132 149 0
142 163 0
164 188 0
150 171 0
170 193 0
151 177 0
149 167 0
160 182 0
163 185 0
136 159 0
146 170 0
162 188 0
141 164 0
140 160 0
150 168 0
138 161 0
155 178 0
118 136 0
145 166 0
112 122 0
150 170 0
157 181 0
122 145 0
141 162 0
145 164 0
142 166 0
166 186 0
142 165 0
160 181 0
157 178 0
156 179 0
149 170 0
154 170 0
157 177 0
167 185 0
158 178 0
161 187 0
126 148 0
162 177 0
146 166 0
145 167 0
156 179 0
162 186 0
149 164 0
134 157 0
154 173 0
156 178 0
151 172 0
137 160 0
149 169 0
117 141 0
173 196 0
170 192 0
112 131 0
152 176 0
146 162 0
155 179 0
135 156 0
157 171 0
147 169 0
160 185 0
132 156 0
127 149 0
130 150 0
141 164 0
126 149 0
146 164 0
159 180 0
161 186 0
157 181 0
147 168 0
155 174 0
144 163 0
153 170 0
132 153 0
158 178 0
129 141 0
157 179 0
160 180 0
164 180 0
150 172 0
136 154 0
146 161 0
136 158 0
141 163 0
145 167 0
158 181 0
133 158 0
145 167 0
150 169 0
156 176 0
165 189 0
140 159 0
138 158 0
132 152 0
147 159 0
157 179 0
157 175 0
146 167 0
161 181 0
155 174 0
150 173 0
147 168 0
155 180 0
152 171 0
134 152 0
131 154 0
113 128 0
128 143 0
117 137 0
166 186 0
124 141 0
149 165 0
148 167 0
114 130 0
127 144 0
144 159 0
139 160 0
168 185 0
137 159 0
152 173 0
176 196 0
138 157 0
152 174 0
113 131 0
138 158 0
159 180 0
126 147 0
160 174 0
150 167 0
166 187 0
162 173 0
156 178 0
137 156 0
155 180 0
131 149 0
162 177 0
129 146 0
147 168 0
131 147 0
151 168 0
142 160 0
125 146 0
166 190 0
147 164 0
155 172 0
165 186 0
170 190 0
131 153 0
110 121 0
163 180 0
144 161 0
152 170 0
157 176 0
148 162 0
133 153 0
147 167 0
145 158 0
174 191 0
156 170 0
157 175 0
148 169 0
165 179 0
137 154 0
153 169 0
143 159 0
137 152 0
152 163 0
153 175 0
163 186 0
148 164 0
147 158 0
152 169 0
142 154 0
162 176 0
138 154 0
150 165 0
143 150 0
133 154 0
123 134 0
153 176 0
160 174 0
173 194 0
166 183 0
140 152 0
146 161 0
153 173 0
162 182 0
160 172 0
144 163 0
167 185 0
158 171 0
122 136 0
146 161 0
133 134 0
163 182 0
153 161 0
154 167 0
156 174 0
159 177 0
139 148 0
146 167 0
159 174 0
154 171 0
135 141 0
168 186 0
155 164 0
146 153 0
140 149 0
162 183 0
148 159 0
154 164 0
162 180 0
142 154 0
127 127 0
151 163 0
164 184 0
156 171 0
167 180 0
144 149 0
130 129 0
167 178 0
160 168 0
161 171 0
169 176 0
162 181 0
139 142 0
160 167 0
138 139 0
147 153 0
150 158 0
148 152 0
163 173 0
170 189 0
161 171 0
151 154 0
165 176 0
149 156 0
155 172 0
149 156 0
130 127 0
125 115 0
168 175 0
140 146 0
157 167 0
170 182 0
164 175 0
157 164 0
143 152 0
154 156 0
172 192 0
163 173 0
156 167 0
155 167 0
137 145 0
165 171 0
135 146 0
158 167 0
160 175 0
140 152 0
166 171 0
138 140 0
150 165 0
176 192 0
154 165 0
156 165 0
155 159 0
157 169 0
159 167 0
167 187 0
151 168 0
154 172 0
157 178 0
165 188 0
155 176 0
173 194 0
175 192 0
160 177 0
158 179 0
162 183 0
140 157 0
140 162 0
163 184 0
174 196 0
173 194 0
148 161 0
158 178 0
166 187 0
169 187 0
151 169 0
174 196 0
156 175 0
159 177 0
144 163 0
170 190 0
159 176 0
162 182 0
161 179 0
142 162 0
166 188 0
165 182 0
129 147 0
135 156 0
154 175 0
155 174 0
168 191 0
166 187 0
157 176 0
157 176 0
155 175 0
160 178 0
155 174 0
141 159 0
165 186 0
150 170 0
155 171 0
156 177 0
152 168 0
150 167 0
162 182 0
164 184 0
150 168 0
167 187 0
157 177 0
169 187 0
166 189 0
151 170 0
152 173 0
127 143 0
151 171 0
156 177 0
162 182 0
139 158 0
176 197 0
155 173 0
134 151 0
166 185 0
143 164 0
167 190 0
169 191 0
146 166 0
142 163 0
162 184 0
162 181 0
156 176 0
112 131 0
153 172 0
165 185 0
156 175 0
142 162 0
157 178 0
162 179 0
157 178 0
164 182 0
136 156 0
149 171 0
123 141 0
163 186 0
160 180 0
156 176 0
151 172 0
134 153 0
157 176 0
157 180 0
131 152 0
138 163 0
162 185 0
164 186 0
162 184 0
155 179 0
153 176 0
167 188 0
160 178 0
157 181 0
149 171 0
153 175 0
118 139 0
136 146 0
148 168 0
142 163 0
126 149 0
148 169 0
160 181 0
167 192 0
153 176 0
154 177 0
138 160 0
163 187 0
143 167 0
174 197 0
155 179 0
145 165 0
148 168 0
147 169 0
141 164 0
133 154 0
140 165 0
159 182 0
164 185 0
155 177 0
162 179 0
142 166 0
140 160 0
159 179 0
157 179 0
160 183 0
155 175 0
150 171 0
133 156 0
141 166 0
121 143 0
123 142 0
139 163 0
148 169 0
156 179 0
142 166 0
135 156 0
157 181 0
137 160 0
144 164 0
130 147 0
136 154 0
137 157 0
136 158 0
158 178 0
122 141 0
149 170 0
113 132 0
150 173 0
160 182 0
125 145 0
145 168 0
158 182 0
153 174 0
147 168 0
139 159 0
155 175 0
137 158 0
144 166 0
158 179 0
166 186 0
139 159 0
162 183 0
166 186 0
153 175 0
138 161 0
143 164 0
144 166 0
125 141 0
146 165 0
146 165 0
148 170 0
126 149 0
148 170 0
147 168 0
103 121 0
137 154 0
129 146 0
154 179 0
147 168 0
124 139 0
135 156 0
128 147 0
128 149 0
153 177 0
142 160 0
139 163 0
107 126 0
112 134 0
161 182 0
156 179 0
157 178 0
146 169 0
128 146 0
130 144 0
146 168 0
147 170 0
124 142 0
136 153 0
149 172 0
124 148 0
144 167 0
135 152 0
119 140 0
133 155 0
165 185 0
141 160 0
135 157 0
121 137 0
155 177 0
156 176 0
157 176 0
127 147 0
135 154 0
145 168 0
141 152 0
144 163 0
133 153 0
142 162 0
105 121 0
145 163 0
134 156 0
153 175 0
151 173 0
143 167 0
141 159 0
145 164 0
114 133 0
154 170 0
140 158 0
146 164 0
114 133 0
155 176 0
154 174 0
152 167 0
156 178 0
153 173 0
132 153 0
155 174 0
165 188 0
145 168 0
153 169 0
120 138 0
174 189 0
139 161 0
149 169 0
158 180 0
132 152 0
131 151 0
136 155 0
156 178 0
162 179 0
144 162 0
152 172 0
161 181 0
144 163 0
158 181 0
129 149 0
154 177 0
152 170 0
139 162 0
151 166 0
150 170 0
135 155 0
149 170 0
110 119 0
147 162 0
147 161 0
146 162 0
126 148 0
153 169 0
157 175 0
144 161 0
165 180 0
157 176 0
161 177 0
155 167 0
146 164 0
133 153 0
154 164 0
164 188 0
143 162 0
161 183 0
147 167 0
162 181 0
106 116 0
151 168 0
148 168 0
169 189 0
169 195 0
155 167 0
154 168 0
146 165 0
153 165 0
150 169 0
150 171 0
164 180 0
121 133 0
147 169 0
158 179 0
155 176 0
159 175 0
155 171 0
129 143 0
128 139 0
138 148 0
166 186 0
148 162 0
161 180 0
160 172 0
115 128 0
155 167 0
160 177 0
148 168 0
142 160 0
126 141 0
157 175 0
137 149 0
153 168 0
157 173 0
156 175 0
163 179 0
154 168 0
155 177 0
151 162 0
170 180 0
166 184 0
166 182 0
133 129 0
176 196 0
130 145 0
138 146 0
160 171 0
159 172 0
155 172 0
154 171 0
148 150 0
138 157 0
151 157 0
149 149 0
157 170 0
155 165 0
146 161 0
136 137 0
164 178 0
153 161 0
120 124 0
156 169 0
139 143 0
145 146 0
165 172 0
171 178 0
152 166 0
168 182 0
153 167 0
115 119 0
162 166 0
135 143 0
147 148 0
164 178 0
137 141 0
131 140 0
155 163 0
129 137 0
168 176 0
149 150 0
132 133 0
156 169 0
166 175 0
158 158 0
168 181 0
152 158 0
148 152 0
153 162 0
161 168 0
161 172 0
148 161 0
166 179 0
154 170 0
162 177 0
170 181 0
138 137 0
150 161 0
162 169 0
166 181 0
157 164 0
164 178 0
163 168 0
161 173 0
160 181 0
162 182 0
159 176 0
159 177 0
164 183 0
159 176 0
172 190 0
142 158 0
174 195 0
163 184 0
154 173 0
152 168 0
161 185 0
173 194 0
146 165 0
168 190 0
152 172 0
152 170 0
150 167 0
152 173 0
138 159 0
169 189 0
141 159 0
147 167 0
155 174 0
156 178 0
142 159 0
170 188 0
157 177 0
165 184 0
160 178 0
152 169 0
162 181 0
155 175 0
149 168 0
164 186 0
155 172 0
165 185 0
145 161 0
144 163 0
150 169 0
166 185 0
170 190 0
143 164 0
158 178 0
158 177 0
156 178 0
160 181 0
150 170 0
134 157 0
130 148 0
160 179 0
136 158 0
159 180 0
144 163 0
158 177 0
131 152 0
150 171 0
136 153 0
147 165 0
149 168 0
148 169 0
155 177 0
144 162 0
165 186 0
148 167 0
156 176 0
144 161 0
160 182 0
148 171 0
149 167 0
156 181 0
146 167 0
150 168 0
170 189 0
146 166 0
135 157 0
143 159 0
148 168 0
164 184 0
154 179 0
158 179 0
156 176 0
159 183 0
122 142 0
135 157 0
156 175 0
138 159 0
157 178 0
147 164 0
158 180 0
144 166 0
121 144 0
122 141 0
167 188 0
143 165 0
166 189 0
150 166 0
143 163 0
151 173 0
154 179 0
133 152 0
157 178 0
160 180 0
157 181 0
166 190 0
138 161 0
167 189 0
154 178 0
163 188 0
136 155 0
163 186 0
173 195 0
127 145 0
149 170 0
146 170 0
158 177 0
159 182 0
148 170 0
159 181 0
152 171 0
163 181 0
152 178 0
141 162 0
152 169 0
135 156 0
141 160 0
146 169 0
148 168 0
148 171 0
146 166 0
144 164 0
138 156 0
171 195 0
152 174 0
162 185 0
165 189 0
156 179 0
134 155 0
136 156 0
154 177 0
132 149 0
161 184 0
144 168 0
148 168 0
151 174 0
137 159 0
153 174 0
141 159 0
128 150 0
127 150 0
142 163 0
149 172 0
151 175 0
149 168 0
145 162 0
142 166 0
153 173 0
148 168 0
157 180 0
148 168 0
152 167 0
166 186 0
141 162 0
123 139 0
152 171 0
162 182 0
153 177 0
145 166 0
152 174 0
137 160 0
152 172 0
162 183 0
147 165 0
141 159 0
167 189 0
156 181 0
147 169 0
137 159 0
147 172 0
134 156 0
132 155 0
139 160 0
163 187 0
155 178 0
154 174 0
158 183 0
152 170 0
145 167 0
137 155 0
154 175 0
149 173 0
144 164 0
141 165 0
131 146 0
151 166 0
141 162 0
135 160 0
149 172 0
128 152 0
146 168 0
154 178 0
117 135 0
133 159 0
158 173 0
136 155 0
158 180 0
123 141 0
137 151 0
167 190 0
136 159 0
154 179 0
151 171 0
157 172 0
159 182 0
144 164 0
154 176 0
150 171 0
151 171 0
154 172 0
136 158 0
139 154 0
154 170 0
138 162 0
141 161 0
97 116 0
151 170 0
148 166 0
126 144 0
151 172 0
145 169 0
134 155 0
152 173 0
161 181 0
144 166 0
127 143 0
143 162 0
156 173 0
163 185 0
159 180 0
149 172 0
129 147 0
152 173 0
143 162 0
121 144 0
162 184 0
161 174 0
159 179 0
153 170 0
165 189 0
164 184 0
146 167 0
159 178 0
157 171 0
132 153 0
140 163 0
140 156 0
157 180 0
118 129 0
162 187 0
150 176 0
150 170 0
148 168 0
143 164 0
128 149 0
125 137 0
134 155 0
167 183 0
148 164 0
156 173 0
168 191 0
158 181 0
163 188 0
149 169 0
155 173 0
131 149 0
146 167 0
147 156 0
144 158 0
148 165 0
169 180 0
130 146 0
146 161 0
140 161 0
178 193 0
152 169 0
157 176 0
142 155 0
155 179 0
139 151 0
169 186 0
163 176 0
145 156 0
144 162 0
145 162 0
140 160 0
158 177 0
150 162 0
145 165 0
157 179 0
164 180 0
157 173 0
131 148 0
143 160 0
169 185 0
155 170 0
164 175 0
146 162 0
176 192 0
162 175 0
147 167 0
153 174 0
160 174 0
149 171 0
146 162 0
160 183 0
156 179 0
171 189 0
149 165 0
151 166 0
155 175 0
131 143 0
146 155 0
153 157 0
142 156 0
152 163 0
150 153 0
156 173 0
157 174 0
157 177 0
132 144 0
139 155 0
171 188 0
132 147 0
142 156 0
154 167 0
133 150 0
164 177 0
161 173 0
172 189 0
135 147 0
167 181 0
153 164 0
145 158 0
154 166 0
151 171 0
157 175 0
157 175 0
161 171 0
142 159 0
158 169 0
147 160 0
133 137 0
131 136 0
157 172 0
141 151 0
166 179 0
131 133 0
153 167 0
135 150 0
141 149 0
164 174 0
143 156 0
164 176 0
160 172 0
156 166 0
160 172 0
162 175 0
145 156 0
148 160 0
164 182 0
157 174 0
123 133 0
132 141 0
144 154 0
133 144 0
153 168 0
152 165 0
146 166 0
147 142 0
145 165 0
138 140 0
128 128 0
164 173 0
143 148 0
149 159 0
150 162 0
152 164 0
168 174 0
157 160 0
167 185 0
148 157 0
163 173 0
159 172 0
147 155 0
156 168 0
162 174 0
172 187 0
166 174 0
163 178 0
165 185 0
146 160 0
156 176 0
168 187 0
156 175 0
154 175 0
142 159 0
160 181 0
130 147 0
156 174 0
163 180 0
159 177 0
161 184 0
154 173 0
168 187 0
161 183 0
160 178 0
155 175 0
155 172 0
166 186 0
145 163 0
153 170 0
157 175 0
170 188 0
146 167 0
164 185 0
143 161 0
163 184 0
159 178 0
154 175 0
155 174 0
153 176 0
137 156 0
156 178 0
142 160 0
155 175 0
154 176 0
143 158 0
150 168 0
147 165 0
163 184 0
165 183 0
167 186 0
143 163 0
160 180 0
164 184 0
151 168 0
140 160 0
141 161 0
133 152 0
126 146 0
160 181 0
156 175 0
168 192 0
164 183 0
167 186 0
152 173 0
151 168 0
160 180 0
118 139 0
148 171 0
146 164 0
140 162 0
155 176 0
157 177 0
154 175 0
146 164 0
154 174 0
155 176 0
161 185 0
146 167 0
150 167 0
162 182 0
161 181 0
163 184 0
158 177 0
142 162 0
155 175 0
134 156 0
149 171 0
154 177 0
144 165 0
148 169 0
158 178 0
138 157 0
150 170 0
141 162 0
151 176 0
135 155 0
157 175 0
132 153 0
150 172 0
153 174 0
153 174 0
160 180 0
158 181 0
149 169 0
156 176 0
157 180 0
137 158 0
141 161 0
128 149 0
141 165 0
148 167 0
151 173 0
162 185 0
151 167 0
165 183 0
122 143 0
160 184 0
142 165 0
152 174 0
157 177 0
157 180 0
154 173 0
159 180 0
157 179 0
153 176 0
153 177 0
154 176 0
128 148 0
158 178 0
109 132 0
159 182 0
160 184 0
156 174 0
165 186 0
144 165 0
139 160 0
164 181 0
125 145 0
155 177 0
158 181 0
144 167 0
152 173 0
160 181 0
159 180 0
138 162 0
121 143 0
152 173 0
160 183 0
150 173 0
157 174 0
118 136 0
151 172 0
147 169 0
162 185 0
133 156 0
129 152 0
137 159 0
142 160 0
164 187 0
103 128 0
138 160 0
129 155 0
136 156 0
163 185 0
138 160 0
146 168 0
142 166 0
138 156 0
167 192 0
112 136 0
160 182 0
152 177 0
167 192 0
144 166 0
138 152 0
149 170 0
125 149 0
150 170 0
140 165 0
144 166 0
149 166 0
128 149 0
155 177 0
156 176 0
158 175 0
148 170 0
157 179 0
156 176 0
139 154 0
139 160 0
159 180 0
168 190 0
155 177 0
139 159 0
143 165 0
138 156 0
155 179 0
160 184 0
151 173 0
149 171 0
120 145 0
142 163 0
137 158 0
168 190 0
147 167 0
134 152 0
149 170 0
124 150 0
128 148 0
140 161 0
163 181 0
144 166 0
145 167 0
149 169 0
123 144 0
135 152 0
136 155 0
148 171 0
150 170 0
161 182 0
140 159 0
138 159 0
125 144 0
122 137 0
150 169 0
154 179 0
141 163 0
142 157 0
158 181 0
159 180 0
122 140 0
144 168 0
163 187 0
143 162 0
144 166 0
135 157 0
144 160 0
148 171 0
152 173 0
162 179 0
136 152 0
146 167 0
151 172 0
127 143 0
154 175 0
144 164 0
160 179 0
152 176 0
164 185 0
136 159 0
150 167 0
159 179 0
152 170 0
150 171 0
153 171 0
165 183 0
155 179 0
132 151 0
163 188 0
144 165 0
133 156 0
155 178 0
144 166 0
139 159 0
155 167 0
154 177 0
158 175 0
150 169 0
164 187 0
137 150 0
173 194 0
152 172 0
118 135 0
157 179 0
160 182 0
169 180 0
150 166 0
148 165 0
136 157 0
135 159 0
140 161 0
153 174 0
153 169 0
160 180 0
155 175 0
135 156 0
144 159 0
133 157 0
160 185 0
145 157 0
160 182 0
146 162 0
146 158 0
109 121 0
157 172 0
161 182 0
150 177 0
150 155 0
131 144 0
127 144 0
134 147 0
171 186 0
144 157 0
141 158 0
163 180 0
140 143 0
109 127 0
160 178 0
154 168 0
134 155 0
155 168 0
162 178 0
141 150 0
139 154 0
166 181 0
147 165 0
115 116 0
136 149 0
158 174 0
163 181 0
147 162 0
143 158 0
159 175 0
145 150 0
143 160 0
161 174 0
165 183 0
150 160 0
158 175 0
157 167 0
148 162 0
160 174 0
152 165 0
172 186 0
145 157 0
145 159 0
151 164 0
150 158 0
155 168 0
155 164 0
163 179 0
161 177 0
155 175 0
155 168 0
161 172 0
134 147 0
165 185 0
154 168 0
149 167 0
148 164 0
146 150 0
149 159 0
157 169 0
166 183 0
157 166 0
160 179 0
167 184 0
128 140 0
164 179 0
177 192 0
158 174 0
161 176 0
161 172 0
159 177 0
169 186 0
153 166 0
155 168 0
164 165 0
155 162 0
157 172 0
162 174 0
164 169 0
158 173 0
166 182 0
161 181 0
161 167 0
153 164 0
151 158 0
157 170 0
160 170 0
129 132 0
157 166 0
158 170 0
154 168 0
156 171 0
136 135 0
146 161 0
167 184 0
142 144 0
141 142 0
157 174 0
176 189 0
157 171 0
167 183 0
144 154 0
155 171 0
151 149 0
156 153 0
173 191 0
152 158 0
133 127 0
154 166 0
143 150 0
163 172 0
160 172 0
161 168 0
153 159 0
169 190 0
171 192 0
161 180 0
164 185 0
164 185 0
151 170 0
163 183 0
150 170 0
160 179 0
159 178 0
162 182 0
160 178 0
146 163 0
163 183 0
151 169 0
148 169 0
175 193 0
157 175 0
158 178 0
169 187 0
155 172 0
148 166 0
165 186 0
153 174 0
135 150 0
165 185 0
164 183 0
153 170 0
158 179 0
141 159 0
148 170 0
159 180 0
160 182 0
176 197 0
166 186 0
157 174 0
153 172 0
173 192 0
145 166 0
166 182 0
166 186 0
136 153 0
159 181 0
145 163 0
158 178 0
158 182 0
159 180 0
160 180 0
134 153 0
155 177 0
159 178 0
165 184 0
145 164 0
122 141 0
136 154 0
159 179 0
174 195 0
163 186 0
157 176 0
173 195 0
133 152 0
148 169 0
154 177 0
133 152 0
147 164 0
173 196 0
164 184 0
173 191 0
134 153 0
160 180 0
158 178 0
139 153 0
155 178 0
153 172 0
145 167 0
167 186 0
164 185 0
169 188 0
154 175 0
130 151 0
170 193 0
151 171 0
158 178 0
159 181 0
164 190 0
162 185 0
142 160 0
154 176 0
159 179 0
139 160 0
142 161 0
147 169 0
150 170 0
167 190 0
145 162 0
143 168 0
148 166 0
164 185 0
157 174 0
133 150 0
155 179 0
151 172 0
156 178 0
166 189 0
147 168 0
149 173 0
165 185 0
144 166 0
145 167 0
143 162 0
153 175 0
135 153 0
164 188 0
142 163 0
130 151 0
155 176 0
153 173 0
145 167 0
155 179 0
156 178 0
147 172 0
138 161 0
141 157 0
168 190 0
158 179 0
156 176 0
156 176 0
168 193 0
161 179 0
121 139 0
163 187 0
153 176 0
148 171 0
167 190 0
155 179 0
150 172 0
130 149 0
155 177 0
119 138 0
150 168 0
154 178 0
144 167 0
133 148 0
156 179 0
164 185 0
144 166 0
148 170 0
159 182 0
147 169 0
137 160 0
114 138 0
136 151 0
157 177 0
142 166 0
123 140 0
154 177 0
155 178 0
117 136 0
150 170 0
174 196 0
130 151 0
155 179 0
167 189 0
154 170 0
154 175 0
174 194 0
113 135 0
158 185 0
153 178 0
135 159 0
136 152 0
155 178 0
140 161 0
155 179 0
164 186 0
155 179 0
128 148 0
134 159 0
146 165 0
136 157 0
158 179 0
153 176 0
145 169 0
160 184 0
137 154 0
141 160 0
114 136 0
166 187 0
153 175 0
134 156 0
138 160 0
152 176 0
148 172 0
127 147 0
155 178 0
114 137 0
146 169 0
164 184 0
142 167 0
144 166 0
153 171 0
153 172 0
136 156 0
140 159 0
152 173 0
125 147 0
156 177 0
157 175 0
155 174 0
166 187 0
152 175 0
139 160 0
124 139 0
150 168 0
171 193 0
150 165 0
155 171 0
125 139 0
124 139 0
144 165 0
145 169 0
167 190 0
142 164 0
137 153 0
135 151 0
153 175 0
151 168 0
116 139 0
161 180 0
164 186 0
141 158 0
140 159 0
154 173 0
145 156 0
160 173 0
153 175 0
141 156 0
148 172 0
157 178 0
132 156 0
155 178 0
130 149 0
134 159 0
121 141 0
144 163 0
106 113 0
149 168 0
144 163 0
152 170 0
145 164 0
100 112 0
151 174 0
102 112 0
142 157 0
147 170 0
144 160 0
148 165 0
152 174 0
167 190 0
158 177 0
152 169 0
169 190 0
156 171 0
156 176 0
160 178 0
152 167 0
135 150 0
122 138 0
114 129 0
148 169 0
151 172 0
140 159 0
170 189 0
161 183 0
156 179 0
168 191 0
168 190 0
160 183 0
149 173 0
117 133 0
137 156 0
172 196 0
135 151 0
165 189 0
137 148 0
168 190 0
144 163 0
151 171 0
128 136 0
148 164 0
147 162 0
150 169 0
154 167 0
139 157 0
129 144 0
158 177 0
168 193 0
144 164 0
158 170 0
160 179 0
137 154 0
135 144 0
158 179 0
153 167 0
162 181 0
133 142 0
161 182 0
133 145 0
143 152 0
137 156 0
151 169 0
163 184 0
135 156 0
149 165 0
142 153 0
151 173 0
129 139 0
155 164 0
151 156 0
139 156 0
147 158 0
158 177 0
143 162 0
167 178 0
139 158 0
138 158 0
138 147 0
161 174 0
157 172 0
155 166 0
149 160 0
158 176 0
154 165 0
170 192 0
112 123 0
140 154 0
158 177 0
158 178 0
163 180 0
157 179 0
120 132 0
168 181 0
157 176 0
160 181 0
153 162 0
157 167 0
144 152 0
171 196 0
166 182 0
165 176 0
162 173 0
140 149 0
160 169 0
141 152 0
152 170 0
120 124 0
158 173 0
153 164 0
132 137 0
153 168 0
157 177 0
153 170 0
165 180 0
140 150 0
140 152 0
151 163 0
160 175 0
158 163 0
177 196 0
163 176 0
134 141 0
128 134 0
160 171 0
137 152 0
158 173 0
150 159 0
141 143 0
162 175 0
170 187 0
169 183 0
159 175 0
135 139 0
149 172 0
170 185 0
169 182 0
159 173 0
147 151 0
154 160 0
153 160 0
158 166 0
171 185 0
137 136 0
141 142 0
165 181 0
160 165 0
158 176 0
156 162 0
159 175 0
144 162 0
162 174 0
163 183 0
162 180 0
156 171 0
153 174 0
153 171 0
147 167 0
156 176 0
164 186 0
151 172 0
149 166 0
165 182 0
148 164 0
164 182 0
162 183 0
160 177 0
174 192 0
152 174 0
162 180 0
151 171 0
154 175 0
152 172 0
171 192 0
157 179 0
155 175 0
163 187 0
146 162 0
152 173 0
172 192 0
161 180 0
145 162 0
156 180 0
144 162 0
149 170 0
163 181 0
137 154 0
162 183 0
160 181 0
147 166 0
164 186 0
163 183 0
157 177 0
161 181 0
148 168 0
160 176 0
158 181 0
165 186 0
161 179 0
152 171 0
139 160 0
158 178 0
162 184 0
169 190 0
162 182 0
158 178 0
154 177 0
156 177 0
157 178 0
151 173 0
136 155 0
154 178 0
165 187 0
134 153 0
160 181 0
156 179 0
138 160 0
167 189 0
161 183 0
142 166 0
144 166 0
146 168 0
151 173 0
147 168 0
146 168 0
159 179 0
170 189 0
147 169 0
163 185 0
137 159 0
163 189 0
155 177 0
140 163 0
158 180 0
138 154 0
154 178 0
146 164 0
159 180 0
151 169 0
156 180 0
157 181 0
154 172 0
152 174 0
145 164 0
130 148 0
139 160 0
171 193 0
146 168 0
156 174 0
147 163 0
139 164 0
163 186 0
141 166 0
119 141 0
141 160 0
158 178 0
176 199 0
164 186 0
130 152 0
146 166 0
150 168 0
122 147 0
158 180 0
159 181 0
172 196 0
172 193 0
145 170 0
160 179 0
159 178 0
148 168 0
142 161 0
138 161 0
137 158 0
156 180 0
146 165 0
148 173 0
142 164 0
151 169 0
154 176 0
144 167 0
164 187 0
150 174 0
150 174 0
158 185 0
149 165 0
171 193 0
161 183 0
144 167 0
141 157 0
143 167 0
164 187 0
154 171 0
146 165 0
151 176 0
157 179 0
155 175 0
171 192 0
145 165 0
162 187 0
137 158 0
131 152 0
158 178 0
139 159 0
166 185 0
154 178 0
120 144 0
140 163 0
154 176 0
160 183 0
168 190 0
162 186 0
147 168 0
146 170 0
141 165 0
155 177 0
162 177 0
145 168 0
132 154 0
127 151 0
143 169 0
162 187 0
159 181 0
128 151 0
146 170 0
152 174 0
156 173 0
153 169 0
164 187 0
161 185 0
153 174 0
149 167 0
147 170 0
138 161 0
100 120 0
116 131 0
156 174 0
157 178 0
128 150 0
160 185 0
166 187 0
146 164 0
139 158 0
137 157 0
140 158 0
142 161 0
148 171 0
138 156 0
125 148 0
157 175 0
159 179 0
166 189 0
146 170 0
173 193 0
146 169 0
145 165 0
134 147 0
147 167 0
134 154 0
144 164 0
145 167 0
144 168 0
147 165 0
148 170 0
155 172 0
129 149 0
154 175 0
171 191 0
130 152 0
145 168 0
138 159 0
167 187 0
152 174 0
131 150 0
116 133 0
132 153 0
134 158 0
154 174 0
157 183 0
137 159 0
130 151 0
165 188 0
144 168 0
137 156 0
122 136 0
160 179 0
152 166 0
156 179 0
148 168 0
165 184 0
143 160 0
135 154 0
130 146 0
156 178 0
151 167 0
152 177 0
142 164 0
155 172 0
158 180 0
137 157 0
137 157 0
160 180 0
150 174 0
144 161 0
133 150 0
121 140 0
149 168 0
154 176 0
167 189 0
141 162 0
124 141 0
126 150 0
138 155 0
149 162 0
161 180 0
161 185 0
130 150 0
156 178 0
151 174 0
144 162 0
149 162 0
157 172 0
164 189 0
126 132 0
140 159 0
153 174 0
150 167 0
144 158 0
163 178 0
143 160 0
133 150 0
154 179 0
144 163 0
136 156 0
149 165 0
154 175 0
159 174 0
147 161 0
153 171 0
172 193 0
137 158 0
137 159 0
147 162 0
155 173 0
134 149 0
147 163 0
150 169 0
153 172 0
134 149 0
147 169 0
161 181 0
130 148 0
162 174 0
150 166 0
139 158 0
170 193 0
160 173 0
149 161 0
144 163 0
145 159 0
155 178 0
138 154 0
157 175 0
142 157 0
160 179 0
163 179 0
162 179 0
161 183 0
158 174 0
155 174 0
170 189 0
159 179 0
166 182 0
162 179 0
151 165 0
106 113 0
163 180 0
165 182 0
161 167 0
147 162 0
151 168 0
157 169 0
162 178 0
159 177 0
157 172 0
134 133 0
145 156 0
161 180 0
146 150 0
146 164 0
153 171 0
149 168 0
156 172 0
162 175 0
115 114 0
150 168 0
141 150 0
156 168 0
159 180 0
151 165 0
169 188 0
169 184 0
145 163 0
137 150 0
160 183 0
138 155 0
141 151 0
130 129 0
172 194 0
146 154 0
136 154 0
167 184 0
150 167 0
146 161 0
158 163 0
169 182 0
168 181 0
173 180 0
171 182 0
150 160 0
164 184 0
150 162 0
161 175 0
155 165 0
169 186 0
165 189 0
169 184 0
174 191 0
147 158 0
163 185 0
148 159 0
160 166 0
150 165 0
163 183 0
163 181 0
169 184 0
153 171 0
154 166 0
150 157 0
153 158 0
166 183 0
166 175 0
157 169 0
170 192 0
156 165 0
155 165 0
144 149 0
144 150 0
160 175 0
159 170 0
164 182 0
148 146 0
165 177 0
166 184 0
152 172 0
167 188 0
154 172 0
151 167 0
160 179 0
162 183 0
168 190 0
155 174 0
177 198 0
160 177 0
162 181 0
160 184 0
152 170 0
157 177 0
143 163 0
136 155 0
154 172 0
150 165 0
160 180 0
152 174 0
171 192 0
154 174 0
150 168 0
168 187 0
154 173 0
156 177 0
166 186 0
160 179 0
166 185 0
145 161 0
160 180 0
147 165 0
160 179 0
151 173 0
144 162 0
158 180 0
161 179 0
158 178 0
132 153 0
151 173 0
156 173 0
158 177 0
144 163 0
172 191 0
153 171 0
154 175 0
151 172 0
169 188 0
130 152 0
160 184 0
157 178 0
162 179 0
144 165 0
151 173 0
153 173 0
164 186 0
170 192 0
155 176 0
147 164 0
161 181 0
158 178 0
156 176 0
174 194 0
138 159 0
158 180 0
159 182 0
158 179 0
151 173 0
124 142 0
142 163 0
157 176 0
157 172 0
140 161 0
160 180 0
156 171 0
153 177 0
172 196 0
163 185 0
147 169 0
159 183 0
156 179 0
128 146 0
166 191 0
158 182 0
155 176 0
128 145 0
141 163 0
143 165 0
145 167 0
150 170 0
150 169 0
174 197 0
155 177 0
143 162 0
160 182 0
141 158 0
168 189 0
147 167 0
158 181 0
154 176 0
158 181 0
156 178 0
156 175 0
155 176 0
158 175 0
132 152 0
143 165 0
163 183 0
144 169 0
138 158 0
157 176 0
145 168 0
168 193 0
156 177 0
156 178 0
154 174 0
144 167 0
171 191 0
130 151 0
149 170 0
155 174 0
134 158 0
155 178 0
152 172 0
160 184 0
161 182 0
148 169 0
136 158 0
142 166 0
152 175 0
156 177 0
151 176 0
145 166 0
147 168 0
150 172 0
151 171 0
150 174 0
141 164 0
159 180 0
106 126 0
151 173 0
140 161 0
123 143 0
163 187 0
145 164 0
151 176 0
156 176 0
151 175 0
158 182 0
164 188 0
124 146 0
147 170 0
162 186 0
164 188 0
145 168 0
156 180 0
159 177 0
158 182 0
130 154 0
151 175 0
162 184 0
148 171 0
137 157 0
160 181 0
144 161 0
146 169 0
157 180 0
153 176 0
150 173 0
164 188 0
153 178 0
159 181 0
130 153 0
124 146 0
164 177 0
138 159 0
133 151 0
144 165 0
164 188 0
155 178 0
142 166 0
146 166 0
124 141 0
148 171 0
147 169 0
150 173 0
158 182 0
143 164 0
124 146 0
118 139 0
134 156 0
175 198 0
149 170 0
149 169 0
134 155 0
150 171 0
139 157 0
157 177 0
149 166 0
124 145 0
136 159 0
130 151 0
134 155 0
152 175 0
159 181 0
149 168 0
168 191 0
151 168 0
137 155 0
136 161 0
153 175 0
133 153 0
147 166 0
142 165 0
156 174 0
140 157 0
139 158 0
136 158 0
152 170 0
106 127 0
145 167 0
159 182 0
157 179 0
157 176 0
155 180 0
158 180 0
135 156 0
150 175 0
152 173 0
125 140 0
151 173 0
168 185 0
133 156 0
143 163 0
145 158 0
130 153 0
136 161 0
118 141 0
165 186 0
142 160 0
147 163 0
153 176 0
146 167 0
123 142 0
164 188 0
159 180 0
154 177 0
151 170 0
151 172 0
147 167 0
145 162 0
115 131 0
151 172 0
137 151 0
157 180 0
140 161 0
139 155 0
142 163 0
152 171 0
169 190 0
170 189 0
159 177 0
156 172 0
170 192 0
172 189 0
167 186 0
132 155 0
165 184 0
137 159 0
149 164 0
158 180 0
145 162 0
146 169 0
156 177 0
165 186 0
156 178 0
157 179 0
152 172 0
168 194 0
156 171 0
142 166 0
150 170 0
165 182 0
159 181 0
162 184 0
154 168 0
160 178 0
147 167 0
139 160 0
161 179 0
153 173 0
157 179 0
133 154 0
166 186 0
160 182 0
133 147 0
136 155 0
140 157 0
164 181 0
178 196 0
158 175 0
131 143 0
138 151 0
146 154 0
173 190 0
149 159 0
155 175 0
139 154 0
156 173 0
152 175 0
142 159 0
157 177 0
167 182 0
148 165 0
158 182 0
150 173 0
134 150 0
139 147 0
154 165 0
155 169 0
134 154 0
136 141 0
153 171 0
167 183 0
160 178 0
159 176 0
143 150 0
151 172 0
160 177 0
149 159 0
135 153 0
146 154 0
157 172 0
146 158 0
151 170 0
162 177 0
168 189 0
142 153 0
132 133 0
149 171 0
150 164 0
144 163 0
163 170 0
118 132 0
154 165 0
143 153 0
146 152 0
150 164 0
124 126 0
162 177 0
154 171 0
157 174 0
144 161 0
139 148 0
144 153 0
123 134 0
145 155 0
156 170 0
158 172 0
147 162 0
133 145 0
167 181 0
121 128 0
149 152 0
156 168 0
150 165 0
138 148 0
143 151 0
146 144 0
132 147 0
135 142 0
170 189 0
170 185 0
164 180 0
159 170 0
151 163 0
153 161 0
158 175 0
154 164 0
161 177 0
154 169 0
164 182 0
150 164 0
169 190 0
169 178 0
138 146 0
159 166 0
160 180 0
109 116 0
171 182 0
169 181 0
160 174 0
155 160 0
169 180 0
173 188 0
160 167 0
154 168 0
156 160 0
171 186 0
170 187 0
167 185 0
168 190 0
163 183 0
155 176 0
142 163 0
151 170 0
153 176 0
154 176 0
163 183 0
161 181 0
163 185 0
160 181 0
148 168 0
133 155 0
154 173 0
151 169 0
168 189 0
153 176 0
152 173 0
149 167 0
165 185 0
160 176 0
158 179 0
156 173 0
148 169 0
146 166 0
151 170 0
162 182 0
169 190 0
143 161 0
155 173 0
129 146 0
148 166 0
172 190 0
157 177 0
172 192 0
168 187 0
151 171 0
158 178 0
157 179 0
158 178 0
151 173 0
148 163 0
134 155 0
164 185 0
140 155 0
145 164 0
171 191 0
161 181 0
143 162 0
157 176 0
153 177 0
123 144 0
145 167 0
156 175 0
153 173 0
159 181 0
148 169 0
151 172 0
154 176 0
152 171 0
171 195 0
166 186 0
142 164 0
155 177 0
149 171 0
146 167 0
119 136 0
151 169 0
136 153 0
129 151 0
168 188 0
152 171 0
148 170 0
144 166 0
149 169 0
154 177 0
149 166 0
161 182 0
145 168 0
165 188 0
158 180 0
152 174 0
167 188 0
139 159 0
162 183 0
155 177 0
143 160 0
155 175 0
136 156 0
151 172 0
167 190 0
163 185 0
162 182 0
160 180 0
158 179 0
163 186 0
133 151 0
152 174 0
158 182 0
155 176 0
158 178 0
146 166 0
153 176 0
154 172 0
155 175 0
163 185 0
145 158 0
139 156 0
172 193 0
144 163 0
159 180 0
140 163 0
140 158 0
162 183 0
163 187 0
150 172 0
167 190 0
156 179 0
156 178 0
149 172 0
149 173 0
138 160 0
158 179 0
131 156 0
156 176 0
157 180 0
151 174 0
154 174 0
143 167 0
151 172 0
151 173 0
154 177 0
134 157 0
151 174 0
156 178 0
146 168 0
161 184 0
142 161 0
152 175 0
152 178 0
132 156 0
171 195 0
156 178 0
141 164 0
166 188 0
153 177 0
155 173 0
140 159 0
161 183 0
144 167 0
108 131 0
168 190 0
154 178 0
157 179 0
137 157 0
157 183 0
155 179 0
149 172 0
156 178 0
131 154 0
155 174 0
148 168 0
148 171 0
151 172 0
146 169 0
162 187 0
135 154 0
140 160 0
133 152 0
133 153 0
177 197 0
154 177 0
157 180 0
148 172 0
148 170 0
150 169 0
149 172 0
152 177 0
128 150 0
134 158 0
142 164 0
133 156 0
172 196 0
158 181 0
135 158 0
157 175 0
131 154 0
133 153 0
160 182 0
124 149 0
143 164 0
160 185 0
113 133 0
129 144 0
146 163 0
163 184 0
171 193 0
160 181 0
149 171 0
141 165 0
169 190 0
155 176 0
123 145 0
124 142 0
158 173 0
152 172 0
156 179 0
163 184 0
153 175 0
113 131 0
157 178 0
162 188 0
156 181 0
154 173 0
159 180 0
165 187 0
151 174 0
167 189 0
150 172 0
149 171 0
154 175 0
151 171 0
156 174 0
155 173 0
151 171 0
128 147 0
149 170 0
156 177 0
149 168 0
160 175 0
121 131 0
155 180 0
153 177 0
173 192 0
126 143 0
137 160 0
147 163 0
162 187 0
163 185 0
164 187 0
141 160 0
159 178 0
160 176 0
127 149 0
148 167 0
166 189 0
132 155 0
143 156 0
145 168 0
150 171 0
142 158 0
144 159 0
157 174 0
141 165 0
163 182 0
158 178 0
161 180 0
157 180 0
149 169 0
134 154 0
149 161 0
150 172 0
139 149 0
154 170 0
147 169 0
122 142 0
164 184 0
120 140 0
143 160 0
146 156 0
154 179 0
160 182 0
157 175 0
161 180 0
162 186 0
133 143 0
152 173 0
137 158 0
171 185 0
137 162 0
162 178 0
152 164 0
162 185 0
145 163 0
149 166 0
141 164 0
165 185 0
138 152 0
168 186 0
158 177 0
159 170 0
169 190 0
126 139 0
142 158 0
168 190 0
161 177 0
150 170 0
146 162 0
127 143 0
146 156 0
160 180 0
160 173 0
137 149 0
122 125 0
155 168 0
156 169 0
133 149 0
162 182 0
157 176 0
144 162 0
129 137 0
166 184 0
161 176 0
149 157 0
152 177 0
156 175 0
130 141 0
150 161 0
153 169 0
148 168 0
134 147 0
150 169 0
126 140 0
159 178 0
165 187 0
171 183 0
150 164 0
153 168 0
149 156 0
169 195 0
136 140 0
154 168 0
142 153 0
153 169 0
148 157 0
165 187 0
148 165 0
148 168 0
175 198 0
151 165 0
165 189 0
152 164 0
158 170 0
143 153 0
162 175 0
161 174 0
141 151 0
149 161 0
154 166 0
165 183 0
144 166 0
156 165 0
149 158 0
146 160 0
169 184 0
159 174 0
136 154 0
156 166 0
138 150 0
145 160 0
154 172 0
173 185 0
169 182 0
135 146 0
166 179 0
135 143 0
153 172 0
150 157 0
160 169 0
136 150 0
162 180 0
155 173 0
148 163 0
162 174 0
161 171 0
158 172 0
136 142 0
157 173 0
150 160 0
146 157 0
154 160 0
160 177 0
154 162 0
149 161 0
155 167 0
170 189 0
160 169 0
153 166 0
174 191 0
144 155 0
148 162 0
156 168 0
149 160 0
158 171 0
172 185 0
154 167 0
168 180 0
160 174 0
164 185 0
169 187 0
150 168 0
154 177 0
153 173 0
159 176 0
150 172 0
167 189 0
156 176 0
162 185 0
158 179 0
162 181 0
171 192 0
157 175 0
163 186 0
171 193 0
167 185 0
148 167 0
165 186 0
166 187 0
172 195 0
161 181 0
165 189 0
161 182 0
149 172 0
162 183 0
153 175 0
161 180 0
142 159 0
158 180 0
160 183 0
159 180 0
154 171 0
148 167 0
158 178 0
147 166 0
165 185 0
156 178 0
163 180 0
169 191 0
169 194 0
162 185 0
167 187 0
164 184 0
156 174 0
149 168 0
157 179 0
161 181 0
161 180 0
136 158 0
158 179 0
146 169 0
144 164 0
159 179 0
159 181 0
137 155 0
159 179 0
142 161 0
162 182 0
164 187 0
165 186 0
173 193 0
172 195 0
160 182 0
149 171 0
153 175 0
135 154 0
166 190 0
171 192 0
151 172 0
161 184 0
157 175 0
155 177 0
133 153 0
140 166 0
148 173 0
169 192 0
151 173 0
163 184 0
156 179 0
141 163 0
150 173 0
167 187 0
138 156 0
159 183 0
155 177 0
149 170 0
152 176 0
156 177 0
169 191 0
160 184 0
168 188 0
156 177 0
145 165 0
145 165 0
155 177 0
167 188 0
154 175 0
155 177 0
152 172 0
161 183 0
149 168 0
141 162 0
166 188 0
149 167 0
144 169 0
168 191 0
165 186 0
157 174 0
162 185 0
165 189 0
169 191 0
158 181 0
163 188 0
137 157 0
160 184 0
161 185 0
161 180 0
168 188 0
115 136 0
150 171 0
152 173 0
152 174 0
159 185 0
146 165 0
140 162 0
155 179 0
134 156 0
127 151 0
152 178 0
145 164 0
162 186 0
151 173 0
155 178 0
127 148 0
150 168 0
142 161 0
159 181 0
146 166 0
153 176 0
161 182 0
155 177 0
156 177 0
141 165 0
147 168 0
135 154 0
133 154 0
160 180 0
152 176 0
141 159 0
128 148 0
159 180 0
152 177 0
149 173 0
145 162 0
117 137 0
145 168 0
133 155 0
164 188 0
150 172 0
146 167 0
149 167 0
154 172 0
161 179 0
147 169 0
141 160 0
144 160 0
134 153 0
138 157 0
142 161 0
127 149 0
130 154 0
151 171 0
134 157 0
157 181 0
155 175 0
161 184 0
165 182 0
153 174 0
121 144 0
142 165 0
137 161 0
152 173 0
138 161 0
163 186 0
139 157 0
113 134 0
135 154 0
168 188 0
156 174 0
150 172 0
146 165 0
142 165 0
156 176 0
126 148 0
157 179 0
135 153 0
153 177 0
144 166 0
141 160 0
141 162 0
156 179 0
140 154 0
124 144 0
152 177 0
114 132 0
151 170 0
155 179 0
135 156 0
144 167 0
162 182 0
141 162 0
142 158 0
125 146 0
128 146 0
150 174 0
159 179 0
119 139 0
138 159 0
163 186 0
148 166 0
179 200 0
168 191 0
143 157 0
148 167 0
157 178 0
112 136 0
146 167 0
137 157 0
137 155 0
150 170 0
130 151 0
153 173 0
161 183 0
148 165 0
164 185 0
167 186 0
150 172 0
138 160 0
142 160 0
164 185 0
129 138 0
160 182 0
138 161 0
139 161 0
157 176 0
170 188 0
159 177 0
146 165 0
141 160 0
151 171 0
134 152 0
144 167 0
140 153 0
168 186 0
144 167 0
152 175 0
151 167 0
147 161 0
130 145 0
152 172 0
128 141 0
156 179 0
162 183 0
137 152 0
168 186 0
159 179 0
135 158 0
132 154 0
150 167 0
167 187 0
146 166 0
129 148 0
157 183 0
161 182 0
167 190 0
143 167 0
138 158 0
134 149 0
134 153 0
170 193 0
132 155 0
136 155 0
143 163 0
157 173 0
153 166 0
153 167 0
150 165 0
100 124 0
153 173 0
165 179 0
162 173 0
124 133 0
174 194 0
133 148 0
170 190 0
138 151 0
148 166 0
128 150 0
166 184 0
146 161 0
178 200 0
166 184 0
134 153 0
132 152 0
149 166 0
136 155 0
157 172 0
148 170 0
150 167 0
136 154 0
167 187 0
139 152 0
111 131 0
155 175 0
155 173 0
153 170 0
166 183 0
157 178 0
162 183 0
153 168 0
164 184 0
160 181 0
156 165 0
140 158 0
171 192 0
149 165 0
165 183 0
123 143 0
161 179 0
158 180 0
140 151 0
153 165 0
138 138 0
163 177 0
134 152 0
149 164 0
142 159 0
160 171 0
164 182 0
162 184 0
155 169 0
154 161 0
144 141 0
162 177 0
157 180 0
135 152 0
162 178 0
128 137 0
166 186 0
154 171 0
160 173 0
166 184 0
166 177 0
156 175 0
167 182 0
162 183 0
144 160 0
150 161 0
135 138 0
170 190 0
154 173 0
131 136 0
128 138 0
132 139 0
150 167 0
156 177 0
156 167 0
156 163 0
153 167 0
159 174 0
165 178 0
125 133 0
145 157 0
163 183 0
149 162 0
155 164 0
158 165 0
151 159 0
150 159 0
150 150 0
152 166 0
156 165 0
149 161 0
144 155 0
166 182 0
149 166 0
149 166 0
151 160 0
146 149 0
148 167 0
179 197 0
172 183 0
159 169 0
171 181 0
168 182 0
150 157 0
164 177 0
167 185 0
141 150 0
163 183 0
162 181 0
132 151 0
176 194 0
169 190 0
156 176 0
161 182 0
163 186 0
167 190 0
153 173 0
147 164 0
167 189 0
142 161 0
157 176 0
153 172 0
170 190 0
159 179 0
148 163 0
153 174 0
137 157 0
149 168 0
158 178 0
159 179 0
176 197 0
155 175 0
149 166 0
165 185 0
154 175 0
151 170 0
157 180 0
150 170 0
164 185 0
172 192 0
143 166 0
146 165 0
163 184 0
164 182 0
160 180 0
126 144 0
165 182 0
150 169 0
153 174 0
165 187 0
145 162 0
159 180 0
154 176 0
159 179 0
163 183 0
133 151 0
151 172 0
155 176 0
167 190 0
148 168 0
138 158 0
172 194 0
162 185 0
139 157 0
153 177 0
157 178 0
163 183 0
144 162 0
156 175 0
138 159 0
145 170 0
160 185 0
157 178 0
165 188 0
162 185 0
161 185 0
172 195 0
160 181 0
165 187 0
165 185 0
159 179 0
149 169 0
161 184 0
146 165 0
136 154 0
159 181 0
163 183 0
156 175 0
159 178 0
160 184 0
161 186 0
156 179 0
132 151 0
144 168 0
174 198 0
163 186 0
137 157 0
152 173 0
166 187 0
165 189 0
131 152 0
149 174 0
161 180 0
150 175 0
155 176 0
135 155 0
147 169 0
166 188 0
145 165 0
158 180 0
141 163 0
156 180 0
146 163 0
156 178 0
163 187 0
156 179 0
144 166 0
166 187 0
168 189 0
138 159 0
152 171 0
119 140 0
116 138 0
160 182 0
130 152 0
166 190 0
109 133 0
158 179 0
160 182 0
150 173 0
160 178 0
166 190 0
163 186 0
139 159 0
168 191 0
157 177 0
161 181 0
164 186 0
159 180 0
161 183 0
134 153 0
158 177 0
125 145 0
154 178 0
149 170 0
168 188 0
150 175 0
125 144 0
117 138 0
148 164 0
139 164 0
149 170 0
145 169 0
170 193 0
155 173 0
139 156 0
145 168 0
132 156 0
143 167 0
152 174 0
167 190 0
124 147 0
169 191 0
152 173 0
149 169 0
151 177 0
140 158 0
169 191 0
111 133 0
130 153 0
167 190 0
144 167 0
146 169 0
130 155 0
154 178 0
156 177 0
127 150 0
151 173 0
136 159 0
120 140 0
158 178 0
138 162 0
162 185 0
164 186 0
136 153 0
157 176 0
177 196 0
155 177 0
140 160 0
147 169 0
161 182 0
172 196 0
153 173 0
166 190 0
157 179 0
145 169 0
145 165 0
151 167 0
139 160 0
106 126 0
153 173 0
155 173 0
137 156 0
126 147 0
135 155 0
139 160 0
153 171 0
158 178 0
125 146 0
164 186 0
144 163 0
167 187 0
155 178 0
144 163 0
147 170 0
162 186 0
146 169 0
156 176 0
145 167 0
130 149 0
147 166 0
159 183 0
136 160 0
118 138 0
102 121 0
165 186 0
142 163 0
142 160 0
153 176 0
163 179 0
148 165 0
143 160 0
161 182 0
134 160 0
138 154 0
130 149 0
137 155 0
146 165 0
171 192 0
153 172 0
154 176 0
153 176 0
132 152 0
151 175 0
131 154 0
148 163 0
142 162 0
135 151 0
154 172 0
139 162 0
156 179 0
167 189 0
164 188 0
169 187 0
150 163 0
129 147 0
161 187 0
129 146 0
170 192 0
155 180 0
165 183 0
143 163 0
161 178 0
169 188 0
152 177 0
146 167 0
153 177 0
155 176 0
140 159 0
155 174 0
157 179 0
164 185 0
167 186 0
158 179 0
162 182 0
163 183 0
141 158 0
149 163 0
129 150 0
160 181 0
157 175 0
153 173 0
122 139 0
135 149 0
159 177 0
138 154 0
158 177 0
155 175 0
166 189 0
153 177 0
155 173 0
142 157 0
158 180 0
158 178 0
164 188 0
128 139 0
151 164 0
158 175 0
164 180 0
140 155 0
172 197 0
146 157 0
149 164 0
152 171 0
159 175 0
153 168 0
137 148 0
131 145 0
163 187 0
173 181 0
152 163 0
156 175 0
161 178 0
155 177 0
156 164 0
145 165 0
130 151 0
158 180 0
166 185 0
135 149 0
142 162 0
159 174 0
143 157 0
165 178 0
158 170 0
153 167 0
124 126 0
168 189 0
157 176 0
149 164 0
156 172 0
137 152 0
145 167 0
163 181 0
159 176 0
133 151 0
143 159 0
154 158 0
132 139 0
136 156 0
154 177 0
151 171 0
127 140 0
156 175 0
138 153 0
153 172 0
129 149 0
116 138 0
146 160 0
159 176 0
161 175 0
154 168 0
162 177 0
156 165 0
146 157 0
147 166 0
165 184 0
172 188 0
146 166 0
150 168 0
153 169 0
157 165 0
158 166 0
152 167 0
162 170 0
139 157 0
155 170 0
173 194 0
170 185 0
161 179 0
157 163 0
166 179 0
140 151 0
135 140 0
169 182 0
139 141 0
155 163 0
170 182 0
143 154 0
148 151 0
150 163 0
155 173 0
155 172 0
146 163 0
162 178 0
149 159 0
150 166 0
157 166 0
146 156 0
166 183 0
157 171 0
153 158 0
156 176 0
155 166 0
170 188 0
168 183 0
143 144 0
168 182 0
166 182 0
152 161 0
143 142 0
161 167 0
142 146 0
173 189 0
154 171 0
124 134 0
163 177 0
145 164 0
161 181 0
167 190 0
144 161 0
160 182 0
172 193 0
161 179 0
168 184 0
166 186 0
139 159 0
144 162 0
173 196 0
168 191 0
157 178 0
170 192 0
144 160 0
156 172 0
156 176 0
150 170 0
160 181 0
163 181 0
161 181 0
157 180 0
151 170 0
145 164 0
153 171 0
162 182 0
146 167 0
144 161 0
146 167 0
163 185 0
171 189 0
174 197 0
167 190 0
171 189 0
152 175 0
147 167 0
174 194 0
153 173 0
147 165 0
148 164 0
152 175 0
162 183 0
154 175 0
159 182 0
161 180 0
150 173 0
158 182 0
145 166 0
150 170 0
152 175 0
146 169 0
167 189 0
164 187 0
155 174 0
155 178 0
163 185 0
163 185 0
166 187 0
138 158 0
161 186 0
131 152 0
160 181 0
155 177 0
154 177 0
134 152 0
140 159 0
143 165 0
157 176 0
134 157 0
154 176 0
131 148 0
153 175 0
162 185 0
161 182 0
148 169 0
153 176 0
150 170 0
145 165 0
158 179 0
158 179 0
161 183 0
169 193 0
152 175 0
159 181 0
160 182 0
162 184 0
171 196 0
120 138 0
157 179 0
149 172 0
150 173 0
150 173 0
151 171 0
139 159 0
155 177 0
157 179 0
143 167 0
143 165 0
155 177 0
163 185 0
151 172 0
153 173 0
142 159 0
153 177 0
145 168 0
130 150 0
162 178 0
160 180 0
143 159 0
133 154 0
143 164 0
149 171 0
161 185 0
155 178 0
161 186 0
163 189 0
161 185 0
136 159 0
148 172 0
128 146 0
163 185 0
157 183 0
157 180 0
150 176 0
146 169 0
147 173 0
157 178 0
144 166 0
139 163 0
155 181 0
152 177 0
160 183 0
176 199 0
127 140 0
149 172 0
153 178 0
127 149 0
166 188 0
157 181 0
152 175 0
166 182 0
143 166 0
140 163 0
114 134 0
154 175 0
137 155 0
150 173 0
126 149 0
159 182 0
147 169 0
135 158 0
140 159 0
115 134 0
162 185 0
163 186 0
145 170 0
150 172 0
136 157 0
150 175 0
152 175 0
142 162 0
134 157 0
161 179 0
162 184 0
142 162 0
156 179 0
167 189 0
138 158 0
147 171 0
145 164 0
167 189 0
130 152 0
151 176 0
139 154 0
167 185 0
161 182 0
153 172 0
150 171 0
150 173 0
166 190 0
168 191 0
145 162 0
140 161 0
148 168 0
161 184 0
159 177 0
150 171 0
144 164 0
139 161 0
159 178 0
150 171 0
118 140 0
161 181 0
166 189 0
144 166 0
155 174 0
154 177 0
140 164 0
132 151 0
123 141 0
144 162 0
123 143 0
143 161 0
159 186 0
165 187 0
163 180 0
167 186 0
143 165 0
109 133 0
131 152 0
136 154 0
162 184 0
147 170 0
160 179 0
152 178 0
131 154 0
140 161 0
173 197 0
127 144 0
168 190 0
135 161 0
162 183 0
148 165 0
144 165 0
157 175 0
153 177 0
130 153 0
155 177 0
148 169 0
163 188 0
166 189 0
142 162 0
145 169 0
131 151 0
157 174 0
147 170 0
165 190 0
145 168 0
137 159 0
142 166 0
142 161 0
149 172 0
149 170 0
161 182 0
136 157 0
135 160 0
163 183 0
156 176 0
148 170 0
147 166 0
123 143 0
166 188 0
161 180 0
142 163 0
161 180 0
153 176 0
123 137 0
142 161 0
154 173 0
148 168 0
150 168 0
165 183 0
143 165 0
134 153 0
165 189 0
142 157 0
162 176 0
167 188 0
153 168 0
149 170 0
139 157 0
160 186 0
153 174 0
149 169 0
153 170 0
157 176 0
134 159 0
146 166 0
159 174 0
167 189 0
152 166 0
161 180 0
150 171 0
144 164 0
143 155 0
150 169 0
141 157 0
151 168 0
144 165 0
153 175 0
166 189 0
159 174 0
151 176 0
145 169 0
117 135 0
151 168 0
159 182 0
175 198 0
139 159 0
153 173 0
152 172 0
147 162 0
165 182 0
147 166 0
133 150 0
165 183 0
121 144 0
167 185 0
161 178 0
164 184 0
159 175 0
152 169 0
166 183 0
142 152 0
134 154 0
141 163 0
148 164 0
164 173 0
141 161 0
145 159 0
164 179 0
147 161 0
155 165 0
157 180 0
154 167 0
139 155 0
150 163 0
161 175 0
160 174 0
159 169 0
150 167 0
144 169 0
145 161 0
158 179 0
156 174 0
162 177 0
138 156 0
155 174 0
157 170 0
156 162 0
135 148 0
156 177 0
122 132 0
152 166 0
161 180 0
155 161 0
150 169 0
175 198 0
149 162 0
157 170 0
136 145 0
164 178 0
137 153 0
159 178 0
170 191 0
178 190 0
149 166 0
166 172 0
158 175 0
151 160 0
154 169 0
171 189 0
157 165 0
174 191 0
167 187 0
163 174 0
161 180 0
165 181 0
150 164 0
150 161 0
163 176 0
149 162 0
172 188 0
138 139 0
155 162 0
154 174 0
142 153 0
157 171 0
144 159 0
162 175 0
159 167 0
149 162 0
174 188 0
163 172 0
152 167 0
158 167 0
162 178 0
159 173 0
140 149 0
162 175 0
163 178 0
150 163 0
156 169 0
154 173 0
150 163 0
143 156 0
164 180 0
172 186 0
154 171 0
144 158 0
154 175 0
174 193 0
143 164 0
170 191 0
156 176 0
158 178 0
157 176 0
171 192 0
170 193 0
162 183 0
168 188 0
159 179 0
172 193 0
162 181 0
160 182 0
147 168 0
157 178 0
169 190 0
160 179 0
165 185 0
148 168 0
150 170 0
172 192 0
159 179 0
157 173 0
164 185 0
164 185 0
157 178 0
143 159 0
162 180 0
152 171 0
157 181 0
157 177 0
155 178 0
153 174 0
139 157 0
143 161 0
161 179 0
164 185 0
166 185 0
155 174 0
160 181 0
163 184 0
150 175 0
158 179 0
164 185 0
151 168 0
160 180 0
127 147 0
162 184 0
158 182 0
148 168 0
160 182 0
154 178 0
150 167 0
144 167 0
152 174 0
144 167 0
122 145 0
161 182 0
163 183 0
156 178 0
159 182 0
143 162 0
168 194 0
162 181 0
158 177 0
137 158 0
140 160 0
167 190 0
167 186 0
158 178 0
154 176 0
153 175 0
166 185 0
149 173 0
149 171 0
132 152 0
129 149 0
155 178 0
148 164 0
135 156 0
150 170 0
145 167 0
171 193 0
150 168 0
149 172 0
161 187 0
145 167 0
134 155 0
166 188 0
167 189 0
147 166 0
132 149 0
152 171 0
170 191 0
156 178 0
157 178 0
156 179 0
132 155 0
159 180 0
150 170 0
158 179 0
155 178 0
166 187 0
150 172 0
128 147 0
169 192 0
153 172 0
144 169 0
169 194 0
133 155 0
141 162 0
151 174 0
160 185 0
136 153 0
139 163 0
152 175 0
152 175 0
170 190 0
151 173 0
148 169 0
162 184 0
166 189 0
159 183 0
154 179 0
167 188 0
146 169 0
134 156 0
160 183 0
139 156 0
135 154 0
165 182 0
160 177 0
145 166 0
163 186 0
160 183 0
131 151 0
154 178 0
137 159 0
140 158 0
170 190 0
171 193 0
147 163 0
170 191 0
162 182 0
151 176 0
158 180 0
160 184 0
135 155 0
155 175 0
152 173 0
134 156 0
153 175 0
145 170 0
152 174 0
143 160 0
125 145 0
151 172 0
145 167 0
158 178 0
151 174 0
137 156 0
145 170 0
126 149 0
149 171 0
159 181 0
161 186 0
158 179 0
133 152 0
156 175 0
115 136 0
160 185 0
154 178 0
131 153 0
163 186 0
114 133 0
141 164 0
167 190 0
139 158 0
144 163 0
142 164 0
157 181 0
148 170 0
148 170 0
166 189 0
135 157 0
156 180 0
171 195 0
165 186 0
160 185 0
166 188 0
145 168 0
154 179 0
155 178 0
137 155 0
153 179 0
164 187 0
154 177 0
129 142 0
152 173 0
156 178 0
163 187 0
143 168 0
146 165 0
138 157 0
156 178 0
148 167 0
147 171 0
151 168 0
147 166 0
145 168 0
159 181 0
160 179 0
125 144 0
136 160 0
143 166 0
143 163 0
139 162 0
138 162 0
146 169 0
159 183 0
166 180 0
145 163 0
141 166 0
172 194 0
152 169 0
151 167 0
161 169 0
157 177 0
134 156 0
163 187 0
126 149 0
163 183 0
137 153 0
151 178 0
142 164 0
151 168 0
162 182 0
142 165 0
125 145 0
151 172 0
138 153 0
147 164 0
150 171 0
145 167 0
102 121 0
167 184 0
147 170 0
147 171 0
157 175 0
166 189 0
155 176 0
150 162 0
157 170 0
155 175 0
152 173 0
139 159 0
136 158 0
119 136 0
154 175 0
128 150 0
161 180 0
152 170 0
154 172 0
158 177 0
147 164 0
140 154 0
138 159 0
148 167 0
167 186 0
157 179 0
153 177 0
153 169 0
175 198 0
159 179 0
157 171 0
157 177 0
153 176 0
158 179 0
164 185 0
158 181 0
149 163 0
146 166 0
164 184 0
152 177 0
160 183 0
152 172 0
148 169 0
163 186 0
157 180 0
140 152 0
162 183 0
133 151 0
144 161 0
154 169 0
122 136 0
125 143 0
158 176 0
136 155 0
154 165 0
150 168 0
154 168 0
147 160 0
153 170 0
151 173 0
143 166 0
156 179 0
146 162 0
160 177 0
165 176 0
136 157 0
174 192 0
134 153 0
169 191 0
156 167 0
158 173 0
142 159 0
153 163 0
143 162 0
111 132 0
154 171 0
131 154 0
143 153 0
132 152 0
150 160 0
141 159 0
117 131 0
152 169 0
156 174 0
151 162 0
165 189 0
137 151 0
150 163 0
138 140 0
159 171 0
147 161 0
154 168 0
169 178 0
165 184 0
153 159 0
164 176 0
159 174 0
148 157 0
161 167 0
144 163 0
139 159 0
125 135 0
131 144 0
155 175 0
164 173 0
151 155 0
154 159 0
169 191 0
159 179 0
163 175 0
155 176 0
136 153 0
159 174 0
160 180 0
162 180 0
154 162 0
153 166 0
143 151 0
157 172 0
157 176 0
176 192 0
154 173 0
146 162 0
157 170 0
160 167 0
151 159 0
155 171 0
145 159 0
148 168 0
144 150 0
159 174 0
133 150 0
173 191 0
158 170 0
152 170 0
136 151 0
166 181 0
137 152 0
159 175 0
168 182 0
160 162 0
152 163 0
154 166 0
150 159 0
158 171 0
166 181 0
167 182 0
157 165 0
161 169 0
166 183 0
153 168 0
177 196 0
144 150 0
147 168 0
156 178 0
169 193 0
159 178 0
156 178 0
139 155 0
148 168 0
163 185 0
163 183 0
164 185 0
132 150 0
167 188 0
167 189 0
165 191 0
153 172 0
168 189 0
156 171 0
164 183 0
157 176 0
158 180 0
160 178 0
161 184 0
157 175 0
159 178 0
152 174 0
126 147 0
161 182 0
143 164 0
151 175 0
152 172 0
156 174 0
153 175 0
159 183 0
133 156 0
154 175 0
157 176 0
164 185 0
152 172 0
140 161 0
156 176 0
160 180 0
148 169 0
157 178 0
133 154 0
142 163 0
165 185 0
147 168 0
157 173 0
155 178 0
156 180 0
134 156 0
144 166 0
159 178 0
145 167 0
163 185 0
146 166 0
162 184 0
170 190 0
163 186 0
165 185 0
142 161 0
138 159 0
164 185 0
162 178 0
167 194 0
147 171 0
145 164 0
137 157 0
175 196 0
143 165 0
153 174 0
130 149 0
156 178 0
146 169 0
158 181 0
150 171 0
151 173 0
138 159 0
148 167 0
148 173 0
136 154 0
143 161 0
164 186 0
160 180 0
164 186 0
141 161 0
157 179 0
153 175 0
172 197 0
163 186 0
139 156 0
152 175 0
130 155 0
147 168 0
164 187 0
139 162 0
142 157 0
148 170 0
147 168 0
178 200 0
155 177 0
149 165 0
142 162 0
154 178 0
178 200 0
157 178 0
163 184 0
135 158 0
160 184 0
152 172 0
154 179 0
139 160 0
150 170 0
156 178 0
158 178 0
135 157 0
145 170 0
148 171 0
149 172 0
147 168 0
142 165 0
155 177 0
162 185 0
153 176 0
126 149 0
178 200 0
167 190 0
147 173 0
139 160 0
161 177 0
148 170 0
150 174 0
161 183 0
152 173 0
132 158 0
163 179 0
145 165 0
141 164 0
134 157 0
144 164 0
163 185 0
160 183 0
154 172 0
166 188 0
173 194 0
179 199 0
116 140 0
166 187 0
132 154 0
123 141 0
144 167 0
160 181 0
165 188 0
151 170 0
154 177 0
136 157 0
157 179 0
140 158 0
142 163 0
153 176 0
127 147 0
147 168 0
121 145 0
144 167 0
149 170 0
118 143 0
160 182 0
146 169 0
174 197 0
150 170 0
167 190 0
146 166 0
158 181 0
158 176 0
150 170 0
150 170 0
168 190 0
155 180 0
135 154 0
134 156 0
142 162 0
149 172 0
147 165 0
121 143 0
147 164 0
165 183 0
155 175 0
166 188 0
166 190 0
160 181 0
156 181 0
163 187 0
121 140 0
146 165 0
135 160 0
152 173 0
152 174 0
127 151 0
173 197 0
146 166 0
157 177 0
138 160 0
146 168 0
165 189 0
132 154 0
153 176 0
163 185 0
147 166 0
150 169 0
136 159 0
142 165 0
157 181 0
128 147 0
149 172 0
118 137 0
153 170 0
165 187 0
166 189 0
143 162 0
151 168 0
141 163 0
145 167 0
172 193 0
157 180 0
147 165 0
135 157 0
126 139 0
155 176 0
134 145 0
155 175 0
161 181 0
146 169 0
169 189 0
159 176 0
135 153 0
135 151 0
155 176 0
163 186 0
143 161 0
144 162 0
147 164 0
125 147 0
136 161 0
148 170 0
127 139 0
146 170 0
163 177 0
173 197 0
147 165 0
101 120 0
174 194 0
137 157 0
145 165 0
151 175 0
153 170 0
132 153 0
154 169 0
166 188 0
149 173 0
157 180 0
135 155 0
139 162 0
158 175 0
156 179 0
154 179 0
151 172 0
148 169 0
148 166 0
170 192 0
94 104 0
158 180 0
174 196 0
139 162 0
170 192 0
135 159 0
160 181 0
151 169 0
145 165 0
158 173 0
162 181 0
159 180 0
157 175 0
147 165 0
149 160 0
128 143 0
150 162 0
159 177 0
125 146 0
164 184 0
147 171 0
171 196 0
126 141 0
143 160 0
148 168 0
168 190 0
160 178 0
161 179 0
151 174 0
162 184 0
150 166 0
170 192 0
168 191 0
162 176 0
157 172 0
165 185 0
164 182 0
155 176 0
170 188 0
147 166 0
137 159 0
167 178 0
160 173 0
144 161 0
159 176 0
164 181 0
164 183 0
167 185 0
162 188 0
167 189 0
146 163 0
153 163 0
154 163 0
153 170 0
166 185 0
163 188 0
162 178 0
144 161 0
129 142 0
147 167 0
162 187 0
157 175 0
138 156 0
157 173 0
158 173 0
147 162 0
151 169 0
154 163 0
161 179 0
141 154 0
149 165 0
156 173 0
148 168 0
151 171 0
146 167 0
139 152 0
152 176 0
151 167 0
159 176 0
134 139 0
151 170 0
161 179 0
145 157 0
158 161 0
165 179 0
152 173 0
160 171 0
147 156 0
149 168 0
155 168 0
162 178 0
159 176 0
145 153 0
143 156 0
145 159 0
160 176 0
162 176 0
157 179 0
158 171 0
155 173 0
170 185 0
165 187 0
166 179 0
146 161 0
165 179 0
175 195 0
158 169 0
164 178 0
161 167 0
170 185 0
152 159 0
168 185 0
155 169 0
152 165 0
141 152 0
166 182 0
154 171 0
159 164 0
153 171 0
143 148 0
149 161 0
156 165 0
155 164 0
168 181 0
163 172 0
138 144 0
157 170 0
160 169 0
161 174 0
175 195 0
158 172 0
159 179 0
146 165 0
168 191 0
141 158 0
171 191 0
143 166 0
173 197 0
148 170 0
153 174 0
166 186 0
146 167 0
150 172 0
164 186 0
150 170 0
175 196 0
175 198 0
171 191 0
162 184 0
136 157 0
166 189 0
143 161 0
155 176 0
147 168 0
146 166 0
156 174 0
158 177 0
152 170 0
142 159 0
161 181 0
155 178 0
149 169 0
156 181 0
147 170 0
163 184 0
156 178 0
152 176 0
160 182 0
152 172 0
147 166 0
154 175 0
150 171 0
166 186 0
161 181 0
163 187 0
164 187 0
144 162 0
149 169 0
167 188 0
151 173 0
158 179 0
158 178 0
151 175 0
154 175 0
149 170 0
157 176 0
156 180 0
168 187 0
151 173 0
158 180 0
153 170 0
155 175 0
167 190 0
158 180 0
150 173 0
146 166 0
131 151 0
136 160 0
160 178 0
155 175 0
167 193 0
159 183 0
153 175 0
145 165 0
112 133 0
157 178 0
161 184 0
159 180 0
142 163 0
155 179 0
159 179 0
174 198 0
155 179 0
158 180 0
163 186 0
134 153 0
151 176 0
144 165 0
150 172 0
149 172 0
129 151 0
158 177 0
147 169 0
139 159 0
154 177 0
157 181 0
155 176 0
134 155 0
145 165 0
164 188 0
149 169 0
138 162 0
134 156 0
167 190 0
134 157 0
169 192 0
156 177 0
146 169 0
149 174 0
160 185 0
158 180 0
152 177 0
156 178 0
138 160 0
147 169 0
159 178 0
161 181 0
170 194 0
157 180 0
157 180 0
166 184 0
134 156 0
168 191 0
156 180 0
157 178 0
146 170 0
159 185 0
149 170 0
166 189 0
165 189 0
128 151 0
158 179 0
149 170 0
143 163 0
153 177 0
136 156 0
166 189 0
158 180 0
152 174 0
125 146 0
154 174 0
162 187 0
160 183 0
167 190 0
172 197 0
163 186 0
170 193 0
143 166 0
159 179 0
156 180 0
145 169 0
137 162 0
164 188 0
165 187 0
152 174 0
154 178 0
169 193 0
155 178 0
157 177 0
158 180 0
151 173 0
161 184 0
155 179 0
135 155 0
127 148 0
152 175 0
163 181 0
137 160 0
160 179 0
123 146 0
138 155 0
145 168 0
165 185 0
145 165 0
150 168 0
126 151 0
128 149 0
145 169 0
151 173 0
159 181 0
145 165 0
162 184 0
133 153 0
149 172 0
158 180 0
157 179 0
166 186 0
150 176 0
126 141 0
163 186 0
151 173 0
132 153 0
159 182 0
104 124 0
136 159 0
142 168 0
172 196 0
149 170 0
138 161 0
143 168 0
136 157 0
110 132 0
149 168 0
159 177 0
152 172 0
126 150 0
140 163 0
158 181 0
139 159 0
161 186 0
146 164 0
144 167 0
146 166 0
151 161 0
159 183 0
155 175 0
171 188 0
152 172 0
168 183 0
160 181 0
148 171 0
126 146 0
169 193 0
120 135 0
145 167 0
146 167 0
150 175 0
140 161 0
148 169 0
160 179 0
167 189 0
141 158 0
143 161 0
135 155 0
132 148 0
166 190 0
144 166 0
162 184 0
153 173 0
166 185 0
137 158 0
162 178 0
138 157 0
132 155 0
162 179 0
159 186 0
156 180 0
129 150 0
147 170 0
153 172 0
130 151 0
163 184 0
161 178 0
146 162 0
146 171 0
155 177 0
151 173 0
171 186 0
135 148 0
158 178 0
169 192 0
167 189 0
144 168 0
165 189 0
167 188 0
161 183 0
135 158 0
153 177 0
146 163 0
126 139 0
162 187 0
161 182 0
159 168 0
153 172 0
159 182 0
144 166 0
129 152 0
139 160 0
166 182 0
152 166 0
142 158 0
148 170 0
147 168 0
136 153 0
150 168 0
156 177 0
140 151 0
150 160 0
141 157 0
165 185 0
164 186 0
144 164 0
144 160 0
167 186 0
135 152 0
156 178 0
172 186 0
148 170 0
161 180 0
138 155 0
143 163 0
143 162 0
164 180 0
144 158 0
147 166 0
154 161 0
157 177 0
166 181 0
155 168 0
148 165 0
155 170 0
144 165 0
172 193 0
146 159 0
158 178 0
153 168 0
130 152 0
168 184 0
157 171 0
132 152 0
159 172 0
167 187 0
146 171 0
163 179 0
153 168 0
143 156 0
148 168 0
145 161 0
173 194 0
163 178 0
163 179 0
147 165 0
134 146 0
154 178 0
122 129 0
150 163 0
156 173 0
159 172 0
146 158 0
148 163 0
151 162 0
147 157 0
165 179 0
150 158 0
146 160 0
154 173 0
129 143 0
162 177 0
138 158 0
157 176 0
161 176 0
173 194 0
149 154 0
164 173 0
165 179 0
147 160 0
165 189 0
158 174 0
140 154 0
157 170 0
161 174 0
145 152 0
172 193 0
153 169 0
156 166 0
162 173 0
176 190 0
170 186 0
161 185 0
146 156 0
147 157 0
143 157 0
153 173 0
139 148 0
170 188 0
155 169 0
133 147 0
164 187 0
159 170 0
142 146 0
154 165 0
141 143 0
151 163 0
170 185 0
158 174 0
154 153 0
159 170 0
157 168 0
164 172 0
159 163 0
157 166 0
158 174 0
178 200 0
159 172 0
142 155 0
152 171 0
139 151 0
149 156 0
165 178 0
164 179 0
164 180 0
162 181 0
149 171 0
161 182 0
158 178 0
160 183 0
162 185 0
150 173 0
162 182 0
173 195 0
146 164 0
165 184 0
162 186 0
158 178 0
157 178 0
160 179 0
168 190 0
167 186 0
177 199 0
156 179 0
172 192 0
159 180 0
151 173 0
159 182 0
164 188 0
151 172 0
155 176 0
161 183 0
163 184 0
166 185 0
161 183 0
163 184 0
165 185 0
152 172 0
174 195 0
153 173 0
155 176 0
169 191 0
163 185 0
143 163 0
155 178 0
159 183 0
133 153 0
160 180 0
168 189 0
152 174 0
165 187 0
127 150 0
156 177 0
168 188 0
148 170 0
150 172 0
157 179 0
167 188 0
150 172 0
139 159 0
162 186 0
156 177 0
167 189 0
148 169 0
160 183 0
160 185 0
154 176 0
154 178 0
157 180 0
176 198 0
145 168 0
142 162 0
168 188 0
149 170 0
165 185 0
152 174 0
168 193 0
158 179 0
157 178 0
147 170 0
160 183 0
146 166 0
148 170 0
155 177 0
163 184 0
165 184 0
136 157 0
162 186 0
149 168 0
128 145 0
162 183 0
124 143 0
137 155 0
158 179 0
160 184 0
153 175 0
161 179 0
171 193 0
156 177 0
152 176 0
155 178 0
153 179 0
164 189 0
161 181 0
174 198 0
136 156 0
147 166 0
162 183 0
164 185 0
166 188 0
141 162 0
158 181 0
162 186 0
150 167 0
128 149 0
151 174 0
164 185 0
155 174 0
153 175 0
162 184 0
150 174 0
147 169 0
158 180 0
175 195 0
144 166 0
172 193 0
159 179 0
145 168 0
173 197 0
156 177 0
143 167 0
150 170 0
166 188 0
142 166 0
147 170 0
136 157 0
165 188 0
114 135 0
137 158 0
105 126 0
165 186 0
140 154 0
153 178 0
119 140 0
147 166 0
165 187 0
155 175 0
138 156 0
158 178 0
142 166 0
162 186 0
163 181 0
140 161 0
155 174 0
130 149 0
173 197 0
150 165 0
171 196 0
154 169 0
159 181 0
157 176 0
154 177 0
171 196 0
153 172 0
134 157 0
126 147 0
166 188 0
157 179 0
156 179 0
154 176 0
151 176 0
143 162 0
152 177 0
158 178 0
160 181 0
167 191 0
147 170 0
144 169 0
158 180 0
162 184 0
153 175 0
158 180 0
132 158 0
150 172 0
156 171 0
140 158 0
141 162 0
150 170 0
146 165 0
156 177 0
163 186 0
155 176 0
155 176 0
142 162 0
146 168 0
162 186 0
153 174 0
149 172 0
145 168 0
143 167 0
164 185 0
168 183 0
166 189 0
148 172 0
144 167 0
161 183 0
157 177 0
147 168 0
146 169 0
125 145 0
160 182 0
162 186 0
152 174 0
136 158 0
155 179 0
131 148 0
157 172 0
125 146 0
158 182 0
154 172 0
155 178 0
154 175 0
160 181 0
128 151 0
160 177 0
164 187 0
148 171 0
150 173 0
147 167 0
176 198 0
166 185 0
118 142 0
153 172 0
159 184 0
146 165 0
145 164 0
120 139 0
133 153 0
160 176 0
142 165 0
163 182 0
148 171 0
150 169 0
144 166 0
141 157 0
155 179 0
150 163 0
144 167 0
150 165 0
161 185 0
171 196 0
161 181 0
147 166 0
141 164 0
139 158 0
131 153 0
143 162 0
132 155 0
168 188 0
160 178 0
161 181 0
158 180 0
143 161 0
144 168 0
142 163 0
142 164 0
152 165 0
147 159 0
167 188 0
172 195 0
151 173 0
146 165 0
145 167 0
167 194 0
162 186 0
153 175 0
135 158 0
153 170 0
141 160 0
153 173 0
160 175 0
174 198 0
155 179 0
151 169 0
167 190 0
121 138 0
131 146 0
144 157 0
165 185 0
155 175 0
176 195 0
164 179 0
152 171 0
149 170 0
159 181 0
152 178 0
164 183 0
167 189 0
135 151 0
146 163 0
169 185 0
148 163 0
165 181 0
141 160 0
127 143 0
163 183 0
151 170 0
160 169 0
142 160 0
142 152 0
163 182 0
151 167 0
145 164 0
138 154 0
139 155 0
133 152 0
157 173 0
155 172 0
151 164 0
154 171 0
153 175 0
160 180 0
161 179 0
146 157 0
142 155 0
146 170 0
134 150 0
166 190 0
149 168 0
129 150 0
147 165 0
162 182 0
161 182 0
157 166 0
153 171 0
168 187 0
131 143 0
153 178 0
140 162 0
154 178 0
155 174 0
173 187 0
156 168 0
170 191 0
168 184 0
153 160 0
148 156 0
157 175 0
147 166 0
147 170 0
141 156 0
142 151 0
159 179 0
159 177 0
164 188 0
128 139 0
153 162 0
163 176 0
158 173 0
147 165 0
163 179 0
167 183 0
161 171 0
157 175 0
156 171 0
160 173 0
166 185 0
166 189 0
160 173 0
144 161 0
141 149 0
160 175 0
156 170 0
159 171 0
141 154 0
157 172 0
158 173 0
163 174 0
159 173 0
150 155 0
153 173 0
174 184 0
145 146 0
157 174 0
129 140 0
167 183 0
173 194 0
146 154 0
142 162 0
153 159 0
165 180 0
161 176 0
158 166 0
164 182 0
157 170 0
165 183 0
162 180 0
155 172 0
161 172 0
141 157 0
144 152 0
157 169 0
155 173 0
145 159 0
165 179 0
170 192 0
168 186 0
161 184 0
146 165 0
171 191 0
149 168 0
155 179 0
171 193 0
174 194 0
145 165 0
169 193 0
156 174 0
154 174 0
168 188 0
155 174 0
166 185 0
169 192 0
153 174 0
145 165 0
139 159 0
159 177 0
159 182 0
157 178 0
161 183 0
170 190 0
165 184 0
160 182 0
145 164 0
157 178 0
141 161 0
151 173 0
159 177 0
165 184 0
150 168 0
154 175 0
146 167 0
171 194 0
170 193 0
169 189 0
149 170 0
153 174 0
153 176 0
158 180 0
160 178 0
160 181 0
167 189 0
153 175 0
160 183 0
147 167 0
154 178 0
141 163 0
137 156 0
146 168 0
138 159 0
163 183 0
159 182 0
178 198 0
148 171 0
158 182 0
151 174 0
154 175 0
153 175 0
172 195 0
168 193 0
157 180 0
152 174 0
156 177 0
142 164 0
157 177 0
157 171 0
139 159 0
160 182 0
131 150 0
160 180 0
154 177 0
155 178 0
152 172 0
155 173 0
158 181 0
166 188 0
164 184 0
148 170 0
146 167 0
148 166 0
181 201 0
149 171 0
151 174 0
162 183 0
152 176 0
173 197 0
164 185 0
132 152 0
155 174 0
156 177 0
154 178 0
155 175 0
158 178 0
152 176 0
156 176 0
167 193 0
123 138 0
139 158 0
155 178 0
158 182 0
166 188 0
164 184 0
158 180 0
164 185 0
166 190 0
176 195 0
160 184 0
148 171 0
140 159 0
149 172 0
150 170 0
159 185 0
155 175 0
141 162 0
163 185 0
156 178 0
151 171 0
136 161 0
157 175 0
156 177 0
173 194 0
123 144 0
160 184 0
168 187 0
158 182 0
124 147 0
169 194 0
163 186 0
160 184 0
152 175 0
161 178 0
141 165 0
160 183 0
163 183 0
106 130 0
169 191 0
159 180 0
158 176 0
128 149 0
158 174 0
160 181 0
170 194 0
152 174 0
176 199 0
150 171 0
160 186 0
157 179 0
150 170 0
150 171 0
129 145 0
168 190 0
165 188 0
165 182 0
148 169 0
131 155 0
139 160 0
115 133 0
130 149 0
166 189 0
162 184 0
155 176 0
148 170 0
128 152 0
166 188 0
145 169 0
159 181 0
144 164 0
155 179 0
138 159 0
159 182 0
135 158 0
154 173 0
154 174 0
149 169 0
141 162 0
139 159 0
158 180 0
143 165 0
172 191 0
135 157 0
135 158 0
141 162 0
149 172 0
136 159 0
143 167 0
152 173 0
152 175 0
147 170 0
141 163 0
171 195 0
165 189 0
171 193 0
158 180 0
165 188 0
129 150 0
147 170 0
148 171 0
147 171 0
146 166 0
146 162 0
164 189 0
151 171 0
153 172 0
160 182 0
156 175 0
158 184 0
163 187 0
155 170 0
154 176 0
168 187 0
131 148 0
149 170 0
128 150 0
159 182 0
157 180 0
144 168 0
161 184 0
154 177 0
142 156 0
147 170 0
112 134 0
174 197 0
162 180 0
161 180 0
149 170 0
144 168 0
158 183 0
155 175 0
171 193 0
153 175 0
123 148 0
168 193 0
147 168 0
159 174 0
143 159 0
173 195 0
125 144 0
162 184 0
174 191 0
154 177 0
147 169 0
165 180 0
137 158 0
137 155 0
141 160 0
154 176 0
151 173 0
163 188 0
125 148 0
148 169 0
163 183 0
153 175 0
150 171 0
143 162 0
137 154 0
153 173 0
160 182 0
141 165 0
173 197 0
155 177 0
148 169 0
144 160 0
118 137 0
151 172 0
165 185 0
150 162 0
151 171 0
152 170 0
167 188 0
156 172 0
163 184 0
174 198 0
141 162 0
151 159 0
146 169 0
175 196 0
155 171 0
165 189 0
160 182 0
151 170 0
174 194 0
160 180 0
171 193 0
138 158 0
141 163 0
167 186 0
148 160 0
147 167 0
161 181 0
153 173 0
148 162 0
152 172 0
160 183 0
146 162 0
169 188 0
133 146 0
155 168 0
151 175 0
153 172 0
150 169 0
144 163 0
164 188 0
156 165 0
160 181 0
151 173 0
155 175 0
139 151 0
154 178 0
161 182 0
173 197 0
161 174 0
156 177 0
157 172 0
149 167 0
146 158 0
160 185 0
158 174 0
158 181 0
165 184 0
154 174 0
163 184 0
154 170 0
160 177 0
161 177 0
148 166 0
152 169 0
139 152 0
158 181 0
129 139 0
138 148 0
137 151 0
140 145 0
129 148 0
160 179 0
156 172 0
135 158 0
161 181 0
142 148 0
154 165 0
172 192 0
165 183 0
151 172 0
151 172 0
148 165 0
159 171 0
141 157 0
172 190 0
147 162 0
173 187 0
154 163 0
149 164 0
159 172 0
158 175 0
147 162 0
152 172 0
169 183 0
156 170 0
147 156 0
138 150 0
156 174 0
149 171 0
131 138 0
142 163 0
154 171 0
147 166 0
162 176 0
161 178 0
166 184 0
148 163 0
158 178 0
158 167 0
163 176 0
157 171 0
165 173 0
146 162 0
136 152 0
176 190 0
167 186 0
160 176 0
151 161 0
159 173 0
165 176 0
132 131 0
154 170 0
151 167 0
167 180 0
166 185 0
170 187 0
162 178 0
139 159 0
166 182 0
160 169 0
168 186 0
141 156 0
164 184 0
140 147 0
169 189 0
161 183 0
160 181 0
167 189 0
168 185 0
161 183 0
161 182 0
167 185 0
168 189 0
147 166 0
151 170 0
166 189 0
159 182 0
163 184 0
143 164 0
143 165 0
139 159 0
161 180 0
151 169 0
165 186 0
140 161 0
148 173 0
155 178 0
175 195 0
164 185 0
167 189 0
155 177 0
163 185 0
142 163 0
163 186 0
156 176 0
168 190 0
160 179 0
145 165 0
161 180 0
158 178 0
151 175 0
173 193 0
162 183 0
149 171 0
157 177 0
169 190 0
172 192 0
171 187 0
143 159 0
156 177 0
167 187 0
153 175 0
162 183 0
162 184 0
164 186 0
154 173 0
173 195 0
171 192 0
158 177 0
166 189 0
164 186 0
138 158 0
137 154 0
148 168 0
160 183 0
154 175 0
140 161 0
153 171 0
158 177 0
142 161 0
167 192 0
147 169 0
164 187 0
150 171 0
158 182 0
163 187 0
148 172 0
156 176 0
145 166 0
153 173 0
138 163 0
152 169 0
161 187 0
149 171 0
168 191 0
151 174 0
153 178 0
171 191 0
152 175 0
147 167 0
149 170 0
160 182 0
171 196 0
165 189 0
166 187 0
122 141 0
143 165 0
131 150 0
159 182 0
164 189 0
142 164 0
162 185 0
157 180 0
146 168 0
159 181 0
164 187 0
136 155 0
165 185 0
160 184 0
144 165 0
169 191 0
156 178 0
160 180 0
171 196 0
150 173 0
166 191 0
158 181 0
145 167 0
159 180 0
165 186 0
146 167 0
166 183 0
175 197 0
155 179 0
140 164 0
138 163 0
168 193 0
153 176 0
134 156 0
162 184 0
123 145 0
162 184 0
173 194 0
162 182 0
149 169 0
159 182 0
124 145 0
163 186 0
158 181 0
167 190 0
153 177 0
144 167 0
125 145 0
159 181 0
149 169 0
127 145 0
153 173 0
163 188 0
153 177 0
150 171 0
149 163 0
149 169 0
150 171 0
161 185 0
136 158 0
161 183 0
153 175 0
137 158 0
157 183 0
152 173 0
156 179 0
143 165 0
147 170 0
155 178 0
159 177 0
152 172 0
161 182 0
150 170 0
141 161 0
167 187 0
143 165 0
144 169 0
158 183 0
133 152 0
158 181 0
159 176 0
145 168 0
132 157 0
140 156 0
129 148 0
146 163 0
159 181 0
165 189 0
147 172 0
121 141 0
148 167 0
152 175 0
161 185 0
133 157 0
167 190 0
155 180 0
167 189 0
120 142 0
140 156 0
130 150 0
148 165 0
152 173 0
167 191 0
169 191 0
170 196 0
170 194 0
172 191 0
132 152 0
145 164 0
143 166 0
164 188 0
144 165 0
152 178 0
153 174 0
170 189 0
146 161 0
140 160 0
147 170 0
152 175 0
148 165 0
147 169 0
156 180 0
159 180 0
172 193 0
143 169 0
153 179 0
141 165 0
152 178 0
162 183 0
161 181 0
147 167 0
145 169 0
163 186 0
157 180 0
138 159 0
148 169 0
146 167 0
142 161 0
168 187 0
136 160 0
169 180 0
146 165 0
161 179 0
133 155 0
151 171 0
138 162 0
147 169 0
154 179 0
157 178 0
162 183 0
146 167 0
143 163 0
154 177 0
161 176 0
146 169 0
127 143 0
146 170 0
173 197 0
173 192 0
173 196 0
164 185 0
144 164 0
158 179 0
149 171 0
138 155 0
149 175 0
90 104 0
166 188 0
153 175 0
171 192 0
152 170 0
151 170 0
134 158 0
142 160 0
155 178 0
146 167 0
164 181 0
160 181 0
162 184 0
145 162 0
152 169 0
133 151 0
118 134 0
156 179 0
155 175 0
176 197 0
155 168 0
149 166 0
109 117 0
165 182 0
151 173 0
146 167 0
162 184 0
152 170 0
166 175 0
144 169 0
120 136 0
162 184 0
168 186 0
155 176 0
149 169 0
156 171 0
147 168 0
158 176 0
148 169 0
166 189 0
152 173 0
172 189 0
153 168 0
165 184 0
166 186 0
154 175 0
163 179 0
164 178 0
149 165 0
133 154 0
139 149 0
155 179 0
146 161 0
165 186 0
144 164 0
124 140 0
159 179 0
137 152 0
163 181 0
157 176 0
151 166 0
162 184 0
158 178 0
143 161 0
165 174 0
169 185 0
141 157 0
174 194 0
132 147 0
147 163 0
156 175 0
140 161 0
138 160 0
164 184 0
164 184 0
117 128 0
155 168 0
158 176 0
164 175 0
172 190 0
152 169 0
152 170 0
157 181 0
160 179 0
163 177 0
132 146 0
151 169 0
146 166 0
152 168 0
160 175 0
137 150 0
144 159 0
154 164 0
165 186 0
168 186 0
172 190 0
174 195 0
164 175 0
129 147 0
144 151 0
162 180 0
146 161 0
152 163 0
155 174 0
164 183 0
170 189 0
156 169 0
173 192 0
149 164 0
145 151 0
133 142 0
162 182 0
156 165 0
151 167 0
166 185 0
166 179 0
164 178 0
158 175 0
146 153 0
130 144 0
159 170 0
163 185 0
159 178 0
171 189 0
160 176 0
168 182 0
151 170 0
164 172 0
167 185 0
170 187 0
149 165 0
163 183 0
149 169 0
158 176 0
162 183 0
167 186 0
171 189 0
146 156 0
164 179 0
158 166 0
156 167 0
158 164 0
158 168 0
158 176 0
164 185 0
162 184 0
161 181 0
152 172 0
169 188 0
148 165 0
172 193 0
147 168 0
174 196 0
168 192 0
155 173 0
162 182 0
149 172 0
170 191 0
158 179 0
160 180 0
149 168 0
153 174 0
153 174 0
155 176 0
165 187 0
162 185 0
165 186 0
134 153 0
154 176 0
156 178 0
143 163 0
161 181 0
150 172 0
141 159 0
156 178 0
144 163 0
156 177 0
144 162 0
157 179 0
160 179 0
150 170 0
174 198 0
158 177 0
157 180 0
149 170 0
161 179 0
159 178 0
162 182 0
154 172 0
156 177 0
176 198 0
168 189 0
158 180 0
159 180 0
166 188 0
159 180 0
164 186 0
170 190 0
163 186 0
151 172 0
166 187 0
166 187 0
145 164 0
158 184 0
148 174 0
175 195 0
162 182 0
154 177 0
170 194 0
153 176 0
168 187 0
148 165 0
145 170 0
151 170 0
150 167 0
148 171 0
162 185 0
174 191 0
138 160 0
162 183 0
148 167 0
157 177 0
156 179 0
150 169 0
146 169 0
158 179 0
143 167 0
150 174 0
137 156 0
169 191 0
142 168 0
159 183 0
170 192 0
154 173 0
152 175 0
159 183 0
161 183 0
170 193 0
159 181 0
143 163 0
141 164 0
158 182 0
156 178 0
154 177 0
145 168 0
146 168 0
159 183 0
169 191 0
167 189 0
154 177 0
166 188 0
133 151 0
151 173 0
150 168 0
147 172 0
131 151 0
135 157 0
133 152 0
154 176 0
124 143 0
141 161 0
167 189 0
172 194 0
155 177 0
146 165 0
164 189 0
142 165 0
150 170 0
168 190 0
143 166 0
137 159 0
169 186 0
174 196 0
171 193 0
167 189 0
162 185 0
138 152 0
129 152 0
145 167 0
136 155 0
142 167 0
160 182 0
132 157 0
152 176 0
143 166 0
124 149 0
150 174 0
152 173 0
157 180 0
167 189 0
136 157 0
117 141 0
155 179 0
154 177 0
166 186 0
129 152 0
151 173 0
167 187 0
138 157 0
145 165 0
136 159 0
101 118 0
155 179 0
148 169 0
157 178 0
145 166 0
135 156 0
158 181 0
131 149 0
149 171 0
137 156 0
160 181 0
172 191 0
147 166 0
175 197 0
159 184 0
156 178 0
167 186 0
167 190 0
151 174 0
137 159 0
146 166 0
160 181 0
143 167 0
162 186 0
147 170 0
148 170 0
132 155 0
140 161 0
125 143 0
142 159 0
158 181 0
160 182 0
136 158 0
137 160 0
174 195 0
160 185 0
125 145 0
141 161 0
146 166 0
127 148 0
135 156 0
155 176 0
148 168 0
144 165 0
165 183 0
146 166 0
148 168 0
163 188 0
164 187 0
132 155 0
149 168 0
144 164 0
149 165 0
146 167 0
148 171 0
152 172 0
160 184 0
133 154 0
152 172 0
163 188 0
155 178 0
166 189 0
154 177 0
147 168 0
156 180 0
167 186 0
163 183 0
129 150 0
155 177 0
169 191 0
153 168 0
156 180 0
140 161 0
154 168 0
129 149 0
162 187 0
127 145 0
160 182 0
154 173 0
144 168 0
149 170 0
150 170 0
145 166 0
144 169 0
156 173 0
143 164 0
145 167 0
160 179 0
170 190 0
152 177 0
134 155 0
164 184 0
138 160 0
130 147 0
153 177 0
165 187 0
150 172 0
137 160 0
147 169 0
161 183 0
156 178 0
157 181 0
153 173 0
155 174 0
164 185 0
161 181 0
141 159 0
143 166 0
172 193 0
147 168 0
143 156 0
175 194 0
160 182 0
138 155 0
167 189 0
151 169 0
159 179 0
139 153 0
165 188 0
142 164 0
166 185 0
138 157 0
164 186 0
115 130 0
145 161 0
150 165 0
162 183 0
169 183 0
158 179 0
146 165 0
132 150 0
138 153 0
162 182 0
154 174 0
149 170 0
142 159 0
158 180 0
163 183 0
127 143 0
137 155 0
130 149 0
164 187 0
135 149 0
146 167 0
161 179 0
145 170 0
162 179 0
168 183 0
165 182 0
127 143 0
146 161 0
159 171 0
162 186 0
137 155 0
147 165 0
164 180 0
143 162 0
143 156 0
156 180 0
156 174 0
149 165 0
127 148 0
156 172 0
129 143 0
148 164 0
134 153 0
170 192 0
164 182 0
165 189 0
148 167 0
172 186 0
147 167 0
163 180 0
152 167 0
169 190 0
134 141 0
152 171 0
150 167 0
143 161 0
157 176 0
149 167 0
169 191 0
155 167 0
151 161 0
162 180 0
156 171 0
153 176 0
150 156 0
160 167 0
164 180 0
165 187 0
169 185 0
165 189 0
168 185 0
137 153 0
159 175 0
165 188 0
145 164 0
155 168 0
159 180 0
153 172 0
136 143 0
154 170 0
162 170 0
145 169 0
163 178 0
154 169 0
160 181 0
143 161 0
166 184 0
176 198 0
145 152 0
143 156 0
157 176 0
159 180 0
166 184 0
164 180 0
161 176 0
161 176 0
159 175 0
161 182 0
163 179 0
160 174 0
159 177 0
150 158 0
144 159 0
150 164 0
149 157 0
168 184 0
160 172 0
153 154 0
156 172 0
151 167 0
161 164 0
163 176 0
165 179 0
139 153 0
168 188 0
158 167 0
155 168 0
159 179 0
156 170 0
161 183 0
148 170 0
174 195 0
152 175 0
151 171 0
149 168 0
134 153 0
142 163 0
170 195 0
168 186 0
165 185 0
159 179 0
163 184 0
162 181 0
168 189 0
156 180 0
173 195 0
161 177 0
167 184 0
159 181 0
163 185 0
160 182 0
148 171 0
147 168 0
175 195 0
158 177 0
152 173 0
179 199 0
168 190 0
165 187 0
145 166 0
129 150 0
165 186 0
163 183 0
148 169 0
158 176 0
153 174 0
135 156 0
126 145 0
154 174 0
161 182 0
162 181 0
172 193 0
167 191 0
166 190 0
155 174 0
153 176 0
151 172 0
153 169 0
126 146 0
168 191 0
157 178 0
161 180 0
149 170 0
169 194 0
141 158 0
163 183 0
155 179 0
145 165 0
169 189 0
158 179 0
141 161 0
165 187 0
133 151 0
136 155 0
146 166 0
162 188 0
149 171 0
164 187 0
140 160 0
169 194 0
170 195 0
154 175 0
160 184 0
153 174 0
150 173 0
160 181 0
139 159 0
162 185 0
153 176 0
159 183 0
160 183 0
173 196 0
154 178 0
156 178 0
138 154 0
155 179 0
134 156 0
163 185 0
175 198 0
152 176 0
142 163 0
160 177 0
147 170 0
149 172 0
160 181 0
169 195 0
165 189 0
163 187 0
143 159 0
167 191 0
163 187 0
162 185 0
146 166 0
153 174 0
136 159 0
127 151 0
152 171 0
148 172 0
140 164 0
131 155 0
152 173 0
165 188 0
152 174 0
152 171 0
158 180 0
152 169 0
160 185 0
143 166 0
129 153 0
152 176 0
153 174 0
157 181 0
144 163 0
160 178 0
148 173 0
152 171 0
155 175 0
154 175 0
164 187 0
161 182 0
142 165 0
138 157 0
153 172 0
156 181 0
129 151 0
151 175 0
158 181 0
142 163 0
135 157 0
167 193 0
139 161 0
151 171 0
151 166 0
164 185 0
111 130 0
141 167 0
172 195 0
170 195 0
141 158 0
150 168 0
131 152 0
135 151 0
133 152 0
144 166 0
153 179 0
149 173 0
156 179 0
147 170 0
158 180 0
153 174 0
167 189 0
145 167 0
165 188 0
153 175 0
151 175 0
157 180 0
150 170 0
159 179 0
134 158 0
154 175 0
150 173 0
161 187 0
170 190 0
156 173 0
146 169 0
133 152 0
120 138 0
148 169 0
132 153 0
162 187 0
156 178 0
150 172 0
156 176 0
161 180 0
172 196 0
166 185 0
161 186 0
143 168 0
165 188 0
163 188 0
137 161 0
139 159 0
117 142 0
143 164 0
141 165 0
156 177 0
150 166 0
144 166 0
138 160 0
157 176 0
145 164 0
142 166 0
165 191 0
151 176 0
157 180 0
135 155 0
148 170 0
160 180 0
171 194 0
127 149 0
157 177 0
146 165 0
153 175 0
167 190 0
145 169 0
141 159 0
160 181 0
161 184 0
161 187 0
176 197 0
163 186 0
133 156 0
176 196 0
170 195 0
159 179 0
150 171 0
165 182 0
121 139 0
143 163 0
163 185 0
142 161 0
153 175 0
156 179 0
153 175 0
164 187 0
158 181 0
135 152 0
161 173 0
156 180 0
145 159 0
157 179 0
131 146 0
148 167 0
130 153 0
150 174 0
154 175 0
154 167 0
164 188 0
143 163 0
140 161 0
152 176 0
139 159 0
154 175 0
153 176 0
159 177 0
137 156 0
143 162 0
165 188 0
123 138 0
163 183 0
137 158 0
153 176 0
157 176 0
150 167 0
154 173 0
159 176 0
153 174 0
151 176 0
153 175 0
162 184 0
137 153 0
134 158 0
144 157 0
145 166 0
169 188 0
114 135 0
162 184 0
148 162 0
153 175 0
144 163 0
163 187 0
152 173 0
167 181 0
144 158 0
144 163 0
172 183 0
132 151 0
170 192 0
142 157 0
155 179 0
147 164 0
160 180 0
153 172 0
160 174 0
140 163 0
121 141 0
157 180 0
165 181 0
168 185 0
135 153 0
161 186 0
166 188 0
168 184 0
147 157 0
157 179 0
156 178 0
124 143 0
169 191 0
160 177 0
145 170 0
162 179 0
154 173 0
125 142 0
151 163 0
162 180 0
173 193 0
172 196 0
166 183 0
159 186 0
163 181 0
169 186 0
157 178 0
134 150 0
147 161 0
159 175 0
165 178 0
143 165 0
158 181 0
134 141 0
160 181 0
154 176 0
168 189 0
140 153 0
158 181 0
165 184 0
154 175 0
159 170 0
161 183 0
160 174 0
161 178 0
139 157 0
157 172 0
159 175 0
146 162 0
165 175 0
164 183 0
152 165 0
158 173 0
157 176 0
171 186 0
166 190 0
137 144 0
166 184 0
160 172 0
167 186 0
159 176 0
156 170 0
138 158 0
162 183 0
168 176 0
160 170 0
149 158 0
158 173 0
143 163 0
156 176 0
162 169 0
161 176 0
172 187 0
143 154 0
148 162 0
157 172 0
169 188 0
155 167 0
140 153 0
156 170 0
171 188 0
166 177 0
160 182 0
143 162 0
164 179 0
160 171 0
162 173 0
107 113 0
158 170 0
159 176 0
138 148 0
163 180 0
163 178 0
161 172 0
150 168 0
145 152 0
161 171 0
161 182 0
139 157 0
167 181 0
145 154 0
163 176 0
167 178 0
156 175 0
