P3
400 225
255
163 200 255
163 200 255
163 200 255
163 200 255
163 200 255
163 200 255
163 200 255
163 200 255
163 200 255
163 200 255
163 200 255
162 200 255
162 200 255
162 200 255
162 199 255
162 199 255
162 199 255
162 199 255
162 199 255
162 199 255
162 199 255
161 199 255
161 199 255
161 199 255
161 199 255
161 199 255
161 199 255
161 199 255
161 199 255
161 199 255
161 199 255
161 199 255
160 198 255
160 198 255
160 198 255
160 198 255
160 198 255
160 198 255
160 198 255
160 198 255
160 198 255
160 198 255
159 198 255
159 198 255
159 198 255
159 198 255
159 198 255
159 198 255
159 198 255
159 197 255
159 197 255
159 197 255
158 197 255
158 197 255
158 197 255
158 197 255
158 197 255
158 197 255
158 197 255
158 197 255
158 197 255
157 197 255
157 197 255
157 197 255
157 197 255
157 196 255
157 196 255
157 196 255
157 196 255
157 196 255
157 196 255
156 196 255
156 196 255
156 196 255
156 196 255
156 196 255
156 196 255
156 196 255
156 196 255
156 196 255
155 195 255
155 195 255
155 195 255
155 195 255
155 195 255
155 195 255
155 195 255
155 195 255
155 195 255
154 195 255
154 195 255
154 195 255
154 195 255
154 195 255
154 195 255
154 194 255
154 194 255
154 194 255
153 194 255
153 194 255
153 194 255
153 194 255
153 194 255
153 194 255
153 194 255
153 194 255
153 194 255
152 194 255
152 194 255
152 194 255
152 193 255
152 193 255
152 193 255
152 193 255
152 193 255
152 193 255
152 193 255
151 193 255
151 193 255
151 193 255
151 193 255
151 193 255
151 193 255
151 193 255
151 193 255
151 193 255
151 193 255
150 192 255
150 192 255
150 192 255
150 192 255
150 192 255
150 192 255
150 192 255
150 192 255
150 192 255
150 192 255
149 192 255
149 192 255
149 192 255
149 192 255
149 192 255
149 192 255
149 192 255
149 192 255
149 191 255
149 191 255
149 191 255
149 191 255
148 191 255
148 191 255
148 191 255
148 191 255
148 191 255
148 191 255
148 191 255
148 191 255
148 191 255
148 191 255
148 191 255
148 191 255
148 191 255
148 191 255
147 191 255
147 191 255
147 191 255
147 191 255
147 191 255
147 191 255
147 190 255
147 190 255
147 190 255
147 190 255
147 190 255
147 190 255
147 190 255
147 190 255
147 190 255
147 190 255
147 190 255
147 190 255
147 190 255
147 190 255
147 190 255
147 190 255
147 190 255
146 190 255
146 190 255
146 190 255
146 190 255
146 190 255
146 190 255
146 190 255
146 190 255
146 190 255
146 190 255
146 190 255
146 190 255
146 190 255
146 190 255
146 190 255
146 190 255
146 190 255
146 190 255
146 190 255
146 190 255
146 190 255
146 190 255
146 190 255
146 190 255
146 190 255
146 190 255
146 190 255
147 190 255
147 190 255
147 190 255
147 190 255
147 190 255
147 190 255
147 190 255
147 190 255
147 190 255
147 190 255
147 190 255
147 190 255
147 190 255
147 190 255
147 190 255
147 190 255
147 190 255
147 190 255
147 191 255
147 191 255
147 191 255
147 191 255
147 191 255
148 191 255
148 191 255
148 191 255
148 191 255
148 191 255
148 191 255
148 191 255
148 191 255
148 191 255
148 191 255
148 191 255
148 191 255
148 191 255
148 191 255
148 191 255
149 191 255
149 191 255
149 191 255
149 191 255
149 192 255
149 192 255
149 192 255
149 192 255
149 192 255
149 192 255
149 192 255
150 192 255
150 192 255
150 192 255
150 192 255
150 192 255
150 192 255
150 192 255
150 192 255
150 192 255
150 192 255
150 192 255
150 192 255
151 193 255
151 193 255
151 193 255
151 193 255
151 193 255
151 193 255
151 193 255
151 193 255
151 193 255
152 193 255
152 193 255
152 193 255
152 193 255
152 193 255
152 193 255
152 193 255
152 194 255
152 194 255
152 194 255
153 194 255
153 194 255
153 194 255
153 194 255
153 194 255
153 194 255
153 194 255
153 194 255
153 194 255
154 194 255
154 194 255
154 194 255
154 195 255
154 195 255
154 195 255
154 195 255
154 195 255
154 195 255
155 195 255
155 195 255
155 195 255
155 195 255
155 195 255
155 195 255
155 195 255
155 195 255
155 195 255
156 196 255
156 196 255
156 196 255
156 196 255
156 196 255
156 196 255
156 196 255
156 196 255
156 196 255
156 196 255
157 196 255
157 196 255
157 196 255
157 196 255
157 196 255
157 196 255
157 197 255
157 197 255
158 197 255
158 197 255
158 197 255
158 197 255
158 197 255
158 197 255
158 197 255
158 197 255
158 197 255
158 197 255
159 197 255
159 197 255
159 197 255
159 198 255
159 198 255
159 198 255
159 198 255
159 198 255
159 198 255
159 198 255
160 198 255
160 198 255
160 198 255
160 198 255
160 198 255
160 198 255
160 198 255
160 198 255
160 198 255
160 198 255
161 199 255
161 199 255
161 199 255
161 199 255
161 199 255
161 199 255
161 199 255
161 199 255
161 199 255
161 199 255
161 199 255
162 199 255
162 199 255
162 199 255
162 199 255
162 199 255
162 199 255
162 199 255
162 200 255
162 200 255
162 200 255
162 200 255
163 200 255
163 200 255
163 200 255
163 200 255
163 200 255
163 200 255
163 200 255
163 200 255
163 200 255
163 200 255
164 200 255
163 200 255
163 200 255
163 200 255
163 200 255
163 200 255
163 200 255
163 200 255
163 200 255
163 200 255
163 200 255
163 200 255
163 200 255
162 200 255
162 200 255
162 200 255
162 200 255
162 199 255
162 199 255
162 199 255
162 199 255
162 199 255
162 199 255
162 199 255
161 199 255
161 199 255
161 199 255
161 199 255
161 199 255
161 199 255
161 199 255
161 199 255
161 199 255
161 199 255
160 198 255
160 198 255
160 198 255
160 198 255
160 198 255
160 198 255
160 198 255
160 198 255
160 198 255
160 198 255
159 198 255
159 198 255
159 198 255
159 198 255
159 198 255
159 198 255
159 198 255
159 197 255
159 197 255
159 197 255
158 197 255
158 197 255
158 197 255
158 197 255
158 197 255
158 197 255
158 197 255
158 197 255
158 197 255
157 197 255
157 197 255
157 197 255
157 196 255
157 196 255
157 196 255
157 196 255
157 196 255
157 196 255
156 196 255
156 196 255
156 196 255
156 196 255
156 196 255
156 196 255
156 196 255
156 196 255
156 196 255
156 196 255
155 195 255
155 195 255
155 195 255
155 195 255
155 195 255
155 195 255
155 195 255
155 195 255
155 195 255
154 195 255
154 195 255
154 195 255
154 195 255
154 195 255
154 195 255
154 194 255
154 194 255
154 194 255
153 194 255
153 194 255
153 194 255
153 194 255
153 194 255
153 194 255
153 194 255
153 194 255
153 194 255
152 194 255
152 194 255
152 194 255
152 194 255
152 193 255
152 193 255
152 193 255
152 193 255
152 193 255
152 193 255
151 193 255
151 193 255
151 193 255
151 193 255
151 193 255
151 193 255
151 193 255
151 193 255
151 193 255
151 193 255
150 192 255
150 192 255
150 192 255
150 192 255
150 192 255
150 192 255
150 192 255
150 192 255
150 192 255
150 192 255
150 192 255
149 192 255
149 192 255
149 192 255
149 192 255
149 192 255
149 192 255
149 192 255
149 191 255
149 191 255
149 191 255
149 191 255
149 191 255
148 191 255
148 191 255
148 191 255
148 191 255
148 191 255
148 191 255
148 191 255
148 191 255
148 191 255
148 191 255
148 191 255
148 191 255
148 191 255
148 191 255
148 191 255
147 191 255
147 191 255
147 191 255
147 191 255
147 191 255
147 191 255
147 191 255
147 190 255
147 190 255
147 190 255
147 190 255
147 190 255
147 190 255
147 190 255
147 190 255
147 190 255
147 190 255
147 190 255
147 190 255
147 190 255
147 190 255
147 190 255
147 190 255
147 190 255
147 190 255
147 190 255
147 190 255
147 190 255
147 190 255
147 190 255
147 190 255
147 190 255
147 190 255
147 190 255
147 190 255
147 190 255
147 190 255
147 190 255
147 190 255
147 190 255
147 190 255
147 190 255
147 190 255
147 190 255
147 190 255
147 190 255
147 190 255
147 190 255
147 190 255
147 190 255
147 190 255
147 190 255
147 190 255
147 190 255
147 190 255
147 190 255
147 190 255
147 190 255
147 190 255
147 191 255
147 191 255
147 191 255
147 191 255
147 191 255
147 191 255
147 191 255
148 191 255
148 191 255
148 191 255
148 191 255
148 191 255
148 191 255
148 191 255
148 191 255
148 191 255
148 191 255
148 191 255
148 191 255
148 191 255
148 191 255
148 191 255
149 191 255
149 191 255
149 191 255
149 191 255
149 192 255
149 192 255
149 192 255
149 192 255
149 192 255
149 192 255
149 192 255
149 192 255
150 192 255
150 192 255
150 192 255
150 192 255
150 192 255
150 192 255
150 192 255
150 192 255
150 192 255
150 192 255
150 192 255
151 193 255
151 193 255
151 193 255
151 193 255
151 193 255
151 193 255
151 193 255
151 193 255
151 193 255
151 193 255
152 193 255
152 193 255
152 193 255
152 193 255
152 193 255
152 193 255
152 194 255
152 194 255
152 194 255
152 194 255
153 194 255
153 194 255
153 194 255
153 194 255
153 194 255
153 194 255
153 194 255
153 194 255
153 194 255
154 194 255
154 194 255
154 194 255
154 195 255
154 195 255
154 195 255
154 195 255
154 195 255
154 195 255
155 195 255
155 195 255
155 195 255
155 195 255
155 195 255
155 195 255
155 195 255
155 195 255
155 195 255
156 196 255
156 196 255
156 196 255
156 196 255
156 196 255
156 196 255
156 196 255
156 196 255
156 196 255
157 196 255
157 196 255
157 196 255
157 196 255
157 196 255
157 196 255
157 196 255
157 197 255
157 197 255
157 197 255
158 197 255
158 197 255
158 197 255
158 197 255
158 197 255
158 197 255
158 197 255
158 197 255
158 197 255
159 197 255
159 197 255
159 197 255
159 197 255
159 198 255
159 198 255
159 198 255
159 198 255
159 198 255
159 198 255
160 198 255
160 198 255
160 198 255
160 198 255
160 198 255
160 198 255
160 198 255
160 198 255
160 198 255
160 198 255
161 199 255
161 199 255
161 199 255
161 199 255
161 199 255
161 199 255
161 199 255
161 199 255
161 199 255
161 199 255
162 199 255
162 199 255
162 199 255
162 199 255
162 199 255
162 199 255
162 199 255
162 199 255
162 200 255
162 200 255
162 200 255
163 200 255
163 200 255
163 200 255
163 200 255
163 200 255
163 200 255
163 200 255
163 200 255
163 200 255
163 200 255
163 200 255
163 200 255
164 200 255
164 200 255
164 200 255
164 200 255
164 200 255
163 200 255
163 200 255
163 200 255
163 200 255
163 200 255
163 200 255
163 200 255
163 200 255
163 200 255
163 200 255
163 200 255
162 200 255
162 200 255
162 200 255
162 200 255
162 199 255
162 199 255
162 199 255
162 199 255
162 199 255
162 199 255
162 199 255
161 199 255
161 199 255
161 199 255
161 199 255
161 199 255
161 199 255
161 199 255
161 199 255
161 199 255
161 199 255
160 198 255
160 198 255
160 198 255
160 198 255
160 198 255
160 198 255
160 198 255
160 198 255
160 198 255
160 198 255
159 198 255
159 198 255
159 198 255
159 198 255
159 198 255
159 198 255
159 198 255
159 197 255
159 197 255
159 197 255
158 197 255
158 197 255
158 197 255
158 197 255
158 197 255
158 197 255
158 197 255
158 197 255
158 197 255
158 197 255
157 197 255
157 197 255
157 197 255
157 196 255
157 196 255
157 196 255
157 196 255
157 196 255
157 196 255
156 196 255
156 196 255
156 196 255
156 196 255
156 196 255
156 196 255
156 196 255
156 196 255
156 196 255
155 195 255
155 195 255
155 195 255
155 195 255
155 195 255
155 195 255
155 195 255
155 195 255
155 195 255
154 195 255
154 195 255
154 195 255
154 195 255
154 195 255
154 195 255
154 194 255
154 194 255
154 194 255
153 194 255
153 194 255
153 194 255
153 194 255
153 194 255
153 194 255
153 194 255
153 194 255
153 194 255
152 194 255
152 194 255
152 194 255
152 194 255
152 193 255
152 193 255
152 193 255
152 193 255
152 193 255
152 193 255
152 193 255
151 193 255
151 193 255
151 193 255
151 193 255
151 193 255
151 193 255
151 193 255
151 193 255
151 193 255
150 192 255
150 192 255
150 192 255
150 192 255
150 192 255
150 192 255
150 192 255
150 192 255
150 192 255
150 192 255
150 192 255
149 192 255
149 192 255
149 192 255
149 192 255
149 192 255
149 192 255
149 192 255
149 192 255
149 191 255
149 191 255
149 191 255
149 191 255
148 191 255
148 191 255
148 191 255
148 191 255
148 191 255
148 191 255
148 191 255
148 191 255
148 191 255
148 191 255
148 191 255
148 191 255
148 191 255
148 191 255
148 191 255
148 191 255
148 191 255
147 191 255
147 191 255
147 191 255
147 191 255
147 191 255
147 191 255
147 191 255
147 191 255
147 190 255
147 190 255
147 190 255
147 190 255
147 190 255
147 190 255
147 190 255
147 190 255
147 190 255
147 190 255
147 190 255
147 190 255
147 190 255
147 190 255
147 190 255
147 190 255
147 190 255
147 190 255
147 190 255
147 190 255
147 190 255
147 190 255
147 190 255
147 190 255
147 190 255
147 190 255
147 190 255
147 190 255
147 190 255
147 190 255
147 190 255
147 190 255
147 190 255
147 190 255
147 190 255
147 190 255
147 190 255
147 190 255
147 190 255
147 190 255
147 190 255
147 190 255
147 190 255
147 191 255
147 191 255
147 191 255
147 191 255
147 191 255
147 191 255
147 191 255
148 191 255
148 191 255
148 191 255
148 191 255
148 191 255
148 191 255
148 191 255
148 191 255
148 191 255
148 191 255
148 191 255
148 191 255
148 191 255
148 191 255
148 191 255
148 191 255
149 191 255
149 191 255
149 191 255
149 191 255
149 192 255
149 192 255
149 192 255
149 192 255
149 192 255
149 192 255
149 192 255
149 192 255
149 192 255
150 192 255
150 192 255
150 192 255
150 192 255
150 192 255
150 192 255
150 192 255
150 192 255
150 192 255
150 192 255
150 192 255
151 193 255
151 193 255
151 193 255
151 193 255
151 193 255
151 193 255
151 193 255
151 193 255
151 193 255
151 193 255
152 193 255
152 193 255
152 193 255
152 193 255
152 193 255
152 193 255
152 194 255
152 194 255
152 194 255
153 194 255
153 194 255
153 194 255
153 194 255
153 194 255
153 194 255
153 194 255
153 194 255
153 194 255
153 194 255
154 194 255
154 194 255
154 194 255
154 195 255
154 195 255
154 195 255
154 195 255
154 195 255
154 195 255
155 195 255
155 195 255
155 195 255
155 195 255
155 195 255
155 195 255
155 195 255
155 195 255
155 195 255
156 196 255
156 196 255
156 196 255
156 196 255
156 196 255
156 196 255
156 196 255
156 196 255
156 196 255
157 196 255
157 196 255
157 196 255
157 196 255
157 196 255
157 196 255
157 197 255
157 197 255
157 197 255
157 197 255
158 197 255
158 197 255
158 197 255
158 197 255
158 197 255
158 197 255
158 197 255
158 197 255
158 197 255
159 197 255
159 197 255
159 197 255
159 198 255
159 198 255
159 198 255
159 198 255
159 198 255
159 198 255
159 198 255
160 198 255
160 198 255
160 198 255
160 198 255
160 198 255
160 198 255
160 198 255
160 198 255
160 198 255
160 198 255
161 199 255
161 199 255
161 199 255
161 199 255
161 199 255
161 199 255
161 199 255
161 199 255
161 199 255
161 199 255
162 199 255
162 199 255
162 199 255
162 199 255
162 199 255
162 199 255
162 199 255
162 200 255
162 200 255
162 200 255
162 200 255
163 200 255
163 200 255
163 200 255
163 200 255
163 200 255
163 200 255
163 200 255
163 200 255
163 200 255
163 200 255
163 200 255
164 200 255
164 200 255
164 200 255
164 200 255
164 201 255
164 201 255
164 200 255
164 200 255
164 200 255
164 200 255
163 200 255
163 200 255
163 200 255
163 200 255
163 200 255
163 200 255
163 200 255
163 200 255
163 200 255
163 200 255
163 200 255
162 200 255
162 200 255
162 200 255
162 200 255
162 199 255
162 199 255
162 199 255
162 199 255
162 199 255
162 199 255
162 199 255
161 199 255
161 199 255
161 199 255
161 199 255
161 199 255
161 199 255
161 199 255
161 199 255
161 199 255
161 199 255
161 199 255
160 198 255
160 198 255
160 198 255
160 198 255
160 198 255
160 198 255
160 198 255
160 198 255
160 198 255
159 198 255
159 198 255
159 198 255
159 198 255
159 198 255
159 198 255
159 197 255
159 197 255
159 197 255
159 197 255
158 197 255
158 197 255
158 197 255
158 197 255
158 197 255
158 197 255
158 197 255
158 197 255
158 197 255
157 197 255
157 197 255
157 197 255
157 196 255
157 196 255
157 196 255
157 196 255
157 196 255
157 196 255
157 196 255
156 196 255
156 196 255
156 196 255
156 196 255
156 196 255
156 196 255
156 196 255
156 196 255
156 196 255
155 195 255
155 195 255
155 195 255
155 195 255
155 195 255
155 195 255
155 195 255
155 195 255
155 195 255
154 195 255
154 195 255
154 195 255
154 195 255
154 195 255
154 195 255
154 194 255
154 194 255
154 194 255
153 194 255
153 194 255
153 194 255
153 194 255
153 194 255
153 194 255
153 194 255
153 194 255
153 194 255
152 194 255
152 194 255
152 194 255
152 194 255
152 193 255
152 193 255
152 193 255
152 193 255
152 193 255
152 193 255
151 193 255
151 193 255
151 193 255
151 193 255
151 193 255
151 193 255
151 193 255
151 193 255
151 193 255
151 193 255
150 192 255
150 192 255
150 192 255
150 192 255
150 192 255
150 192 255
150 192 255
150 192 255
150 192 255
150 192 255
150 192 255
150 192 255
149 192 255
149 192 255
149 192 255
149 192 255
149 192 255
149 192 255
149 192 255
149 192 255
149 192 255
149 191 255
149 191 255
149 191 255
149 191 255
148 191 255
148 191 255
148 191 255
148 191 255
148 191 255
148 191 255
148 191 255
148 191 255
148 191 255
148 191 255
148 191 255
148 191 255
148 191 255
148 191 255
148 191 255
148 191 255
148 191 255
148 191 255
147 191 255
147 191 255
147 191 255
147 191 255
147 191 255
147 191 255
147 191 255
147 191 255
147 191 255
147 190 255
147 190 255
147 190 255
147 190 255
147 190 255
147 190 255
147 190 255
147 190 255
147 190 255
147 190 255
147 190 255
147 190 255
147 190 255
147 190 255
147 190 255
147 190 255
147 190 255
147 190 255
147 190 255
147 190 255
147 190 255
147 190 255
147 190 255
147 190 255
147 190 255
147 190 255
147 190 255
147 190 255
147 190 255
147 190 255
147 190 255
147 191 255
147 191 255
147 191 255
147 191 255
147 191 255
147 191 255
147 191 255
147 191 255
147 191 255
147 191 255
148 191 255
148 191 255
148 191 255
148 191 255
148 191 255
148 191 255
148 191 255
148 191 255
148 191 255
148 191 255
148 191 255
148 191 255
148 191 255
148 191 255
148 191 255
148 191 255
148 191 255
149 191 255
149 191 255
149 191 255
149 191 255
149 192 255
149 192 255
149 192 255
149 192 255
149 192 255
149 192 255
149 192 255
149 192 255
149 192 255
150 192 255
150 192 255
150 192 255
150 192 255
150 192 255
150 192 255
150 192 255
150 192 255
150 192 255
150 192 255
151 193 255
151 193 255
151 193 255
151 193 255
151 193 255
151 193 255
151 193 255
151 193 255
151 193 255
151 193 255
151 193 255
152 193 255
152 193 255
152 193 255
152 193 255
152 193 255
152 193 255
152 194 255
152 194 255
152 194 255
152 194 255
153 194 255
153 194 255
153 194 255
153 194 255
153 194 255
153 194 255
153 194 255
153 194 255
153 194 255
154 194 255
154 194 255
154 194 255
154 195 255
154 195 255
154 195 255
154 195 255
154 195 255
154 195 255
155 195 255
155 195 255
155 195 255
155 195 255
155 195 255
155 195 255
155 195 255
155 195 255
155 195 255
156 196 255
156 196 255
156 196 255
156 196 255
156 196 255
156 196 255
156 196 255
156 196 255
156 196 255
157 196 255
157 196 255
157 196 255
157 196 255
157 196 255
157 196 255
157 197 255
157 197 255
157 197 255
157 197 255
158 197 255
158 197 255
158 197 255
158 197 255
158 197 255
158 197 255
158 197 255
158 197 255
158 197 255
159 197 255
159 197 255
159 197 255
159 198 255
159 198 255
159 198 255
159 198 255
159 198 255
159 198 255
159 198 255
160 198 255
160 198 255
160 198 255
160 198 255
160 198 255
160 198 255
160 198 255
160 198 255
160 198 255
160 198 255
161 199 255
161 199 255
161 199 255
161 199 255
161 199 255
161 199 255
161 199 255
161 199 255
161 199 255
161 199 255
162 199 255
162 199 255
162 199 255
162 199 255
162 199 255
162 199 255
162 199 255
162 200 255
162 200 255
162 200 255
162 200 255
163 200 255
163 200 255
163 200 255
163 200 255
163 200 255
163 200 255
163 200 255
163 200 255
163 200 255
163 200 255
163 200 255
164 200 255
164 200 255
164 200 255
164 200 255
164 201 255
164 201 255
164 201 255
164 201 255
164 201 255
164 201 255
164 201 255
164 200 255
164 200 255
164 200 255
164 200 255
163 200 255
163 200 255
163 200 255
163 200 255
163 200 255
163 200 255
163 200 255
163 200 255
163 200 255
163 200 255
163 200 255
162 200 255
162 200 255
162 200 255
162 199 255
162 199 255
162 199 255
162 199 255
162 199 255
162 199 255
162 199 255
161 199 255
161 199 255
161 199 255
161 199 255
161 199 255
161 199 255
161 199 255
161 199 255
161 199 255
161 199 255
161 199 255
160 198 255
160 198 255
160 198 255
160 198 255
160 198 255
160 198 255
160 198 255
160 198 255
160 198 255
160 198 255
159 198 255
159 198 255
159 198 255
159 198 255
159 198 255
159 198 255
159 197 255
159 197 255
159 197 255
158 197 255
158 197 255
158 197 255
158 197 255
158 197 255
158 197 255
158 197 255
158 197 255
158 197 255
157 197 255
157 197 255
157 197 255
157 197 255
157 196 255
157 196 255
157 196 255
157 196 255
157 196 255
157 196 255
156 196 255
156 196 255
156 196 255
156 196 255
156 196 255
156 196 255
156 196 255
156 196 255
156 196 255
155 195 255
155 195 255
155 195 255
155 195 255
155 195 255
155 195 255
155 195 255
155 195 255
155 195 255
154 195 255
154 195 255
154 195 255
154 195 255
154 195 255
154 195 255
154 195 255
154 194 255
154 194 255
153 194 255
153 194 255
153 194 255
153 194 255
153 194 255
153 194 255
153 194 255
153 194 255
153 194 255
153 194 255
152 194 255
152 194 255
152 194 255
152 193 255
152 193 255
152 193 255
152 193 255
152 193 255
152 193 255
151 193 255
151 193 255
151 193 255
151 193 255
151 193 255
151 193 255
151 193 255
151 193 255
151 193 255
151 193 255
151 193 255
150 192 255
150 192 255
150 192 255
150 192 255
150 192 255
150 192 255
150 192 255
150 192 255
150 192 255
150 192 255
150 192 255
150 192 255
149 192 255
149 192 255
149 192 255
149 192 255
149 192 255
149 192 255
149 192 255
149 192 255
149 191 255
149 191 255
149 191 255
149 191 255
149 191 255
148 191 255
148 191 255
148 191 255
148 191 255
148 191 255
148 191 255
148 191 255
148 191 255
148 191 255
148 191 255
148 191 255
148 191 255
148 191 255
148 191 255
148 191 255
148 191 255
148 191 255
148 191 255
148 191 255
148 191 255
147 191 255
148 191 255
147 191 255
147 191 255
147 191 255
147 191 255
147 191 255
147 191 255
147 191 255
147 191 255
147 191 255
147 191 255
147 191 255
147 191 255
147 191 255
147 191 255
147 191 255
147 190 255
147 191 255
147 191 255
147 191 255
147 190 255
147 191 255
147 191 255
147 191 255
147 191 255
147 191 255
147 191 255
147 191 255
147 191 255
147 191 255
147 191 255
147 191 255
147 191 255
147 191 255
147 191 255
147 191 255
147 191 255
148 191 255
148 191 255
148 191 255
148 191 255
148 191 255
148 191 255
148 191 255
148 191 255
148 191 255
148 191 255
148 191 255
148 191 255
148 191 255
148 191 255
148 191 255
148 191 255
148 191 255
148 191 255
148 191 255
148 191 255
149 191 255
149 191 255
149 191 255
149 191 255
149 191 255
149 192 255
149 192 255
149 192 255
149 192 255
149 192 255
149 192 255
149 192 255
149 192 255
150 192 255
150 192 255
150 192 255
150 192 255
150 192 255
150 192 255
150 192 255
150 192 255
150 192 255
150 192 255
150 192 255
150 192 255
151 193 255
151 193 255
151 193 255
151 193 255
151 193 255
151 193 255
151 193 255
151 193 255
151 193 255
151 193 255
151 193 255
152 193 255
152 193 255
152 193 255
152 193 255
152 193 255
152 193 255
152 194 255
152 194 255
152 194 255
153 194 255
153 194 255
153 194 255
153 194 255
153 194 255
153 194 255
153 194 255
153 194 255
153 194 255
154 194 255
154 194 255
154 194 255
154 194 255
154 195 255
154 195 255
154 195 255
154 195 255
154 195 255
154 195 255
155 195 255
155 195 255
155 195 255
155 195 255
155 195 255
155 195 255
155 195 255
155 195 255
155 195 255
156 196 255
156 196 255
156 196 255
156 196 255
156 196 255
156 196 255
156 196 255
156 196 255
156 196 255
157 196 255
157 196 255
157 196 255
157 196 255
157 196 255
157 196 255
157 197 255
157 197 255
157 197 255
158 197 255
158 197 255
158 197 255
158 197 255
158 197 255
158 197 255
158 197 255
158 197 255
158 197 255
158 197 255
159 197 255
159 197 255
159 197 255
159 198 255
159 198 255
159 198 255
159 198 255
159 198 255
159 198 255
160 198 255
160 198 255
160 198 255
160 198 255
160 198 255
160 198 255
160 198 255
160 198 255
160 198 255
160 198 255
161 199 255
161 199 255
161 199 255
161 199 255
161 199 255
161 199 255
161 199 255
161 199 255
161 199 255
161 199 255
161 199 255
162 199 255
162 199 255
162 199 255
162 199 255
162 199 255
162 199 255
162 199 255
162 200 255
162 200 255
162 200 255
163 200 255
163 200 255
163 200 255
163 200 255
163 200 255
163 200 255
163 200 255
163 200 255
163 200 255
163 200 255
163 200 255
164 200 255
164 200 255
164 200 255
164 200 255
164 201 255
164 201 255
164 201 255
164 201 255
164 201 255
164 201 255
164 201 255
164 201 255
164 201 255
164 201 255
164 201 255
164 201 255
164 201 255
164 200 255
164 200 255
164 200 255
163 200 255
163 200 255
163 200 255
163 200 255
163 200 255
163 200 255
163 200 255
163 200 255
163 200 255
163 200 255
163 200 255
162 200 255
162 200 255
162 200 255
162 200 255
162 199 255
162 199 255
162 199 255
162 199 255
162 199 255
162 199 255
162 199 255
161 199 255
161 199 255
161 199 255
161 199 255
161 199 255
161 199 255
161 199 255
161 199 255
161 199 255
161 199 255
160 198 255
160 198 255
160 198 255
160 198 255
160 198 255
160 198 255
160 198 255
160 198 255
160 198 255
159 198 255
159 198 255
159 198 255
159 198 255
159 198 255
159 198 255
159 198 255
159 197 255
159 197 255
159 197 255
158 197 255
158 197 255
158 197 255
158 197 255
158 197 255
158 197 255
158 197 255
158 197 255
158 197 255
158 197 255
157 197 255
157 197 255
157 197 255
157 196 255
157 196 255
157 196 255
157 196 255
157 196 255
157 196 255
156 196 255
156 196 255
156 196 255
156 196 255
156 196 255
156 196 255
156 196 255
156 196 255
156 196 255
155 195 255
155 195 255
155 195 255
155 195 255
155 195 255
155 195 255
155 195 255
155 195 255
155 195 255
154 195 255
154 195 255
154 195 255
154 195 255
154 195 255
154 195 255
154 194 255
154 194 255
154 194 255
153 194 255
153 194 255
153 194 255
153 194 255
153 194 255
153 194 255
153 194 255
153 194 255
153 194 255
153 194 255
152 194 255
152 194 255
152 194 255
152 193 255
152 193 255
152 193 255
152 193 255
152 193 255
152 193 255
152 193 255
151 193 255
151 193 255
151 193 255
151 193 255
151 193 255
151 193 255
151 193 255
151 193 255
151 193 255
151 193 255
150 192 255
150 192 255
150 192 255
150 192 255
150 192 255
150 192 255
150 192 255
150 192 255
150 192 255
150 192 255
150 192 255
150 192 255
149 192 255
149 192 255
149 192 255
149 192 255
149 192 255
149 192 255
149 192 255
149 192 255
149 192 255
149 191 255
149 191 255
149 191 255
149 191 255
149 191 255
148 191 255
148 191 255
148 191 255
148 191 255
148 191 255
148 191 255
148 191 255
148 191 255
148 191 255
148 191 255
148 191 255
148 191 255
148 191 255
148 191 255
148 191 255
148 191 255
148 191 255
148 191 255
148 191 255
148 191 255
148 191 255
148 191 255
148 191 255
148 191 255
147 191 255
148 191 255
147 191 255
147 191 255
147 191 255
147 191 255
147 191 255
147 191 255
147 191 255
147 191 255
147 191 255
147 191 255
147 191 255
147 191 255
147 191 255
147 191 255
147 191 255
147 191 255
147 191 255
147 191 255
147 191 255
147 191 255
147 191 255
147 191 255
148 191 255
148 191 255
148 191 255
148 191 255
148 191 255
148 191 255
148 191 255
148 191 255
148 191 255
148 191 255
148 191 255
148 191 255
148 191 255
148 191 255
148 191 255
148 191 255
148 191 255
148 191 255
148 191 255
148 191 255
148 191 255
148 191 255
148 191 255
149 191 255
149 191 255
149 191 255
149 191 255
149 191 255
149 192 255
149 192 255
149 192 255
149 192 255
149 192 255
149 192 255
149 192 255
149 192 255
149 192 255
149 192 255
150 192 255
150 192 255
150 192 255
150 192 255
150 192 255
150 192 255
150 192 255
150 192 255
150 192 255
150 192 255
150 192 255
150 192 255
151 193 255
151 193 255
151 193 255
151 193 255
151 193 255
151 193 255
151 193 255
151 193 255
151 193 255
151 193 255
152 193 255
152 193 255
152 193 255
152 193 255
152 193 255
152 193 255
152 193 255
152 194 255
152 194 255
152 194 255
153 194 255
153 194 255
153 194 255
153 194 255
153 194 255
153 194 255
153 194 255
153 194 255
153 194 255
153 194 255
154 194 255
154 194 255
154 194 255
154 195 255
154 195 255
154 195 255
154 195 255
154 195 255
154 195 255
155 195 255
155 195 255
155 195 255
155 195 255
155 195 255
155 195 255
155 195 255
155 195 255
155 195 255
156 196 255
156 196 255
156 196 255
156 196 255
156 196 255
156 196 255
156 196 255
156 196 255
156 196 255
157 196 255
157 196 255
157 196 255
157 196 255
157 196 255
157 196 255
157 197 255
157 197 255
157 197 255
158 197 255
158 197 255
158 197 255
158 197 255
158 197 255
158 197 255
158 197 255
158 197 255
158 197 255
158 197 255
159 197 255
159 197 255
159 197 255
159 198 255
159 198 255
159 198 255
159 198 255
159 198 255
159 198 255
159 198 255
160 198 255
160 198 255
160 198 255
160 198 255
160 198 255
160 198 255
160 198 255
160 198 255
160 198 255
161 199 255
161 199 255
161 199 255
161 199 255
161 199 255
161 199 255
161 199 255
161 199 255
161 199 255
161 199 255
162 199 255
162 199 255
162 199 255
162 199 255
162 199 255
162 199 255
162 199 255
162 199 255
162 200 255
162 200 255
162 200 255
163 200 255
163 200 255
163 200 255
163 200 255
163 200 255
163 200 255
163 200 255
163 200 255
163 200 255
163 200 255
163 200 255
164 200 255
164 200 255
164 200 255
164 200 255
164 201 255
164 201 255
164 201 255
164 201 255
164 201 255
164 201 255
164 201 255
165 201 255
165 201 255
164 201 255
164 201 255
164 201 255
164 201 255
164 201 255
164 201 255
164 201 255
164 201 255
164 200 255
164 200 255
164 200 255
163 200 255
163 200 255
163 200 255
163 200 255
163 200 255
163 200 255
163 200 255
163 200 255
163 200 255
163 200 255
163 200 255
162 200 255
162 200 255
162 200 255
162 200 255
162 199 255
162 199 255
162 199 255
162 199 255
162 199 255
162 199 255
162 199 255
161 199 255
161 199 255
161 199 255
161 199 255
161 199 255
161 199 255
161 199 255
161 199 255
161 199 255
161 199 255
160 198 255
160 198 255
160 198 255
160 198 255
160 198 255
160 198 255
160 198 255
160 198 255
160 198 255
160 198 255
159 198 255
159 198 255
159 198 255
159 198 255
159 198 255
159 198 255
159 197 255
159 197 255
159 197 255
159 197 255
158 197 255
158 197 255
158 197 255
158 197 255
158 197 255
158 197 255
158 197 255
158 197 255
158 197 255
157 197 255
157 197 255
157 197 255
157 196 255
157 196 255
157 196 255
157 196 255
157 196 255
157 196 255
156 196 255
156 196 255
156 196 255
156 196 255
156 196 255
156 196 255
156 196 255
156 196 255
156 196 255
155 195 255
155 195 255
155 195 255
155 195 255
155 195 255
155 195 255
155 195 255
155 195 255
155 195 255
154 195 255
154 195 255
154 195 255
154 195 255
154 195 255
154 195 255
154 195 255
154 194 255
154 194 255
154 194 255
153 194 255
153 194 255
153 194 255
153 194 255
153 194 255
153 194 255
153 194 255
153 194 255
153 194 255
152 194 255
152 194 255
152 194 255
152 193 255
152 193 255
152 193 255
152 193 255
152 193 255
152 193 255
152 193 255
151 193 255
151 193 255
151 193 255
151 193 255
151 193 255
151 193 255
151 193 255
151 193 255
151 193 255
151 193 255
151 193 255
150 192 255
150 192 255
150 192 255
150 192 255
150 192 255
150 192 255
150 192 255
150 192 255
150 192 255
150 192 255
150 192 255
149 192 255
149 192 255
149 192 255
149 192 255
149 192 255
149 192 255
149 192 255
149 192 255
149 192 255
149 192 255
149 191 255
149 191 255
149 191 255
149 191 255
149 191 255
149 191 255
149 191 255
148 191 255
148 191 255
148 191 255
148 191 255
148 191 255
148 191 255
148 191 255
148 191 255
148 191 255
148 191 255
148 191 255
148 191 255
148 191 255
148 191 255
148 191 255
148 191 255
148 191 255
148 191 255
148 191 255
148 191 255
148 191 255
148 191 255
148 191 255
148 191 255
148 191 255
148 191 255
148 191 255
148 191 255
148 191 255
148 191 255
148 191 255
148 191 255
148 191 255
148 191 255
148 191 255
148 191 255
148 191 255
148 191 255
148 191 255
148 191 255
148 191 255
148 191 255
148 191 255
148 191 255
148 191 255
148 191 255
148 191 255
148 191 255
148 191 255
148 191 255
148 191 255
148 191 255
148 191 255
148 191 255
148 191 255
148 191 255
148 191 255
148 191 255
148 191 255
148 191 255
148 191 255
148 191 255
148 191 255
149 191 255
149 191 255
149 191 255
149 191 255
149 191 255
149 191 255
149 192 255
149 192 255
149 192 255
149 192 255
149 192 255
149 192 255
149 192 255
149 192 255
149 192 255
150 192 255
150 192 255
150 192 255
150 192 255
150 192 255
150 192 255
150 192 255
150 192 255
150 192 255
150 192 255
150 192 255
150 192 255
150 192 255
151 193 255
151 193 255
151 193 255
151 193 255
151 193 255
151 193 255
151 193 255
151 193 255
151 193 255
151 193 255
152 193 255
152 193 255
152 193 255
152 193 255
152 193 255
152 193 255
152 193 255
152 194 255
152 194 255
152 194 255
153 194 255
153 194 255
153 194 255
153 194 255
153 194 255
153 194 255
153 194 255
153 194 255
153 194 255
154 194 255
154 194 255
154 194 255
154 195 255
154 195 255
154 195 255
154 195 255
154 195 255
154 195 255
154 195 255
155 195 255
155 195 255
155 195 255
155 195 255
155 195 255
155 195 255
155 195 255
155 195 255
156 196 255
156 196 255
156 196 255
156 196 255
156 196 255
156 196 255
156 196 255
156 196 255
156 196 255
156 196 255
157 196 255
157 196 255
157 196 255
157 196 255
157 196 255
157 196 255
157 196 255
157 197 255
157 197 255
158 197 255
158 197 255
158 197 255
158 197 255
158 197 255
158 197 255
158 197 255
158 197 255
158 197 255
159 197 255
159 197 255
159 197 255
159 197 255
159 198 255
159 198 255
159 198 255
159 198 255
159 198 255
159 198 255
160 198 255
160 198 255
160 198 255
160 198 255
160 198 255
160 198 255
160 198 255
160 198 255
160 198 255
160 198 255
161 199 255
161 199 255
161 199 255
161 199 255
161 199 255
161 199 255
161 199 255
161 199 255
161 199 255
161 199 255
162 199 255
162 199 255
162 199 255
162 199 255
162 199 255
162 199 255
162 199 255
162 200 255
162 200 255
162 200 255
162 200 255
163 200 255
163 200 255
163 200 255
163 200 255
163 200 255
163 200 255
163 200 255
163 200 255
163 200 255
163 200 255
163 200 255
164 200 255
164 200 255
164 200 255
164 201 255
164 201 255
164 201 255
164 201 255
164 201 255
164 201 255
164 201 255
164 201 255
165 201 255
165 201 255
165 201 255
165 201 255
165 201 255
165 201 255
164 201 255
164 201 255
164 201 255
164 201 255
164 201 255
164 201 255
164 201 255
164 201 255
164 200 255
164 200 255
164 200 255
164 200 255
163 200 255
163 200 255
163 200 255
163 200 255
163 200 255
163 200 255
163 200 255
163 200 255
163 200 255
163 200 255
163 200 255
162 200 255
162 200 255
162 200 255
162 199 255
162 199 255
162 199 255
162 199 255
162 199 255
162 199 255
162 199 255
162 199 255
161 199 255
161 199 255
161 199 255
161 199 255
161 199 255
161 199 255
161 199 255
161 199 255
161 199 255
160 198 255
160 198 255
160 198 255
160 198 255
160 198 255
160 198 255
160 198 255
160 198 255
160 198 255
160 198 255
159 198 255
159 198 255
159 198 255
159 198 255
159 198 255
159 198 255
159 197 255
159 197 255
159 197 255
159 197 255
158 197 255
158 197 255
158 197 255
158 197 255
158 197 255
158 197 255
158 197 255
158 197 255
158 197 255
157 197 255
157 197 255
157 197 255
157 196 255
157 196 255
157 196 255
157 196 255
157 196 255
157 196 255
156 196 255
156 196 255
156 196 255
156 196 255
156 196 255
156 196 255
156 196 255
156 196 255
156 196 255
155 195 255
155 195 255
155 195 255
155 195 255
155 195 255
155 195 255
155 195 255
155 195 255
155 195 255
154 195 255
154 195 255
154 195 255
154 195 255
154 195 255
154 195 255
154 195 255
154 194 255
154 194 255
154 194 255
153 194 255
153 194 255
153 194 255
153 194 255
153 194 255
153 194 255
153 194 255
153 194 255
153 194 255
153 194 255
152 194 255
152 194 255
152 194 255
152 193 255
152 193 255
152 193 255
152 193 255
152 193 255
152 193 255
152 193 255
151 193 255
151 193 255
151 193 255
151 193 255
151 193 255
151 193 255
151 193 255
151 193 255
151 193 255
151 193 255
151 193 255
150 192 255
150 192 255
150 192 255
150 192 255
150 192 255
150 192 255
150 192 255
150 192 255
150 192 255
150 192 255
150 192 255
150 192 255
149 192 255
149 192 255
149 192 255
149 192 255
149 192 255
149 192 255
149 192 255
149 192 255
149 192 255
149 192 255
149 191 255
149 191 255
149 191 255
149 191 255
149 191 255
149 191 255
148 191 255
148 191 255
148 191 255
148 191 255
148 191 255
148 191 255
148 191 255
148 191 255
148 191 255
148 191 255
148 191 255
148 191 255
148 191 255
148 191 255
148 191 255
148 191 255
148 191 255
148 191 255
148 191 255
148 191 255
148 191 255
148 191 255
148 191 255
148 191 255
148 191 255
148 191 255
148 191 255
148 191 255
148 191 255
148 191 255
148 191 255
148 191 255
148 191 255
148 191 255
148 191 255
148 191 255
148 191 255
148 191 255
148 191 255
148 191 255
148 191 255
148 191 255
148 191 255
148 191 255
148 191 255
148 191 255
148 191 255
148 191 255
148 191 255
148 191 255
148 191 255
148 191 255
148 191 255
148 191 255
148 191 255
148 191 255
149 191 255
149 191 255
149 191 255
149 191 255
149 191 255
149 191 255
149 192 255
149 192 255
149 192 255
149 192 255
149 192 255
149 192 255
149 192 255
149 192 255
149 192 255
149 192 255
150 192 255
150 192 255
150 192 255
150 192 255
150 192 255
150 192 255
150 192 255
150 192 255
150 192 255
150 192 255
150 192 255
150 192 255
150 192 255
151 193 255
151 193 255
151 193 255
151 193 255
151 193 255
151 193 255
151 193 255
151 193 255
151 193 255
151 193 255
152 193 255
152 193 255
152 193 255
152 193 255
152 193 255
152 193 255
152 193 255
152 194 255
152 194 255
152 194 255
153 194 255
153 194 255
153 194 255
153 194 255
153 194 255
153 194 255
153 194 255
153 194 255
153 194 255
153 194 255
154 194 255
154 194 255
154 194 255
154 195 255
154 195 255
154 195 255
154 195 255
154 195 255
154 195 255
155 195 255
155 195 255
155 195 255
155 195 255
155 195 255
155 195 255
155 195 255
155 195 255
155 195 255
156 196 255
156 196 255
156 196 255
156 196 255
156 196 255
156 196 255
156 196 255
156 196 255
156 196 255
156 196 255
157 196 255
157 196 255
157 196 255
157 196 255
157 196 255
157 196 255
157 197 255
157 197 255
157 197 255
158 197 255
158 197 255
158 197 255
158 197 255
158 197 255
158 197 255
158 197 255
158 197 255
158 197 255
158 197 255
159 197 255
159 197 255
159 198 255
159 198 255
159 198 255
159 198 255
159 198 255
159 198 255
159 198 255
160 198 255
160 198 255
160 198 255
160 198 255
160 198 255
160 198 255
160 198 255
160 198 255
160 198 255
160 198 255
161 199 255
161 199 255
161 199 255
161 199 255
161 199 255
161 199 255
161 199 255
161 199 255
161 199 255
161 199 255
162 199 255
162 199 255
162 199 255
162 199 255
162 199 255
162 199 255
162 199 255
162 200 255
162 200 255
162 200 255
163 200 255
163 200 255
163 200 255
163 200 255
163 200 255
163 200 255
163 200 255
163 200 255
163 200 255
163 200 255
163 200 255
164 200 255
164 200 255
164 200 255
164 200 255
164 201 255
164 201 255
164 201 255
164 201 255
164 201 255
164 201 255
164 201 255
165 201 255
165 201 255
165 201 255
165 201 255
165 201 255
165 201 255
165 201 255
165 201 255
165 201 255
165 201 255
165 201 255
165 201 255
164 201 255
164 201 255
164 201 255
164 201 255
164 201 255
164 201 255
164 201 255
164 201 255
164 200 255
164 200 255
164 200 255
163 200 255
163 200 255
163 200 255
163 200 255
163 200 255
163 200 255
163 200 255
163 200 255
163 200 255
163 200 255
163 200 255
162 200 255
162 200 255
162 200 255
162 200 255
162 199 255
162 199 255
162 199 255
162 199 255
162 199 255
162 199 255
162 199 255
161 199 255
161 199 255
161 199 255
161 199 255
161 199 255
161 199 255
161 199 255
161 199 255
161 199 255
160 198 255
160 198 255
160 198 255
160 198 255
160 198 255
160 198 255
160 198 255
160 198 255
160 198 255
160 198 255
160 198 255
159 198 255
159 198 255
159 198 255
159 198 255
159 198 255
159 197 255
159 197 255
159 197 255
159 197 255
158 197 255
158 197 255
158 197 255
158 197 255
158 197 255
158 197 255
158 197 255
158 197 255
158 197 255
157 197 255
157 197 255
157 197 255
157 196 255
157 196 255
157 196 255
157 196 255
157 196 255
157 196 255
156 196 255
156 196 255
156 196 255
156 196 255
156 196 255
156 196 255
156 196 255
156 196 255
156 196 255
155 195 255
155 195 255
155 195 255
155 195 255
155 195 255
155 195 255
155 195 255
155 195 255
155 195 255
154 195 255
154 195 255
154 195 255
154 195 255
154 195 255
154 195 255
154 195 255
154 194 255
154 194 255
154 194 255
153 194 255
153 194 255
153 194 255
153 194 255
153 194 255
153 194 255
153 194 255
153 194 255
153 194 255
153 194 255
152 194 255
152 194 255
152 194 255
152 193 255
152 193 255
152 193 255
152 193 255
152 193 255
152 193 255
152 193 255
151 193 255
151 193 255
151 193 255
151 193 255
151 193 255
151 193 255
151 193 255
151 193 255
151 193 255
151 193 255
151 193 255
151 193 255
150 192 255
150 192 255
150 192 255
150 192 255
150 192 255
150 192 255
150 192 255
150 192 255
150 192 255
150 192 255
150 192 255
150 192 255
149 192 255
149 192 255
149 192 255
149 192 255
149 192 255
149 192 255
149 192 255
149 192 255
149 192 255
149 192 255
149 192 255
149 192 255
149 191 255
149 191 255
149 191 255
149 191 255
149 191 255
149 191 255
149 191 255
148 191 255
148 191 255
148 191 255
148 191 255
148 191 255
148 191 255
148 191 255
148 191 255
148 191 255
148 191 255
148 191 255
148 191 255
148 191 255
148 191 255
148 191 255
148 191 255
148 191 255
148 191 255
148 191 255
148 191 255
148 191 255
148 191 255
148 191 255
148 191 255
148 191 255
148 191 255
148 191 255
148 191 255
148 191 255
148 191 255
148 191 255
148 191 255
148 191 255
148 191 255
148 191 255
148 191 255
148 191 255
148 191 255
148 191 255
148 191 255
148 191 255
148 191 255
148 191 255
149 191 255
149 191 255
149 191 255
149 191 255
149 191 255
149 191 255
149 191 255
149 191 255
149 192 255
149 192 255
149 192 255
149 192 255
149 192 255
149 192 255
149 192 255
149 192 255
149 192 255
149 192 255
149 192 255
150 192 255
150 192 255
150 192 255
150 192 255
150 192 255
150 192 255
150 192 255
150 192 255
150 192 255
150 192 255
150 192 255
150 192 255
150 192 255
151 193 255
151 193 255
151 193 255
151 193 255
151 193 255
151 193 255
151 193 255
151 193 255
151 193 255
151 193 255
151 193 255
151 193 255
152 193 255
152 193 255
152 193 255
152 193 255
152 193 255
152 193 255
152 193 255
152 194 255
152 194 255
152 194 255
153 194 255
153 194 255
153 194 255
153 194 255
153 194 255
153 194 255
153 194 255
153 194 255
153 194 255
153 194 255
154 194 255
154 194 255
154 194 255
154 195 255
154 195 255
154 195 255
154 195 255
154 195 255
154 195 255
154 195 255
155 195 255
155 195 255
155 195 255
155 195 255
155 195 255
155 195 255
155 195 255
155 195 255
155 195 255
156 196 255
156 196 255
156 196 255
156 196 255
156 196 255
156 196 255
156 196 255
156 196 255
156 196 255
157 196 255
157 196 255
157 196 255
157 196 255
157 196 255
157 196 255
157 197 255
157 197 255
157 197 255
158 197 255
158 197 255
158 197 255
158 197 255
158 197 255
158 197 255
158 197 255
158 197 255
158 197 255
159 197 255
159 197 255
159 197 255
159 198 255
159 198 255
159 198 255
159 198 255
159 198 255
159 198 255
159 198 255
160 198 255
160 198 255
160 198 255
160 198 255
160 198 255
160 198 255
160 198 255
160 198 255
160 198 255
161 199 255
161 199 255
161 199 255
161 199 255
161 199 255
161 199 255
161 199 255
161 199 255
161 199 255
161 199 255
161 199 255
162 199 255
162 199 255
162 199 255
162 199 255
162 199 255
162 199 255
162 199 255
162 200 255
162 200 255
162 200 255
163 200 255
163 200 255
163 200 255
163 200 255
163 200 255
163 200 255
163 200 255
163 200 255
163 200 255
163 200 255
163 200 255
164 200 255
164 200 255
164 200 255
164 201 255
164 201 255
164 201 255
164 201 255
164 201 255
164 201 255
164 201 255
164 201 255
165 201 255
165 201 255
165 201 255
165 201 255
165 201 255
165 201 255
165 201 255
165 201 255
165 201 255
165 201 255
165 201 255
165 201 255
165 201 255
165 201 255
165 201 255
165 201 255
164 201 255
164 201 255
164 201 255
164 201 255
164 201 255
164 201 255
164 201 255
164 201 255
164 200 255
164 200 255
164 200 255
164 200 255
163 200 255
163 200 255
163 200 255
163 200 255
163 200 255
163 200 255
163 200 255
163 200 255
163 200 255
163 200 255
162 200 255
162 200 255
162 200 255
162 200 255
162 199 255
162 199 255
162 199 255
162 199 255
162 199 255
162 199 255
162 199 255
161 199 255
161 199 255
161 199 255
161 199 255
161 199 255
161 199 255
161 199 255
161 199 255
161 199 255
161 199 255
160 198 255
160 198 255
160 198 255
160 198 255
160 198 255
160 198 255
160 198 255
160 198 255
160 198 255
159 198 255
159 198 255
159 198 255
159 198 255
159 198 255
159 198 255
159 198 255
159 197 255
159 197 255
159 197 255
158 197 255
158 197 255
158 197 255
158 197 255
158 197 255
158 197 255
158 197 255
158 197 255
158 197 255
157 197 255
157 197 255
157 197 255
157 196 255
157 196 255
157 196 255
157 196 255
157 196 255
157 196 255
157 196 255
156 196 255
156 196 255
156 196 255
156 196 255
156 196 255
156 196 255
156 196 255
156 196 255
156 196 255
155 195 255
155 195 255
155 195 255
155 195 255
155 195 255
155 195 255
155 195 255
155 195 255
155 195 255
154 195 255
154 195 255
154 195 255
154 195 255
154 195 255
154 195 255
154 194 255
154 194 255
154 194 255
153 194 255
153 194 255
153 194 255
153 194 255
153 194 255
153 194 255
153 194 255
153 194 255
153 194 255
153 194 255
152 194 255
152 194 255
152 194 255
152 193 255
152 193 255
152 193 255
152 193 255
152 193 255
152 193 255
152 193 255
151 193 255
151 193 255
151 193 255
151 193 255
151 193 255
151 193 255
151 193 255
151 193 255
151 193 255
151 193 255
151 193 255
151 193 255
150 192 255
150 192 255
150 192 255
150 192 255
150 192 255
150 192 255
150 192 255
150 192 255
150 192 255
150 192 255
150 192 255
150 192 255
150 192 255
150 192 255
149 192 255
149 192 255
149 192 255
149 192 255
149 192 255
149 192 255
149 192 255
149 192 255
149 192 255
149 192 255
149 192 255
149 192 255
149 191 255
149 191 255
149 191 255
149 191 255
149 191 255
149 191 255
149 191 255
149 191 255
149 191 255
149 191 255
149 191 255
148 191 255
148 191 255
148 191 255
148 191 255
148 191 255
148 191 255
148 191 255
148 191 255
148 191 255
148 191 255
148 191 255
148 191 255
148 191 255
148 191 255
148 191 255
148 191 255
148 191 255
148 191 255
148 191 255
148 191 255
148 191 255
148 191 255
148 191 255
148 191 255
148 191 255
148 191 255
148 191 255
148 191 255
148 191 255
149 191 255
149 191 255
149 191 255
149 191 255
149 191 255
149 191 255
149 191 255
149 191 255
149 191 255
149 192 255
149 192 255
149 192 255
149 192 255
149 192 255
149 192 255
149 192 255
149 192 255
149 192 255
149 192 255
149 192 255
149 192 255
149 192 255
150 192 255
150 192 255
150 192 255
150 192 255
150 192 255
150 192 255
150 192 255
150 192 255
150 192 255
150 192 255
150 192 255
150 192 255
150 192 255
151 193 255
151 193 255
151 193 255
151 193 255
151 193 255
151 193 255
151 193 255
151 193 255
151 193 255
151 193 255
151 193 255
151 193 255
152 193 255
152 193 255
152 193 255
152 193 255
152 193 255
152 193 255
152 193 255
152 194 255
152 194 255
152 194 255
152 194 255
153 194 255
153 194 255
153 194 255
153 194 255
153 194 255
153 194 255
153 194 255
153 194 255
153 194 255
154 194 255
154 194 255
154 194 255
154 194 255
154 195 255
154 195 255
154 195 255
154 195 255
154 195 255
154 195 255
155 195 255
155 195 255
155 195 255
155 195 255
155 195 255
155 195 255
155 195 255
155 195 255
155 195 255
156 196 255
156 196 255
156 196 255
156 196 255
156 196 255
156 196 255
156 196 255
156 196 255
156 196 255
156 196 255
157 196 255
157 196 255
157 196 255
157 196 255
157 196 255
157 196 255
157 197 255
157 197 255
157 197 255
158 197 255
158 197 255
158 197 255
158 197 255
158 197 255
158 197 255
158 197 255
158 197 255
158 197 255
159 197 255
159 197 255
159 197 255
159 198 255
159 198 255
159 198 255
159 198 255
159 198 255
159 198 255
160 198 255
160 198 255
160 198 255
160 198 255
160 198 255
160 198 255
160 198 255
160 198 255
160 198 255
160 198 255
161 199 255
161 199 255
161 199 255
161 199 255
161 199 255
161 199 255
161 199 255
161 199 255
161 199 255
161 199 255
162 199 255
162 199 255
162 199 255
162 199 255
162 199 255
162 199 255
162 199 255
162 200 255
162 200 255
162 200 255
162 200 255
163 200 255
163 200 255
163 200 255
163 200 255
163 200 255
163 200 255
163 200 255
163 200 255
163 200 255
163 200 255
164 200 255
164 200 255
164 200 255
164 200 255
164 201 255
164 201 255
164 201 255
164 201 255
164 201 255
164 201 255
164 201 255
164 201 255
165 201 255
165 201 255
165 201 255
165 201 255
165 201 255
165 201 255
165 201 255
165 201 255
165 201 255
165 201 255
165 201 255
165 201 255
165 201 255
165 201 255
165 201 255
165 201 255
165 201 255
165 201 255
165 201 255
165 201 255
165 201 255
164 201 255
164 201 255
164 201 255
164 201 255
164 201 255
164 201 255
164 201 255
164 201 255
164 200 255
164 200 255
164 200 255
163 200 255
163 200 255
163 200 255
163 200 255
163 200 255
163 200 255
163 200 255
163 200 255
163 200 255
163 200 255
163 200 255
162 200 255
162 200 255
162 200 255
162 199 255
162 199 255
162 199 255
162 199 255
162 199 255
162 199 255
162 199 255
161 199 255
161 199 255
161 199 255
161 199 255
161 199 255
161 199 255
161 199 255
161 199 255
161 199 255
161 199 255
160 198 255
160 198 255
160 198 255
160 198 255
160 198 255
160 198 255
160 198 255
160 198 255
160 198 255
160 198 255
159 198 255
159 198 255
159 198 255
159 198 255
159 198 255
159 198 255
159 197 255
159 197 255
159 197 255
158 197 255
158 197 255
158 197 255
158 197 255
158 197 255
158 197 255
158 197 255
158 197 255
158 197 255
157 197 255
157 197 255
157 197 255
157 197 255
157 196 255
157 196 255
157 196 255
157 196 255
157 196 255
157 196 255
156 196 255
156 196 255
156 196 255
156 196 255
156 196 255
156 196 255
156 196 255
156 196 255
156 196 255
155 195 255
155 195 255
155 195 255
155 195 255
155 195 255
155 195 255
155 195 255
155 195 255
155 195 255
154 195 255
154 195 255
154 195 255
154 195 255
154 195 255
154 195 255
154 195 255
154 194 255
154 194 255
154 194 255
153 194 255
153 194 255
153 194 255
153 194 255
153 194 255
153 194 255
153 194 255
153 194 255
153 194 255
152 194 255
152 194 255
152 194 255
152 194 255
152 193 255
152 193 255
152 193 255
152 193 255
152 193 255
152 193 255
152 193 255
151 193 255
151 193 255
151 193 255
151 193 255
151 193 255
151 193 255
151 193 255
151 193 255
151 193 255
151 193 255
151 193 255
151 193 255
150 192 255
150 192 255
150 192 255
150 192 255
150 192 255
150 192 255
150 192 255
150 192 255
150 192 255
150 192 255
150 192 255
150 192 255
150 192 255
150 192 255
150 192 255
149 192 255
149 192 255
149 192 255
149 192 255
149 192 255
149 192 255
149 192 255
149 192 255
149 192 255
149 192 255
149 192 255
149 192 255
149 192 255
149 192 255
149 192 255
149 191 255
149 191 255
149 191 255
149 191 255
149 191 255
149 191 255
149 191 255
149 191 255
149 191 255
149 191 255
149 191 255
149 191 255
148 191 255
149 191 255
149 191 255
149 191 255
148 191 255
149 191 255
148 191 255
148 191 255
149 191 255
149 191 255
149 191 255
149 191 255
149 191 255
149 191 255
149 191 255
149 191 255
149 191 255
149 191 255
149 191 255
149 191 255
149 191 255
149 191 255
149 191 255
149 192 255
149 192 255
149 192 255
149 192 255
149 192 255
149 192 255
149 192 255
149 192 255
149 192 255
149 192 255
149 192 255
149 192 255
149 192 255
149 192 255
149 192 255
149 192 255
150 192 255
150 192 255
150 192 255
150 192 255
150 192 255
150 192 255
150 192 255
150 192 255
150 192 255
150 192 255
150 192 255
150 192 255
150 192 255
150 192 255
150 192 255
151 193 255
151 193 255
151 193 255
151 193 255
151 193 255
151 193 255
151 193 255
151 193 255
151 193 255
151 193 255
151 193 255
151 193 255
152 193 255
152 193 255
152 193 255
152 193 255
152 193 255
152 193 255
152 193 255
152 194 255
152 194 255
152 194 255
153 194 255
153 194 255
153 194 255
153 194 255
153 194 255
153 194 255
153 194 255
153 194 255
153 194 255
153 194 255
153 194 255
154 194 255
154 194 255
154 195 255
154 195 255
154 195 255
154 195 255
154 195 255
154 195 255
154 195 255
155 195 255
155 195 255
155 195 255
155 195 255
155 195 255
155 195 255
155 195 255
155 195 255
155 195 255
156 196 255
156 196 255
156 196 255
156 196 255
156 196 255
156 196 255
156 196 255
156 196 255
156 196 255
157 196 255
157 196 255
157 196 255
157 196 255
157 196 255
157 196 255
157 197 255
157 197 255
157 197 255
158 197 255
158 197 255
158 197 255
158 197 255
158 197 255
158 197 255
158 197 255
158 197 255
158 197 255
158 197 255
159 197 255
159 197 255
159 197 255
159 198 255
159 198 255
159 198 255
159 198 255
159 198 255
159 198 255
160 198 255
160 198 255
160 198 255
160 198 255
160 198 255
160 198 255
160 198 255
160 198 255
160 198 255
160 198 255
161 199 255
161 199 255
161 199 255
161 199 255
161 199 255
161 199 255
161 199 255
161 199 255
161 199 255
161 199 255
162 199 255
162 199 255
162 199 255
162 199 255
162 199 255
162 199 255
162 200 255
162 200 255
162 200 255
162 200 255
162 200 255
163 200 255
163 200 255
163 200 255
163 200 255
163 200 255
163 200 255
163 200 255
163 200 255
163 200 255
163 200 255
164 200 255
164 200 255
164 200 255
164 201 255
164 201 255
164 201 255
164 201 255
164 201 255
164 201 255
164 201 255
164 201 255
165 201 255
165 201 255
165 201 255
165 201 255
165 201 255
165 201 255
165 201 255
165 201 255
165 201 255
165 201 255
165 201 255
165 201 255
166 202 255
166 202 255
166 202 255
165 201 255
165 201 255
165 201 255
165 201 255
165 201 255
165 201 255
165 201 255
165 201 255
165 201 255
165 201 255
165 201 255
164 201 255
164 201 255
164 201 255
164 201 255
164 201 255
164 201 255
164 201 255
164 201 255
164 200 255
164 200 255
164 200 255
164 200 255
163 200 255
163 200 255
163 200 255
163 200 255
163 200 255
163 200 255
163 200 255
163 200 255
163 200 255
163 200 255
162 200 255
162 200 255
162 200 255
162 199 255
162 199 255
162 199 255
162 199 255
162 199 255
162 199 255
162 199 255
161 199 255
161 199 255
161 199 255
161 199 255
161 199 255
161 199 255
161 199 255
161 199 255
161 199 255
161 199 255
161 199 255
160 198 255
160 198 255
160 198 255
160 198 255
160 198 255
160 198 255
160 198 255
160 198 255
160 198 255
159 198 255
159 198 255
159 198 255
159 198 255
159 198 255
159 198 255
159 197 255
159 197 255
159 197 255
159 197 255
158 197 255
158 197 255
158 197 255
158 197 255
158 197 255
158 197 255
158 197 255
158 197 255
158 197 255
157 197 255
157 197 255
157 196 255
157 196 255
157 196 255
157 196 255
157 196 255
157 196 255
157 196 255
156 196 255
156 196 255
156 196 255
156 196 255
156 196 255
156 196 255
156 196 255
156 196 255
156 196 255
156 196 255
155 195 255
155 195 255
155 195 255
155 195 255
155 195 255
155 195 255
155 195 255
155 195 255
154 195 255
154 195 255
154 195 255
154 195 255
154 195 255
154 195 255
154 195 255
154 194 255
154 194 255
154 194 255
153 194 255
153 194 255
153 194 255
153 194 255
153 194 255
153 194 255
153 194 255
153 194 255
153 194 255
153 194 255
152 194 255
152 194 255
152 194 255
152 194 255
152 193 255
152 193 255
152 193 255
152 193 255
152 193 255
152 193 255
151 193 255
151 193 255
151 193 255
151 193 255
151 193 255
151 193 255
151 193 255
151 193 255
151 193 255
151 193 255
151 193 255
151 193 255
151 193 255
150 192 255
150 192 255
150 192 255
150 192 255
150 192 255
150 192 255
150 192 255
150 192 255
150 192 255
150 192 255
150 192 255
150 192 255
150 192 255
150 192 255
150 192 255
150 192 255
149 192 255
149 192 255
149 192 255
149 192 255
149 192 255
149 192 255
149 192 255
149 192 255
149 192 255
149 192 255
149 192 255
149 192 255
149 192 255
149 192 255
149 192 255
149 192 255
149 192 255
149 192 255
149 192 255
149 192 255
149 191 255
149 191 255
149 191 255
149 191 255
149 191 255
149 191 255
149 191 255
149 191 255
149 191 255
149 191 255
149 191 255
149 191 255
149 191 255
149 191 255
149 191 255
149 191 255
149 191 255
149 191 255
149 192 255
149 192 255
149 192 255
149 192 255
149 192 255
149 192 255
149 192 255
149 192 255
149 192 255
149 192 255
149 192 255
149 192 255
149 192 255
149 192 255
149 192 255
149 192 255
149 192 255
149 192 255
149 192 255
150 192 255
150 192 255
150 192 255
150 192 255
150 192 255
150 192 255
150 192 255
150 192 255
150 192 255
150 192 255
150 192 255
150 192 255
150 192 255
150 192 255
150 192 255
150 192 255
150 192 255
151 193 255
151 193 255
151 193 255
151 193 255
151 193 255
151 193 255
151 193 255
151 193 255
151 193 255
151 193 255
151 193 255
151 193 255
152 193 255
152 193 255
152 193 255
152 193 255
152 193 255
152 193 255
152 193 255
152 193 255
152 194 255
152 194 255
152 194 255
153 194 255
153 194 255
153 194 255
153 194 255
153 194 255
153 194 255
153 194 255
153 194 255
153 194 255
153 194 255
154 194 255
154 194 255
154 194 255
154 195 255
154 195 255
154 195 255
154 195 255
154 195 255
154 195 255
155 195 255
155 195 255
155 195 255
155 195 255
155 195 255
155 195 255
155 195 255
155 195 255
155 195 255
155 195 255
156 196 255
156 196 255
156 196 255
156 196 255
156 196 255
156 196 255
156 196 255
156 196 255
156 196 255
157 196 255
157 196 255
157 196 255
157 196 255
157 196 255
157 196 255
157 197 255
157 197 255
157 197 255
158 197 255
158 197 255
158 197 255
158 197 255
158 197 255
158 197 255
158 197 255
158 197 255
158 197 255
158 197 255
159 197 255
159 197 255
159 197 255
159 198 255
159 198 255
159 198 255
159 198 255
159 198 255
159 198 255
160 198 255
160 198 255
160 198 255
160 198 255
160 198 255
160 198 255
160 198 255
160 198 255
160 198 255
161 199 255
161 199 255
161 199 255
161 199 255
161 199 255
161 199 255
161 199 255
161 199 255
161 199 255
161 199 255
161 199 255
162 199 255
162 199 255
162 199 255
162 199 255
162 199 255
162 199 255
162 199 255
162 200 255
162 200 255
163 200 255
163 200 255
163 200 255
163 200 255
163 200 255
163 200 255
163 200 255
163 200 255
163 200 255
163 200 255
163 200 255
164 200 255
164 200 255
164 200 255
164 200 255
164 201 255
164 201 255
164 201 255
164 201 255
164 201 255
164 201 255
164 201 255
164 201 255
165 201 255
165 201 255
165 201 255
165 201 255
165 201 255
165 201 255
165 201 255
165 201 255
165 201 255
165 201 255
165 201 255
166 202 255
166 202 255
166 202 255
166 202 255
166 202 255
166 202 255
166 202 255
166 202 255
165 201 255
165 201 255
165 201 255
165 201 255
165 201 255
165 201 255
165 201 255
165 201 255
165 201 255
165 201 255
165 201 255
165 201 255
164 201 255
164 201 255
164 201 255
164 201 255
164 201 255
164 201 255
164 201 255
164 200 255
164 200 255
164 200 255
164 200 255
163 200 255
163 200 255
163 200 255
163 200 255
163 200 255
163 200 255
163 200 255
163 200 255
163 200 255
163 200 255
162 200 255
162 200 255
162 200 255
162 200 255
162 199 255
162 199 255
162 199 255
162 199 255
162 199 255
162 199 255
162 199 255
161 199 255
161 199 255
161 199 255
161 199 255
161 199 255
161 199 255
161 199 255
161 199 255
161 199 255
161 199 255
160 198 255
160 198 255
160 198 255
160 198 255
160 198 255
160 198 255
160 198 255
160 198 255
160 198 255
159 198 255
159 198 255
159 198 255
159 198 255
159 198 255
159 198 255
159 197 255
159 197 255
159 197 255
159 197 255
158 197 255
158 197 255
158 197 255
158 197 255
158 197 255
158 197 255
158 197 255
158 197 255
158 197 255
157 197 255
157 197 255
157 197 255
157 196 255
157 196 255
157 196 255
157 196 255
157 196 255
157 196 255
156 196 255
156 196 255
156 196 255
156 196 255
156 196 255
156 196 255
156 196 255
156 196 255
156 196 255
155 195 255
155 195 255
155 195 255
155 195 255
155 195 255
155 195 255
155 195 255
155 195 255
155 195 255
155 195 255
154 195 255
154 195 255
154 195 255
154 195 255
154 195 255
154 195 255
154 194 255
154 194 255
154 194 255
153 194 255
153 194 255
153 194 255
153 194 255
153 194 255
153 194 255
153 194 255
153 194 255
153 194 255
153 194 255
153 194 255
152 194 255
152 194 255
152 194 255
152 193 255
152 193 255
152 193 255
152 193 255
152 193 255
152 193 255
152 193 255
152 193 255
151 193 255
151 193 255
151 193 255
151 193 255
151 193 255
151 193 255
151 193 255
151 193 255
151 193 255
151 193 255
151 193 255
151 193 255
150 192 255
150 192 255
150 192 255
150 192 255
150 192 255
150 192 255
150 192 255
150 192 255
150 192 255
150 192 255
150 192 255
150 192 255
150 192 255
150 192 255
150 192 255
150 192 255
150 192 255
149 192 255
150 192 255
149 192 255
149 192 255
149 192 255
149 192 255
149 192 255
149 192 255
149 192 255
149 192 255
149 192 255
149 192 255
149 192 255
149 192 255
149 192 255
149 192 255
149 192 255
149 192 255
149 192 255
149 192 255
149 192 255
149 192 255
149 192 255
149 192 255
149 192 255
149 192 255
149 192 255
149 192 255
149 192 255
149 192 255
149 192 255
149 192 255
149 192 255
149 192 255
149 192 255
149 192 255
149 192 255
149 192 255
149 192 255
149 192 255
149 192 255
149 192 255
149 192 255
149 192 255
149 192 255
149 192 255
149 192 255
149 192 255
149 192 255
150 192 255
150 192 255
150 192 255
150 192 255
150 192 255
150 192 255
150 192 255
150 192 255
150 192 255
150 192 255
150 192 255
150 192 255
150 192 255
150 192 255
150 192 255
150 192 255
150 192 255
151 193 255
151 193 255
151 193 255
151 193 255
151 193 255
151 193 255
151 193 255
151 193 255
151 193 255
151 193 255
151 193 255
151 193 255
151 193 255
152 193 255
152 193 255
152 193 255
152 193 255
152 193 255
152 193 255
152 193 255
152 193 255
152 194 255
152 194 255
152 194 255
153 194 255
153 194 255
153 194 255
153 194 255
153 194 255
153 194 255
153 194 255
153 194 255
153 194 255
153 194 255
153 194 255
154 194 255
154 194 255
154 194 255
154 195 255
154 195 255
154 195 255
154 195 255
154 195 255
154 195 255
155 195 255
155 195 255
155 195 255
155 195 255
155 195 255
155 195 255
155 195 255
155 195 255
155 195 255
155 195 255
156 196 255
156 196 255
156 196 255
156 196 255
156 196 255
156 196 255
156 196 255
156 196 255
156 196 255
157 196 255
157 196 255
157 196 255
157 196 255
157 196 255
157 196 255
157 197 255
157 197 255
157 197 255
158 197 255
158 197 255
158 197 255
158 197 255
158 197 255
158 197 255
158 197 255
158 197 255
158 197 255
159 197 255
159 197 255
159 197 255
159 197 255
159 198 255
159 198 255
159 198 255
159 198 255
159 198 255
159 198 255
160 198 255
160 198 255
160 198 255
160 198 255
160 198 255
160 198 255
160 198 255
160 198 255
160 198 255
160 198 255
161 199 255
161 199 255
161 199 255
161 199 255
161 199 255
161 199 255
161 199 255
161 199 255
161 199 255
161 199 255
162 199 255
162 199 255
162 199 255
162 199 255
162 199 255
162 199 255
162 200 255
162 200 255
162 200 255
163 200 255
163 200 255
163 200 255
163 200 255
163 200 255
163 200 255
163 200 255
163 200 255
163 200 255
163 200 255
163 200 255
164 200 255
164 200 255
164 200 255
164 200 255
164 201 255
164 201 255
164 201 255
164 201 255
164 201 255
164 201 255
164 201 255
165 201 255
165 201 255
165 201 255
165 201 255
165 201 255
165 201 255
165 201 255
165 201 255
165 201 255
165 201 255
165 201 255
165 201 255
166 202 255
166 202 255
166 202 255
166 202 255
166 202 255
166 202 255
166 202 255
166 202 255
166 202 255
166 202 255
166 202 255
166 202 255
166 202 255
165 201 255
165 201 255
165 201 255
165 201 255
165 201 255
165 201 255
165 201 255
165 201 255
165 201 255
165 201 255
165 201 255
165 201 255
164 201 255
164 201 255
164 201 255
164 201 255
164 201 255
164 201 255
164 200 255
164 200 255
164 200 255
164 200 255
164 200 255
163 200 255
163 200 255
163 200 255
163 200 255
163 200 255
163 200 255
163 200 255
163 200 255
163 200 255
163 200 255
162 200 255
162 200 255
162 200 255
162 199 255
162 199 255
162 199 255
162 199 255
162 199 255
162 199 255
162 199 255
161 199 255
161 199 255
161 199 255
161 199 255
161 199 255
161 199 255
161 199 255
161 199 255
161 199 255
161 199 255
160 198 255
160 198 255
160 198 255
160 198 255
160 198 255
160 198 255
160 198 255
160 198 255
160 198 255
160 198 255
159 198 255
159 198 255
159 198 255
159 198 255
159 198 255
159 198 255
159 197 255
159 197 255
159 197 255
158 197 255
158 197 255
158 197 255
158 197 255
158 197 255
158 197 255
158 197 255
158 197 255
158 197 255
157 197 255
157 197 255
157 197 255
157 196 255
157 196 255
157 196 255
157 196 255
157 196 255
157 196 255
157 196 255
156 196 255
156 196 255
156 196 255
156 196 255
156 196 255
156 196 255
156 196 255
156 196 255
155 195 255
155 195 255
155 195 255
155 195 255
155 195 255
155 195 255
155 195 255
155 195 255
155 195 255
155 195 255
154 195 255
154 195 255
154 195 255
154 195 255
154 195 255
154 195 255
154 195 255
154 194 255
154 194 255
154 194 255
153 194 255
153 194 255
153 194 255
153 194 255
153 194 255
153 194 255
153 194 255
153 194 255
153 194 255
153 194 255
153 194 255
152 194 255
152 194 255
152 194 255
152 193 255
152 193 255
152 193 255
152 193 255
152 193 255
152 193 255
152 193 255
152 193 255
151 193 255
151 193 255
151 193 255
151 193 255
151 193 255
151 193 255
151 193 255
151 193 255
151 193 255
151 193 255
151 193 255
151 193 255
151 193 255
150 192 255
150 192 255
150 192 255
150 192 255
150 192 255
150 192 255
150 192 255
150 192 255
150 192 255
150 192 255
150 192 255
150 192 255
150 192 255
150 192 255
150 192 255
150 192 255
150 192 255
150 192 255
150 192 255
150 192 255
149 192 255
149 192 255
149 192 255
149 192 255
149 192 255
149 192 255
149 192 255
149 192 255
149 192 255
149 192 255
149 192 255
149 192 255
149 192 255
149 192 255
149 192 255
149 192 255
149 192 255
149 192 255
149 192 255
149 192 255
149 192 255
149 192 255
149 192 255
149 192 255
149 192 255
149 192 255
149 192 255
149 192 255
149 192 255
149 192 255
149 192 255
149 192 255
149 192 255
149 192 255
149 192 255
150 192 255
150 192 255
150 192 255
150 192 255
150 192 255
150 192 255
150 192 255
150 192 255
150 192 255
150 192 255
150 192 255
150 192 255
150 192 255
150 192 255
150 192 255
150 192 255
150 192 255
150 192 255
150 192 255
150 192 255
150 192 255
151 193 255
151 193 255
151 193 255
151 193 255
151 193 255
151 193 255
151 193 255
151 193 255
151 193 255
151 193 255
151 193 255
151 193 255
151 193 255
152 193 255
152 193 255
152 193 255
152 193 255
152 193 255
152 193 255
152 193 255
152 193 255
152 194 255
152 194 255
152 194 255
152 194 255
153 194 255
153 194 255
153 194 255
153 194 255
153 194 255
153 194 255
153 194 255
153 194 255
153 194 255
153 194 255
154 194 255
154 194 255
154 194 255
154 195 255
154 195 255
154 195 255
154 195 255
154 195 255
154 195 255
154 195 255
155 195 255
155 195 255
155 195 255
155 195 255
155 195 255
155 195 255
155 195 255
155 195 255
155 195 255
156 196 255
156 196 255
156 196 255
156 196 255
156 196 255
156 196 255
156 196 255
156 196 255
156 196 255
156 196 255
157 196 255
157 196 255
157 196 255
157 196 255
157 196 255
157 196 255
157 197 255
157 197 255
157 197 255
158 197 255
158 197 255
158 197 255
158 197 255
158 197 255
158 197 255
158 197 255
158 197 255
158 197 255
159 197 255
159 197 255
159 197 255
159 198 255
159 198 255
159 198 255
159 198 255
159 198 255
159 198 255
159 198 255
160 198 255
160 198 255
160 198 255
160 198 255
160 198 255
160 198 255
160 198 255
160 198 255
160 198 255
161 199 255
161 199 255
161 199 255
161 199 255
161 199 255
161 199 255
161 199 255
161 199 255
161 199 255
161 199 255
162 199 255
162 199 255
162 199 255
162 199 255
162 199 255
162 199 255
162 199 255
162 200 255
162 200 255
162 200 255
163 200 255
163 200 255
163 200 255
163 200 255
163 200 255
163 200 255
163 200 255
163 200 255
163 200 255
163 200 255
164 200 255
164 200 255
164 200 255
164 200 255
164 200 255
164 201 255
164 201 255
164 201 255
164 201 255
164 201 255
164 201 255
164 201 255
165 201 255
165 201 255
165 201 255
165 201 255
165 201 255
165 201 255
165 201 255
165 201 255
165 201 255
165 201 255
165 201 255
166 202 255
166 202 255
166 202 255
166 202 255
166 202 255
166 202 255
166 202 255
166 202 255
166 202 255
166 202 255
166 202 255
166 202 255
166 202 255
166 202 255
166 202 255
166 202 255
166 202 255
166 202 255
165 201 255
165 201 255
165 201 255
165 201 255
165 201 255
165 201 255
165 201 255
165 201 255
165 201 255
165 201 255
165 201 255
165 201 255
164 201 255
164 201 255
164 201 255
164 201 255
164 201 255
164 201 255
164 201 255
164 200 255
164 200 255
164 200 255
164 200 255
163 200 255
163 200 255
163 200 255
163 200 255
163 200 255
163 200 255
163 200 255
163 200 255
163 200 255
163 200 255
162 200 255
162 200 255
162 200 255
162 199 255
162 199 255
162 199 255
162 199 255
162 199 255
162 199 255
162 199 255
162 199 255
161 199 255
161 199 255
161 199 255
161 199 255
161 199 255
161 199 255
161 199 255
161 199 255
161 199 255
160 198 255
160 198 255
160 198 255
160 198 255
160 198 255
160 198 255
160 198 255
160 198 255
160 198 255
160 198 255
159 198 255
159 198 255
159 198 255
159 198 255
159 198 255
159 198 255
159 197 255
159 197 255
159 197 255
158 197 255
158 197 255
158 197 255
158 197 255
158 197 255
158 197 255
158 197 255
158 197 255
158 197 255
157 197 255
157 197 255
157 197 255
157 197 255
157 196 255
157 196 255
157 196 255
157 196 255
157 196 255
157 196 255
156 196 255
156 196 255
156 196 255
156 196 255
156 196 255
156 196 255
156 196 255
156 196 255
156 196 255
155 195 255
155 195 255
155 195 255
155 195 255
155 195 255
155 195 255
155 195 255
155 195 255
155 195 255
155 195 255
154 195 255
154 195 255
154 195 255
154 195 255
154 195 255
154 195 255
154 194 255
154 194 255
154 194 255
154 194 255
153 194 255
153 194 255
153 194 255
153 194 255
153 194 255
153 194 255
153 194 255
153 194 255
153 194 255
153 194 255
152 194 255
152 194 255
152 194 255
152 194 255
152 193 255
152 193 255
152 193 255
152 193 255
152 193 255
152 193 255
152 193 255
152 193 255
151 193 255
151 193 255
151 193 255
151 193 255
151 193 255
151 193 255
151 193 255
151 193 255
151 193 255
151 193 255
151 193 255
151 193 255
151 193 255
151 193 255
151 193 255
150 192 255
150 192 255
150 192 255
150 192 255
150 192 255
150 192 255
150 192 255
150 192 255
150 192 255
150 192 255
150 192 255
150 192 255
150 192 255
150 192 255
150 192 255
150 192 255
150 192 255
150 192 255
150 192 255
150 192 255
150 192 255
150 192 255
150 192 255
150 192 255
150 192 255
150 192 255
150 192 255
149 192 255
149 192 255
149 192 255
149 192 255
149 192 255
149 192 255
149 192 255
149 192 255
149 192 255
149 192 255
149 192 255
150 192 255
150 192 255
149 192 255
150 192 255
150 192 255
150 192 255
150 192 255
150 192 255
150 192 255
150 192 255
150 192 255
150 192 255
150 192 255
150 192 255
150 192 255
150 192 255
150 192 255
150 192 255
150 192 255
150 192 255
150 192 255
150 192 255
150 192 255
150 192 255
150 192 255
150 192 255
150 192 255
150 192 255
150 192 255
151 193 255
151 193 255
151 193 255
151 193 255
151 193 255
151 193 255
151 193 255
151 193 255
151 193 255
151 193 255
151 193 255
151 193 255
151 193 255
151 193 255
151 193 255
152 193 255
152 193 255
152 193 255
152 193 255
152 193 255
152 193 255
152 193 255
152 194 255
152 194 255
152 194 255
152 194 255
153 194 255
153 194 255
153 194 255
153 194 255
153 194 255
153 194 255
153 194 255
153 194 255
153 194 255
153 194 255
154 194 255
154 194 255
154 194 255
154 194 255
154 195 255
154 195 255
154 195 255
154 195 255
154 195 255
154 195 255
155 195 255
155 195 255
155 195 255
155 195 255
155 195 255
155 195 255
155 195 255
155 195 255
155 195 255
155 195 255
156 196 255
156 196 255
156 196 255
156 196 255
156 196 255
156 196 255
156 196 255
156 196 255
156 196 255
157 196 255
157 196 255
157 196 255
157 196 255
157 196 255
157 196 255
157 197 255
157 197 255
157 197 255
158 197 255
158 197 255
158 197 255
158 197 255
158 197 255
158 197 255
158 197 255
158 197 255
158 197 255
158 197 255
159 197 255
159 197 255
159 197 255
159 198 255
159 198 255
159 198 255
159 198 255
159 198 255
159 198 255
160 198 255
160 198 255
160 198 255
160 198 255
160 198 255
160 198 255
160 198 255
160 198 255
160 198 255
160 198 255
161 199 255
161 199 255
161 199 255
161 199 255
161 199 255
161 199 255
161 199 255
161 199 255
161 199 255
161 199 255
162 199 255
162 199 255
162 199 255
162 199 255
162 199 255
162 199 255
162 200 255
162 200 255
162 200 255
162 200 255
163 200 255
163 200 255
163 200 255
163 200 255
163 200 255
163 200 255
163 200 255
163 200 255
163 200 255
163 200 255
164 200 255
164 200 255
164 200 255
164 200 255
164 201 255
164 201 255
164 201 255
164 201 255
164 201 255
164 201 255
164 201 255
165 201 255
165 201 255
165 201 255
165 201 255
165 201 255
165 201 255
165 201 255
165 201 255
165 201 255
165 201 255
165 201 255
166 202 255
166 202 255
166 202 255
166 202 255
166 202 255
166 202 255
166 202 255
166 202 255
166 202 255
166 202 255
166 202 255
167 202 255
166 202 255
166 202 255
166 202 255
166 202 255
166 202 255
166 202 255
166 202 255
166 202 255
166 202 255
166 202 255
166 202 255
166 202 255
165 201 255
165 201 255
165 201 255
165 201 255
165 201 255
165 201 255
165 201 255
165 201 255
165 201 255
165 201 255
165 201 255
164 201 255
164 201 255
164 201 255
164 201 255
164 201 255
164 201 255
164 201 255
164 200 255
164 200 255
164 200 255
164 200 255
164 200 255
163 200 255
163 200 255
163 200 255
163 200 255
163 200 255
163 200 255
163 200 255
163 200 255
163 200 255
163 200 255
162 200 255
162 200 255
162 200 255
162 199 255
162 199 255
162 199 255
162 199 255
162 199 255
162 199 255
162 199 255
161 199 255
161 199 255
161 199 255
161 199 255
161 199 255
161 199 255
161 199 255
161 199 255
161 199 255
161 199 255
160 198 255
160 198 255
160 198 255
160 198 255
160 198 255
160 198 255
160 198 255
160 198 255
160 198 255
159 198 255
159 198 255
159 198 255
159 198 255
159 198 255
159 198 255
159 197 255
159 197 255
159 197 255
159 197 255
158 197 255
158 197 255
158 197 255
158 197 255
158 197 255
158 197 255
158 197 255
158 197 255
158 197 255
157 197 255
157 197 255
157 197 255
157 196 255
157 196 255
157 196 255
157 196 255
157 196 255
157 196 255
156 196 255
156 196 255
156 196 255
156 196 255
156 196 255
156 196 255
156 196 255
156 196 255
156 196 255
155 195 255
155 195 255
155 195 255
155 195 255
155 195 255
155 195 255
155 195 255
155 195 255
155 195 255
155 195 255
154 195 255
154 195 255
154 195 255
154 195 255
154 195 255
154 195 255
154 195 255
154 194 255
154 194 255
154 194 255
153 194 255
153 194 255
153 194 255
153 194 255
153 194 255
153 194 255
153 194 255
153 194 255
153 194 255
153 194 255
153 194 255
152 194 255
152 194 255
152 194 255
152 193 255
152 193 255
152 193 255
152 193 255
152 193 255
152 193 255
152 193 255
152 193 255
152 193 255
151 193 255
151 193 255
151 193 255
151 193 255
151 193 255
151 193 255
151 193 255
151 193 255
151 193 255
151 193 255
151 193 255
151 193 255
151 193 255
151 193 255
151 193 255
151 193 255
150 192 255
150 192 255
150 192 255
150 192 255
150 192 255
150 192 255
150 192 255
150 192 255
150 192 255
150 192 255
150 192 255
150 192 255
150 192 255
150 192 255
150 192 255
150 192 255
150 192 255
150 192 255
150 192 255
150 192 255
150 192 255
150 192 255
150 192 255
150 192 255
150 192 255
150 192 255
150 192 255
150 192 255
150 192 255
150 192 255
150 192 255
150 192 255
150 192 255
150 192 255
150 192 255
150 192 255
150 192 255
150 192 255
150 192 255
150 192 255
150 192 255
150 192 255
150 192 255
150 192 255
150 192 255
150 192 255
150 192 255
150 192 255
150 192 255
150 192 255
150 192 255
150 192 255
150 192 255
150 192 255
150 192 255
150 192 255
150 192 255
150 192 255
150 192 255
151 193 255
151 193 255
151 193 255
151 193 255
151 193 255
151 193 255
151 193 255
151 193 255
151 193 255
151 193 255
151 193 255
151 193 255
151 193 255
151 193 255
151 193 255
152 193 255
152 193 255
152 193 255
152 193 255
152 193 255
152 193 255
152 193 255
152 193 255
152 194 255
152 194 255
152 194 255
152 194 255
153 194 255
153 194 255
153 194 255
153 194 255
153 194 255
153 194 255
153 194 255
153 194 255
153 194 255
153 194 255
153 194 255
154 194 255
154 194 255
154 194 255
154 195 255
154 195 255
154 195 255
154 195 255
154 195 255
154 195 255
154 195 255
155 195 255
155 195 255
155 195 255
155 195 255
155 195 255
155 195 255
155 195 255
155 195 255
155 195 255
156 196 255
156 196 255
156 196 255
156 196 255
156 196 255
156 196 255
156 196 255
156 196 255
156 196 255
156 196 255
157 196 255
157 196 255
157 196 255
157 196 255
157 196 255
157 196 255
157 197 255
157 197 255
157 197 255
158 197 255
158 197 255
158 197 255
158 197 255
158 197 255
158 197 255
158 197 255
158 197 255
158 197 255
159 197 255
159 197 255
159 197 255
159 197 255
159 198 255
159 198 255
159 198 255
159 198 255
159 198 255
159 198 255
160 198 255
160 198 255
160 198 255
160 198 255
160 198 255
160 198 255
160 198 255
160 198 255
160 198 255
160 198 255
161 199 255
161 199 255
161 199 255
161 199 255
161 199 255
161 199 255
161 199 255
161 199 255
161 199 255
162 199 255
162 199 255
162 199 255
162 199 255
162 199 255
162 199 255
162 199 255
162 200 255
162 200 255
162 200 255
163 200 255
163 200 255
163 200 255
163 200 255
163 200 255
163 200 255
163 200 255
163 200 255
163 200 255
163 200 255
164 200 255
164 200 255
164 200 255
164 200 255
164 201 255
164 201 255
164 201 255
164 201 255
164 201 255
164 201 255
164 201 255
164 201 255
165 201 255
165 201 255
165 201 255
165 201 255
165 201 255
165 201 255
165 201 255
165 201 255
165 201 255
165 201 255
165 201 255
166 202 255
166 202 255
166 202 255
166 202 255
166 202 255
166 202 255
166 202 255
166 202 255
166 202 255
166 202 255
166 202 255
166 202 255
167 202 255
167 202 255
167 202 255
167 202 255
167 202 255
166 202 255
166 202 255
166 202 255
166 202 255
166 202 255
166 202 255
166 202 255
166 202 255
166 202 255
166 202 255
166 202 255
166 202 255
165 201 255
165 201 255
165 201 255
165 201 255
165 201 255
165 201 255
165 201 255
165 201 255
165 201 255
165 201 255
165 201 255
164 201 255
164 201 255
164 201 255
164 201 255
164 201 255
164 201 255
164 201 255
164 201 255
164 200 255
164 200 255
164 200 255
163 200 255
163 200 255
163 200 255
163 200 255
163 200 255
163 200 255
163 200 255
163 200 255
163 200 255
163 200 255
163 200 255
162 200 255
162 200 255
162 200 255
162 199 255
162 199 255
162 199 255
162 199 255
162 199 255
162 199 255
161 199 255
161 199 255
161 199 255
161 199 255
161 199 255
161 199 255
161 199 255
161 199 255
161 199 255
161 199 255
160 198 255
160 198 255
160 198 255
160 198 255
160 198 255
160 198 255
160 198 255
160 198 255
160 198 255
159 198 255
159 198 255
159 198 255
159 198 255
159 198 255
159 198 255
159 197 255
159 197 255
159 197 255
159 197 255
158 197 255
158 197 255
158 197 255
158 197 255
158 197 255
158 197 255
158 197 255
158 197 255
158 197 255
157 197 255
157 197 255
157 197 255
157 196 255
157 196 255
157 196 255
157 196 255
157 196 255
157 196 255
157 196 255
156 196 255
156 196 255
156 196 255
156 196 255
156 196 255
156 196 255
156 196 255
156 196 255
156 196 255
155 195 255
155 195 255
155 195 255
155 195 255
155 195 255
155 195 255
155 195 255
155 195 255
155 195 255
154 195 255
154 195 255
154 195 255
154 195 255
154 195 255
154 195 255
154 195 255
154 194 255
154 194 255
154 194 255
154 194 255
153 194 255
153 194 255
153 194 255
153 194 255
153 194 255
153 194 255
153 194 255
153 194 255
153 194 255
153 194 255
153 194 255
152 194 255
152 194 255
152 194 255
152 194 255
152 193 255
152 193 255
152 193 255
152 193 255
152 193 255
152 193 255
152 193 255
152 193 255
151 193 255
151 193 255
151 193 255
151 193 255
151 193 255
151 193 255
151 193 255
151 193 255
151 193 255
151 193 255
151 193 255
151 193 255
151 193 255
151 193 255
151 193 255
151 193 255
151 193 255
150 192 255
150 192 255
150 192 255
150 192 255
150 192 255
150 192 255
150 192 255
150 192 255
150 192 255
150 192 255
150 192 255
150 192 255
150 192 255
150 192 255
150 192 255
150 192 255
150 192 255
150 192 255
150 192 255
150 192 255
150 192 255
150 192 255
150 192 255
150 192 255
150 192 255
150 192 255
150 192 255
150 192 255
150 192 255
150 192 255
150 192 255
150 192 255
150 192 255
150 192 255
150 192 255
150 192 255
150 192 255
150 192 255
150 192 255
150 192 255
150 192 255
150 192 255
150 192 255
150 192 255
150 192 255
150 192 255
150 192 255
150 192 255
150 192 255
151 193 255
151 193 255
151 193 255
151 193 255
151 193 255
151 193 255
151 193 255
151 193 255
151 193 255
151 193 255
151 193 255
151 193 255
151 193 255
151 193 255
151 193 255
151 193 255
151 193 255
152 193 255
152 193 255
152 193 255
152 193 255
152 193 255
152 193 255
152 193 255
152 193 255
152 193 255
152 194 255
152 194 255
152 194 255
152 194 255
153 194 255
153 194 255
153 194 255
153 194 255
153 194 255
153 194 255
153 194 255
153 194 255
153 194 255
153 194 255
153 194 255
153 194 255
154 194 255
154 194 255
154 194 255
154 195 255
154 195 255
154 195 255
154 195 255
154 195 255
154 195 255
155 195 255
155 195 255
155 195 255
155 195 255
155 195 255
155 195 255
155 195 255
155 195 255
155 195 255
155 195 255
156 196 255
156 196 255
156 196 255
156 196 255
156 196 255
156 196 255
156 196 255
156 196 255
156 196 255
156 196 255
157 196 255
157 196 255
157 196 255
157 196 255
157 196 255
157 197 255
157 197 255
157 197 255
157 197 255
158 197 255
158 197 255
158 197 255
158 197 255
158 197 255
158 197 255
158 197 255
158 197 255
158 197 255
159 197 255
159 197 255
159 197 255
159 197 255
159 198 255
159 198 255
159 198 255
159 198 255
159 198 255
159 198 255
160 198 255
160 198 255
160 198 255
160 198 255
160 198 255
160 198 255
160 198 255
160 198 255
160 198 255
161 199 255
161 199 255
161 199 255
161 199 255
161 199 255
161 199 255
161 199 255
161 199 255
161 199 255
161 199 255
162 199 255
162 199 255
162 199 255
162 199 255
162 199 255
162 199 255
162 200 255
162 200 255
162 200 255
162 200 255
163 200 255
163 200 255
163 200 255
163 200 255
163 200 255
163 200 255
163 200 255
163 200 255
163 200 255
163 200 255
164 200 255
164 200 255
164 200 255
164 200 255
164 201 255
164 201 255
164 201 255
164 201 255
164 201 255
164 201 255
164 201 255
165 201 255
165 201 255
165 201 255
165 201 255
165 201 255
165 201 255
165 201 255
165 201 255
165 201 255
165 201 255
165 201 255
165 201 255
166 202 255
166 202 255
166 202 255
166 202 255
166 202 255
166 202 255
166 202 255
166 202 255
166 202 255
166 202 255
166 202 255
166 202 255
167 202 255
167 202 255
167 202 255
167 202 255
167 202 255
167 202 255
167 202 255
167 202 255
167 202 255
166 202 255
166 202 255
166 202 255
166 202 255
166 202 255
166 202 255
166 202 255
166 202 255
166 202 255
166 202 255
166 202 255
166 202 255
165 201 255
165 201 255
165 201 255
165 201 255
165 201 255
165 201 255
165 201 255
165 201 255
165 201 255
165 201 255
165 201 255
165 201 255
164 201 255
164 201 255
164 201 255
164 201 255
164 201 255
164 201 255
164 201 255
164 200 255
164 200 255
164 200 255
163 200 255
163 200 255
163 200 255
163 200 255
163 200 255
163 200 255
163 200 255
163 200 255
163 200 255
163 200 255
163 200 255
162 200 255
162 200 255
162 200 255
162 199 255
162 199 255
162 199 255
162 199 255
162 199 255
162 199 255
162 199 255
161 199 255
161 199 255
161 199 255
161 199 255
161 199 255
161 199 255
161 199 255
161 199 255
161 199 255
160 198 255
160 198 255
160 198 255
160 198 255
160 198 255
160 198 255
160 198 255
160 198 255
160 198 255
160 198 255
159 198 255
159 198 255
159 198 255
159 198 255
159 198 255
159 198 255
159 197 255
159 197 255
159 197 255
158 197 255
158 197 255
158 197 255
158 197 255
158 197 255
158 197 255
158 197 255
158 197 255
158 197 255
158 197 255
157 197 255
157 197 255
157 197 255
157 196 255
157 196 255
157 196 255
157 196 255
157 196 255
157 196 255
156 196 255
156 196 255
156 196 255
156 196 255
156 196 255
156 196 255
156 196 255
156 196 255
156 196 255
155 195 255
155 195 255
155 195 255
155 195 255
155 195 255
155 195 255
155 195 255
155 195 255
155 195 255
155 195 255
154 195 255
154 195 255
154 195 255
154 195 255
154 195 255
154 195 255
154 195 255
154 194 255
154 194 255
154 194 255
153 194 255
153 194 255
153 194 255
153 194 255
153 194 255
153 194 255
153 194 255
153 194 255
153 194 255
153 194 255
153 194 255
153 194 255
152 194 255
152 194 255
152 194 255
152 194 255
152 193 255
152 193 255
152 193 255
152 193 255
152 193 255
152 193 255
152 193 255
152 193 255
152 193 255
151 193 255
151 193 255
151 193 255
151 193 255
151 193 255
151 193 255
151 193 255
151 193 255
151 193 255
151 193 255
151 193 255
151 193 255
151 193 255
151 193 255
151 193 255
151 193 255
151 193 255
151 193 255
151 193 255
151 193 255
151 193 255
150 192 255
150 192 255
150 192 255
150 192 255
150 192 255
150 192 255
150 192 255
150 192 255
150 192 255
150 192 255
150 192 255
150 192 255
150 192 255
150 192 255
150 192 255
150 192 255
150 192 255
150 192 255
150 192 255
150 192 255
150 192 255
150 192 255
150 192 255
150 192 255
150 192 255
150 192 255
150 192 255
150 192 255
150 192 255
150 192 255
150 192 255
150 192 255
150 192 255
150 192 255
151 193 255
151 193 255
151 193 255
151 193 255
151 193 255
151 193 255
151 193 255
151 193 255
151 193 255
151 193 255
151 193 255
151 193 255
151 193 255
151 193 255
151 193 255
151 193 255
151 193 255
151 193 255
151 193 255
151 193 255
152 193 255
152 193 255
152 193 255
152 193 255
152 193 255
152 193 255
152 193 255
152 193 255
152 193 255
152 193 255
152 194 255
152 194 255
152 194 255
152 194 255
153 194 255
153 194 255
153 194 255
153 194 255
153 194 255
153 194 255
153 194 255
153 194 255
153 194 255
153 194 255
153 194 255
153 194 255
154 194 255
154 194 255
154 194 255
154 195 255
154 195 255
154 195 255
154 195 255
154 195 255
154 195 255
154 195 255
155 195 255
155 195 255
155 195 255
155 195 255
155 195 255
155 195 255
155 195 255
155 195 255
155 195 255
155 195 255
156 196 255
156 196 255
156 196 255
156 196 255
156 196 255
156 196 255
156 196 255
156 196 255
156 196 255
157 196 255
157 196 255
157 196 255
157 196 255
157 196 255
157 196 255
157 197 255
157 197 255
157 197 255
158 197 255
158 197 255
158 197 255
158 197 255
158 197 255
158 197 255
158 197 255
158 197 255
158 197 255
158 197 255
159 197 255
159 197 255
159 197 255
159 198 255
159 198 255
159 198 255
159 198 255
159 198 255
159 198 255
160 198 255
160 198 255
160 198 255
160 198 255
160 198 255
160 198 255
160 198 255
160 198 255
160 198 255
161 199 255
161 199 255
161 199 255
161 199 255
161 199 255
161 199 255
161 199 255
161 199 255
161 199 255
161 199 255
162 199 255
162 199 255
162 199 255
162 199 255
162 199 255
162 199 255
162 199 255
162 200 255
162 200 255
162 200 255
162 200 255
163 200 255
163 200 255
163 200 255
163 200 255
163 200 255
163 200 255
163 200 255
163 200 255
163 200 255
163 200 255
164 200 255
164 200 255
164 200 255
164 201 255
164 201 255
164 201 255
164 201 255
164 201 255
164 201 255
164 201 255
164 201 255
165 201 255
165 201 255
165 201 255
165 201 255
165 201 255
165 201 255
165 201 255
165 201 255
165 201 255
165 201 255
165 201 255
166 202 255
166 202 255
166 202 255
166 202 255
166 202 255
166 202 255
166 202 255
166 202 255
166 202 255
166 202 255
166 202 255
167 202 255
167 202 255
167 202 255
167 202 255
167 202 255
167 202 255
167 202 255
167 203 255
167 202 255
167 202 255
167 202 255
167 202 255
167 202 255
167 202 255
167 202 255
167 202 255
166 202 255
166 202 255
166 202 255
166 202 255
166 202 255
166 202 255
166 202 255
166 202 255
166 202 255
166 202 255
166 202 255
166 202 255
165 201 255
165 201 255
165 201 255
165 201 255
165 201 255
165 201 255
165 201 255
165 201 255
165 201 255
165 201 255
165 201 255
164 201 255
164 201 255
164 201 255
164 201 255
164 201 255
164 201 255
164 201 255
164 201 255
164 200 255
164 200 255
164 200 255
163 200 255
163 200 255
163 200 255
163 200 255
163 200 255
163 200 255
163 200 255
163 200 255
163 200 255
163 200 255
162 200 255
162 200 255
162 200 255
162 199 255
162 199 255
162 199 255
162 199 255
162 199 255
162 199 255
162 199 255
161 199 255
161 199 255
161 199 255
161 199 255
161 199 255
161 199 255
161 199 255
161 199 255
161 199 255
161 199 255
160 198 255
160 198 255
160 198 255
160 198 255
160 198 255
160 198 255
160 198 255
160 198 255
160 198 255
160 198 255
159 198 255
159 198 255
159 198 255
159 198 255
159 198 255
159 197 255
159 197 255
159 197 255
159 197 255
158 197 255
158 197 255
158 197 255
158 197 255
158 197 255
158 197 255
158 197 255
158 197 255
158 197 255
157 197 255
157 197 255
157 197 255
157 196 255
157 196 255
157 196 255
157 196 255
157 196 255
157 196 255
156 196 255
156 196 255
156 196 255
156 196 255
156 196 255
156 196 255
156 196 255
156 196 255
156 196 255
156 196 255
155 195 255
155 195 255
155 195 255
155 195 255
155 195 255
155 195 255
155 195 255
155 195 255
155 195 255
155 195 255
154 195 255
154 195 255
154 195 255
154 195 255
154 195 255
154 195 255
154 194 255
154 194 255
154 194 255
154 194 255
153 194 255
153 194 255
153 194 255
153 194 255
153 194 255
153 194 255
153 194 255
153 194 255
153 194 255
153 194 255
153 194 255
153 194 255
152 194 255
152 194 255
152 194 255
152 194 255
152 194 255
152 193 255
152 193 255
152 193 255
152 193 255
152 193 255
152 193 255
152 193 255
152 193 255
152 193 255
151 193 255
151 193 255
151 193 255
151 193 255
151 193 255
151 193 255
151 193 255
151 193 255
151 193 255
151 193 255
151 193 255
151 193 255
151 193 255
151 193 255
151 193 255
151 193 255
151 193 255
151 193 255
151 193 255
151 193 255
151 193 255
151 193 255
151 193 255
151 193 255
151 193 255
151 193 255
151 193 255
150 192 255
151 193 255
150 192 255
150 192 255
150 192 255
150 192 255
150 192 255
150 192 255
150 192 255
150 192 255
150 192 255
150 192 255
150 192 255
151 193 255
151 193 255
151 193 255
151 193 255
151 193 255
151 193 255
151 193 255
151 193 255
151 193 255
151 193 255
151 193 255
151 193 255
151 193 255
151 193 255
151 193 255
151 193 255
151 193 255
151 193 255
151 193 255
151 193 255
151 193 255
151 193 255
151 193 255
151 193 255
151 193 255
151 193 255
151 193 255
151 193 255
152 193 255
152 193 255
152 193 255
152 193 255
152 193 255
152 193 255
152 193 255
152 193 255
152 193 255
152 193 255
152 194 255
152 194 255
152 194 255
152 194 255
153 194 255
153 194 255
153 194 255
153 194 255
153 194 255
153 194 255
153 194 255
153 194 255
153 194 255
153 194 255
153 194 255
153 194 255
154 194 255
154 194 255
154 194 255
154 195 255
154 195 255
154 195 255
154 195 255
154 195 255
154 195 255
154 195 255
154 195 255
155 195 255
155 195 255
155 195 255
155 195 255
155 195 255
155 195 255
155 195 255
155 195 255
155 195 255
156 196 255
156 196 255
156 196 255
156 196 255
156 196 255
156 196 255
156 196 255
156 196 255
156 196 255
156 196 255
157 196 255
157 196 255
157 196 255
157 196 255
157 196 255
157 196 255
157 197 255
157 197 255
157 197 255
158 197 255
158 197 255
158 197 255
158 197 255
158 197 255
158 197 255
158 197 255
158 197 255
158 197 255
159 197 255
159 197 255
159 197 255
159 197 255
159 198 255
159 198 255
159 198 255
159 198 255
159 198 255
159 198 255
160 198 255
160 198 255
160 198 255
160 198 255
160 198 255
160 198 255
160 198 255
160 198 255
160 198 255
161 199 255
161 199 255
161 199 255
161 199 255
161 199 255
161 199 255
161 199 255
161 199 255
161 199 255
161 199 255
162 199 255
162 199 255
162 199 255
162 199 255
162 199 255
162 199 255
162 199 255
162 200 255
162 200 255
162 200 255
163 200 255
163 200 255
163 200 255
163 200 255
163 200 255
163 200 255
163 200 255
163 200 255
163 200 255
163 200 255
164 200 255
164 200 255
164 200 255
164 200 255
164 201 255
164 201 255
164 201 255
164 201 255
164 201 255
164 201 255
164 201 255
165 201 255
165 201 255
165 201 255
165 201 255
165 201 255
165 201 255
165 201 255
165 201 255
165 201 255
165 201 255
165 201 255
166 202 255
166 202 255
166 202 255
166 202 255
166 202 255
166 202 255
166 202 255
166 202 255
166 202 255
166 202 255
166 202 255
166 202 255
167 202 255
167 202 255
167 202 255
167 202 255
167 202 255
167 202 255
167 202 255
167 202 255
167 203 255
167 203 255
167 203 255
167 203 255
167 203 255
167 202 255
167 202 255
167 202 255
167 202 255
167 202 255
167 202 255
167 202 255
167 202 255
166 202 255
166 202 255
166 202 255
166 202 255
166 202 255
166 202 255
166 202 255
166 202 255
166 202 255
166 202 255
166 202 255
166 202 255
165 201 255
165 201 255
165 201 255
165 201 255
165 201 255
165 201 255
165 201 255
165 201 255
165 201 255
165 201 255
165 201 255
164 201 255
164 201 255
164 201 255
164 201 255
164 201 255
164 201 255
164 201 255
164 200 255
164 200 255
164 200 255
164 200 255
163 200 255
163 200 255
163 200 255
163 200 255
163 200 255
163 200 255
163 200 255
163 200 255
163 200 255
163 200 255
162 200 255
162 200 255
162 200 255
162 199 255
162 199 255
162 199 255
162 199 255
162 199 255
162 199 255
161 199 255
161 199 255
161 199 255
161 199 255
161 199 255
161 199 255
161 199 255
161 199 255
161 199 255
161 199 255
160 198 255
160 198 255
160 198 255
160 198 255
160 198 255
160 198 255
160 198 255
160 198 255
160 198 255
160 198 255
159 198 255
159 198 255
159 198 255
159 198 255
159 198 255
159 198 255
159 197 255
159 197 255
159 197 255
158 197 255
158 197 255
158 197 255
158 197 255
158 197 255
158 197 255
158 197 255
158 197 255
158 197 255
157 197 255
157 197 255
157 197 255
157 196 255
157 196 255
157 196 255
157 196 255
157 196 255
157 196 255
157 196 255
156 196 255
156 196 255
156 196 255
156 196 255
156 196 255
156 196 255
156 196 255
156 196 255
156 196 255
155 195 255
155 195 255
155 195 255
155 195 255
155 195 255
155 195 255
155 195 255
155 195 255
155 195 255
155 195 255
154 195 255
154 195 255
154 195 255
154 195 255
154 195 255
154 195 255
154 195 255
154 195 255
154 194 255
154 194 255
154 194 255
153 194 255
153 194 255
153 194 255
153 194 255
153 194 255
153 194 255
153 194 255
153 194 255
153 194 255
153 194 255
153 194 255
153 194 255
152 194 255
152 194 255
152 194 255
152 194 255
152 194 255
152 193 255
152 193 255
152 193 255
152 193 255
152 193 255
152 193 255
152 193 255
152 193 255
152 193 255
152 193 255
152 193 255
152 193 255
151 193 255
151 193 255
151 193 255
151 193 255
151 193 255
151 193 255
151 193 255
151 193 255
151 193 255
151 193 255
151 193 255
151 193 255
151 193 255
151 193 255
151 193 255
151 193 255
151 193 255
151 193 255
151 193 255
151 193 255
151 193 255
151 193 255
151 193 255
151 193 255
151 193 255
151 193 255
151 193 255
151 193 255
151 193 255
151 193 255
151 193 255
151 193 255
151 193 255
151 193 255
151 193 255
151 193 255
151 193 255
151 193 255
151 193 255
151 193 255
151 193 255
151 193 255
151 193 255
151 193 255
151 193 255
151 193 255
151 193 255
151 193 255
151 193 255
151 193 255
151 193 255
151 193 255
151 193 255
151 193 255
151 193 255
151 193 255
151 193 255
152 193 255
152 193 255
152 193 255
152 193 255
152 193 255
152 193 255
152 193 255
152 193 255
152 193 255
152 193 255
152 193 255
152 194 255
152 194 255
152 194 255
152 194 255
152 194 255
153 194 255
153 194 255
153 194 255
153 194 255
153 194 255
153 194 255
153 194 255
153 194 255
153 194 255
153 194 255
153 194 255
153 194 255
154 194 255
154 194 255
154 194 255
154 195 255
154 195 255
154 195 255
154 195 255
154 195 255
154 195 255
154 195 255
155 195 255
155 195 255
155 195 255
155 195 255
155 195 255
155 195 255
155 195 255
155 195 255
155 195 255
155 195 255
156 196 255
156 196 255
156 196 255
156 196 255
156 196 255
156 196 255
156 196 255
156 196 255
156 196 255
156 196 255
157 196 255
157 196 255
157 196 255
157 196 255
157 196 255
157 196 255
157 196 255
157 197 255
157 197 255
158 197 255
158 197 255
158 197 255
158 197 255
158 197 255
158 197 255
158 197 255
158 197 255
158 197 255
158 197 255
159 197 255
159 197 255
159 197 255
159 198 255
159 198 255
159 198 255
159 198 255
159 198 255
159 198 255
160 198 255
160 198 255
160 198 255
160 198 255
160 198 255
160 198 255
160 198 255
160 198 255
160 198 255
161 199 255
161 199 255
161 199 255
161 199 255
161 199 255
161 199 255
161 199 255
161 199 255
161 199 255
161 199 255
162 199 255
162 199 255
162 199 255
162 199 255
162 199 255
162 199 255
162 199 255
162 200 255
162 200 255
162 200 255
163 200 255
163 200 255
163 200 255
163 200 255
163 200 255
163 200 255
163 200 255
163 200 255
163 200 255
163 200 255
164 200 255
164 200 255
164 200 255
164 200 255
164 201 255
164 201 255
164 201 255
164 201 255
164 201 255
164 201 255
164 201 255
164 201 255
165 201 255
165 201 255
165 201 255
165 201 255
165 201 255
165 201 255
165 201 255
165 201 255
165 201 255
165 201 255
166 202 255
166 202 255
166 202 255
166 202 255
166 202 255
166 202 255
166 202 255
166 202 255
166 202 255
166 202 255
166 202 255
166 202 255
167 202 255
167 202 255
167 202 255
167 202 255
167 202 255
167 202 255
167 202 255
167 202 255
167 203 255
167 203 255
167 203 255
167 203 255
168 203 255
168 203 255
167 203 255
167 203 255
167 203 255
167 203 255
167 202 255
167 202 255
167 202 255
167 202 255
167 202 255
167 202 255
167 202 255
167 202 255
167 202 255
166 202 255
166 202 255
166 202 255
166 202 255
166 202 255
166 202 255
166 202 255
166 202 255
166 202 255
166 202 255
166 202 255
165 201 255
165 201 255
165 201 255
165 201 255
165 201 255
165 201 255
165 201 255
165 201 255
165 201 255
165 201 255
165 201 255
164 201 255
164 201 255
164 201 255
164 201 255
164 201 255
164 201 255
164 201 255
164 200 255
164 200 255
164 200 255
164 200 255
163 200 255
163 200 255
163 200 255
163 200 255
163 200 255
163 200 255
163 200 255
163 200 255
163 200 255
163 200 255
162 200 255
162 200 255
162 200 255
162 200 255
162 199 255
162 199 255
162 199 255
162 199 255
162 199 255
162 199 255
161 199 255
161 199 255
161 199 255
161 199 255
161 199 255
161 199 255
161 199 255
161 199 255
161 199 255
161 199 255
160 198 255
160 198 255
160 198 255
160 198 255
160 198 255
160 198 255
160 198 255
160 198 255
160 198 255
159 198 255
159 198 255
159 198 255
159 198 255
159 198 255
159 198 255
159 197 255
159 197 255
159 197 255
159 197 255
158 197 255
158 197 255
158 197 255
158 197 255
158 197 255
158 197 255
158 197 255
158 197 255
158 197 255
157 197 255
157 197 255
157 197 255
157 196 255
157 196 255
157 196 255
157 196 255
157 196 255
157 196 255
156 196 255
156 196 255
156 196 255
156 196 255
156 196 255
156 196 255
156 196 255
156 196 255
156 196 255
155 195 255
155 195 255
155 195 255
155 195 255
155 195 255
155 195 255
155 195 255
155 195 255
155 195 255
155 195 255
155 195 255
154 195 255
154 195 255
154 195 255
154 195 255
154 195 255
154 195 255
154 195 255
154 194 255
154 194 255
154 194 255
154 194 255
153 194 255
153 194 255
153 194 255
153 194 255
153 194 255
153 194 255
153 194 255
153 194 255
153 194 255
153 194 255
153 194 255
153 194 255
153 194 255
152 194 255
152 194 255
152 194 255
152 194 255
152 194 255
152 193 255
152 193 255
152 193 255
152 193 255
152 193 255
152 193 255
152 193 255
152 193 255
152 193 255
152 193 255
152 193 255
152 193 255
151 193 255
151 193 255
151 193 255
151 193 255
151 193 255
151 193 255
151 193 255
151 193 255
151 193 255
151 193 255
151 193 255
151 193 255
151 193 255
151 193 255
151 193 255
151 193 255
151 193 255
151 193 255
151 193 255
151 193 255
151 193 255
151 193 255
151 193 255
151 193 255
151 193 255
151 193 255
151 193 255
151 193 255
151 193 255
151 193 255
151 193 255
151 193 255
151 193 255
151 193 255
151 193 255
151 193 255
151 193 255
151 193 255
151 193 255
151 193 255
151 193 255
151 193 255
151 193 255
151 193 255
151 193 255
151 193 255
151 193 255
152 193 255
152 193 255
152 193 255
152 193 255
152 193 255
152 193 255
152 193 255
152 193 255
152 193 255
152 193 255
152 193 255
152 193 255
152 193 255
152 194 255
152 194 255
152 194 255
152 194 255
152 194 255
153 194 255
153 194 255
153 194 255
153 194 255
153 194 255
153 194 255
153 194 255
153 194 255
153 194 255
153 194 255
153 194 255
153 194 255
153 194 255
154 194 255
154 194 255
154 194 255
154 194 255
154 195 255
154 195 255
154 195 255
154 195 255
154 195 255
154 195 255
155 195 255
155 195 255
155 195 255
155 195 255
155 195 255
155 195 255
155 195 255
155 195 255
155 195 255
155 195 255
155 195 255
156 196 255
156 196 255
156 196 255
156 196 255
156 196 255
156 196 255
156 196 255
156 196 255
156 196 255
156 196 255
157 196 255
157 196 255
157 196 255
157 196 255
157 196 255
157 196 255
157 196 255
157 197 255
157 197 255
158 197 255
158 197 255
158 197 255
158 197 255
158 197 255
158 197 255
158 197 255
158 197 255
158 197 255
159 197 255
159 197 255
159 197 255
159 197 255
159 198 255
159 198 255
159 198 255
159 198 255
159 198 255
159 198 255
160 198 255
160 198 255
160 198 255
160 198 255
160 198 255
160 198 255
160 198 255
160 198 255
160 198 255
161 199 255
161 199 255
161 199 255
161 199 255
161 199 255
161 199 255
161 199 255
161 199 255
161 199 255
161 199 255
162 199 255
162 199 255
162 199 255
162 199 255
162 199 255
162 199 255
162 199 255
162 200 255
162 200 255
163 200 255
163 200 255
163 200 255
163 200 255
163 200 255
163 200 255
163 200 255
163 200 255
163 200 255
163 200 255
163 200 255
164 200 255
164 200 255
164 200 255
164 201 255
164 201 255
164 201 255
164 201 255
164 201 255
164 201 255
164 201 255
165 201 255
165 201 255
165 201 255
165 201 255
165 201 255
165 201 255
165 201 255
165 201 255
165 201 255
165 201 255
165 201 255
166 202 255
166 202 255
166 202 255
166 202 255
166 202 255
166 202 255
166 202 255
166 202 255
166 202 255
166 202 255
166 202 255
166 202 255
166 202 255
167 202 255
167 202 255
167 202 255
167 202 255
167 202 255
167 202 255
167 202 255
167 203 255
167 203 255
167 203 255
167 203 255
168 203 255
168 203 255
168 203 255
168 203 255
168 203 255
168 203 255
168 203 255
168 203 255
167 203 255
167 203 255
167 203 255
167 203 255
167 203 255
167 202 255
167 202 255
167 202 255
167 202 255
167 202 255
167 202 255
167 202 255
167 202 255
166 202 255
166 202 255
166 202 255
166 202 255
166 202 255
166 202 255
166 202 255
166 202 255
166 202 255
166 202 255
166 202 255
165 201 255
165 201 255
165 201 255
165 201 255
165 201 255
165 201 255
165 201 255
165 201 255
165 201 255
165 201 255
165 201 255
164 201 255
164 201 255
164 201 255
164 201 255
164 201 255
164 201 255
164 201 255
164 200 255
164 200 255
164 200 255
163 200 255
163 200 255
163 200 255
163 200 255
163 200 255
163 200 255
163 200 255
163 200 255
163 200 255
163 200 255
163 200 255
162 200 255
162 200 255
162 200 255
162 199 255
162 199 255
162 199 255
162 199 255
162 199 255
162 199 255
162 199 255
161 199 255
161 199 255
161 199 255
161 199 255
161 199 255
161 199 255
161 199 255
161 199 255
161 199 255
160 198 255
160 198 255
160 198 255
160 198 255
160 198 255
160 198 255
160 198 255
160 198 255
160 198 255
159 198 255
159 198 255
159 198 255
159 198 255
159 198 255
159 198 255
159 198 255
159 197 255
159 197 255
159 197 255
158 197 255
158 197 255
158 197 255
158 197 255
158 197 255
158 197 255
158 197 255
158 197 255
158 197 255
157 197 255
157 197 255
157 197 255
157 197 255
157 196 255
157 196 255
157 196 255
157 196 255
157 196 255
157 196 255
156 196 255
156 196 255
156 196 255
156 196 255
156 196 255
156 196 255
156 196 255
156 196 255
156 196 255
155 195 255
155 195 255
155 195 255
155 195 255
155 195 255
155 195 255
155 195 255
155 195 255
155 195 255
155 195 255
155 195 255
154 195 255
154 195 255
154 195 255
154 195 255
154 195 255
154 195 255
154 195 255
154 195 255
154 194 255
154 194 255
154 194 255
154 194 255
153 194 255
153 194 255
153 194 255
153 194 255
153 194 255
153 194 255
153 194 255
153 194 255
153 194 255
153 194 255
153 194 255
153 194 255
153 194 255
152 194 255
152 194 255
152 194 255
152 194 255
152 194 255
152 193 255
152 193 255
152 193 255
152 193 255
152 193 255
152 193 255
152 193 255
152 193 255
152 193 255
152 193 255
152 193 255
152 193 255
152 193 255
152 193 255
152 193 255
152 193 255
151 193 255
151 193 255
151 193 255
151 193 255
151 193 255
151 193 255
151 193 255
151 193 255
151 193 255
151 193 255
151 193 255
151 193 255
151 193 255
151 193 255
151 193 255
151 193 255
151 193 255
151 193 255
151 193 255
151 193 255
151 193 255
151 193 255
151 193 255
151 193 255
151 193 255
151 193 255
151 193 255
151 193 255
151 193 255
151 193 255
151 193 255
151 193 255
151 193 255
152 193 255
152 193 255
152 193 255
152 193 255
152 193 255
152 193 255
152 193 255
152 193 255
152 193 255
152 193 255
152 193 255
152 193 255
152 193 255
152 193 255
152 194 255
152 194 255
152 194 255
152 194 255
152 194 255
152 194 255
153 194 255
153 194 255
153 194 255
153 194 255
153 194 255
153 194 255
153 194 255
153 194 255
153 194 255
153 194 255
153 194 255
153 194 255
153 194 255
153 194 255
154 194 255
154 194 255
154 194 255
154 194 255
154 195 255
154 195 255
154 195 255
154 195 255
154 195 255
154 195 255
155 195 255
155 195 255
155 195 255
155 195 255
155 195 255
155 195 255
155 195 255
155 195 255
155 195 255
155 195 255
155 195 255
155 195 255
156 196 255
156 196 255
156 196 255
156 196 255
156 196 255
156 196 255
156 196 255
156 196 255
156 196 255
157 196 255
157 196 255
157 196 255
157 196 255
157 196 255
157 196 255
157 197 255
157 197 255
157 197 255
157 197 255
158 197 255
158 197 255
158 197 255
158 197 255
158 197 255
158 197 255
158 197 255
158 197 255
158 197 255
159 197 255
159 197 255
159 197 255
159 197 255
159 198 255
159 198 255
159 198 255
159 198 255
159 198 255
159 198 255
160 198 255
160 198 255
160 198 255
160 198 255
160 198 255
160 198 255
160 198 255
160 198 255
160 198 255
161 199 255
161 199 255
161 199 255
161 199 255
161 199 255
161 199 255
161 199 255
161 199 255
161 199 255
161 199 255
162 199 255
162 199 255
162 199 255
162 199 255
162 199 255
162 199 255
162 199 255
162 200 255
162 200 255
163 200 255
163 200 255
163 200 255
163 200 255
163 200 255
163 200 255
163 200 255
163 200 255
163 200 255
163 200 255
163 200 255
164 200 255
164 200 255
164 200 255
164 201 255
164 201 255
164 201 255
164 201 255
164 201 255
164 201 255
164 201 255
165 201 255
165 201 255
165 201 255
165 201 255
165 201 255
165 201 255
165 201 255
165 201 255
165 201 255
165 201 255
165 201 255
166 202 255
166 202 255
166 202 255
166 202 255
166 202 255
166 202 255
166 202 255
166 202 255
166 202 255
166 202 255
166 202 255
167 202 255
167 202 255
167 202 255
167 202 255
167 202 255
167 202 255
167 202 255
167 202 255
167 202 255
167 203 255
167 203 255
167 203 255
167 203 255
168 203 255
168 203 255
168 203 255
168 203 255
168 203 255
168 203 255
168 203 255
168 203 255
168 203 255
168 203 255
168 203 255
168 203 255
168 203 255
167 203 255
167 203 255
167 203 255
167 203 255
167 202 255
167 202 255
167 202 255
167 202 255
167 202 255
167 202 255
167 202 255
167 202 255
166 202 255
166 202 255
166 202 255
166 202 255
166 202 255
166 202 255
166 202 255
166 202 255
166 202 255
166 202 255
166 202 255
165 201 255
165 201 255
165 201 255
165 201 255
165 201 255
165 201 255
165 201 255
165 201 255
165 201 255
165 201 255
165 201 255
165 201 255
164 201 255
164 201 255
164 201 255
164 201 255
164 201 255
164 201 255
164 200 255
164 200 255
164 200 255
164 200 255
163 200 255
163 200 255
163 200 255
163 200 255
163 200 255
163 200 255
163 200 255
163 200 255
163 200 255
163 200 255
162 200 255
162 200 255
162 200 255
162 199 255
162 199 255
162 199 255
162 199 255
162 199 255
162 199 255
162 199 255
161 199 255
161 199 255
161 199 255
161 199 255
161 199 255
161 199 255
161 199 255
161 199 255
161 199 255
161 199 255
160 198 255
160 198 255
160 198 255
160 198 255
160 198 255
160 198 255
160 198 255
160 198 255
160 198 255
159 198 255
159 198 255
159 198 255
159 198 255
159 198 255
159 198 255
159 197 255
159 197 255
159 197 255
159 197 255
158 197 255
158 197 255
158 197 255
158 197 255
158 197 255
158 197 255
158 197 255
158 197 255
158 197 255
157 197 255
157 197 255
157 197 255
157 196 255
157 196 255
157 196 255
157 196 255
157 196 255
157 196 255
157 196 255
156 196 255
156 196 255
156 196 255
156 196 255
156 196 255
156 196 255
156 196 255
156 196 255
156 196 255
155 195 255
155 195 255
155 195 255
155 195 255
155 195 255
155 195 255
155 195 255
155 195 255
155 195 255
155 195 255
155 195 255
154 195 255
154 195 255
154 195 255
154 195 255
154 195 255
154 195 255
154 195 255
154 195 255
154 194 255
154 194 255
154 194 255
154 194 255
153 194 255
153 194 255
153 194 255
153 194 255
153 194 255
153 194 255
153 194 255
153 194 255
153 194 255
153 194 255
153 194 255
153 194 255
153 194 255
153 194 255
153 194 255
152 194 255
152 194 255
152 194 255
152 194 255
152 194 255
152 194 255
152 193 255
152 193 255
152 193 255
152 193 255
152 193 255
152 193 255
152 193 255
152 193 255
152 193 255
152 193 255
152 193 255
152 193 255
152 193 255
152 193 255
152 193 255
152 193 255
152 193 255
152 193 255
152 193 255
152 193 255
152 193 255
152 193 255
152 193 255
152 193 255
152 193 255
152 193 255
152 193 255
151 193 255
152 193 255
152 193 255
152 193 255
152 193 255
152 193 255
152 193 255
152 193 255
152 193 255
152 193 255
152 193 255
152 193 255
152 193 255
152 193 255
152 193 255
152 193 255
152 193 255
152 193 255
152 193 255
152 193 255
152 193 255
152 193 255
152 193 255
152 193 255
152 193 255
152 194 255
152 194 255
152 194 255
152 194 255
152 194 255
152 194 255
153 194 255
153 194 255
153 194 255
153 194 255
153 194 255
153 194 255
153 194 255
153 194 255
153 194 255
153 194 255
153 194 255
153 194 255
153 194 255
153 194 255
153 194 255
154 194 255
154 194 255
154 194 255
154 194 255
154 195 255
154 195 255
154 195 255
154 195 255
154 195 255
154 195 255
154 195 255
154 195 255
155 195 255
155 195 255
155 195 255
155 195 255
155 195 255
155 195 255
155 195 255
155 195 255
155 195 255
155 195 255
155 195 255
156 196 255
156 196 255
156 196 255
156 196 255
156 196 255
156 196 255
156 196 255
156 196 255
156 196 255
157 196 255
157 196 255
157 196 255
157 196 255
157 196 255
157 196 255
157 196 255
157 197 255
157 197 255
157 197 255
158 197 255
158 197 255
158 197 255
158 197 255
158 197 255
158 197 255
158 197 255
158 197 255
158 197 255
159 197 255
159 197 255
159 197 255
159 197 255
159 198 255
159 198 255
159 198 255
159 198 255
159 198 255
159 198 255
160 198 255
160 198 255
160 198 255
160 198 255
160 198 255
160 198 255
160 198 255
160 198 255
160 198 255
161 199 255
161 199 255
161 199 255
161 199 255
161 199 255
161 199 255
161 199 255
161 199 255
161 199 255
161 199 255
162 199 255
162 199 255
162 199 255
162 199 255
162 199 255
162 199 255
162 199 255
162 200 255
162 200 255
162 200 255
163 200 255
163 200 255
163 200 255
163 200 255
163 200 255
163 200 255
163 200 255
163 200 255
163 200 255
163 200 255
164 200 255
164 200 255
164 200 255
164 201 255
164 201 255
164 201 255
164 201 255
164 201 255
164 201 255
164 201 255
165 201 255
165 201 255
165 201 255
165 201 255
165 201 255
165 201 255
165 201 255
165 201 255
165 201 255
165 201 255
165 201 255
166 202 255
166 202 255
166 202 255
166 202 255
166 202 255
166 202 255
166 202 255
166 202 255
166 202 255
166 202 255
166 202 255
166 202 255
167 202 255
167 202 255
167 202 255
167 202 255
167 202 255
167 202 255
167 202 255
167 202 255
167 203 255
167 203 255
167 203 255
167 203 255
168 203 255
168 203 255
168 203 255
168 203 255
168 203 255
168 203 255
168 203 255
168 203 255
168 203 255
168 203 255
168 203 255
168 203 255
168 203 255
168 203 255
168 203 255
168 203 255
168 203 255
168 203 255
168 203 255
167 203 255
167 203 255
167 203 255
167 203 255
167 202 255
167 202 255
167 202 255
167 202 255
167 202 255
167 202 255
167 202 255
167 202 255
166 202 255
166 202 255
166 202 255
166 202 255
166 202 255
166 202 255
166 202 255
166 202 255
166 202 255
166 202 255
166 202 255
166 202 255
165 201 255
165 201 255
165 201 255
165 201 255
165 201 255
165 201 255
165 201 255
165 201 255
165 201 255
165 201 255
164 201 255
164 201 255
164 201 255
164 201 255
164 201 255
164 201 255
164 201 255
164 201 255
164 200 255
164 200 255
164 200 255
163 200 255
163 200 255
163 200 255
163 200 255
163 200 255
163 200 255
163 200 255
163 200 255
163 200 255
163 200 255
162 200 255
162 200 255
162 200 255
162 199 255
162 199 255
162 199 255
162 199 255
162 199 255
162 199 255
162 199 255
161 199 255
161 199 255
161 199 255
161 199 255
161 199 255
161 199 255
161 199 255
161 199 255
161 199 255
160 198 255
160 198 255
160 198 255
160 198 255
160 198 255
160 198 255
160 198 255
160 198 255
160 198 255
159 198 255
159 198 255
159 198 255
159 198 255
159 198 255
159 198 255
159 198 255
159 197 255
159 197 255
159 197 255
158 197 255
158 197 255
158 197 255
158 197 255
158 197 255
158 197 255
158 197 255
158 197 255
158 197 255
157 197 255
157 197 255
157 197 255
157 197 255
157 196 255
157 196 255
157 196 255
157 196 255
157 196 255
157 196 255
156 196 255
156 196 255
156 196 255
156 196 255
156 196 255
156 196 255
156 196 255
156 196 255
156 196 255
156 196 255
155 195 255
155 195 255
155 195 255
155 195 255
155 195 255
155 195 255
155 195 255
155 195 255
155 195 255
155 195 255
155 195 255
154 195 255
154 195 255
154 195 255
154 195 255
154 195 255
154 195 255
154 195 255
154 195 255
154 194 255
154 194 255
154 194 255
154 194 255
154 194 255
153 194 255
153 194 255
153 194 255
153 194 255
153 194 255
153 194 255
153 194 255
153 194 255
153 194 255
153 194 255
153 194 255
153 194 255
153 194 255
153 194 255
153 194 255
152 194 255
152 194 255
152 194 255
152 194 255
152 194 255
152 194 255
152 194 255
152 194 255
152 193 255
152 193 255
152 193 255
152 193 255
152 193 255
152 193 255
152 193 255
152 193 255
152 193 255
152 193 255
152 193 255
152 193 255
152 193 255
152 193 255
152 193 255
152 193 255
152 193 255
152 193 255
152 193 255
152 193 255
152 193 255
152 193 255
152 193 255
152 193 255
152 193 255
152 193 255
152 193 255
152 193 255
152 193 255
152 193 255
152 193 255
152 193 255
152 193 255
152 193 255
152 193 255
152 193 255
152 193 255
152 193 255
152 193 255
152 193 255
152 194 255
152 194 255
152 194 255
152 194 255
152 194 255
152 194 255
152 194 255
152 194 255
153 194 255
153 194 255
153 194 255
153 194 255
153 194 255
153 194 255
153 194 255
153 194 255
153 194 255
153 194 255
153 194 255
153 194 255
153 194 255
153 194 255
153 194 255
154 194 255
154 194 255
154 194 255
154 194 255
154 194 255
154 195 255
154 195 255
154 195 255
154 195 255
154 195 255
154 195 255
154 195 255
154 195 255
155 195 255
155 195 255
155 195 255
155 195 255
155 195 255
155 195 255
155 195 255
155 195 255
155 195 255
155 195 255
155 195 255
156 196 255
156 196 255
156 196 255
156 196 255
156 196 255
156 196 255
156 196 255
156 196 255
156 196 255
156 196 255
157 196 255
157 196 255
157 196 255
157 196 255
157 196 255
157 196 255
157 196 255
157 197 255
157 197 255
158 197 255
158 197 255
158 197 255
158 197 255
158 197 255
158 197 255
158 197 255
158 197 255
158 197 255
158 197 255
159 197 255
159 197 255
159 197 255
159 198 255
159 198 255
159 198 255
159 198 255
159 198 255
159 198 255
160 198 255
160 198 255
160 198 255
160 198 255
160 198 255
160 198 255
160 198 255
160 198 255
160 198 255
160 198 255
161 199 255
161 199 255
161 199 255
161 199 255
161 199 255
161 199 255
161 199 255
161 199 255
161 199 255
161 199 255
162 199 255
162 199 255
162 199 255
162 199 255
162 199 255
162 199 255
162 200 255
162 200 255
162 200 255
163 200 255
163 200 255
163 200 255
163 200 255
163 200 255
163 200 255
163 200 255
163 200 255
163 200 255
163 200 255
164 200 255
164 200 255
164 200 255
164 200 255
164 201 255
164 201 255
164 201 255
164 201 255
164 201 255
164 201 255
164 201 255
165 201 255
165 201 255
165 201 255
165 201 255
165 201 255
165 201 255
165 201 255
165 201 255
165 201 255
165 201 255
166 202 255
166 202 255
166 202 255
166 202 255
166 202 255
166 202 255
166 202 255
166 202 255
166 202 255
166 202 255
166 202 255
166 202 255
167 202 255
167 202 255
167 202 255
167 202 255
167 202 255
167 202 255
167 202 255
167 202 255
167 203 255
167 203 255
167 203 255
167 203 255
168 203 255
168 203 255
168 203 255
168 203 255
168 203 255
168 203 255
168 203 255
168 203 255
168 203 255
168 203 255
168 203 255
169 203 255
168 203 255
168 203 255
168 203 255
168 203 255
168 203 255
168 203 255
168 203 255
168 203 255
168 203 255
168 203 255
168 203 255
168 203 255
168 203 255
167 203 255
167 203 255
167 203 255
167 203 255
167 202 255
167 202 255
167 202 255
167 202 255
167 202 255
167 202 255
167 202 255
167 202 255
166 202 255
166 202 255
166 202 255
166 202 255
166 202 255
166 202 255
166 202 255
166 202 255
166 202 255
166 202 255
166 202 255
165 201 255
165 201 255
165 201 255
165 201 255
165 201 255
165 201 255
165 201 255
165 201 255
165 201 255
165 201 255
165 201 255
164 201 255
164 201 255
164 201 255
164 201 255
164 201 255
164 201 255
164 201 255
164 200 255
164 200 255
164 200 255
164 200 255
163 200 255
163 200 255
163 200 255
163 200 255
163 200 255
163 200 255
163 200 255
163 200 255
163 200 255
162 200 255
162 200 255
162 200 255
162 199 255
162 199 255
162 199 255
162 199 255
162 199 255
162 199 255
162 199 255
161 199 255
161 199 255
161 199 255
161 199 255
161 199 255
161 199 255
161 199 255
161 199 255
161 199 255
161 199 255
160 198 255
160 198 255
160 198 255
160 198 255
160 198 255
160 198 255
160 198 255
160 198 255
160 198 255
159 198 255
159 198 255
159 198 255
159 198 255
159 198 255
159 198 255
159 198 255
159 197 255
159 197 255
159 197 255
158 197 255
158 197 255
158 197 255
158 197 255
158 197 255
158 197 255
158 197 255
158 197 255
158 197 255
157 197 255
157 197 255
157 197 255
157 196 255
157 196 255
157 196 255
157 196 255
157 196 255
157 196 255
157 196 255
156 196 255
156 196 255
156 196 255
156 196 255
156 196 255
156 196 255
156 196 255
156 196 255
156 196 255
156 196 255
155 195 255
155 195 255
155 195 255
155 195 255
155 195 255
155 195 255
155 195 255
155 195 255
155 195 255
155 195 255
155 195 255
154 195 255
154 195 255
154 195 255
154 195 255
154 195 255
154 195 255
154 195 255
154 195 255
154 195 255
154 194 255
154 194 255
154 194 255
154 194 255
154 194 255
153 194 255
153 194 255
153 194 255
153 194 255
153 194 255
153 194 255
153 194 255
153 194 255
153 194 255
153 194 255
153 194 255
153 194 255
153 194 255
153 194 255
153 194 255
153 194 255
153 194 255
153 194 255
153 194 255
152 194 255
152 194 255
152 194 255
152 194 255
152 194 255
152 194 255
152 194 255
152 194 255
152 194 255
152 194 255
152 194 255
152 193 255
152 193 255
152 193 255
152 193 255
152 193 255
152 193 255
152 193 255
152 193 255
152 193 255
152 193 255
152 193 255
152 193 255
152 193 255
152 193 255
152 193 255
152 193 255
152 193 255
152 193 255
152 193 255
152 193 255
152 194 255
152 194 255
152 194 255
152 194 255
152 194 255
152 194 255
152 194 255
152 194 255
152 194 255
152 194 255
152 194 255
153 194 255
153 194 255
153 194 255
153 194 255
153 194 255
153 194 255
153 194 255
153 194 255
153 194 255
153 194 255
153 194 255
153 194 255
153 194 255
153 194 255
153 194 255
153 194 255
153 194 255
154 194 255
154 194 255
154 194 255
154 194 255
154 194 255
154 195 255
154 195 255
154 195 255
154 195 255
154 195 255
154 195 255
154 195 255
154 195 255
154 195 255
155 195 255
155 195 255
155 195 255
155 195 255
155 195 255
155 195 255
155 195 255
155 195 255
155 195 255
155 195 255
155 195 255
156 196 255
156 196 255
156 196 255
156 196 255
156 196 255
156 196 255
156 196 255
156 196 255
156 196 255
156 196 255
157 196 255
157 196 255
157 196 255
157 196 255
157 196 255
157 196 255
157 196 255
157 197 255
157 197 255
157 197 255
158 197 255
158 197 255
158 197 255
158 197 255
158 197 255
158 197 255
158 197 255
158 197 255
158 197 255
159 197 255
159 197 255
159 197 255
159 197 255
159 198 255
159 198 255
159 198 255
159 198 255
159 198 255
159 198 255
160 198 255
160 198 255
160 198 255
160 198 255
160 198 255
160 198 255
160 198 255
160 198 255
160 198 255
161 199 255
161 199 255
161 199 255
161 199 255
161 199 255
161 199 255
161 199 255
161 199 255
161 199 255
161 199 255
162 199 255
162 199 255
162 199 255
162 199 255
162 199 255
162 199 255
162 200 255
162 200 255
162 200 255
162 200 255
163 200 255
163 200 255
163 200 255
163 200 255
163 200 255
163 200 255
163 200 255
163 200 255
163 200 255
163 200 255
164 200 255
164 200 255
164 200 255
164 201 255
164 201 255
164 201 255
164 201 255
164 201 255
164 201 255
164 201 255
165 201 255
165 201 255
165 201 255
165 201 255
165 201 255
165 201 255
165 201 255
165 201 255
165 201 255
165 201 255
166 202 255
166 202 255
166 202 255
166 202 255
166 202 255
166 202 255
166 202 255
166 202 255
166 202 255
166 202 255
166 202 255
166 202 255
167 202 255
167 202 255
167 202 255
167 202 255
167 202 255
167 202 255
167 202 255
167 202 255
167 203 255
167 203 255
167 203 255
167 203 255
168 203 255
168 203 255
168 203 255
168 203 255
168 203 255
168 203 255
168 203 255
168 203 255
168 203 255
168 203 255
168 203 255
168 203 255
168 203 255
169 203 255
169 203 255
169 203 255
169 203 255
169 203 255
168 203 255
168 203 255
168 203 255
168 203 255
168 203 255
168 203 255
168 203 255
168 203 255
168 203 255
168 203 255
168 203 255
168 203 255
167 203 255
167 203 255
167 203 255
167 203 255
167 203 255
167 202 255
167 202 255
167 202 255
167 202 255
167 202 255
167 202 255
167 202 255
167 202 255
166 202 255
166 202 255
166 202 255
166 202 255
166 202 255
166 202 255
166 202 255
166 202 255
166 202 255
166 202 255
166 202 255
165 201 255
165 201 255
165 201 255
165 201 255
165 201 255
165 201 255
165 201 255
165 201 255
165 201 255
165 201 255
165 201 255
164 201 255
164 201 255
164 201 255
164 201 255
164 201 255
164 201 255
164 200 255
164 200 255
164 200 255
164 200 255
163 200 255
163 200 255
163 200 255
163 200 255
163 200 255
163 200 255
163 200 255
163 200 255
163 200 255
163 200 255
162 200 255
162 200 255
162 200 255
162 199 255
162 199 255
162 199 255
162 199 255
162 199 255
162 199 255
162 199 255
161 199 255
161 199 255
161 199 255
161 199 255
161 199 255
161 199 255
161 199 255
161 199 255
161 199 255
160 198 255
160 198 255
160 198 255
160 198 255
160 198 255
160 198 255
160 198 255
160 198 255
160 198 255
160 198 255
159 198 255
159 198 255
159 198 255
159 198 255
159 198 255
159 198 255
159 197 255
159 197 255
159 197 255
158 197 255
158 197 255
158 197 255
158 197 255
158 197 255
158 197 255
158 197 255
158 197 255
158 197 255
158 197 255
157 197 255
157 197 255
157 197 255
157 196 255
157 196 255
157 196 255
157 196 255
157 196 255
157 196 255
157 196 255
156 196 255
156 196 255
156 196 255
156 196 255
156 196 255
156 196 255
156 196 255
156 196 255
156 196 255
156 196 255
156 196 255
155 195 255
155 195 255
155 195 255
155 195 255
155 195 255
155 195 255
155 195 255
155 195 255
155 195 255
155 195 255
155 195 255
154 195 255
154 195 255
154 195 255
154 195 255
154 195 255
154 195 255
154 195 255
154 195 255
154 195 255
154 194 255
154 194 255
154 194 255
154 194 255
153 194 255
153 194 255
153 194 255
153 194 255
153 194 255
153 194 255
153 194 255
153 194 255
153 194 255
153 194 255
153 194 255
153 194 255
153 194 255
153 194 255
153 194 255
153 194 255
153 194 255
153 194 255
153 194 255
153 194 255
153 194 255
153 194 255
153 194 255
152 194 255
152 194 255
152 194 255
152 194 255
152 194 255
152 194 255
152 194 255
152 194 255
152 194 255
152 194 255
152 194 255
152 194 255
152 194 255
152 194 255
152 194 255
152 194 255
152 194 255
152 194 255
152 194 255
152 194 255
152 194 255
152 194 255
152 194 255
152 194 255
152 194 255
153 194 255
153 194 255
153 194 255
153 194 255
153 194 255
153 194 255
153 194 255
153 194 255
153 194 255
153 194 255
153 194 255
153 194 255
153 194 255
153 194 255
153 194 255
153 194 255
153 194 255
153 194 255
153 194 255
153 194 255
153 194 255
153 194 255
153 194 255
154 194 255
154 194 255
154 194 255
154 194 255
154 194 255
154 195 255
154 195 255
154 195 255
154 195 255
154 195 255
154 195 255
154 195 255
154 195 255
154 195 255
154 195 255
155 195 255
155 195 255
155 195 255
155 195 255
155 195 255
155 195 255
155 195 255
155 195 255
155 195 255
155 195 255
155 195 255
156 196 255
156 196 255
156 196 255
156 196 255
156 196 255
156 196 255
156 196 255
156 196 255
156 196 255
156 196 255
156 196 255
157 196 255
157 196 255
157 196 255
157 196 255
157 196 255
157 196 255
157 197 255
157 197 255
157 197 255
158 197 255
158 197 255
158 197 255
158 197 255
158 197 255
158 197 255
158 197 255
158 197 255
158 197 255
158 197 255
159 197 255
159 197 255
159 197 255
159 198 255
159 198 255
159 198 255
159 198 255
159 198 255
159 198 255
160 198 255
160 198 255
160 198 255
160 198 255
160 198 255
160 198 255
160 198 255
160 198 255
160 198 255
160 198 255
161 199 255
161 199 255
161 199 255
161 199 255
161 199 255
161 199 255
161 199 255
161 199 255
161 199 255
162 199 255
162 199 255
162 199 255
162 199 255
162 199 255
162 199 255
162 199 255
162 200 255
162 200 255
162 200 255
163 200 255
163 200 255
163 200 255
163 200 255
163 200 255
163 200 255
163 200 255
163 200 255
163 200 255
163 200 255
164 200 255
164 200 255
164 200 255
164 201 255
164 201 255
164 201 255
164 201 255
164 201 255
164 201 255
164 201 255
165 201 255
165 201 255
165 201 255
165 201 255
165 201 255
165 201 255
165 201 255
165 201 255
165 201 255
165 201 255
165 201 255
165 201 255
166 202 255
166 202 255
166 202 255
166 202 255
166 202 255
166 202 255
166 202 255
166 202 255
166 202 255
166 202 255
166 202 255
167 202 255
167 202 255
167 202 255
167 202 255
167 202 255
167 202 255
167 202 255
167 203 255
167 203 255
167 203 255
167 203 255
167 203 255
168 203 255
168 203 255
168 203 255
168 203 255
168 203 255
168 203 255
168 203 255
168 203 255
168 203 255
168 203 255
168 203 255
168 203 255
169 203 255
169 203 255
169 203 255
169 203 255
169 204 255
169 204 255
169 203 255
169 203 255
169 203 255
169 203 255
169 203 255
168 203 255
168 203 255
168 203 255
168 203 255
168 203 255
168 203 255
168 203 255
168 203 255
168 203 255
168 203 255
168 203 255
168 203 255
168 203 255
167 203 255
167 203 255
167 203 255
167 202 255
167 202 255
167 202 255
167 202 255
167 202 255
167 202 255
167 202 255
167 202 255
166 202 255
166 202 255
166 202 255
166 202 255
166 202 255
166 202 255
166 202 255
166 202 255
166 202 255
166 202 255
166 202 255
166 202 255
165 201 255
165 201 255
165 201 255
165 201 255
165 201 255
165 201 255
165 201 255
165 201 255
165 201 255
165 201 255
165 201 255
164 201 255
164 201 255
164 201 255
164 201 255
164 201 255
164 201 255
164 200 255
164 200 255
164 200 255
164 200 255
163 200 255
163 200 255
163 200 255
163 200 255
163 200 255
163 200 255
163 200 255
163 200 255
163 200 255
163 200 255
162 200 255
162 200 255
162 200 255
162 199 255
162 199 255
162 199 255
162 199 255
162 199 255
162 199 255
162 199 255
161 199 255
161 199 255
161 199 255
161 199 255
161 199 255
161 199 255
161 199 255
161 199 255
161 199 255
160 198 255
160 198 255
160 198 255
160 198 255
160 198 255
160 198 255
160 198 255
160 198 255
160 198 255
159 198 255
159 198 255
159 198 255
159 198 255
159 198 255
159 198 255
159 197 255
159 197 255
159 197 255
158 197 255
158 197 255
158 197 255
158 197 255
158 197 255
158 197 255
158 197 255
158 197 255
158 197 255
158 197 255
157 197 255
157 197 255
157 197 255
157 197 255
157 196 255
157 196 255
157 196 255
157 196 255
157 196 255
157 196 255
156 196 255
156 196 255
156 196 255
156 196 255
156 196 255
156 196 255
156 196 255
156 196 255
156 196 255
156 196 255
156 196 255
156 196 255
155 195 255
155 195 255
155 195 255
155 195 255
155 195 255
155 195 255
155 195 255
155 195 255
155 195 255
155 195 255
155 195 255
154 195 255
154 195 255
154 195 255
154 195 255
154 195 255
154 195 255
154 195 255
154 195 255
154 195 255
154 195 255
154 194 255
154 194 255
154 194 255
154 194 255
154 194 255
154 194 255
153 194 255
153 194 255
153 194 255
153 194 255
153 194 255
153 194 255
153 194 255
153 194 255
153 194 255
153 194 255
153 194 255
153 194 255
153 194 255
153 194 255
153 194 255
153 194 255
153 194 255
153 194 255
153 194 255
153 194 255
153 194 255
153 194 255
153 194 255
153 194 255
153 194 255
153 194 255
153 194 255
153 194 255
153 194 255
153 194 255
153 194 255
153 194 255
153 194 255
153 194 255
153 194 255
153 194 255
153 194 255
153 194 255
153 194 255
153 194 255
153 194 255
153 194 255
153 194 255
153 194 255
153 194 255
153 194 255
153 194 255
153 194 255
153 194 255
153 194 255
153 194 255
153 194 255
153 194 255
153 194 255
153 194 255
153 194 255
153 194 255
153 194 255
153 194 255
153 194 255
153 194 255
154 194 255
154 194 255
154 194 255
154 194 255
154 194 255
154 195 255
154 195 255
154 195 255
154 195 255
154 195 255
154 195 255
154 195 255
154 195 255
154 195 255
155 195 255
155 195 255
155 195 255
155 195 255
155 195 255
155 195 255
155 195 255
155 195 255
155 195 255
155 195 255
155 195 255
155 195 255
156 196 255
156 196 255
156 196 255
156 196 255
156 196 255
156 196 255
156 196 255
156 196 255
156 196 255
156 196 255
156 196 255
157 196 255
157 196 255
157 196 255
157 196 255
157 196 255
157 196 255
157 196 255
157 197 255
157 197 255
157 197 255
158 197 255
158 197 255
158 197 255
158 197 255
158 197 255
158 197 255
158 197 255
158 197 255
158 197 255
158 197 255
159 197 255
159 197 255
159 197 255
159 197 255
159 198 255
159 198 255
159 198 255
159 198 255
159 198 255
160 198 255
160 198 255
160 198 255
160 198 255
160 198 255
160 198 255
160 198 255
160 198 255
160 198 255
160 198 255
161 199 255
161 199 255
161 199 255
161 199 255
161 199 255
161 199 255
161 199 255
161 199 255
161 199 255
162 199 255
162 199 255
162 199 255
162 199 255
162 199 255
162 199 255
162 199 255
162 200 255
162 200 255
162 200 255
163 200 255
163 200 255
163 200 255
163 200 255
163 200 255
163 200 255
163 200 255
163 200 255
163 200 255
163 200 255
164 200 255
164 200 255
164 200 255
164 200 255
164 201 255
164 201 255
164 201 255
164 201 255
164 201 255
164 201 255
164 201 255
165 201 255
165 201 255
165 201 255
165 201 255
165 201 255
165 201 255
165 201 255
165 201 255
165 201 255
165 201 255
166 202 255
166 202 255
166 202 255
166 202 255
166 202 255
166 202 255
166 202 255
166 202 255
166 202 255
166 202 255
166 202 255
167 202 255
167 202 255
167 202 255
167 202 255
167 202 255
167 202 255
167 202 255
167 202 255
167 203 255
167 203 255
167 203 255
167 203 255
168 203 255
168 203 255
168 203 255
168 203 255
168 203 255
168 203 255
168 203 255
168 203 255
168 203 255
168 203 255
168 203 255
168 203 255
169 203 255
169 203 255
169 203 255
169 203 255
169 203 255
169 204 255
169 204 255
169 204 255
169 204 255
169 204 255
169 204 255
169 204 255
169 204 255
169 204 255
169 203 255
169 203 255
169 203 255
169 203 255
168 203 255
168 203 255
168 203 255
168 203 255
168 203 255
168 203 255
168 203 255
168 203 255
168 203 255
168 203 255
168 203 255
168 203 255
168 203 255
167 203 255
167 203 255
167 203 255
167 203 255
167 202 255
167 202 255
167 202 255
167 202 255
167 202 255
167 202 255
167 202 255
166 202 255
166 202 255
166 202 255
166 202 255
166 202 255
166 202 255
166 202 255
166 202 255
166 202 255
166 202 255
166 202 255
166 202 255
165 201 255
165 201 255
165 201 255
165 201 255
165 201 255
165 201 255
165 201 255
165 201 255
165 201 255
165 201 255
164 201 255
164 201 255
164 201 255
164 201 255
164 201 255
164 201 255
164 201 255
164 200 255
164 200 255
164 200 255
163 200 255
163 200 255
163 200 255
163 200 255
163 200 255
163 200 255
163 200 255
163 200 255
163 200 255
163 200 255
162 200 255
162 200 255
162 200 255
162 200 255
162 199 255
162 199 255
162 199 255
162 199 255
162 199 255
162 199 255
161 199 255
161 199 255
161 199 255
161 199 255
161 199 255
161 199 255
161 199 255
161 199 255
161 199 255
160 198 255
160 198 255
160 198 255
160 198 255
160 198 255
160 198 255
160 198 255
160 198 255
160 198 255
160 198 255
159 198 255
159 198 255
159 198 255
159 198 255
159 198 255
159 198 255
159 197 255
159 197 255
159 197 255
158 197 255
158 197 255
158 197 255
158 197 255
158 197 255
158 197 255
158 197 255
158 197 255
158 197 255
158 197 255
157 197 255
157 197 255
157 197 255
157 197 255
157 196 255
157 196 255
157 196 255
157 196 255
157 196 255
157 196 255
156 196 255
156 196 255
156 196 255
156 196 255
156 196 255
156 196 255
156 196 255
156 196 255
156 196 255
156 196 255
156 196 255
156 196 255
155 195 255
155 195 255
155 195 255
155 195 255
155 195 255
155 195 255
155 195 255
155 195 255
155 195 255
155 195 255
155 195 255
155 195 255
155 195 255
154 195 255
154 195 255
154 195 255
154 195 255
154 195 255
154 195 255
154 195 255
154 195 255
154 195 255
154 195 255
154 194 255
154 194 255
154 194 255
154 194 255
154 194 255
153 194 255
153 194 255
153 194 255
153 194 255
153 194 255
153 194 255
153 194 255
153 194 255
153 194 255
153 194 255
153 194 255
153 194 255
153 194 255
153 194 255
153 194 255
153 194 255
153 194 255
153 194 255
153 194 255
153 194 255
153 194 255
153 194 255
153 194 255
153 194 255
153 194 255
153 194 255
153 194 255
153 194 255
153 194 255
153 194 255
153 194 255
153 194 255
153 194 255
153 194 255
153 194 255
153 194 255
153 194 255
153 194 255
153 194 255
153 194 255
153 194 255
153 194 255
153 194 255
153 194 255
153 194 255
153 194 255
153 194 255
153 194 255
153 194 255
153 194 255
154 194 255
154 194 255
154 194 255
154 194 255
154 194 255
154 194 255
154 194 255
154 195 255
154 195 255
154 195 255
154 195 255
154 195 255
154 195 255
154 195 255
154 195 255
154 195 255
154 195 255
155 195 255
155 195 255
155 195 255
155 195 255
155 195 255
155 195 255
155 195 255
155 195 255
155 195 255
155 195 255
155 195 255
155 195 255
155 195 255
156 196 255
156 196 255
156 196 255
156 196 255
156 196 255
156 196 255
156 196 255
156 196 255
156 196 255
156 196 255
156 196 255
157 196 255
157 196 255
157 196 255
157 196 255
157 196 255
157 196 255
157 196 255
157 197 255
157 197 255
157 197 255
157 197 255
158 197 255
158 197 255
158 197 255
158 197 255
158 197 255
158 197 255
158 197 255
158 197 255
158 197 255
158 197 255
159 197 255
159 197 255
159 197 255
159 198 255
159 198 255
159 198 255
159 198 255
159 198 255
159 198 255
160 198 255
160 198 255
160 198 255
160 198 255
160 198 255
160 198 255
160 198 255
160 198 255
160 198 255
160 198 255
161 199 255
161 199 255
161 199 255
161 199 255
161 199 255
161 199 255
161 199 255
161 199 255
161 199 255
162 199 255
162 199 255
162 199 255
162 199 255
162 199 255
162 199 255
162 199 255
162 200 255
162 200 255
162 200 255
163 200 255
163 200 255
163 200 255
163 200 255
163 200 255
163 200 255
163 200 255
163 200 255
163 200 255
163 200 255
164 200 255
164 200 255
164 200 255
164 201 255
164 201 255
164 201 255
164 201 255
164 201 255
164 201 255
164 201 255
165 201 255
165 201 255
165 201 255
165 201 255
165 201 255
165 201 255
165 201 255
165 201 255
165 201 255
165 201 255
165 201 255
166 202 255
166 202 255
166 202 255
166 202 255
166 202 255
166 202 255
166 202 255
166 202 255
166 202 255
166 202 255
166 202 255
167 202 255
167 202 255
167 202 255
167 202 255
167 202 255
167 202 255
167 202 255
167 202 255
167 203 255
167 203 255
167 203 255
168 203 255
168 203 255
168 203 255
168 203 255
168 203 255
168 203 255
168 203 255
168 203 255
168 203 255
168 203 255
168 203 255
168 203 255
169 203 255
169 203 255
169 203 255
169 203 255
169 203 255
169 204 255
169 204 255
169 204 255
169 204 255
169 204 255
169 204 255
169 204 255
169 204 255
169 204 255
169 204 255
169 204 255
169 204 255
169 204 255
169 204 255
169 204 255
169 203 255
169 203 255
169 203 255
169 203 255
168 203 255
168 203 255
168 203 255
168 203 255
168 203 255
168 203 255
168 203 255
168 203 255
168 203 255
168 203 255
168 203 255
168 203 255
167 203 255
167 203 255
167 203 255
167 203 255
167 203 255
167 202 255
167 202 255
167 202 255
167 202 255
167 202 255
167 202 255
167 202 255
166 202 255
166 202 255
166 202 255
166 202 255
166 202 255
166 202 255
166 202 255
166 202 255
166 202 255
166 202 255
166 202 255
165 201 255
165 201 255
165 201 255
165 201 255
165 201 255
165 201 255
165 201 255
165 201 255
165 201 255
165 201 255
164 201 255
164 201 255
164 201 255
164 201 255
164 201 255
164 201 255
164 201 255
164 201 255
164 200 255
164 200 255
164 200 255
163 200 255
163 200 255
163 200 255
163 200 255
163 200 255
163 200 255
163 200 255
163 200 255
163 200 255
163 200 255
162 200 255
162 200 255
162 200 255
162 199 255
162 199 255
162 199 255
162 199 255
162 199 255
162 199 255
162 199 255
161 199 255
161 199 255
161 199 255
161 199 255
161 199 255
161 199 255
161 199 255
161 199 255
161 199 255
160 198 255
160 198 255
160 198 255
160 198 255
160 198 255
160 198 255
160 198 255
160 198 255
160 198 255
160 198 255
159 198 255
159 198 255
159 198 255
159 198 255
159 198 255
159 198 255
159 198 255
159 197 255
159 197 255
159 197 255
158 197 255
158 197 255
158 197 255
158 197 255
158 197 255
158 197 255
158 197 255
158 197 255
158 197 255
157 197 255
157 197 255
157 197 255
157 197 255
157 196 255
157 196 255
157 196 255
157 196 255
157 196 255
157 196 255
157 196 255
156 196 255
156 196 255
156 196 255
156 196 255
156 196 255
156 196 255
156 196 255
156 196 255
156 196 255
156 196 255
156 196 255
155 195 255
155 195 255
155 195 255
155 195 255
155 195 255
155 195 255
155 195 255
155 195 255
155 195 255
155 195 255
155 195 255
155 195 255
155 195 255
154 195 255
154 195 255
154 195 255
154 195 255
154 195 255
154 195 255
154 195 255
154 195 255
154 195 255
154 195 255
154 195 255
154 195 255
154 194 255
154 194 255
154 194 255
154 194 255
154 194 255
154 194 255
154 194 255
153 194 255
153 194 255
153 194 255
153 194 255
153 194 255
153 194 255
153 194 255
153 194 255
153 194 255
153 194 255
153 194 255
153 194 255
153 194 255
153 194 255
153 194 255
153 194 255
153 194 255
153 194 255
153 194 255
153 194 255
153 194 255
153 194 255
153 194 255
153 194 255
153 194 255
153 194 255
153 194 255
153 194 255
153 194 255
153 194 255
153 194 255
153 194 255
153 194 255
153 194 255
153 194 255
154 194 255
153 194 255
154 194 255
154 194 255
154 194 255
154 194 255
154 194 255
154 194 255
154 194 255
154 194 255
154 195 255
154 195 255
154 195 255
154 195 255
154 195 255
154 195 255
154 195 255
154 195 255
154 195 255
154 195 255
154 195 255
154 195 255
155 195 255
155 195 255
155 195 255
155 195 255
155 195 255
155 195 255
155 195 255
155 195 255
155 195 255
155 195 255
155 195 255
155 195 255
155 195 255
156 196 255
156 196 255
156 196 255
156 196 255
156 196 255
156 196 255
156 196 255
156 196 255
156 196 255
156 196 255
156 196 255
157 196 255
157 196 255
157 196 255
157 196 255
157 196 255
157 196 255
157 196 255
157 196 255
157 197 255
157 197 255
157 197 255
158 197 255
158 197 255
158 197 255
158 197 255
158 197 255
158 197 255
158 197 255
158 197 255
158 197 255
158 197 255
159 197 255
159 197 255
159 197 255
159 198 255
159 198 255
159 198 255
159 198 255
159 198 255
159 198 255
160 198 255
160 198 255
160 198 255
160 198 255
160 198 255
160 198 255
160 198 255
160 198 255
160 198 255
160 198 255
161 199 255
161 199 255
161 199 255
161 199 255
161 199 255
161 199 255
161 199 255
161 199 255
161 199 255
161 199 255
162 199 255
162 199 255
162 199 255
162 199 255
162 199 255
162 199 255
162 200 255
162 200 255
162 200 255
163 200 255
163 200 255
163 200 255
163 200 255
163 200 255
163 200 255
163 200 255
163 200 255
163 200 255
163 200 255
164 200 255
164 200 255
164 200 255
164 201 255
164 201 255
164 201 255
164 201 255
164 201 255
164 201 255
164 201 255
164 201 255
165 201 255
165 201 255
165 201 255
165 201 255
165 201 255
165 201 255
165 201 255
165 201 255
165 201 255
165 201 255
166 202 255
166 202 255
166 202 255
166 202 255
166 202 255
166 202 255
166 202 255
166 202 255
166 202 255
166 202 255
166 202 255
167 202 255
167 202 255
167 202 255
167 202 255
167 202 255
167 202 255
167 202 255
167 203 255
167 203 255
167 203 255
167 203 255
168 203 255
168 203 255
168 203 255
168 203 255
168 203 255
168 203 255
168 203 255
168 203 255
168 203 255
168 203 255
168 203 255
168 203 255
168 203 255
169 203 255
169 203 255
169 203 255
169 203 255
169 204 255
169 204 255
169 204 255
169 204 255
169 204 255
169 204 255
169 204 255
169 204 255
169 204 255
170 204 255
170 204 255
170 204 255
169 204 255
169 204 255
169 204 255
169 204 255
169 204 255
169 204 255
169 204 255
169 204 255
169 203 255
169 203 255
169 203 255
169 203 255
169 203 255
168 203 255
168 203 255
168 203 255
168 203 255
168 203 255
168 203 255
168 203 255
168 203 255
168 203 255
168 203 255
168 203 255
168 203 255
167 203 255
167 203 255
167 203 255
167 203 255
167 203 255
167 202 255
167 202 255
167 202 255
167 202 255
167 202 255
167 202 255
166 202 255
166 202 255
166 202 255
166 202 255
166 202 255
166 202 255
166 202 255
166 202 255
166 202 255
166 202 255
166 202 255
166 202 255
165 201 255
165 201 255
165 201 255
165 201 255
165 201 255
165 201 255
165 201 255
165 201 255
165 201 255
165 201 255
165 201 255
164 201 255
164 201 255
164 201 255
164 201 255
164 201 255
164 201 255
164 200 255
164 200 255
164 200 255
164 200 255
163 200 255
163 200 255
163 200 255
163 200 255
163 200 255
163 200 255
163 200 255
163 200 255
163 200 255
163 200 255
162 200 255
162 200 255
162 200 255
162 199 255
162 199 255
162 199 255
162 199 255
162 199 255
162 199 255
162 199 255
161 199 255
161 199 255
161 199 255
161 199 255
161 199 255
161 199 255
161 199 255
161 199 255
161 199 255
160 198 255
160 198 255
160 198 255
160 198 255
160 198 255
160 198 255
160 198 255
160 198 255
160 198 255
160 198 255
159 198 255
159 198 255
159 198 255
159 198 255
159 198 255
159 198 255
159 197 255
159 197 255
159 197 255
158 197 255
158 197 255
158 197 255
158 197 255
158 197 255
158 197 255
158 197 255
158 197 255
158 197 255
158 197 255
157 197 255
157 197 255
157 197 255
157 196 255
157 196 255
157 196 255
157 196 255
157 196 255
157 196 255
157 196 255
157 196 255
156 196 255
156 196 255
156 196 255
156 196 255
156 196 255
156 196 255
156 196 255
156 196 255
156 196 255
156 196 255
156 196 255
156 196 255
155 195 255
155 195 255
155 195 255
155 195 255
155 195 255
155 195 255
155 195 255
155 195 255
155 195 255
155 195 255
155 195 255
155 195 255
155 195 255
155 195 255
155 195 255
154 195 255
154 195 255
154 195 255
154 195 255
154 195 255
154 195 255
154 195 255
154 195 255
154 195 255
154 195 255
154 195 255
154 195 255
154 194 255
154 194 255
154 195 255
154 194 255
154 194 255
154 194 255
154 194 255
154 194 255
154 194 255
154 194 255
154 194 255
154 194 255
154 194 255
153 194 255
154 194 255
154 194 255
154 194 255
154 194 255
154 194 255
154 194 255
153 194 255
154 194 255
154 194 255
153 194 255
154 194 255
154 194 255
154 194 255
154 194 255
154 194 255
154 194 255
154 194 255
154 194 255
154 194 255
154 194 255
154 194 255
154 194 255
154 194 255
154 194 255
154 195 255
154 195 255
154 195 255
154 195 255
154 195 255
154 195 255
154 195 255
154 195 255
154 195 255
154 195 255
154 195 255
154 195 255
154 195 255
154 195 255
154 195 255
155 195 255
155 195 255
155 195 255
155 195 255
155 195 255
155 195 255
155 195 255
155 195 255
155 195 255
155 195 255
155 195 255
155 195 255
155 195 255
155 195 255
156 196 255
156 196 255
156 196 255
156 196 255
156 196 255
156 196 255
156 196 255
156 196 255
156 196 255
156 196 255
156 196 255
156 196 255
157 196 255
157 196 255
157 196 255
157 196 255
157 196 255
157 196 255
157 196 255
157 197 255
157 197 255
157 197 255
157 197 255
158 197 255
158 197 255
158 197 255
158 197 255
158 197 255
158 197 255
158 197 255
158 197 255
158 197 255
159 197 255
159 197 255
159 197 255
159 197 255
159 198 255
159 198 255
159 198 255
159 198 255
159 198 255
159 198 255
159 198 255
160 198 255
160 198 255
160 198 255
160 198 255
160 198 255
160 198 255
160 198 255
160 198 255
160 198 255
161 199 255
161 199 255
161 199 255
161 199 255
161 199 255
161 199 255
161 199 255
161 199 255
161 199 255
161 199 255
162 199 255
162 199 255
162 199 255
162 199 255
162 199 255
162 199 255
162 200 255
162 200 255
162 200 255
162 200 255
163 200 255
163 200 255
163 200 255
163 200 255
163 200 255
163 200 255
163 200 255
163 200 255
163 200 255
164 200 255
164 200 255
164 200 255
164 200 255
164 201 255
164 201 255
164 201 255
164 201 255
164 201 255
164 201 255
164 201 255
165 201 255
165 201 255
165 201 255
165 201 255
165 201 255
165 201 255
165 201 255
165 201 255
165 201 255
165 201 255
166 202 255
166 202 255
166 202 255
166 202 255
166 202 255
166 202 255
166 202 255
166 202 255
166 202 255
166 202 255
166 202 255
167 202 255
167 202 255
167 202 255
167 202 255
167 202 255
167 202 255
167 202 255
167 202 255
167 203 255
167 203 255
167 203 255
167 203 255
168 203 255
168 203 255
168 203 255
168 203 255
168 203 255
168 203 255
168 203 255
168 203 255
168 203 255
168 203 255
168 203 255
168 203 255
169 203 255
169 203 255
169 203 255
169 203 255
169 204 255
169 204 255
169 204 255
169 204 255
169 204 255
169 204 255
169 204 255
169 204 255
169 204 255
170 204 255
170 204 255
170 204 255
170 204 255
170 204 255
170 204 255
170 204 255
170 204 255
170 204 255
169 204 255
169 204 255
169 204 255
169 204 255
169 204 255
169 204 255
169 204 255
169 204 255
169 204 255
169 203 255
169 203 255
169 203 255
169 203 255
168 203 255
168 203 255
168 203 255
168 203 255
168 203 255
168 203 255
168 203 255
168 203 255
168 203 255
168 203 255
168 203 255
168 203 255
168 203 255
167 203 255
167 203 255
167 203 255
167 202 255
167 202 255
167 202 255
167 202 255
167 202 255
167 202 255
167 202 255
167 202 255
166 202 255
166 202 255
166 202 255
166 202 255
166 202 255
166 202 255
166 202 255
166 202 255
166 202 255
166 202 255
165 201 255
165 201 255
165 201 255
165 201 255
165 201 255
165 201 255
165 201 255
165 201 255
165 201 255
165 201 255
165 201 255
164 201 255
164 201 255
164 201 255
164 201 255
164 201 255
164 201 255
164 201 255
164 200 255
164 200 255
164 200 255
163 200 255
163 200 255
163 200 255
163 200 255
163 200 255
163 200 255
163 200 255
163 200 255
163 200 255
163 200 255
162 200 255
162 200 255
162 200 255
162 200 255
162 199 255
162 199 255
162 199 255
162 199 255
162 199 255
162 199 255
161 199 255
161 199 255
161 199 255
161 199 255
161 199 255
161 199 255
161 199 255
161 199 255
161 199 255
160 198 255
160 198 255
160 198 255
160 198 255
160 198 255
160 198 255
160 198 255
160 198 255
160 198 255
160 198 255
159 198 255
159 198 255
159 198 255
159 198 255
159 198 255
159 198 255
159 198 255
159 197 255
159 197 255
159 197 255
159 197 255
158 197 255
158 197 255
158 197 255
158 197 255
158 197 255
158 197 255
158 197 255
158 197 255
158 197 255
157 197 255
157 197 255
157 197 255
157 197 255
157 196 255
157 196 255
157 196 255
157 196 255
157 196 255
157 196 255
157 196 255
157 196 255
156 196 255
156 196 255
156 196 255
156 196 255
156 196 255
156 196 255
156 196 255
156 196 255
156 196 255
156 196 255
156 196 255
156 196 255
155 195 255
155 195 255
155 195 255
155 195 255
155 195 255
155 195 255
155 195 255
155 195 255
155 195 255
155 195 255
155 195 255
155 195 255
155 195 255
155 195 255
155 195 255
154 195 255
154 195 255
154 195 255
154 195 255
154 195 255
154 195 255
154 195 255
154 195 255
154 195 255
154 195 255
154 195 255
154 195 255
154 195 255
154 195 255
154 195 255
154 195 255
154 195 255
154 195 255
154 195 255
154 195 255
154 195 255
154 195 255
154 194 255
154 194 255
154 195 255
154 194 255
154 195 255
154 194 255
154 194 255
154 194 255
154 194 255
154 194 255
154 194 255
154 194 255
154 195 255
154 195 255
154 195 255
154 195 255
154 195 255
154 195 255
154 195 255
154 195 255
154 195 255
154 195 255
154 195 255
154 195 255
154 195 255
154 195 255
154 195 255
154 195 255
154 195 255
154 195 255
154 195 255
154 195 255
154 195 255
154 195 255
155 195 255
155 195 255
155 195 255
155 195 255
155 195 255
155 195 255
155 195 255
155 195 255
155 195 255
155 195 255
155 195 255
155 195 255
155 195 255
155 195 255
155 195 255
156 196 255
156 196 255
156 196 255
156 196 255
156 196 255
156 196 255
156 196 255
156 196 255
156 196 255
156 196 255
156 196 255
156 196 255
156 196 255
157 196 255
157 196 255
157 196 255
157 196 255
157 196 255
157 196 255
157 196 255
157 197 255
157 197 255
157 197 255
157 197 255
158 197 255
158 197 255
158 197 255
158 197 255
158 197 255
158 197 255
158 197 255
158 197 255
158 197 255
158 197 255
159 197 255
159 197 255
159 197 255
159 198 255
159 198 255
159 198 255
159 198 255
159 198 255
159 198 255
159 198 255
160 198 255
160 198 255
160 198 255
160 198 255
160 198 255
160 198 255
160 198 255
160 198 255
160 198 255
161 199 255
161 199 255
161 199 255
161 199 255
161 199 255
161 199 255
161 199 255
161 199 255
161 199 255
161 199 255
162 199 255
162 199 255
162 199 255
162 199 255
162 199 255
162 199 255
162 200 255
162 200 255
162 200 255
162 200 255
163 200 255
163 200 255
163 200 255
163 200 255
163 200 255
163 200 255
163 200 255
163 200 255
163 200 255
164 200 255
164 200 255
164 200 255
164 200 255
164 201 255
164 201 255
164 201 255
164 201 255
164 201 255
164 201 255
165 201 255
165 201 255
165 201 255
165 201 255
165 201 255
165 201 255
165 201 255
165 201 255
165 201 255
165 201 255
165 201 255
166 202 255
166 202 255
166 202 255
166 202 255
166 202 255
166 202 255
166 202 255
166 202 255
166 202 255
166 202 255
166 202 255
167 202 255
167 202 255
167 202 255
167 202 255
167 202 255
167 202 255
167 202 255
167 202 255
167 203 255
167 203 255
167 203 255
168 203 255
168 203 255
168 203 255
168 203 255
168 203 255
168 203 255
168 203 255
168 203 255
168 203 255
168 203 255
168 203 255
168 203 255
168 203 255
169 203 255
169 203 255
169 203 255
169 203 255
169 204 255
169 204 255
169 204 255
169 204 255
169 204 255
169 204 255
169 204 255
169 204 255
169 204 255
170 204 255
170 204 255
170 204 255
170 204 255
170 204 255
170 204 255
170 204 255
170 204 255
170 204 255
170 204 255
170 204 255
170 204 255
170 204 255
170 204 255
170 204 255
169 204 255
169 204 255
169 204 255
169 204 255
169 204 255
169 204 255
169 204 255
169 204 255
169 204 255
169 203 255
169 203 255
169 203 255
169 203 255
169 203 255
168 203 255
168 203 255
168 203 255
168 203 255
168 203 255
168 203 255
168 203 255
168 203 255
168 203 255
168 203 255
168 203 255
168 203 255
167 203 255
167 203 255
167 203 255
167 202 255
167 202 255
167 202 255
167 202 255
167 202 255
167 202 255
167 202 255
167 202 255
166 202 255
166 202 255
166 202 255
166 202 255
166 202 255
166 202 255
166 202 255
166 202 255
166 202 255
166 202 255
166 202 255
165 201 255
165 201 255
165 201 255
165 201 255
165 201 255
165 201 255
165 201 255
165 201 255
165 201 255
165 201 255
164 201 255
164 201 255
164 201 255
164 201 255
164 201 255
164 201 255
164 201 255
164 200 255
164 200 255
164 200 255
163 200 255
163 200 255
163 200 255
163 200 255
163 200 255
163 200 255
163 200 255
163 200 255
163 200 255
163 200 255
162 200 255
162 200 255
162 200 255
162 199 255
162 199 255
162 199 255
162 199 255
162 199 255
162 199 255
162 199 255
162 199 255
161 199 255
161 199 255
161 199 255
161 199 255
161 199 255
161 199 255
161 199 255
161 199 255
160 198 255
160 198 255
160 198 255
160 198 255
160 198 255
160 198 255
160 198 255
160 198 255
160 198 255
160 198 255
159 198 255
159 198 255
159 198 255
159 198 255
159 198 255
159 198 255
159 198 255
159 197 255
159 197 255
159 197 255
158 197 255
158 197 255
158 197 255
158 197 255
158 197 255
158 197 255
158 197 255
158 197 255
158 197 255
158 197 255
158 197 255
157 197 255
157 197 255
157 197 255
157 196 255
157 196 255
157 196 255
157 196 255
157 196 255
157 196 255
157 196 255
157 196 255
156 196 255
156 196 255
156 196 255
156 196 255
156 196 255
156 196 255
156 196 255
156 196 255
156 196 255
156 196 255
156 196 255
156 196 255
156 196 255
155 195 255
155 195 255
155 195 255
155 195 255
155 195 255
155 195 255
155 195 255
155 195 255
155 195 255
155 195 255
155 195 255
155 195 255
155 195 255
155 195 255
155 195 255
155 195 255
155 195 255
155 195 255
154 195 255
154 195 255
154 195 255
154 195 255
154 195 255
154 195 255
154 195 255
154 195 255
154 195 255
154 195 255
154 195 255
154 195 255
154 195 255
154 195 255
154 195 255
154 195 255
154 195 255
154 195 255
154 195 255
154 195 255
154 195 255
154 195 255
154 195 255
154 195 255
154 195 255
154 195 255
154 195 255
154 195 255
154 195 255
154 195 255
154 195 255
154 195 255
154 195 255
154 195 255
154 195 255
154 195 255
154 195 255
154 195 255
154 195 255
154 195 255
154 195 255
154 195 255
155 195 255
155 195 255
155 195 255
155 195 255
155 195 255
155 195 255
155 195 255
155 195 255
155 195 255
155 195 255
155 195 255
155 195 255
155 195 255
155 195 255
155 195 255
155 195 255
155 195 255
155 195 255
156 196 255
156 196 255
156 196 255
156 196 255
156 196 255
156 196 255
156 196 255
156 196 255
156 196 255
156 196 255
156 196 255
156 196 255
156 196 255
156 196 255
157 196 255
157 196 255
157 196 255
157 196 255
157 196 255
157 196 255
157 196 255
157 197 255
157 197 255
157 197 255
158 197 255
158 197 255
158 197 255
158 197 255
158 197 255
158 197 255
158 197 255
158 197 255
158 197 255
158 197 255
158 197 255
159 197 255
159 197 255
159 197 255
159 198 255
159 198 255
159 198 255
159 198 255
159 198 255
159 198 255
160 198 255
160 198 255
160 198 255
160 198 255
160 198 255
160 198 255
160 198 255
160 198 255
160 198 255
160 198 255
160 198 255
161 199 255
161 199 255
161 199 255
161 199 255
161 199 255
161 199 255
161 199 255
161 199 255
161 199 255
162 199 255
162 199 255
162 199 255
162 199 255
162 199 255
162 199 255
162 199 255
162 200 255
162 200 255
162 200 255
163 200 255
163 200 255
163 200 255
163 200 255
163 200 255
163 200 255
163 200 255
163 200 255
163 200 255
163 200 255
164 200 255
164 200 255
164 200 255
164 201 255
164 201 255
164 201 255
164 201 255
164 201 255
164 201 255
164 201 255
165 201 255
165 201 255
165 201 255
165 201 255
165 201 255
165 201 255
165 201 255
165 201 255
165 201 255
165 201 255
166 202 255
166 202 255
166 202 255
166 202 255
166 202 255
166 202 255
166 202 255
166 202 255
166 202 255
166 202 255
166 202 255
167 202 255
167 202 255
167 202 255
167 202 255
167 202 255
167 202 255
167 202 255
167 202 255
167 203 255
167 203 255
167 203 255
168 203 255
168 203 255
168 203 255
168 203 255
168 203 255
168 203 255
168 203 255
168 203 255
168 203 255
168 203 255
168 203 255
168 203 255
168 203 255
169 203 255
169 203 255
169 203 255
169 204 255
169 204 255
169 204 255
169 204 255
169 204 255
169 204 255
169 204 255
169 204 255
169 204 255
170 204 255
170 204 255
170 204 255
170 204 255
170 204 255
170 204 255
170 204 255
170 204 255
170 204 255
170 204 255
170 204 255
170 204 255
170 204 255
170 204 255
170 204 255
170 204 255
170 204 255
170 204 255
170 204 255
170 204 255
170 204 255
170 204 255
170 204 255
169 204 255
169 204 255
169 204 255
169 204 255
169 204 255
169 204 255
169 204 255
169 204 255
169 203 255
169 203 255
169 203 255
169 203 255
168 203 255
168 203 255
168 203 255
168 203 255
168 203 255
168 203 255
168 203 255
168 203 255
168 203 255
168 203 255
168 203 255
168 203 255
167 203 255
167 203 255
167 203 255
167 202 255
167 202 255
167 202 255
167 202 255
167 202 255
167 202 255
167 202 255
167 202 255
167 202 255
166 202 255
166 202 255
166 202 255
166 202 255
166 202 255
166 202 255
166 202 255
166 202 255
166 202 255
166 202 255
165 201 255
165 201 255
165 201 255
165 201 255
165 201 255
165 201 255
165 201 255
165 201 255
165 201 255
165 201 255
165 201 255
164 201 255
164 201 255
164 201 255
164 201 255
164 201 255
164 201 255
164 200 255
164 200 255
164 200 255
164 200 255
163 200 255
163 200 255
163 200 255
163 200 255
163 200 255
163 200 255
163 200 255
163 200 255
163 200 255
163 200 255
162 200 255
162 200 255
162 200 255
162 200 255
162 199 255
162 199 255
162 199 255
162 199 255
162 199 255
162 199 255
161 199 255
161 199 255
161 199 255
161 199 255
161 199 255
161 199 255
161 199 255
161 199 255
161 199 255
160 198 255
160 198 255
160 198 255
160 198 255
160 198 255
160 198 255
160 198 255
160 198 255
160 198 255
160 198 255
159 198 255
159 198 255
159 198 255
159 198 255
159 198 255
159 198 255
159 198 255
159 197 255
159 197 255
159 197 255
159 197 255
158 197 255
158 197 255
158 197 255
158 197 255
158 197 255
158 197 255
158 197 255
158 197 255
158 197 255
157 197 255
157 197 255
157 197 255
157 197 255
157 197 255
157 196 255
157 196 255
157 196 255
157 196 255
157 196 255
157 196 255
157 196 255
157 196 255
156 196 255
156 196 255
156 196 255
156 196 255
156 196 255
156 196 255
156 196 255
156 196 255
156 196 255
156 196 255
156 196 255
156 196 255
156 196 255
156 196 255
156 196 255
155 195 255
155 195 255
155 195 255
155 195 255
155 195 255
155 195 255
155 195 255
155 195 255
155 195 255
155 195 255
155 195 255
155 195 255
155 195 255
155 195 255
155 195 255
155 195 255
155 195 255
155 195 255
155 195 255
155 195 255
155 195 255
154 195 255
155 195 255
155 195 255
154 195 255
154 195 255
154 195 255
154 195 255
154 195 255
154 195 255
154 195 255
154 195 255
154 195 255
154 195 255
154 195 255
154 195 255
154 195 255
154 195 255
154 195 255
154 195 255
154 195 255
154 195 255
154 195 255
155 195 255
154 195 255
155 195 255
155 195 255
155 195 255
155 195 255
155 195 255
155 195 255
155 195 255
155 195 255
155 195 255
155 195 255
155 195 255
155 195 255
155 195 255
155 195 255
155 195 255
155 195 255
155 195 255
155 195 255
155 195 255
155 195 255
155 195 255
155 195 255
156 196 255
156 196 255
156 196 255
156 196 255
156 196 255
156 196 255
156 196 255
156 196 255
156 196 255
156 196 255
156 196 255
156 196 255
156 196 255
156 196 255
157 196 255
157 196 255
157 196 255
157 196 255
157 196 255
157 196 255
157 196 255
157 196 255
157 196 255
157 197 255
157 197 255
157 197 255
158 197 255
158 197 255
158 197 255
158 197 255
158 197 255
158 197 255
158 197 255
158 197 255
158 197 255
158 197 255
158 197 255
159 197 255
159 197 255
159 197 255
159 197 255
159 198 255
159 198 255
159 198 255
159 198 255
159 198 255
159 198 255
160 198 255
160 198 255
160 198 255
160 198 255
160 198 255
160 198 255
160 198 255
160 198 255
160 198 255
161 199 255
161 199 255
161 199 255
161 199 255
161 199 255
161 199 255
161 199 255
161 199 255
161 199 255
161 199 255
161 199 255
162 199 255
162 199 255
162 199 255
162 199 255
162 199 255
162 199 255
162 200 255
162 200 255
162 200 255
163 200 255
163 200 255
163 200 255
163 200 255
163 200 255
163 200 255
163 200 255
163 200 255
163 200 255
164 200 255
164 200 255
164 200 255
164 200 255
164 201 255
164 201 255
164 201 255
164 201 255
164 201 255
164 201 255
164 201 255
165 201 255
165 201 255
165 201 255
165 201 255
165 201 255
165 201 255
165 201 255
165 201 255
165 201 255
165 201 255
166 202 255
166 202 255
166 202 255
166 202 255
166 202 255
166 202 255
166 202 255
166 202 255
166 202 255
166 202 255
166 202 255
167 202 255
167 202 255
167 202 255
167 202 255
167 202 255
167 202 255
167 202 255
167 202 255
167 203 255
167 203 255
167 203 255
168 203 255
168 203 255
168 203 255
168 203 255
168 203 255
168 203 255
168 203 255
168 203 255
168 203 255
168 203 255
168 203 255
168 203 255
169 203 255
169 203 255
169 203 255
169 203 255
169 203 255
169 204 255
169 204 255
169 204 255
169 204 255
169 204 255
169 204 255
169 204 255
169 204 255
169 204 255
170 204 255
170 204 255
170 204 255
170 204 255
170 204 255
170 204 255
170 204 255
170 204 255
170 204 255
170 204 255
170 204 255
170 204 255
171 205 255
171 205 255
170 204 255
170 204 255
170 204 255
170 204 255
170 204 255
170 204 255
170 204 255
170 204 255
170 204 255
170 204 255
170 204 255
170 204 255
170 204 255
170 204 255
169 204 255
169 204 255
169 204 255
169 204 255
169 204 255
169 204 255
169 204 255
169 204 255
169 204 255
169 203 255
169 203 255
169 203 255
168 203 255
168 203 255
168 203 255
168 203 255
168 203 255
168 203 255
168 203 255
168 203 255
168 203 255
168 203 255
168 203 255
168 203 255
168 203 255
167 203 255
167 203 255
167 203 255
167 202 255
167 202 255
167 202 255
167 202 255
167 202 255
167 202 255
167 202 255
167 202 255
166 202 255
166 202 255
166 202 255
166 202 255
166 202 255
166 202 255
166 202 255
166 202 255
166 202 255
166 202 255
166 202 255
165 201 255
165 201 255
165 201 255
165 201 255
165 201 255
165 201 255
165 201 255
165 201 255
165 201 255
165 201 255
164 201 255
164 201 255
164 201 255
164 201 255
164 201 255
164 201 255
164 201 255
164 200 255
164 200 255
164 200 255
163 200 255
163 200 255
163 200 255
163 200 255
163 200 255
163 200 255
163 200 255
163 200 255
163 200 255
163 200 255
162 200 255
162 200 255
162 200 255
162 199 255
162 199 255
162 199 255
162 199 255
162 199 255
162 199 255
162 199 255
161 199 255
161 199 255
161 199 255
161 199 255
161 199 255
161 199 255
161 199 255
161 199 255
161 199 255
160 198 255
160 198 255
160 198 255
160 198 255
160 198 255
160 198 255
160 198 255
160 198 255
160 198 255
160 198 255
159 198 255
159 198 255
159 198 255
159 198 255
159 198 255
159 198 255
159 198 255
159 197 255
159 197 255
159 197 255
159 197 255
158 197 255
158 197 255
158 197 255
158 197 255
158 197 255
158 197 255
158 197 255
158 197 255
158 197 255
158 197 255
157 197 255
157 197 255
157 197 255
157 197 255
157 197 255
157 196 255
157 196 255
157 196 255
157 196 255
157 196 255
157 196 255
157 196 255
157 196 255
156 196 255
156 196 255
156 196 255
156 196 255
156 196 255
156 196 255
156 196 255
156 196 255
156 196 255
156 196 255
156 196 255
156 196 255
156 196 255
156 196 255
156 196 255
155 195 255
155 195 255
155 195 255
155 195 255
155 195 255
155 195 255
155 195 255
155 195 255
155 195 255
155 195 255
155 195 255
155 195 255
155 195 255
155 195 255
155 195 255
155 195 255
155 195 255
155 195 255
155 195 255
155 195 255
155 195 255
155 195 255
155 195 255
155 195 255
155 195 255
155 195 255
155 195 255
155 195 255
155 195 255
155 195 255
155 195 255
155 195 255
155 195 255
155 195 255
155 195 255
155 195 255
155 195 255
155 195 255
155 195 255
155 195 255
155 195 255
155 195 255
155 195 255
155 195 255
155 195 255
155 195 255
155 195 255
155 195 255
155 195 255
155 195 255
155 195 255
155 195 255
155 195 255
155 195 255
155 195 255
155 195 255
155 195 255
156 196 255
156 196 255
156 196 255
156 196 255
156 196 255
156 196 255
156 196 255
156 196 255
156 196 255
156 196 255
156 196 255
156 196 255
156 196 255
156 196 255
156 196 255
156 196 255
157 196 255
157 196 255
157 196 255
157 196 255
157 196 255
157 196 255
157 196 255
157 196 255
157 197 255
157 197 255
157 197 255
157 197 255
157 197 255
158 197 255
158 197 255
158 197 255
158 197 255
158 197 255
158 197 255
158 197 255
158 197 255
158 197 255
158 197 255
159 197 255
159 197 255
159 197 255
159 197 255
159 198 255
159 198 255
159 198 255
159 198 255
159 198 255
159 198 255
159 198 255
160 198 255
160 198 255
160 198 255
160 198 255
160 198 255
160 198 255
160 198 255
160 198 255
160 198 255
160 198 255
161 199 255
161 199 255
161 199 255
161 199 255
161 199 255
161 199 255
161 199 255
161 199 255
161 199 255
162 199 255
162 199 255
162 199 255
162 199 255
162 199 255
162 199 255
162 199 255
162 200 255
162 200 255
162 200 255
163 200 255
163 200 255
163 200 255
163 200 255
163 200 255
163 200 255
163 200 255
163 200 255
163 200 255
163 200 255
164 200 255
164 200 255
164 200 255
164 201 255
164 201 255
164 201 255
164 201 255
164 201 255
164 201 255
164 201 255
164 201 255
165 201 255
165 201 255
165 201 255
165 201 255
165 201 255
165 201 255
165 201 255
165 201 255
165 201 255
166 202 255
166 202 255
166 202 255
166 202 255
166 202 255
166 202 255
166 202 255
166 202 255
166 202 255
166 202 255
166 202 255
167 202 255
167 202 255
167 202 255
167 202 255
167 202 255
167 202 255
167 202 255
167 202 255
167 203 255
167 203 255
167 203 255
167 203 255
168 203 255
168 203 255
168 203 255
168 203 255
168 203 255
168 203 255
168 203 255
168 203 255
168 203 255
168 203 255
168 203 255
169 203 255
169 203 255
169 203 255
169 203 255
169 203 255
169 204 255
169 204 255
169 204 255
169 204 255
169 204 255
169 204 255
169 204 255
169 204 255
170 204 255
170 204 255
170 204 255
170 204 255
170 204 255
170 204 255
170 204 255
170 204 255
170 204 255
170 204 255
170 204 255
170 204 255
170 204 255
170 204 255
171 205 255
171 205 255
171 205 255
171 205 255
171 205 255
171 205 255
171 205 255
171 205 255
170 204 255
170 204 255
170 204 255
170 204 255
170 204 255
170 204 255
170 204 255
170 204 255
170 204 255
170 204 255
170 204 255
170 204 255
170 204 255
169 204 255
169 204 255
169 204 255
169 204 255
169 204 255
169 204 255
169 204 255
169 204 255
169 203 255
169 203 255
169 203 255
169 203 255
169 203 255
168 203 255
168 203 255
168 203 255
168 203 255
168 203 255
168 203 255
168 203 255
168 203 255
168 203 255
168 203 255
168 203 255
168 203 255
167 203 255
167 203 255
167 203 255
167 202 255
167 202 255
167 202 255
167 202 255
167 202 255
167 202 255
167 202 255
166 202 255
166 202 255
166 202 255
166 202 255
166 202 255
166 202 255
166 202 255
166 202 255
166 202 255
166 202 255
166 202 255
165 201 255
165 201 255
165 201 255
165 201 255
165 201 255
165 201 255
165 201 255
165 201 255
165 201 255
165 201 255
165 201 255
164 201 255
164 201 255
164 201 255
164 201 255
164 201 255
164 201 255
164 201 255
164 200 255
164 200 255
164 200 255
163 200 255
163 200 255
163 200 255
163 200 255
163 200 255
163 200 255
163 200 255
163 200 255
163 200 255
163 200 255
162 200 255
162 200 255
162 200 255
162 199 255
162 199 255
162 199 255
162 199 255
162 199 255
162 199 255
161 199 255
161 199 255
161 199 255
161 199 255
161 199 255
161 199 255
161 199 255
161 199 255
161 199 255
161 199 255
160 198 255
160 198 255
160 198 255
160 198 255
160 198 255
160 198 255
160 198 255
160 198 255
160 198 255
160 198 255
159 198 255
159 198 255
159 198 255
159 198 255
159 198 255
159 198 255
159 198 255
159 197 255
159 197 255
159 197 255
158 197 255
158 197 255
158 197 255
158 197 255
158 197 255
158 197 255
158 197 255
158 197 255
158 197 255
158 197 255
158 197 255
158 197 255
157 197 255
157 197 255
157 197 255
157 197 255
157 196 255
157 196 255
157 196 255
157 196 255
157 196 255
157 196 255
157 196 255
157 196 255
157 196 255
156 196 255
156 196 255
156 196 255
156 196 255
156 196 255
156 196 255
156 196 255
156 196 255
156 196 255
156 196 255
156 196 255
156 196 255
156 196 255
156 196 255
156 196 255
156 196 255
156 196 255
156 195 255
155 195 255
155 195 255
155 195 255
155 195 255
155 195 255
155 195 255
155 195 255
155 195 255
155 195 255
155 195 255
155 195 255
155 195 255
155 195 255
155 195 255
155 195 255
155 195 255
155 195 255
155 195 255
155 195 255
155 195 255
155 195 255
155 195 255
155 195 255
155 195 255
155 195 255
155 195 255
155 195 255
155 195 255
155 195 255
155 195 255
155 195 255
155 195 255
155 195 255
155 195 255
155 195 255
155 195 255
155 195 255
155 195 255
155 195 255
155 195 255
155 195 255
155 195 255
155 195 255
156 196 255
156 196 255
156 196 255
156 196 255
156 196 255
156 196 255
156 196 255
156 196 255
156 196 255
156 196 255
156 196 255
156 196 255
156 196 255
156 196 255
156 196 255
156 196 255
156 196 255
156 196 255
157 196 255
156 196 255
157 196 255
157 196 255
157 196 255
157 196 255
157 196 255
157 196 255
157 196 255
157 197 255
157 197 255
157 197 255
157 197 255
157 197 255
158 197 255
158 197 255
158 197 255
158 197 255
158 197 255
158 197 255
158 197 255
158 197 255
158 197 255
158 197 255
158 197 255
158 197 255
159 197 255
159 197 255
159 197 255
159 198 255
159 198 255
159 198 255
159 198 255
159 198 255
159 198 255
159 198 255
160 198 255
160 198 255
160 198 255
160 198 255
160 198 255
160 198 255
160 198 255
160 198 255
160 198 255
160 198 255
161 199 255
161 199 255
161 199 255
161 199 255
161 199 255
161 199 255
161 199 255
161 199 255
161 199 255
162 199 255
162 199 255
162 199 255
162 199 255
162 199 255
162 199 255
162 199 255
162 200 255
162 200 255
162 200 255
163 200 255
163 200 255
163 200 255
163 200 255
163 200 255
163 200 255
163 200 255
163 200 255
163 200 255
163 200 255
164 200 255
164 200 255
164 200 255
164 201 255
164 201 255
164 201 255
164 201 255
164 201 255
164 201 255
164 201 255
165 201 255
165 201 255
165 201 255
165 201 255
165 201 255
165 201 255
165 201 255
165 201 255
165 201 255
165 201 255
165 201 255
166 202 255
166 202 255
166 202 255
166 202 255
166 202 255
166 202 255
166 202 255
166 202 255
166 202 255
166 202 255
167 202 255
167 202 255
167 202 255
167 202 255
167 202 255
167 202 255
167 202 255
167 203 255
167 203 255
167 203 255
167 203 255
167 203 255
168 203 255
168 203 255
168 203 255
168 203 255
168 203 255
168 203 255
168 203 255
168 203 255
168 203 255
168 203 255
168 203 255
168 203 255
169 203 255
169 203 255
169 203 255
169 204 255
169 204 255
169 204 255
169 204 255
169 204 255
169 204 255
169 204 255
169 204 255
169 204 255
170 204 255
170 204 255
170 204 255
170 204 255
170 204 255
170 204 255
170 204 255
170 204 255
170 204 255
170 204 255
170 204 255
170 204 255
170 204 255
170 204 255
171 205 255
171 205 255
171 205 255
171 205 255
171 205 255
171 205 255
171 205 255
171 205 255
171 205 255
171 205 255
171 205 255
171 205 255
171 205 255
171 205 255
170 204 255
170 204 255
170 204 255
170 204 255
170 204 255
170 204 255
170 204 255
170 204 255
170 204 255
170 204 255
170 204 255
170 204 255
170 204 255
169 204 255
169 204 255
169 204 255
169 204 255
169 204 255
169 204 255
169 204 255
169 204 255
169 203 255
169 203 255
169 203 255
169 203 255
169 203 255
168 203 255
168 203 255
168 203 255
168 203 255
168 203 255
168 203 255
168 203 255
168 203 255
168 203 255
168 203 255
168 203 255
167 203 255
167 203 255
167 203 255
167 203 255
167 202 255
167 202 255
167 202 255
167 202 255
167 202 255
167 202 255
167 202 255
167 202 255
166 202 255
166 202 255
166 202 255
166 202 255
166 202 255
166 202 255
166 202 255
166 202 255
166 202 255
166 202 255
165 201 255
165 201 255
165 201 255
165 201 255
165 201 255
165 201 255
165 201 255
165 201 255
165 201 255
165 201 255
165 201 255
164 201 255
164 201 255
164 201 255
164 201 255
164 201 255
164 201 255
164 200 255
164 200 255
164 200 255
164 200 255
163 200 255
163 200 255
163 200 255
163 200 255
163 200 255
163 200 255
163 200 255
163 200 255
163 200 255
162 200 255
162 200 255
162 200 255
162 199 255
162 199 255
162 199 255
162 199 255
162 199 255
162 199 255
162 199 255
162 199 255
161 199 255
161 199 255
161 199 255
161 199 255
161 199 255
161 199 255
161 199 255
161 199 255
161 199 255
160 198 255
160 198 255
160 198 255
160 198 255
160 198 255
160 198 255
160 198 255
160 198 255
160 198 255
160 198 255
160 198 255
159 198 255
159 198 255
159 198 255
159 198 255
159 198 255
159 198 255
159 198 255
159 197 255
159 197 255
159 197 255
158 197 255
158 197 255
158 197 255
158 197 255
158 197 255
158 197 255
158 197 255
158 197 255
158 197 255
158 197 255
158 197 255
158 197 255
157 197 255
157 197 255
157 197 255
157 197 255
157 196 255
157 196 255
157 196 255
157 196 255
157 196 255
157 196 255
157 196 255
157 196 255
157 196 255
156 196 255
157 196 255
156 196 255
156 196 255
156 196 255
156 196 255
156 196 255
156 196 255
156 196 255
156 196 255
156 196 255
156 196 255
156 196 255
156 196 255
156 196 255
156 196 255
156 196 255
156 196 255
156 196 255
156 196 255
156 196 255
156 196 255
156 196 255
155 195 255
155 195 255
155 195 255
155 195 255
155 195 255
155 195 255
155 195 255
155 195 255
155 195 255
155 195 255
155 195 255
155 195 255
155 195 255
155 195 255
155 195 255
155 195 255
155 195 255
155 195 255
155 195 255
155 195 255
155 195 255
155 195 255
155 195 255
155 195 255
156 196 255
156 196 255
156 196 255
156 196 255
156 196 255
156 196 255
156 196 255
156 196 255
156 196 255
156 196 255
156 196 255
156 196 255
156 196 255
156 196 255
156 196 255
156 196 255
156 196 255
156 196 255
156 196 255
156 196 255
156 196 255
156 196 255
156 196 255
156 196 255
156 196 255
157 196 255
157 196 255
157 196 255
157 196 255
157 196 255
157 196 255
157 196 255
157 196 255
157 196 255
157 197 255
157 197 255
157 197 255
157 197 255
158 197 255
158 197 255
158 197 255
158 197 255
158 197 255
158 197 255
158 197 255
158 197 255
158 197 255
158 197 255
158 197 255
158 197 255
159 197 255
159 197 255
159 197 255
159 198 255
159 198 255
159 198 255
159 198 255
159 198 255
159 198 255
159 198 255
159 198 255
160 198 255
160 198 255
160 198 255
160 198 255
160 198 255
160 198 255
160 198 255
160 198 255
160 198 255
161 199 255
161 199 255
161 199 255
161 199 255
161 199 255
161 199 255
161 199 255
161 199 255
161 199 255
161 199 255
161 199 255
162 199 255
162 199 255
162 199 255
162 199 255
162 199 255
162 199 255
162 200 255
162 200 255
162 200 255
163 200 255
163 200 255
163 200 255
163 200 255
163 200 255
163 200 255
163 200 255
163 200 255
163 200 255
163 200 255
164 200 255
164 200 255
164 200 255
164 201 255
164 201 255
164 201 255
164 201 255
164 201 255
164 201 255
164 201 255
165 201 255
165 201 255
165 201 255
165 201 255
165 201 255
165 201 255
165 201 255
165 201 255
165 201 255
165 201 255
165 201 255
166 202 255
166 202 255
166 202 255
166 202 255
166 202 255
166 202 255
166 202 255
166 202 255
166 202 255
166 202 255
166 202 255
167 202 255
167 202 255
167 202 255
167 202 255
167 202 255
167 202 255
167 202 255
167 203 255
167 203 255
167 203 255
168 203 255
168 203 255
168 203 255
168 203 255
168 203 255
168 203 255
168 203 255
168 203 255
168 203 255
168 203 255
168 203 255
168 203 255
169 203 255
169 203 255
169 203 255
169 203 255
169 203 255
169 204 255
169 204 255
169 204 255
169 204 255
169 204 255
169 204 255
169 204 255
169 204 255
170 204 255
170 204 255
170 204 255
170 204 255
170 204 255
170 204 255
170 204 255
170 204 255
170 204 255
170 204 255
170 204 255
170 204 255
170 204 255
171 205 255
171 205 255
171 205 255
171 205 255
171 205 255
171 205 255
171 205 255
171 205 255
171 205 255
171 205 255
171 205 255
171 205 255
171 205 255
171 205 255
171 205 255
171 205 255
171 205 255
171 205 255
171 205 255
171 205 255
171 205 255
170 204 255
170 204 255
170 204 255
170 204 255
170 204 255
170 204 255
170 204 255
170 204 255
170 204 255
170 204 255
170 204 255
170 204 255
170 204 255
170 204 255
169 204 255
169 204 255
169 204 255
169 204 255
169 204 255
169 204 255
169 204 255
169 204 255
169 203 255
169 203 255
169 203 255
169 203 255
168 203 255
168 203 255
168 203 255
168 203 255
168 203 255
168 203 255
168 203 255
168 203 255
168 203 255
168 203 255
168 203 255
167 203 255
167 203 255
167 203 255
167 203 255
167 202 255
167 202 255
167 202 255
167 202 255
167 202 255
167 202 255
167 202 255
166 202 255
166 202 255
166 202 255
166 202 255
166 202 255
166 202 255
166 202 255
166 202 255
166 202 255
166 202 255
166 202 255
166 202 255
165 201 255
165 201 255
165 201 255
165 201 255
165 201 255
165 201 255
165 201 255
165 201 255
165 201 255
165 201 255
164 201 255
164 201 255
164 201 255
164 201 255
164 201 255
164 201 255
164 200 255
164 200 255
164 200 255
164 200 255
163 200 255
163 200 255
163 200 255
163 200 255
163 200 255
163 200 255
163 200 255
163 200 255
163 200 255
162 200 255
162 200 255
162 200 255
162 200 255
162 199 255
162 199 255
162 199 255
162 199 255
162 199 255
162 199 255
161 199 255
161 199 255
161 199 255
161 199 255
161 199 255
161 199 255
161 199 255
161 199 255
161 199 255
161 199 255
160 198 255
160 198 255
160 198 255
160 198 255
160 198 255
160 198 255
160 198 255
160 198 255
160 198 255
160 198 255
160 198 255
159 198 255
159 198 255
159 198 255
159 198 255
159 198 255
159 198 255
159 197 255
159 197 255
159 197 255
159 197 255
158 197 255
158 197 255
158 197 255
158 197 255
158 197 255
158 197 255
158 197 255
158 197 255
158 197 255
158 197 255
158 197 255
158 197 255
158 197 255
157 197 255
157 197 255
157 197 255
157 197 255
157 197 255
157 196 255
157 196 255
157 196 255
157 196 255
157 196 255
157 196 255
157 196 255
157 196 255
157 196 255
157 196 255
156 196 255
156 196 255
156 196 255
156 196 255
156 196 255
156 196 255
156 196 255
156 196 255
156 196 255
156 196 255
156 196 255
156 196 255
156 196 255
156 196 255
156 196 255
156 196 255
156 196 255
156 196 255
156 196 255
156 196 255
156 196 255
156 196 255
156 196 255
156 196 255
156 196 255
156 196 255
156 196 255
156 196 255
156 196 255
156 196 255
156 196 255
156 196 255
156 196 255
156 196 255
156 196 255
156 196 255
156 196 255
156 196 255
156 196 255
156 196 255
156 196 255
156 196 255
156 196 255
156 196 255
156 196 255
156 196 255
156 196 255
156 196 255
156 196 255
156 196 255
156 196 255
156 196 255
156 196 255
156 196 255
156 196 255
156 196 255
156 196 255
156 196 255
156 196 255
156 196 255
157 196 255
157 196 255
157 196 255
157 196 255
157 196 255
157 196 255
157 196 255
157 196 255
157 196 255
157 196 255
157 197 255
157 197 255
157 197 255
157 197 255
158 197 255
157 197 255
158 197 255
158 197 255
158 197 255
158 197 255
158 197 255
158 197 255
158 197 255
158 197 255
158 197 255
158 197 255
158 197 255
158 197 255
159 197 255
159 197 255
159 197 255
159 198 255
159 198 255
159 198 255
159 198 255
159 198 255
159 198 255
159 198 255
160 198 255
160 198 255
160 198 255
160 198 255
160 198 255
160 198 255
160 198 255
160 198 255
160 198 255
160 198 255
160 198 255
161 199 255
161 199 255
161 199 255
161 199 255
161 199 255
161 199 255
161 199 255
161 199 255
161 199 255
162 199 255
162 199 255
162 199 255
162 199 255
162 199 255
162 199 255
162 199 255
162 200 255
162 200 255
162 200 255
162 200 255
163 200 255
163 200 255
163 200 255
163 200 255
163 200 255
163 200 255
163 200 255
163 200 255
163 200 255
164 200 255
164 200 255
164 200 255
164 200 255
164 201 255
164 201 255
164 201 255
164 201 255
164 201 255
164 201 255
165 201 255
165 201 255
165 201 255
165 201 255
165 201 255
165 201 255
165 201 255
165 201 255
165 201 255
165 201 255
165 201 255
166 202 255
166 202 255
166 202 255
166 202 255
166 202 255
166 202 255
166 202 255
166 202 255
166 202 255
166 202 255
166 202 255
167 202 255
167 202 255
167 202 255
167 202 255
167 202 255
167 202 255
167 202 255
167 203 255
167 203 255
167 203 255
168 203 255
168 203 255
168 203 255
168 203 255
168 203 255
168 203 255
168 203 255
168 203 255
168 203 255
168 203 255
168 203 255
168 203 255
169 203 255
169 203 255
169 203 255
169 203 255
169 203 255
169 204 255
169 204 255
169 204 255
169 204 255
169 204 255
169 204 255
169 204 255
170 204 255
170 204 255
170 204 255
170 204 255
170 204 255
170 204 255
170 204 255
170 204 255
170 204 255
170 204 255
170 204 255
170 204 255
170 204 255
170 204 255
171 205 255
171 205 255
171 205 255
171 205 255
171 205 255
171 205 255
171 205 255
171 205 255
171 205 255
171 205 255
171 205 255
171 205 255
172 205 255
172 205 255
171 205 255
171 205 255
171 205 255
171 205 255
171 205 255
171 205 255
171 205 255
171 205 255
171 205 255
171 205 255
171 205 255
171 205 255
171 205 255
171 205 255
170 204 255
170 204 255
170 204 255
170 204 255
170 204 255
170 204 255
170 204 255
170 204 255
170 204 255
170 204 255
170 204 255
170 204 255
170 204 255
169 204 255
169 204 255
169 204 255
169 204 255
169 204 255
169 204 255
169 204 255
169 203 255
169 204 255
169 203 255
169 203 255
169 203 255
168 203 255
168 203 255
168 203 255
168 203 255
168 203 255
168 203 255
168 203 255
168 203 255
168 203 255
168 203 255
168 203 255
167 203 255
167 203 255
167 203 255
167 203 255
167 202 255
167 202 255
167 202 255
167 202 255
167 202 255
167 202 255
167 202 255
166 202 255
166 202 255
166 202 255
166 202 255
166 202 255
166 202 255
166 202 255
166 202 255
166 202 255
166 202 255
166 202 255
165 201 255
165 201 255
165 201 255
165 201 255
165 201 255
165 201 255
165 201 255
165 201 255
165 201 255
165 201 255
165 201 255
164 201 255
164 201 255
164 201 255
164 201 255
164 201 255
164 201 255
164 201 255
164 200 255
164 200 255
163 200 255
163 200 255
163 200 255
163 200 255
163 200 255
163 200 255
163 200 255
163 200 255
163 200 255
163 200 255
163 200 255
162 200 255
162 200 255
162 200 255
162 199 255
162 199 255
162 199 255
162 199 255
162 199 255
162 199 255
162 199 255
161 199 255
161 199 255
161 199 255
161 199 255
161 199 255
161 199 255
161 199 255
161 199 255
161 199 255
161 199 255
160 198 255
160 198 255
160 198 255
160 198 255
160 198 255
160 198 255
160 198 255
160 198 255
160 198 255
160 198 255
159 198 255
159 198 255
159 198 255
159 198 255
159 198 255
159 198 255
159 198 255
159 197 255
159 197 255
159 197 255
159 197 255
158 197 255
158 197 255
158 197 255
158 197 255
158 197 255
158 197 255
158 197 255
158 197 255
158 197 255
158 197 255
158 197 255
158 197 255
158 197 255
157 197 255
157 197 255
157 197 255
157 197 255
157 197 255
157 196 255
157 196 255
157 196 255
157 196 255
157 196 255
157 196 255
157 196 255
157 196 255
157 196 255
157 196 255
157 196 255
157 196 255
157 196 255
156 196 255
156 196 255
156 196 255
156 196 255
156 196 255
156 196 255
156 196 255
156 196 255
156 196 255
156 196 255
156 196 255
156 196 255
156 196 255
156 196 255
156 196 255
156 196 255
156 196 255
156 196 255
156 196 255
156 196 255
156 196 255
156 196 255
156 196 255
156 196 255
156 196 255
156 196 255
156 196 255
156 196 255
156 196 255
156 196 255
156 196 255
156 196 255
156 196 255
156 196 255
156 196 255
156 196 255
156 196 255
156 196 255
156 196 255
156 196 255
156 196 255
156 196 255
156 196 255
156 196 255
156 196 255
156 196 255
157 196 255
157 196 255
157 196 255
157 196 255
157 196 255
157 196 255
157 196 255
157 196 255
157 196 255
157 196 255
157 196 255
157 196 255
157 196 255
157 197 255
157 197 255
157 197 255
157 197 255
157 197 255
158 197 255
158 197 255
158 197 255
158 197 255
158 197 255
158 197 255
158 197 255
158 197 255
158 197 255
158 197 255
158 197 255
158 197 255
158 197 255
159 197 255
159 197 255
159 197 255
159 198 255
159 198 255
159 198 255
159 198 255
159 198 255
159 198 255
159 198 255
159 198 255
160 198 255
160 198 255
160 198 255
160 198 255
160 198 255
160 198 255
160 198 255
160 198 255
160 198 255
160 198 255
160 198 255
161 199 255
161 199 255
161 199 255
161 199 255
161 199 255
161 199 255
161 199 255
161 199 255
161 199 255
161 199 255
162 199 255
162 199 255
162 199 255
162 199 255
162 199 255
162 199 255
162 200 255
162 200 255
162 200 255
163 200 255
163 200 255
163 200 255
163 200 255
163 200 255
163 200 255
163 200 255
163 200 255
163 200 255
163 200 255
164 200 255
164 200 255
164 200 255
164 200 255
164 201 255
164 201 255
164 201 255
164 201 255
164 201 255
164 201 255
165 201 255
165 201 255
165 201 255
165 201 255
165 201 255
165 201 255
165 201 255
165 201 255
165 201 255
165 201 255
166 202 255
166 202 255
166 202 255
166 202 255
166 202 255
166 202 255
166 202 255
166 202 255
166 202 255
166 202 255
166 202 255
167 202 255
167 202 255
167 202 255
167 202 255
167 202 255
167 202 255
167 202 255
167 202 255
167 203 255
167 203 255
167 203 255
168 203 255
168 203 255
168 203 255
168 203 255
168 203 255
168 203 255
168 203 255
168 203 255
168 203 255
168 203 255
168 203 255
168 203 255
169 203 255
169 203 255
169 203 255
169 203 255
169 204 255
169 204 255
169 204 255
169 204 255
169 204 255
169 204 255
169 204 255
169 204 255
170 204 255
170 204 255
170 204 255
170 204 255
170 204 255
170 204 255
170 204 255
170 204 255
170 204 255
170 204 255
170 204 255
170 204 255
170 204 255
170 204 255
171 205 255
171 205 255
171 205 255
171 205 255
171 205 255
171 205 255
171 205 255
171 205 255
171 205 255
171 205 255
171 205 255
171 205 255
171 205 255
172 205 255
172 205 255
172 205 255
172 205 255
172 205 255
172 205 255
172 205 255
171 205 255
171 205 255
171 205 255
171 205 255
171 205 255
171 205 255
171 205 255
171 205 255
171 205 255
171 205 255
171 205 255
171 205 255
171 205 255
171 205 255
170 204 255
170 204 255
170 204 255
170 204 255
170 204 255
170 204 255
170 204 255
170 204 255
170 204 255
170 204 255
170 204 255
170 204 255
170 204 255
169 204 255
169 204 255
169 204 255
169 204 255
169 204 255
169 204 255
169 204 255
169 204 255
169 203 255
169 203 255
169 203 255
169 203 255
168 203 255
168 203 255
168 203 255
168 203 255
168 203 255
168 203 255
168 203 255
168 203 255
168 203 255
168 203 255
168 203 255
168 203 255
167 203 255
167 203 255
167 203 255
167 202 255
167 202 255
167 202 255
167 202 255
167 202 255
167 202 255
167 202 255
167 202 255
166 202 255
166 202 255
166 202 255
166 202 255
166 202 255
166 202 255
166 202 255
166 202 255
166 202 255
166 202 255
166 202 255
165 201 255
165 201 255
165 201 255
165 201 255
165 201 255
165 201 255
165 201 255
165 201 255
165 201 255
164 201 255
164 201 255
164 201 255
164 201 255
164 201 255
164 201 255
164 201 255
164 200 255
164 200 255
164 200 255
164 200 255
163 200 255
163 200 255
163 200 255
163 200 255
163 200 255
163 200 255
163 200 255
163 200 255
163 200 255
162 200 255
162 200 255
162 200 255
162 200 255
162 199 255
162 199 255
162 199 255
162 199 255
162 199 255
162 199 255
162 199 255
161 199 255
161 199 255
161 199 255
161 199 255
161 199 255
161 199 255
161 199 255
161 199 255
161 199 255
161 199 255
160 198 255
160 198 255
160 198 255
160 198 255
160 198 255
160 198 255
160 198 255
160 198 255
160 198 255
160 198 255
160 198 255
159 198 255
159 198 255
159 198 255
159 198 255
159 198 255
159 198 255
159 198 255
159 197 255
159 197 255
159 197 255
159 197 255
159 197 255
158 197 255
158 197 255
158 197 255
158 197 255
158 197 255
158 197 255
158 197 255
158 197 255
158 197 255
158 197 255
158 197 255
158 197 255
158 197 255
158 197 255
157 197 255
157 197 255
157 197 255
157 197 255
157 197 255
157 196 255
157 196 255
157 196 255
157 196 255
157 196 255
157 196 255
157 196 255
157 196 255
157 196 255
157 196 255
157 196 255
157 196 255
157 196 255
157 196 255
157 196 255
157 196 255
156 196 255
156 196 255
156 196 255
156 196 255
156 196 255
156 196 255
156 196 255
156 196 255
156 196 255
156 196 255
156 196 255
156 196 255
156 196 255
156 196 255
156 196 255
156 196 255
156 196 255
156 196 255
156 196 255
156 196 255
156 196 255
156 196 255
156 196 255
156 196 255
156 196 255
156 196 255
156 196 255
157 196 255
157 196 255
157 196 255
157 196 255
157 196 255
157 196 255
157 196 255
157 196 255
157 196 255
157 196 255
157 196 255
157 196 255
157 196 255
157 196 255
157 196 255
157 196 255
157 197 255
157 197 255
157 197 255
157 197 255
157 197 255
157 197 255
158 197 255
158 197 255
158 197 255
158 197 255
158 197 255
158 197 255
158 197 255
158 197 255
158 197 255
158 197 255
158 197 255
158 197 255
158 197 255
158 197 255
158 197 255
159 197 255
159 197 255
159 197 255
159 198 255
159 198 255
159 198 255
159 198 255
159 198 255
159 198 255
159 198 255
159 198 255
159 198 255
160 198 255
160 198 255
160 198 255
160 198 255
160 198 255
160 198 255
160 198 255
160 198 255
160 198 255
160 198 255
161 199 255
161 199 255
161 199 255
161 199 255
161 199 255
161 199 255
161 199 255
161 199 255
161 199 255
161 199 255
162 199 255
162 199 255
162 199 255
162 199 255
162 199 255
162 199 255
162 199 255
162 200 255
162 200 255
162 200 255
163 200 255
163 200 255
163 200 255
163 200 255
163 200 255
163 200 255
163 200 255
163 200 255
163 200 255
163 200 255
164 200 255
164 200 255
164 200 255
164 200 255
164 201 255
164 201 255
164 201 255
164 201 255
164 201 255
164 201 255
164 201 255
165 201 255
165 201 255
165 201 255
165 201 255
165 201 255
165 201 255
165 201 255
165 201 255
165 201 255
166 202 255
166 202 255
166 202 255
166 202 255
166 202 255
166 202 255
166 202 255
166 202 255
166 202 255
166 202 255
166 202 255
167 202 255
167 202 255
167 202 255
167 202 255
167 202 255
167 202 255
167 202 255
167 203 255
167 203 255
167 203 255
167 203 255
168 203 255
168 203 255
168 203 255
168 203 255
168 203 255
168 203 255
168 203 255
168 203 255
168 203 255
168 203 255
168 203 255
168 203 255
169 203 255
169 203 255
169 203 255
169 204 255
169 204 255
169 204 255
169 204 255
169 204 255
169 204 255
169 204 255
169 204 255
169 204 255
170 204 255
170 204 255
170 204 255
170 204 255
170 204 255
170 204 255
170 204 255
170 204 255
170 204 255
170 204 255
170 204 255
170 204 255
170 204 255
171 205 255
171 205 255
171 205 255
171 205 255
171 205 255
171 205 255
171 205 255
171 205 255
171 205 255
171 205 255
171 205 255
171 205 255
171 205 255
172 205 255
172 205 255
172 205 255
172 205 255
172 205 255
172 205 255
172 205 255
172 205 255
172 205 255
172 205 255
172 205 255
172 205 255
172 205 255
172 205 255
172 205 255
171 205 255
171 205 255
171 205 255
171 205 255
171 205 255
171 205 255
171 205 255
171 205 255
171 205 255
171 205 255
171 205 255
171 205 255
171 205 255
170 204 255
170 204 255
170 204 255
170 204 255
170 204 255
170 204 255
170 204 255
170 204 255
170 204 255
170 204 255
170 204 255
170 204 255
170 204 255
169 204 255
169 204 255
169 204 255
169 204 255
169 204 255
169 204 255
169 204 255
169 204 255
169 203 255
169 203 255
169 203 255
169 203 255
169 203 255
168 203 255
168 203 255
168 203 255
168 203 255
168 203 255
168 203 255
168 203 255
168 203 255
168 203 255
168 203 255
168 203 255
167 203 255
167 203 255
167 203 255
167 202 255
167 202 255
167 202 255
167 202 255
167 202 255
167 202 255
167 202 255
166 202 255
166 202 255
166 202 255
166 202 255
166 202 255
166 202 255
166 202 255
166 202 255
166 202 255
166 202 255
166 202 255
165 201 255
165 201 255
165 201 255
165 201 255
165 201 255
165 201 255
165 201 255
165 201 255
165 201 255
165 201 255
165 201 255
164 201 255
164 201 255
164 201 255
164 201 255
164 201 255
164 201 255
164 200 255
164 200 255
164 200 255
163 200 255
163 200 255
163 200 255
163 200 255
163 200 255
163 200 255
163 200 255
163 200 255
163 200 255
163 200 255
162 200 255
162 200 255
162 200 255
162 200 255
162 199 255
162 199 255
162 199 255
162 199 255
162 199 255
162 199 255
162 199 255
161 199 255
161 199 255
161 199 255
161 199 255
161 199 255
161 199 255
161 199 255
161 199 255
161 199 255
161 199 255
160 198 255
160 198 255
160 198 255
160 198 255
160 198 255
160 198 255
160 198 255
160 198 255
160 198 255
160 198 255
160 198 255
159 198 255
159 198 255
159 198 255
159 198 255
159 198 255
159 198 255
159 198 255
159 198 255
159 197 255
159 197 255
159 197 255
159 197 255
159 197 255
158 197 255
158 197 255
158 197 255
158 197 255
158 197 255
158 197 255
158 197 255
158 197 255
158 197 255
158 197 255
158 197 255
158 197 255
158 197 255
158 197 255
158 197 255
157 197 255
157 197 255
157 197 255
157 197 255
157 197 255
157 197 255
157 197 255
157 197 255
157 196 255
157 196 255
157 196 255
157 196 255
157 196 255
157 196 255
157 196 255
157 196 255
157 196 255
157 196 255
157 196 255
157 196 255
157 196 255
157 196 255
157 196 255
157 196 255
157 196 255
157 196 255
157 196 255
157 196 255
157 196 255
157 196 255
157 196 255
157 196 255
157 196 255
157 196 255
157 196 255
157 196 255
157 196 255
157 196 255
157 196 255
157 196 255
157 196 255
157 196 255
157 196 255
157 196 255
157 196 255
157 196 255
157 196 255
157 196 255
157 196 255
157 196 255
157 196 255
157 196 255
157 197 255
157 197 255
157 197 255
157 197 255
157 197 255
157 197 255
157 197 255
157 197 255
157 197 255
158 197 255
158 197 255
158 197 255
158 197 255
158 197 255
158 197 255
158 197 255
158 197 255
158 197 255
158 197 255
158 197 255
158 197 255
158 197 255
158 197 255
159 197 255
159 197 255
159 197 255
159 197 255
159 197 255
159 198 255
159 198 255
159 198 255
159 198 255
159 198 255
159 198 255
159 198 255
160 198 255
160 198 255
160 198 255
160 198 255
160 198 255
160 198 255
160 198 255
160 198 255
160 198 255
160 198 255
160 198 255
160 198 255
161 199 255
161 199 255
161 199 255
161 199 255
161 199 255
161 199 255
161 199 255
161 199 255
161 199 255
161 199 255
162 199 255
162 199 255
162 199 255
162 199 255
162 199 255
162 199 255
162 199 255
162 200 255
162 200 255
162 200 255
162 200 255
163 200 255
163 200 255
163 200 255
163 200 255
163 200 255
163 200 255
163 200 255
163 200 255
163 200 255
163 200 255
164 200 255
164 200 255
164 201 255
164 201 255
164 201 255
164 201 255
164 201 255
164 201 255
164 201 255
165 201 255
165 201 255
165 201 255
165 201 255
165 201 255
165 201 255
165 201 255
165 201 255
165 201 255
165 201 255
165 201 255
166 202 255
166 202 255
166 202 255
166 202 255
166 202 255
166 202 255
166 202 255
166 202 255
166 202 255
166 202 255
167 202 255
167 202 255
167 202 255
167 202 255
167 202 255
167 202 255
167 202 255
167 202 255
167 203 255
167 203 255
167 203 255
168 203 255
168 203 255
168 203 255
168 203 255
168 203 255
168 203 255
168 203 255
168 203 255
168 203 255
168 203 255
168 203 255
169 203 255
169 203 255
169 203 255
169 203 255
169 204 255
169 204 255
169 204 255
169 204 255
169 204 255
169 204 255
169 204 255
169 204 255
169 204 255
170 204 255
170 204 255
170 204 255
170 204 255
170 204 255
170 204 255
170 204 255
170 204 255
170 204 255
170 204 255
170 204 255
170 204 255
171 205 255
171 205 255
171 205 255
171 205 255
171 205 255
171 205 255
171 205 255
171 205 255
171 205 255
171 205 255
171 205 255
171 205 255
171 205 255
171 205 255
172 205 255
172 205 255
172 205 255
172 205 255
172 205 255
172 205 255
172 205 255
172 205 255
172 205 255
172 206 255
172 206 255
172 206 255
172 205 255
172 205 255
172 205 255
172 205 255
172 205 255
172 205 255
172 205 255
172 205 255
172 205 255
171 205 255
171 205 255
171 205 255
171 205 255
171 205 255
171 205 255
171 205 255
171 205 255
171 205 255
171 205 255
171 205 255
171 205 255
171 205 255
171 205 255
170 204 255
170 204 255
170 204 255
170 204 255
170 204 255
170 204 255
170 204 255
170 204 255
170 204 255
170 204 255
170 204 255
170 204 255
170 204 255
169 204 255
169 204 255
169 204 255
169 204 255
169 204 255
169 204 255
169 204 255
169 204 255
169 203 255
169 203 255
169 203 255
168 203 255
168 203 255
168 203 255
168 203 255
168 203 255
168 203 255
168 203 255
168 203 255
168 203 255
168 203 255
168 203 255
168 203 255
167 203 255
167 203 255
167 203 255
167 203 255
167 202 255
167 202 255
167 202 255
167 202 255
167 202 255
167 202 255
167 202 255
166 202 255
166 202 255
166 202 255
166 202 255
166 202 255
166 202 255
166 202 255
166 202 255
166 202 255
166 202 255
165 201 255
165 201 255
165 201 255
165 201 255
165 201 255
165 201 255
165 201 255
165 201 255
165 201 255
165 201 255
165 201 255
164 201 255
164 201 255
164 201 255
164 201 255
164 201 255
164 201 255
164 200 255
164 200 255
164 200 255
164 200 255
163 200 255
163 200 255
163 200 255
163 200 255
163 200 255
163 200 255
163 200 255
163 200 255
163 200 255
163 200 255
162 200 255
162 200 255
162 200 255
162 200 255
162 199 255
162 199 255
162 199 255
162 199 255
162 199 255
162 199 255
161 199 255
161 199 255
161 199 255
161 199 255
161 199 255
161 199 255
161 199 255
161 199 255
161 199 255
161 199 255
160 198 255
160 198 255
160 198 255
160 198 255
160 198 255
160 198 255
160 198 255
160 198 255
160 198 255
160 198 255
160 198 255
160 198 255
159 198 255
159 198 255
159 198 255
159 198 255
159 198 255
159 198 255
159 198 255
159 198 255
159 197 255
159 197 255
159 197 255
159 197 255
158 197 255
159 197 255
158 197 255
158 197 255
158 197 255
158 197 255
158 197 255
158 197 255
158 197 255
158 197 255
158 197 255
158 197 255
158 197 255
158 197 255
158 197 255
158 197 255
158 197 255
158 197 255
158 197 255
158 197 255
157 197 255
157 197 255
157 197 255
157 197 255
157 197 255
157 197 255
157 197 255
157 197 255
157 197 255
157 196 255
157 196 255
157 196 255
157 196 255
157 196 255
157 196 255
157 196 255
157 196 255
157 196 255
157 196 255
157 196 255
157 196 255
157 196 255
157 196 255
157 196 255
157 196 255
157 196 255
157 196 255
157 196 255
157 196 255
157 196 255
157 196 255
157 196 255
157 196 255
157 196 255
157 196 255
157 196 255
157 197 255
157 197 255
157 197 255
157 197 255
157 197 255
157 197 255
157 197 255
157 197 255
157 197 255
158 197 255
157 197 255
158 197 255
158 197 255
158 197 255
158 197 255
158 197 255
158 197 255
158 197 255
158 197 255
158 197 255
158 197 255
158 197 255
158 197 255
158 197 255
158 197 255
158 197 255
159 197 255
159 197 255
159 197 255
159 197 255
159 197 255
159 198 255
159 198 255
159 198 255
159 198 255
159 198 255
159 198 255
159 198 255
159 198 255
160 198 255
160 198 255
160 198 255
160 198 255
160 198 255
160 198 255
160 198 255
160 198 255
160 198 255
160 198 255
160 198 255
160 198 255
161 199 255
161 199 255
161 199 255
161 199 255
161 199 255
161 199 255
161 199 255
161 199 255
161 199 255
161 199 255
161 199 255
162 199 255
162 199 255
162 199 255
162 199 255
162 199 255
162 199 255
162 200 255
162 200 255
162 200 255
162 200 255
162 200 255
163 200 255
163 200 255
163 200 255
163 200 255
163 200 255
163 200 255
163 200 255
163 200 255
163 200 255
164 200 255
164 200 255
164 200 255
164 201 255
164 201 255
164 201 255
164 201 255
164 201 255
164 201 255
164 201 255
165 201 255
165 201 255
165 201 255
165 201 255
165 201 255
165 201 255
165 201 255
165 201 255
165 201 255
165 201 255
165 201 255
166 202 255
166 202 255
166 202 255
166 202 255
166 202 255
166 202 255
166 202 255
166 202 255
166 202 255
166 202 255
167 202 255
167 202 255
167 202 255
167 202 255
167 202 255
167 202 255
167 202 255
167 203 255
167 203 255
167 203 255
167 203 255
168 203 255
168 203 255
168 203 255
168 203 255
168 203 255
168 203 255
168 203 255
168 203 255
168 203 255
168 203 255
168 203 255
169 203 255
169 203 255
169 203 255
169 203 255
169 204 255
169 204 255
169 204 255
169 204 255
169 204 255
169 204 255
169 204 255
169 204 255
170 204 255
170 204 255
170 204 255
170 204 255
170 204 255
170 204 255
170 204 255
170 204 255
170 204 255
170 204 255
170 204 255
170 204 255
170 204 255
171 205 255
171 205 255
171 205 255
171 205 255
171 205 255
171 205 255
171 205 255
171 205 255
171 205 255
171 205 255
171 205 255
171 205 255
171 205 255
172 205 255
172 205 255
172 205 255
172 205 255
172 205 255
172 205 255
172 205 255
172 205 255
172 205 255
172 205 255
172 206 255
172 206 255
172 206 255
173 206 255
172 206 255
172 206 255
172 206 255
172 206 255
172 206 255
172 205 255
172 205 255
172 205 255
172 205 255
172 205 255
172 205 255
172 205 255
172 205 255
172 205 255
172 205 255
171 205 255
171 205 255
171 205 255
171 205 255
171 205 255
171 205 255
171 205 255
171 205 255
171 205 255
171 205 255
171 205 255
171 205 255
171 205 255
170 204 255
170 204 255
170 204 255
170 204 255
170 204 255
170 204 255
170 204 255
170 204 255
170 204 255
170 204 255
170 204 255
170 204 255
170 204 255
169 204 255
169 204 255
169 204 255
169 204 255
169 204 255
169 204 255
169 204 255
169 204 255
169 203 255
169 203 255
169 203 255
169 203 255
168 203 255
168 203 255
168 203 255
168 203 255
168 203 255
168 203 255
168 203 255
168 203 255
168 203 255
168 203 255
168 203 255
167 203 255
167 203 255
167 203 255
167 203 255
167 202 255
167 202 255
167 202 255
167 202 255
167 202 255
167 202 255
167 202 255
166 202 255
166 202 255
166 202 255
166 202 255
166 202 255
166 202 255
166 202 255
166 202 255
166 202 255
166 202 255
166 202 255
165 201 255
165 201 255
165 201 255
165 201 255
165 201 255
165 201 255
165 201 255
165 201 255
165 201 255
165 201 255
164 201 255
164 201 255
164 201 255
164 201 255
164 201 255
164 201 255
164 201 255
164 200 255
164 200 255
164 200 255
164 200 255
163 200 255
163 200 255
163 200 255
163 200 255
163 200 255
163 200 255
163 200 255
163 200 255
163 200 255
162 200 255
162 200 255
162 200 255
162 200 255
162 199 255
162 199 255
162 199 255
162 199 255
162 199 255
162 199 255
161 199 255
161 199 255
161 199 255
161 199 255
161 199 255
161 199 255
161 199 255
161 199 255
161 199 255
161 199 255
161 199 255
161 199 255
160 198 255
160 198 255
160 198 255
160 198 255
160 198 255
160 198 255
160 198 255
160 198 255
160 198 255
160 198 255
160 198 255
160 198 255
159 198 255
159 198 255
159 198 255
159 198 255
159 198 255
159 198 255
159 198 255
159 198 255
159 198 255
159 197 255
159 197 255
159 197 255
159 197 255
158 197 255
158 197 255
158 197 255
158 197 255
158 197 255
158 197 255
158 197 255
158 197 255
158 197 255
158 197 255
158 197 255
158 197 255
158 197 255
158 197 255
158 197 255
158 197 255
158 197 255
158 197 255
158 197 255
158 197 255
158 197 255
158 197 255
157 197 255
157 197 255
157 197 255
157 197 255
157 197 255
157 197 255
157 197 255
157 197 255
157 197 255
157 197 255
157 197 255
157 197 255
157 197 255
157 197 255
157 197 255
157 197 255
157 197 255
157 197 255
157 197 255
157 197 255
157 197 255
157 197 255
157 197 255
157 197 255
157 197 255
157 197 255
158 197 255
158 197 255
158 197 255
158 197 255
158 197 255
158 197 255
158 197 255
158 197 255
158 197 255
158 197 255
158 197 255
158 197 255
158 197 255
158 197 255
158 197 255
158 197 255
158 197 255
158 197 255
158 197 255
158 197 255
158 197 255
158 197 255
158 197 255
159 197 255
159 197 255
159 197 255
159 197 255
159 197 255
159 197 255
159 198 255
159 198 255
159 198 255
159 198 255
159 198 255
159 198 255
159 198 255
159 198 255
159 198 255
160 198 255
160 198 255
160 198 255
160 198 255
160 198 255
160 198 255
160 198 255
160 198 255
160 198 255
160 198 255
160 198 255
160 198 255
161 199 255
161 199 255
161 199 255
161 199 255
161 199 255
161 199 255
161 199 255
161 199 255
161 199 255
161 199 255
161 199 255
162 199 255
162 199 255
162 199 255
162 199 255
162 199 255
162 199 255
162 200 255
162 200 255
162 200 255
162 200 255
163 200 255
163 200 255
163 200 255
163 200 255
163 200 255
163 200 255
163 200 255
163 200 255
163 200 255
163 200 255
164 200 255
164 200 255
164 200 255
164 201 255
164 201 255
164 201 255
164 201 255
164 201 255
164 201 255
164 201 255
165 201 255
165 201 255
165 201 255
165 201 255
165 201 255
165 201 255
165 201 255
165 201 255
165 201 255
165 201 255
166 202 255
166 202 255
166 202 255
166 202 255
166 202 255
166 202 255
166 202 255
166 202 255
166 202 255
166 202 255
166 202 255
167 202 255
167 202 255
167 202 255
167 202 255
167 202 255
167 202 255
167 202 255
167 202 255
167 203 255
167 203 255
167 203 255
168 203 255
168 203 255
168 203 255
168 203 255
168 203 255
168 203 255
168 203 255
168 203 255
168 203 255
168 203 255
168 203 255
169 203 255
169 203 255
169 203 255
169 203 255
169 204 255
169 204 255
169 204 255
169 204 255
169 204 255
169 204 255
169 204 255
169 204 255
170 204 255
170 204 255
170 204 255
170 204 255
170 204 255
170 204 255
170 204 255
170 204 255
170 204 255
170 204 255
170 204 255
170 204 255
170 204 255
171 205 255
171 205 255
171 205 255
171 205 255
171 205 255
171 205 255
171 205 255
171 205 255
171 205 255
171 205 255
171 205 255
171 205 255
171 205 255
172 205 255
172 205 255
172 205 255
172 205 255
172 205 255
172 205 255
172 205 255
172 205 255
172 205 255
172 205 255
172 206 255
172 206 255
172 206 255
172 206 255
173 206 255
173 206 255
173 206 255
173 206 255
173 206 255
173 206 255
172 206 255
172 206 255
172 206 255
172 206 255
172 206 255
172 206 255
172 205 255
172 205 255
172 205 255
172 205 255
172 205 255
172 205 255
172 205 255
172 205 255
172 205 255
171 205 255
171 205 255
171 205 255
171 205 255
171 205 255
171 205 255
171 205 255
171 205 255
171 205 255
171 205 255
171 205 255
171 205 255
171 205 255
171 205 255
170 204 255
170 204 255
170 204 255
170 204 255
170 204 255
170 204 255
170 204 255
170 204 255
170 204 255
170 204 255
170 204 255
170 204 255
170 204 255
169 204 255
169 204 255
169 204 255
169 204 255
169 204 255
169 204 255
169 204 255
169 204 255
169 203 255
169 203 255
169 203 255
168 203 255
168 203 255
168 203 255
168 203 255
168 203 255
168 203 255
168 203 255
168 203 255
168 203 255
168 203 255
168 203 255
168 203 255
167 203 255
167 203 255
167 203 255
167 203 255
167 202 255
167 202 255
167 202 255
167 202 255
167 202 255
167 202 255
166 202 255
166 202 255
166 202 255
166 202 255
166 202 255
166 202 255
166 202 255
166 202 255
166 202 255
166 202 255
166 202 255
165 201 255
165 201 255
165 201 255
165 201 255
165 201 255
165 201 255
165 201 255
165 201 255
165 201 255
165 201 255
165 201 255
164 201 255
164 201 255
164 201 255
164 201 255
164 201 255
164 201 255
164 200 255
164 200 255
164 200 255
164 200 255
163 200 255
163 200 255
163 200 255
163 200 255
163 200 255
163 200 255
163 200 255
163 200 255
163 200 255
162 200 255
162 200 255
162 200 255
162 200 255
162 199 255
162 199 255
162 199 255
162 199 255
162 199 255
162 199 255
162 199 255
161 199 255
161 199 255
161 199 255
161 199 255
161 199 255
161 199 255
161 199 255
161 199 255
161 199 255
161 199 255
161 199 255
161 199 255
160 198 255
160 198 255
160 198 255
160 198 255
160 198 255
160 198 255
160 198 255
160 198 255
160 198 255
160 198 255
160 198 255
160 198 255
159 198 255
159 198 255
159 198 255
159 198 255
159 198 255
159 198 255
159 198 255
159 198 255
159 198 255
159 197 255
159 197 255
159 197 255
159 197 255
159 197 255
159 197 255
158 197 255
158 197 255
158 197 255
158 197 255
158 197 255
158 197 255
158 197 255
158 197 255
158 197 255
158 197 255
158 197 255
158 197 255
158 197 255
158 197 255
158 197 255
158 197 255
158 197 255
158 197 255
158 197 255
158 197 255
158 197 255
158 197 255
158 197 255
158 197 255
158 197 255
158 197 255
158 197 255
158 197 255
158 197 255
158 197 255
158 197 255
158 197 255
158 197 255
158 197 255
158 197 255
158 197 255
158 197 255
158 197 255
158 197 255
158 197 255
158 197 255
158 197 255
158 197 255
158 197 255
158 197 255
158 197 255
158 197 255
158 197 255
158 197 255
158 197 255
158 197 255
158 197 255
158 197 255
158 197 255
158 197 255
158 197 255
158 197 255
158 197 255
159 197 255
158 197 255
159 197 255
159 197 255
159 197 255
159 197 255
159 197 255
159 197 255
159 197 255
159 198 255
159 198 255
159 198 255
159 198 255
159 198 255
159 198 255
159 198 255
159 198 255
159 198 255
160 198 255
160 198 255
160 198 255
160 198 255
160 198 255
160 198 255
160 198 255
160 198 255
160 198 255
160 198 255
160 198 255
160 198 255
161 199 255
161 199 255
161 199 255
161 199 255
161 199 255
161 199 255
161 199 255
161 199 255
161 199 255
161 199 255
162 199 255
162 199 255
162 199 255
162 199 255
162 199 255
162 199 255
162 199 255
162 199 255
162 200 255
162 200 255
162 200 255
163 200 255
163 200 255
163 200 255
163 200 255
163 200 255
163 200 255
163 200 255
163 200 255
163 200 255
163 200 255
163 200 255
164 200 255
164 200 255
164 200 255
164 201 255
164 201 255
164 201 255
164 201 255
164 201 255
164 201 255
164 201 255
165 201 255
165 201 255
165 201 255
165 201 255
165 201 255
165 201 255
165 201 255
165 201 255
165 201 255
165 201 255
166 202 255
166 202 255
166 202 255
166 202 255
166 202 255
166 202 255
166 202 255
166 202 255
166 202 255
166 202 255
166 202 255
167 202 255
167 202 255
167 202 255
167 202 255
167 202 255
167 202 255
167 202 255
167 203 255
167 203 255
167 203 255
167 203 255
168 203 255
168 203 255
168 203 255
168 203 255
168 203 255
168 203 255
168 203 255
168 203 255
168 203 255
168 203 255
168 203 255
169 203 255
169 203 255
169 203 255
169 203 255
169 204 255
169 204 255
169 204 255
169 204 255
169 204 255
169 204 255
169 204 255
169 204 255
170 204 255
170 204 255
170 204 255
170 204 255
170 204 255
170 204 255
170 204 255
170 204 255
170 204 255
170 204 255
170 204 255
170 204 255
170 204 255
171 205 255
171 205 255
171 205 255
171 205 255
171 205 255
171 205 255
171 205 255
171 205 255
171 205 255
171 205 255
171 205 255
171 205 255
172 205 255
172 205 255
172 205 255
172 205 255
172 205 255
172 205 255
172 205 255
172 205 255
172 205 255
172 205 255
172 206 255
172 206 255
172 206 255
172 206 255
173 206 255
173 206 255
173 206 255
173 206 255
173 206 255
173 206 255
173 206 255
173 206 255
173 206 255
173 206 255
173 206 255
173 206 255
173 206 255
173 206 255
172 206 255
172 206 255
172 206 255
172 206 255
172 206 255
172 206 255
172 205 255
172 205 255
172 205 255
172 205 255
172 205 255
172 205 255
172 205 255
172 205 255
172 205 255
171 205 255
171 205 255
171 205 255
171 205 255
171 205 255
171 205 255
171 205 255
171 205 255
171 205 255
171 205 255
171 205 255
171 205 255
171 205 255
170 204 255
170 204 255
170 204 255
170 204 255
170 204 255
170 204 255
170 204 255
170 204 255
170 204 255
170 204 255
170 204 255
170 204 255
170 204 255
169 204 255
169 204 255
169 204 255
169 204 255
169 204 255
169 204 255
169 204 255
169 203 255
169 203 255
169 203 255
169 203 255
169 203 255
168 203 255
168 203 255
168 203 255
168 203 255
168 203 255
168 203 255
168 203 255
168 203 255
168 203 255
168 203 255
168 203 255
167 203 255
167 203 255
167 203 255
167 202 255
167 202 255
167 202 255
167 202 255
167 202 255
167 202 255
167 202 255
167 202 255
166 202 255
166 202 255
166 202 255
166 202 255
166 202 255
166 202 255
166 202 255
166 202 255
166 202 255
166 202 255
166 202 255
165 201 255
165 201 255
165 201 255
165 201 255
165 201 255
165 201 255
165 201 255
165 201 255
165 201 255
165 201 255
164 201 255
164 201 255
164 201 255
164 201 255
164 201 255
164 201 255
164 200 255
164 200 255
164 200 255
163 200 255
163 200 255
163 200 255
163 200 255
163 200 255
163 200 255
163 200 255
163 200 255
163 200 255
163 200 255
163 200 255
162 200 255
162 200 255
162 200 255
162 199 255
162 199 255
162 199 255
162 199 255
162 199 255
162 199 255
162 199 255
162 199 255
161 199 255
161 199 255
161 199 255
161 199 255
161 199 255
161 199 255
161 199 255
161 199 255
161 199 255
161 199 255
161 199 255
160 198 255
160 198 255
160 198 255
160 198 255
160 198 255
160 198 255
160 198 255
160 198 255
160 198 255
160 198 255
160 198 255
160 198 255
160 198 255
160 198 255
159 198 255
159 198 255
159 198 255
159 198 255
159 198 255
159 198 255
159 198 255
159 198 255
159 198 255
159 198 255
159 197 255
159 197 255
159 197 255
159 197 255
159 197 255
159 197 255
159 197 255
159 197 255
158 197 255
158 197 255
158 197 255
158 197 255
158 197 255
158 197 255
158 197 255
158 197 255
158 197 255
158 197 255
158 197 255
158 197 255
158 197 255
158 197 255
158 197 255
158 197 255
158 197 255
158 197 255
158 197 255
158 197 255
158 197 255
158 197 255
158 197 255
158 197 255
158 197 255
158 197 255
158 197 255
158 197 255
158 197 255
158 197 255
158 197 255
158 197 255
158 197 255
158 197 255
158 197 255
158 197 255
158 197 255
158 197 255
158 197 255
158 197 255
158 197 255
158 197 255
158 197 255
158 197 255
158 197 255
158 197 255
159 197 255
159 197 255
159 197 255
159 197 255
159 197 255
159 198 255
159 198 255
159 198 255
159 198 255
159 198 255
159 198 255
159 198 255
159 198 255
159 198 255
159 198 255
159 198 255
159 198 255
160 198 255
160 198 255
160 198 255
160 198 255
160 198 255
160 198 255
160 198 255
160 198 255
160 198 255
160 198 255
160 198 255
160 198 255
161 199 255
161 199 255
161 199 255
161 199 255
161 199 255
161 199 255
161 199 255
161 199 255
161 199 255
161 199 255
161 199 255
161 199 255
162 199 255
162 199 255
162 199 255
162 199 255
162 199 255
162 199 255
162 199 255
162 199 255
162 200 255
162 200 255
162 200 255
163 200 255
163 200 255
163 200 255
163 200 255
163 200 255
163 200 255
163 200 255
163 200 255
163 200 255
163 200 255
164 200 255
164 200 255
164 200 255
164 200 255
164 201 255
164 201 255
164 201 255
164 201 255
164 201 255
164 201 255
164 201 255
165 201 255
165 201 255
165 201 255
165 201 255
165 201 255
165 201 255
165 201 255
165 201 255
165 201 255
165 201 255
166 202 255
166 202 255
166 202 255
166 202 255
166 202 255
166 202 255
166 202 255
166 202 255
166 202 255
166 202 255
167 202 255
167 202 255
167 202 255
167 202 255
167 202 255
167 202 255
167 202 255
167 202 255
167 203 255
167 203 255
167 203 255
167 203 255
168 203 255
168 203 255
168 203 255
168 203 255
168 203 255
168 203 255
168 203 255
168 203 255
168 203 255
168 203 255
168 203 255
169 203 255
169 203 255
169 203 255
169 204 255
169 204 255
169 204 255
169 204 255
169 204 255
169 204 255
169 204 255
169 204 255
169 204 255
170 204 255
170 204 255
170 204 255
170 204 255
170 204 255
170 204 255
170 204 255
170 204 255
170 204 255
170 204 255
170 204 255
170 204 255
171 205 255
171 205 255
171 205 255
171 205 255
171 205 255
171 205 255
171 205 255
171 205 255
171 205 255
171 205 255
171 205 255
171 205 255
171 205 255
172 205 255
172 205 255
172 205 255
172 205 255
172 205 255
172 205 255
172 205 255
172 205 255
172 205 255
172 205 255
172 206 255
172 206 255
172 206 255
172 206 255
172 206 255
173 206 255
173 206 255
173 206 255
173 206 255
173 206 255
173 206 255
173 206 255
173 206 255
173 206 255
173 206 255
173 206 255
173 206 255
173 206 255
173 206 255
173 206 255
173 206 255
173 206 255
173 206 255
173 206 255
173 206 255
173 206 255
172 206 255
172 206 255
172 206 255
172 206 255
172 206 255
172 205 255
172 205 255
172 205 255
172 205 255
172 205 255
172 205 255
172 205 255
172 205 255
172 205 255
171 205 255
171 205 255
171 205 255
171 205 255
171 205 255
171 205 255
171 205 255
171 205 255
171 205 255
171 205 255
171 205 255
171 205 255
171 205 255
170 204 255
170 204 255
170 204 255
170 204 255
170 204 255
170 204 255
170 204 255
170 204 255
170 204 255
170 204 255
170 204 255
170 204 255
169 204 255
169 204 255
169 204 255
169 204 255
169 204 255
169 204 255
169 204 255
169 204 255
169 203 255
169 203 255
169 203 255
169 203 255
168 203 255
168 203 255
168 203 255
168 203 255
168 203 255
168 203 255
168 203 255
168 203 255
168 203 255
168 203 255
168 203 255
167 203 255
167 203 255
167 203 255
167 202 255
167 202 255
167 202 255
167 202 255
167 202 255
167 202 255
167 202 255
167 202 255
166 202 255
166 202 255
166 202 255
166 202 255
166 202 255
166 202 255
166 202 255
166 202 255
166 202 255
166 202 255
165 201 255
165 201 255
165 201 255
165 201 255
165 201 255
165 201 255
165 201 255
165 201 255
165 201 255
165 201 255
165 201 255
164 201 255
164 201 255
164 201 255
164 201 255
164 201 255
164 201 255
164 201 255
164 200 255
164 200 255
164 200 255
163 200 255
163 200 255
163 200 255
163 200 255
163 200 255
163 200 255
163 200 255
163 200 255
163 200 255
163 200 255
163 200 255
162 200 255
162 200 255
162 200 255
162 200 255
162 199 255
162 199 255
162 199 255
162 199 255
162 199 255
162 199 255
162 199 255
161 199 255
161 199 255
161 199 255
161 199 255
161 199 255
161 199 255
161 199 255
161 199 255
161 199 255
161 199 255
161 199 255
161 199 255
160 198 255
160 198 255
160 198 255
160 198 255
160 198 255
160 198 255
160 198 255
160 198 255
160 198 255
160 198 255
160 198 255
160 198 255
160 198 255
160 198 255
159 198 255
159 198 255
159 198 255
159 198 255
159 198 255
159 198 255
159 198 255
159 198 255
159 198 255
159 198 255
159 198 255
159 198 255
159 198 255
159 197 255
159 197 255
159 197 255
159 197 255
159 197 255
159 197 255
159 197 255
159 197 255
159 197 255
159 197 255
158 197 255
158 197 255
159 197 255
158 197 255
158 197 255
158 197 255
158 197 255
158 197 255
158 197 255
158 197 255
158 197 255
158 197 255
158 197 255
158 197 255
158 197 255
158 197 255
158 197 255
158 197 255
158 197 255
158 197 255
158 197 255
159 197 255
159 197 255
159 197 255
159 197 255
159 197 255
159 197 255
159 197 255
159 197 255
159 197 255
159 197 255
159 197 255
159 197 255
159 197 255
159 198 255
159 198 255
159 198 255
159 198 255
159 198 255
159 198 255
159 198 255
159 198 255
159 198 255
159 198 255
159 198 255
159 198 255
160 198 255
159 198 255
160 198 255
160 198 255
160 198 255
160 198 255
160 198 255
160 198 255
160 198 255
160 198 255
160 198 255
160 198 255
160 198 255
160 198 255
160 198 255
161 199 255
161 199 255
161 199 255
161 199 255
161 199 255
161 199 255
161 199 255
161 199 255
161 199 255
161 199 255
161 199 255
161 199 255
161 199 255
162 199 255
162 199 255
162 199 255
162 199 255
162 199 255
162 199 255
162 199 255
162 200 255
162 200 255
162 200 255
162 200 255
163 200 255
163 200 255
163 200 255
163 200 255
163 200 255
163 200 255
163 200 255
163 200 255
163 200 255
163 200 255
164 200 255
164 200 255
164 200 255
164 201 255
164 201 255
164 201 255
164 201 255
164 201 255
164 201 255
164 201 255
165 201 255
165 201 255
165 201 255
165 201 255
165 201 255
165 201 255
165 201 255
165 201 255
165 201 255
165 201 255
165 201 255
166 202 255
166 202 255
166 202 255
166 202 255
166 202 255
166 202 255
166 202 255
166 202 255
166 202 255
166 202 255
167 202 255
167 202 255
167 202 255
167 202 255
167 202 255
167 202 255
167 202 255
167 203 255
167 203 255
167 203 255
167 203 255
168 203 255
168 203 255
168 203 255
168 203 255
168 203 255
168 203 255
168 203 255
168 203 255
168 203 255
168 203 255
168 203 255
169 203 255
169 203 255
169 203 255
169 203 255
169 204 255
169 204 255
169 204 255
169 204 255
169 204 255
169 204 255
169 204 255
169 204 255
170 204 255
170 204 255
170 204 255
170 204 255
170 204 255
170 204 255
170 204 255
170 204 255
170 204 255
170 204 255
170 204 255
170 204 255
170 204 255
171 205 255
171 205 255
171 205 255
171 205 255
171 205 255
171 205 255
171 205 255
171 205 255
171 205 255
171 205 255
171 205 255
171 205 255
171 205 255
172 205 255
172 205 255
172 205 255
172 205 255
172 205 255
172 205 255
172 205 255
172 205 255
172 206 255
172 206 255
172 206 255
172 206 255
172 206 255
172 206 255
173 206 255
173 206 255
173 206 255
173 206 255
173 206 255
173 206 255
173 206 255
173 206 255
173 206 255
173 206 255
173 206 255
173 206 255
173 206 255
174 206 255
173 206 255
173 206 255
173 206 255
173 206 255
173 206 255
173 206 255
173 206 255
173 206 255
173 206 255
173 206 255
173 206 255
173 206 255
173 206 255
173 206 255
172 206 255
172 206 255
172 206 255
172 206 255
172 206 255
172 205 255
172 205 255
172 205 255
172 205 255
172 205 255
172 205 255
172 205 255
172 205 255
172 205 255
171 205 255
171 205 255
171 205 255
171 205 255
171 205 255
171 205 255
171 205 255
171 205 255
171 205 255
171 205 255
171 205 255
171 205 255
171 205 255
170 204 255
170 204 255
170 204 255
170 204 255
170 204 255
170 204 255
170 204 255
170 204 255
170 204 255
170 204 255
170 204 255
170 204 255
170 204 255
169 204 255
169 204 255
169 204 255
169 204 255
169 204 255
169 204 255
169 204 255
169 204 255
169 203 255
169 203 255
169 203 255
169 203 255
168 203 255
168 203 255
168 203 255
168 203 255
168 203 255
168 203 255
168 203 255
168 203 255
168 203 255
168 203 255
168 203 255
167 203 255
167 203 255
167 203 255
167 202 255
167 202 255
167 202 255
167 202 255
167 202 255
167 202 255
167 202 255
166 202 255
166 202 255
166 202 255
166 202 255
166 202 255
166 202 255
166 202 255
166 202 255
166 202 255
166 202 255
166 202 255
165 201 255
165 201 255
165 201 255
165 201 255
165 201 255
165 201 255
165 201 255
165 201 255
165 201 255
165 201 255
165 201 255
164 201 255
164 201 255
164 201 255
164 201 255
164 201 255
164 200 255
164 200 255
164 200 255
164 200 255
164 200 255
163 200 255
163 200 255
163 200 255
163 200 255
163 200 255
163 200 255
163 200 255
163 200 255
163 200 255
163 200 255
162 200 255
162 200 255
162 200 255
162 200 255
162 199 255
162 199 255
162 199 255
162 199 255
162 199 255
162 199 255
162 199 255
162 199 255
161 199 255
161 199 255
161 199 255
161 199 255
161 199 255
161 199 255
161 199 255
161 199 255
161 199 255
161 199 255
161 199 255
161 199 255
160 198 255
160 198 255
160 198 255
160 198 255
160 198 255
160 198 255
160 198 255
160 198 255
160 198 255
160 198 255
160 198 255
160 198 255
160 198 255
160 198 255
160 198 255
159 198 255
159 198 255
159 198 255
159 198 255
159 198 255
159 198 255
159 198 255
159 198 255
159 198 255
159 198 255
159 198 255
159 198 255
159 198 255
159 198 255
159 198 255
159 198 255
159 198 255
159 198 255
159 197 255
159 198 255
159 198 255
159 198 255
159 197 255
159 197 255
159 197 255
159 197 255
159 197 255
159 197 255
159 197 255
159 197 255
159 197 255
159 197 255
159 197 255
159 197 255
159 197 255
159 197 255
159 197 255
159 198 255
159 197 255
159 198 255
159 198 255
159 198 255
159 198 255
159 198 255
159 198 255
159 198 255
159 198 255
159 198 255
159 198 255
159 198 255
159 198 255
159 198 255
159 198 255
159 198 255
159 198 255
159 198 255
159 198 255
159 198 255
160 198 255
160 198 255
160 198 255
160 198 255
160 198 255
160 198 255
160 198 255
160 198 255
160 198 255
160 198 255
160 198 255
160 198 255
160 198 255
160 198 255
160 198 255
160 198 255
161 199 255
161 199 255
161 199 255
161 199 255
161 199 255
161 199 255
161 199 255
161 199 255
161 199 255
161 199 255
161 199 255
161 199 255
161 199 255
161 199 255
162 199 255
162 199 255
162 199 255
162 199 255
162 199 255
162 199 255
162 199 255
162 200 255
162 200 255
162 200 255
162 200 255
163 200 255
163 200 255
163 200 255
163 200 255
163 200 255
163 200 255
163 200 255
163 200 255
163 200 255
163 200 255
164 200 255
164 200 255
164 200 255
164 201 255
164 201 255
164 201 255
164 201 255
164 201 255
164 201 255
164 201 255
164 201 255
165 201 255
165 201 255
165 201 255
165 201 255
165 201 255
165 201 255
165 201 255
165 201 255
165 201 255
165 201 255
166 202 255
166 202 255
166 202 255
166 202 255
166 202 255
166 202 255
166 202 255
166 202 255
166 202 255
166 202 255
166 202 255
167 202 255
167 202 255
167 202 255
167 202 255
167 202 255
167 202 255
167 202 255
167 203 255
167 203 255
167 203 255
167 203 255
168 203 255
168 203 255
168 203 255
168 203 255
168 203 255
168 203 255
168 203 255
168 203 255
168 203 255
168 203 255
168 203 255
169 203 255
169 203 255
169 203 255
169 204 255
169 204 255
169 204 255
169 204 255
169 204 255
169 204 255
169 204 255
169 204 255
169 204 255
170 204 255
170 204 255
170 204 255
170 204 255
170 204 255
170 204 255
170 204 255
170 204 255
170 204 255
170 204 255
170 204 255
170 204 255
171 205 255
171 205 255
171 205 255
171 205 255
171 205 255
171 205 255
171 205 255
171 205 255
171 205 255
171 205 255
171 205 255
171 205 255
171 205 255
172 205 255
172 205 255
172 205 255
172 205 255
172 205 255
172 205 255
172 205 255
172 205 255
172 205 255
172 206 255
172 206 255
172 206 255
172 206 255
172 206 255
173 206 255
173 206 255
173 206 255
173 206 255
173 206 255
173 206 255
173 206 255
173 206 255
173 206 255
173 206 255
173 206 255
173 206 255
173 206 255
173 206 255
174 206 255
174 206 255
174 206 255
174 206 255
174 206 255
174 206 255
174 206 255
173 206 255
173 206 255
173 206 255
173 206 255
173 206 255
173 206 255
173 206 255
173 206 255
173 206 255
173 206 255
173 206 255
173 206 255
173 206 255
173 206 255
173 206 255
172 206 255
172 206 255
172 206 255
172 206 255
172 205 255
172 205 255
172 205 255
172 205 255
172 205 255
172 205 255
172 205 255
172 205 255
172 205 255
172 205 255
171 205 255
171 205 255
171 205 255
171 205 255
171 205 255
171 205 255
171 205 255
171 205 255
171 205 255
171 205 255
171 205 255
171 205 255
171 205 255
170 204 255
170 204 255
170 204 255
170 204 255
170 204 255
170 204 255
170 204 255
170 204 255
170 204 255
170 204 255
170 204 255
170 204 255
169 204 255
169 204 255
169 204 255
169 204 255
169 204 255
169 204 255
169 204 255
169 204 255
169 203 255
169 203 255
169 203 255
168 203 255
168 203 255
168 203 255
168 203 255
168 203 255
168 203 255
168 203 255
168 203 255
168 203 255
168 203 255
168 203 255
168 203 255
167 203 255
167 203 255
167 203 255
167 202 255
167 202 255
167 202 255
167 202 255
167 202 255
167 202 255
167 202 255
166 202 255
166 202 255
166 202 255
166 202 255
166 202 255
166 202 255
166 202 255
166 202 255
166 202 255
166 202 255
166 202 255
165 201 255
165 201 255
165 201 255
165 201 255
165 201 255
165 201 255
165 201 255
165 201 255
165 201 255
165 201 255
164 201 255
164 201 255
164 201 255
164 201 255
164 201 255
164 201 255
164 201 255
164 201 255
164 200 255
164 200 255
164 200 255
163 200 255
163 200 255
163 200 255
163 200 255
163 200 255
163 200 255
163 200 255
163 200 255
163 200 255
163 200 255
163 200 255
162 200 255
162 200 255
162 200 255
162 200 255
162 199 255
162 199 255
162 199 255
162 199 255
162 199 255
162 199 255
162 199 255
162 199 255
161 199 255
161 199 255
161 199 255
161 199 255
161 199 255
161 199 255
161 199 255
161 199 255
161 199 255
161 199 255
161 199 255
161 199 255
161 199 255
161 199 255
160 198 255
160 198 255
160 198 255
160 198 255
160 198 255
160 198 255
160 198 255
160 198 255
160 198 255
160 198 255
160 198 255
160 198 255
160 198 255
160 198 255
160 198 255
160 198 255
160 198 255
160 198 255
160 198 255
160 198 255
159 198 255
159 198 255
159 198 255
159 198 255
159 198 255
159 198 255
159 198 255
159 198 255
159 198 255
159 198 255
159 198 255
159 198 255
159 198 255
159 198 255
159 198 255
159 198 255
159 198 255
159 198 255
159 198 255
159 198 255
159 198 255
159 198 255
159 198 255
159 198 255
159 198 255
159 198 255
159 198 255
159 198 255
159 198 255
159 198 255
159 198 255
159 198 255
159 198 255
159 198 255
159 198 255
159 198 255
159 198 255
159 198 255
159 198 255
159 198 255
160 198 255
160 198 255
160 198 255
160 198 255
160 198 255
160 198 255
160 198 255
160 198 255
160 198 255
160 198 255
160 198 255
160 198 255
160 198 255
160 198 255
160 198 255
160 198 255
160 198 255
160 198 255
161 199 255
161 199 255
161 199 255
161 199 255
161 199 255
161 199 255
161 199 255
161 199 255
161 199 255
161 199 255
161 199 255
161 199 255
161 199 255
161 199 255
162 199 255
162 199 255
162 199 255
162 199 255
162 199 255
162 199 255
162 199 255
162 199 255
162 200 255
162 200 255
162 200 255
162 200 255
163 200 255
163 200 255
163 200 255
163 200 255
163 200 255
163 200 255
163 200 255
163 200 255
163 200 255
163 200 255
163 200 255
164 200 255
164 200 255
164 200 255
164 201 255
164 201 255
164 201 255
164 201 255
164 201 255
164 201 255
164 201 255
164 201 255
165 201 255
165 201 255
165 201 255
165 201 255
165 201 255
165 201 255
165 201 255
165 201 255
165 201 255
165 201 255
166 202 255
166 202 255
166 202 255
166 202 255
166 202 255
166 202 255
166 202 255
166 202 255
166 202 255
166 202 255
167 202 255
167 202 255
167 202 255
167 202 255
167 202 255
167 202 255
167 202 255
167 203 255
167 203 255
167 203 255
167 203 255
168 203 255
168 203 255
168 203 255
168 203 255
168 203 255
168 203 255
168 203 255
168 203 255
168 203 255
168 203 255
168 203 255
168 203 255
169 203 255
169 203 255
169 203 255
169 204 255
169 204 255
169 204 255
169 204 255
169 204 255
169 204 255
169 204 255
169 204 255
169 204 255
170 204 255
170 204 255
170 204 255
170 204 255
170 204 255
170 204 255
170 204 255
170 204 255
170 204 255
170 204 255
170 204 255
171 205 255
171 205 255
171 205 255
171 205 255
171 205 255
171 205 255
171 205 255
171 205 255
171 205 255
171 205 255
171 205 255
171 205 255
171 205 255
172 205 255
172 205 255
172 205 255
172 205 255
172 205 255
172 205 255
172 205 255
172 205 255
172 205 255
172 206 255
172 206 255
172 206 255
172 206 255
172 206 255
173 206 255
173 206 255
173 206 255
173 206 255
173 206 255
173 206 255
173 206 255
173 206 255
173 206 255
173 206 255
173 206 255
173 206 255
173 206 255
173 206 255
173 206 255
174 206 255
174 206 255
174 206 255
174 206 255
174 206 255
174 207 255
174 207 255
174 207 255
174 206 255
174 206 255
174 206 255
174 206 255
174 206 255
174 206 255
173 206 255
173 206 255
173 206 255
173 206 255
173 206 255
173 206 255
173 206 255
173 206 255
173 206 255
173 206 255
173 206 255
173 206 255
173 206 255
173 206 255
173 206 255
172 206 255
172 206 255
172 206 255
172 206 255
172 205 255
172 205 255
172 205 255
172 205 255
172 205 255
172 205 255
172 205 255
172 205 255
172 205 255
172 205 255
171 205 255
171 205 255
171 205 255
171 205 255
171 205 255
171 205 255
171 205 255
171 205 255
171 205 255
171 205 255
171 205 255
171 205 255
171 205 255
170 204 255
170 204 255
170 204 255
170 204 255
170 204 255
170 204 255
170 204 255
170 204 255
170 204 255
170 204 255
170 204 255
169 204 255
169 204 255
169 204 255
169 204 255
169 204 255
169 204 255
169 204 255
169 204 255
169 204 255
169 203 255
169 203 255
169 203 255
168 203 255
168 203 255
168 203 255
168 203 255
168 203 255
168 203 255
168 203 255
168 203 255
168 203 255
168 203 255
168 203 255
167 203 255
167 203 255
167 203 255
167 202 255
167 202 255
167 202 255
167 202 255
167 202 255
167 202 255
167 202 255
167 202 255
166 202 255
166 202 255
166 202 255
166 202 255
166 202 255
166 202 255
166 202 255
166 202 255
166 202 255
166 202 255
165 201 255
165 201 255
165 201 255
165 201 255
165 201 255
165 201 255
165 201 255
165 201 255
165 201 255
165 201 255
165 201 255
164 201 255
164 201 255
164 201 255
164 201 255
164 201 255
164 201 255
164 201 255
164 200 255
164 200 255
164 200 255
164 200 255
164 200 255
163 200 255
163 200 255
163 200 255
163 200 255
163 200 255
163 200 255
163 200 255
163 200 255
163 200 255
163 200 255
163 200 255
162 200 255
162 200 255
162 200 255
162 199 255
162 199 255
162 199 255
162 199 255
162 199 255
162 199 255
162 199 255
162 199 255
162 199 255
161 199 255
161 199 255
161 199 255
161 199 255
161 199 255
161 199 255
161 199 255
161 199 255
161 199 255
161 199 255
161 199 255
161 199 255
161 199 255
161 199 255
161 199 255
160 198 255
160 198 255
160 198 255
160 198 255
160 198 255
160 198 255
160 198 255
160 198 255
160 198 255
160 198 255
160 198 255
160 198 255
160 198 255
160 198 255
160 198 255
160 198 255
160 198 255
160 198 255
160 198 255
160 198 255
160 198 255
160 198 255
160 198 255
159 198 255
160 198 255
160 198 255
147 183 236
151 188 243
113 139 179
143 178 230
135 168 217
112 139 179
117 144 185
107 133 172
132 164 211
159 198 255
130 162 211
151 188 243
135 168 217
147 183 236
160 198 255
160 198 255
160 198 255
160 198 255
160 198 255
160 198 255
160 198 255
160 198 255
160 198 255
160 198 255
160 198 255
160 198 255
160 198 255
160 198 255
160 198 255
160 198 255
160 198 255
160 198 255
160 198 255
160 198 255
160 198 255
160 198 255
160 198 255
160 198 255
160 198 255
160 198 255
161 199 255
161 199 255
161 199 255
161 199 255
161 199 255
161 199 255
161 199 255
161 199 255
161 199 255
161 199 255
161 199 255
161 199 255
161 199 255
161 199 255
161 199 255
162 199 255
162 199 255
162 199 255
162 199 255
162 199 255
162 199 255
162 199 255
162 199 255
162 199 255
162 200 255
162 200 255
162 200 255
163 200 255
162 200 255
163 200 255
163 200 255
163 200 255
163 200 255
163 200 255
163 200 255
163 200 255
163 200 255
163 200 255
163 200 255
164 200 255
164 200 255
164 200 255
164 201 255
164 201 255
164 201 255
164 201 255
164 201 255
164 201 255
164 201 255
164 201 255
165 201 255
165 201 255
165 201 255
165 201 255
165 201 255
165 201 255
165 201 255
165 201 255
165 201 255
165 201 255
165 201 255
166 202 255
166 202 255
166 202 255
166 202 255
166 202 255
166 202 255
166 202 255
166 202 255
166 202 255
166 202 255
167 202 255
167 202 255
167 202 255
167 202 255
167 202 255
167 202 255
167 202 255
167 203 255
167 203 255
167 203 255
167 203 255
168 203 255
168 203 255
168 203 255
168 203 255
168 203 255
168 203 255
168 203 255
168 203 255
168 203 255
168 203 255
168 203 255
169 203 255
169 203 255
169 203 255
169 203 255
169 204 255
169 204 255
169 204 255
169 204 255
169 204 255
169 204 255
169 204 255
170 204 255
170 204 255
170 204 255
170 204 255
170 204 255
170 204 255
170 204 255
170 204 255
170 204 255
170 204 255
170 204 255
170 204 255
170 204 255
171 205 255
171 205 255
171 205 255
171 205 255
171 205 255
171 205 255
171 205 255
171 205 255
171 205 255
171 205 255
171 205 255
171 205 255
171 205 255
172 205 255
172 205 255
172 205 255
172 205 255
172 205 255
172 205 255
172 205 255
172 205 255
172 206 255
172 206 255
172 206 255
172 206 255
172 206 255
172 206 255
173 206 255
173 206 255
173 206 255
173 206 255
173 206 255
173 206 255
173 206 255
173 206 255
173 206 255
173 206 255
173 206 255
173 206 255
173 206 255
173 206 255
174 206 255
174 206 255
174 206 255
174 206 255
174 206 255
174 207 255
174 207 255
174 207 255
174 207 255
174 207 255
174 207 255
174 207 255
174 207 255
174 207 255
174 207 255
174 207 255
174 207 255
174 206 255
174 206 255
174 206 255
174 206 255
173 206 255
173 206 255
173 206 255
173 206 255
173 206 255
173 206 255
173 206 255
173 206 255
173 206 255
173 206 255
173 206 255
173 206 255
173 206 255
173 206 255
173 206 255
172 206 255
172 206 255
172 206 255
172 206 255
172 206 255
172 206 255
172 205 255
172 205 255
172 205 255
172 205 255
172 205 255
172 205 255
172 205 255
172 205 255
172 205 255
171 205 255
171 205 255
171 205 255
171 205 255
171 205 255
171 205 255
171 205 255
171 205 255
171 205 255
171 205 255
171 205 255
171 205 255
170 204 255
170 204 255
170 204 255
170 204 255
170 204 255
170 204 255
170 204 255
170 204 255
170 204 255
170 204 255
170 204 255
170 204 255
169 204 255
169 204 255
169 204 255
169 204 255
169 204 255
169 204 255
169 204 255
169 203 255
169 203 255
169 203 255
169 203 255
168 203 255
168 203 255
168 203 255
168 203 255
168 203 255
168 203 255
168 203 255
168 203 255
168 203 255
168 203 255
168 203 255
168 203 255
167 203 255
167 203 255
167 203 255
167 202 255
167 202 255
167 202 255
167 202 255
167 202 255
167 202 255
167 202 255
166 202 255
166 202 255
166 202 255
166 202 255
166 202 255
166 202 255
166 202 255
166 202 255
166 202 255
166 202 255
166 202 255
165 201 255
165 201 255
165 201 255
165 201 255
165 201 255
165 201 255
165 201 255
165 201 255
165 201 255
165 201 255
165 201 255
164 201 255
164 201 255
164 201 255
164 201 255
164 201 255
164 201 255
164 201 255
164 200 255
164 200 255
164 200 255
164 200 255
163 200 255
163 200 255
163 200 255
163 200 255
163 200 255
163 200 255
163 200 255
163 200 255
163 200 255
163 200 255
163 200 255
162 200 255
162 200 255
162 200 255
162 200 255
162 200 255
162 199 255
162 199 255
162 199 255
162 199 255
162 199 255
162 199 255
162 199 255
162 199 255
162 199 255
161 199 255
161 199 255
161 199 255
161 199 255
161 199 255
161 199 255
161 199 255
161 199 255
161 199 255
161 199 255
161 199 255
161 199 255
161 199 255
161 199 255
161 199 255
161 199 255
161 199 255
160 198 255
160 198 255
160 198 255
160 198 255
160 198 255
160 198 255
160 198 255
160 198 255
160 198 255
160 198 255
160 198 255
160 198 255
160 198 255
116 144 185
136 168 217
126 157 204
84 106 140
91 116 153
80 99 127
76 97 127
77 97 127
77 95 121
77 97 127
74 90 115
75 91 115
80 97 121
73 93 121
76 94 121
65 85 115
68 84 108
79 96 121
68 86 115
72 89 115
81 100 127
71 89 115
116 144 185
100 123 156
139 173 223
136 168 217
152 188 243
160 198 255
160 198 255
160 198 255
160 198 255
160 198 255
160 198 255
160 198 255
160 198 255
160 198 255
160 198 255
160 198 255
160 198 255
160 198 255
161 199 255
161 199 255
161 199 255
161 199 255
161 199 255
161 199 255
161 199 255
161 199 255
161 199 255
161 199 255
161 199 255
161 199 255
161 199 255
161 199 255
161 199 255
161 199 255
162 199 255
162 199 255
162 199 255
162 199 255
162 199 255
162 199 255
162 199 255
162 199 255
162 199 255
162 199 255
162 200 255
162 200 255
162 200 255
162 200 255
163 200 255
163 200 255
163 200 255
163 200 255
163 200 255
163 200 255
163 200 255
163 200 255
163 200 255
163 200 255
163 200 255
164 200 255
164 200 255
164 200 255
164 200 255
164 201 255
164 201 255
164 201 255
164 201 255
164 201 255
164 201 255
164 201 255
165 201 255
165 201 255
165 201 255
165 201 255
165 201 255
165 201 255
165 201 255
165 201 255
165 201 255
165 201 255
165 201 255
166 202 255
166 202 255
166 202 255
166 202 255
166 202 255
166 202 255
166 202 255
166 202 255
166 202 255
166 202 255
167 202 255
167 202 255
167 202 255
167 202 255
167 202 255
167 202 255
167 202 255
167 202 255
167 203 255
167 203 255
167 203 255
168 203 255
168 203 255
168 203 255
168 203 255
168 203 255
168 203 255
168 203 255
168 203 255
168 203 255
168 203 255
168 203 255
168 203 255
169 203 255
169 203 255
169 203 255
169 204 255
169 204 255
169 204 255
169 204 255
169 204 255
169 204 255
169 204 255
169 204 255
170 204 255
170 204 255
170 204 255
170 204 255
170 204 255
170 204 255
170 204 255
170 204 255
170 204 255
170 204 255
170 204 255
170 204 255
171 205 255
171 205 255
171 205 255
171 205 255
171 205 255
171 205 255
171 205 255
171 205 255
171 205 255
171 205 255
171 205 255
171 205 255
171 205 255
172 205 255
172 205 255
172 205 255
172 205 255
172 205 255
172 205 255
172 205 255
172 205 255
172 206 255
172 206 255
172 206 255
172 206 255
172 206 255
172 206 255
173 206 255
173 206 255
173 206 255
173 206 255
173 206 255
173 206 255
173 206 255
173 206 255
173 206 255
173 206 255
173 206 255
173 206 255
173 206 255
174 206 255
173 206 255
174 206 255
174 206 255
174 206 255
174 206 255
174 207 255
174 207 255
174 207 255
174 207 255
174 207 255
174 207 255
174 207 255
174 207 255
175 207 255
174 207 255
174 207 255
174 207 255
174 207 255
174 207 255
174 207 255
174 207 255
174 207 255
174 207 255
174 207 255
174 207 255
174 206 255
174 206 255
174 206 255
174 206 255
174 206 255
173 206 255
173 206 255
173 206 255
173 206 255
173 206 255
173 206 255
173 206 255
173 206 255
173 206 255
173 206 255
173 206 255
173 206 255
173 206 255
173 206 255
172 206 255
172 206 255
172 206 255
172 206 255
172 206 255
172 205 255
172 205 255
172 205 255
172 205 255
172 205 255
172 205 255
172 205 255
172 205 255
172 205 255
171 205 255
171 205 255
171 205 255
171 205 255
171 205 255
171 205 255
171 205 255
171 205 255
171 205 255
171 205 255
171 205 255
171 205 255
171 205 255
170 204 255
170 204 255
170 204 255
170 204 255
170 204 255
170 204 255
170 204 255
170 204 255
170 204 255
170 204 255
170 204 255
170 204 255
169 204 255
169 204 255
169 204 255
169 204 255
169 204 255
169 204 255
169 204 255
169 203 255
169 203 255
169 203 255
169 203 255
168 203 255
168 203 255
168 203 255
168 203 255
168 203 255
168 203 255
168 203 255
168 203 255
168 203 255
168 203 255
168 203 255
167 203 255
167 203 255
167 203 255
167 202 255
167 202 255
167 202 255
167 202 255
167 202 255
167 202 255
167 202 255
167 202 255
167 202 255
166 202 255
166 202 255
166 202 255
166 202 255
166 202 255
166 202 255
166 202 255
166 202 255
166 202 255
166 202 255
165 201 255
165 201 255
165 201 255
165 201 255
165 201 255
165 201 255
165 201 255
165 201 255
165 201 255
165 201 255
165 201 255
164 201 255
164 201 255
164 201 255
164 201 255
164 201 255
164 201 255
164 201 255
164 200 255
164 200 255
164 200 255
164 200 255
163 200 255
163 200 255
163 200 255
163 200 255
163 200 255
163 200 255
163 200 255
163 200 255
163 200 255
163 200 255
163 200 255
163 200 255
162 200 255
162 200 255
162 200 255
162 200 255
162 200 255
162 199 255
162 199 255
162 199 255
162 199 255
162 199 255
162 199 255
162 199 255
162 199 255
162 199 255
161 199 255
161 199 255
161 199 255
161 199 255
161 199 255
161 199 255
161 199 255
161 199 255
161 199 255
161 199 255
161 199 255
161 199 255
161 199 255
161 199 255
161 199 255
161 199 255
161 199 255
161 199 255
161 199 255
161 199 255
151 188 243
129 162 211
113 139 179
96 122 159
82 100 127
77 97 127
69 90 121
70 88 115
73 92 121
69 85 108
78 98 127
75 96 127
70 88 115
79 98 127
84 101 127
59 76 102
72 92 121
71 88 115
77 97 127
71 91 121
70 91 121
84 101 127
73 92 121
75 93 121
60 79 108
72 92 121
77 92 115
72 91 121
69 87 115
70 88 115
62 78 102
74 93 121
97 119 153
131 163 211
152 188 243
160 198 255
161 199 255
161 199 255
161 199 255
161 199 255
161 199 255
161 199 255
161 199 255
161 199 255
161 199 255
161 199 255
161 199 255
161 199 255
161 199 255
161 199 255
161 199 255
161 199 255
161 199 255
161 199 255
161 199 255
161 199 255
162 199 255
162 199 255
162 199 255
162 199 255
162 199 255
162 199 255
162 199 255
162 199 255
162 199 255
162 199 255
162 200 255
162 200 255
162 200 255
162 200 255
163 200 255
163 200 255
163 200 255
163 200 255
163 200 255
163 200 255
163 200 255
163 200 255
163 200 255
163 200 255
163 200 255
163 200 255
164 200 255
164 200 255
164 200 255
164 200 255
164 201 255
164 201 255
164 201 255
164 201 255
164 201 255
164 201 255
164 201 255
165 201 255
165 201 255
165 201 255
165 201 255
165 201 255
165 201 255
165 201 255
165 201 255
165 201 255
165 201 255
165 201 255
166 202 255
166 202 255
166 202 255
166 202 255
166 202 255
166 202 255
166 202 255
166 202 255
166 202 255
166 202 255
166 202 255
167 202 255
167 202 255
167 202 255
167 202 255
167 202 255
167 202 255
167 202 255
167 203 255
167 203 255
167 203 255
167 203 255
168 203 255
168 203 255
168 203 255
168 203 255
168 203 255
168 203 255
168 203 255
168 203 255
168 203 255
168 203 255
168 203 255
169 203 255
169 203 255
169 203 255
169 204 255
169 204 255
169 204 255
169 204 255
169 204 255
169 204 255
169 204 255
169 204 255
170 204 255
170 204 255
170 204 255
170 204 255
170 204 255
170 204 255
170 204 255
170 204 255
170 204 255
170 204 255
170 204 255
170 204 255
170 204 255
171 205 255
171 205 255
171 205 255
171 205 255
171 205 255
171 205 255
171 205 255
171 205 255
171 205 255
171 205 255
171 205 255
171 205 255
172 205 255
172 205 255
172 205 255
172 205 255
172 205 255
172 205 255
172 205 255
172 205 255
172 205 255
172 206 255
172 206 255
172 206 255
172 206 255
172 206 255
173 206 255
173 206 255
173 206 255
173 206 255
173 206 255
173 206 255
173 206 255
173 206 255
173 206 255
173 206 255
173 206 255
173 206 255
173 206 255
173 206 255
174 206 255
174 206 255
174 206 255
174 206 255
174 206 255
174 207 255
174 207 255
174 207 255
174 207 255
174 207 255
174 207 255
174 207 255
174 207 255
174 207 255
174 207 255
174 207 255
175 207 255
175 207 255
175 207 255
175 207 255
175 207 255
175 207 255
174 207 255
174 207 255
174 207 255
174 207 255
174 207 255
174 207 255
174 207 255
174 207 255
174 207 255
174 207 255
174 207 255
174 206 255
174 206 255
174 206 255
174 206 255
173 206 255
173 206 255
173 206 255
173 206 255
173 206 255
173 206 255
173 206 255
173 206 255
173 206 255
173 206 255
173 206 255
173 206 255
173 206 255
173 206 255
173 206 255
172 206 255
172 206 255
172 206 255
172 206 255
172 206 255
172 205 255
172 205 255
172 205 255
172 205 255
172 205 255
172 205 255
172 205 255
172 205 255
172 205 255
172 205 255
171 205 255
171 205 255
171 205 255
171 205 255
171 205 255
171 205 255
171 205 255
171 205 255
171 205 255
171 205 255
171 205 255
170 204 255
170 204 255
170 204 255
170 204 255
170 204 255
170 204 255
170 204 255
170 204 255
170 204 255
170 204 255
170 204 255
170 204 255
170 204 255
169 204 255
169 204 255
169 204 255
169 204 255
169 204 255
169 204 255
169 204 255
169 203 255
169 203 255
169 203 255
169 203 255
168 203 255
168 203 255
168 203 255
168 203 255
168 203 255
168 203 255
168 203 255
168 203 255
168 203 255
168 203 255
168 203 255
167 203 255
167 203 255
167 203 255
167 202 255
167 202 255
167 202 255
167 202 255
167 202 255
167 202 255
167 202 255
166 202 255
166 202 255
166 202 255
166 202 255
166 202 255
166 202 255
166 202 255
166 202 255
166 202 255
166 202 255
166 202 255
165 201 255
165 201 255
165 201 255
165 201 255
165 201 255
165 201 255
165 201 255
165 201 255
165 201 255
165 201 255
165 201 255
165 201 255
164 201 255
164 201 255
164 201 255
164 201 255
164 201 255
164 201 255
164 201 255
164 200 255
164 200 255
164 200 255
164 200 255
164 200 255
163 200 255
163 200 255
163 200 255
163 200 255
163 200 255
163 200 255
163 200 255
163 200 255
163 200 255
163 200 255
163 200 255
163 200 255
162 200 255
162 200 255
162 200 255
162 200 255
162 199 255
162 199 255
162 199 255
162 199 255
162 199 255
162 199 255
162 199 255
162 199 255
162 199 255
162 199 255
162 199 255
162 199 255
161 199 255
161 199 255
161 199 255
161 199 255
161 199 255
161 199 255
161 199 255
161 199 255
161 199 255
161 199 255
154 190 243
104 129 166
106 130 166
79 98 127
86 103 127
75 96 127
60 77 102
65 82 108
68 84 108
78 98 127
65 80 102
66 80 102
60 77 102
61 77 102
65 80 102
68 84 108
84 101 127
73 92 121
68 89 121
73 93 121
70 84 105
75 94 121
76 94 121
58 73 96
62 79 105
71 91 121
68 87 115
69 85 108
74 93 121
82 100 127
80 99 127
72 89 115
71 88 115
68 87 115
74 93 121
78 95 121
69 90 121
77 95 121
77 97 127
104 129 166
122 150 191
125 154 198
161 199 255
161 199 255
161 199 255
161 199 255
161 199 255
161 199 255
161 199 255
161 199 255
161 199 255
161 199 255
162 199 255
162 199 255
162 199 255
162 199 255
162 199 255
162 199 255
162 199 255
162 199 255
162 199 255
162 199 255
162 199 255
162 199 255
162 200 255
162 200 255
162 200 255
162 200 255
162 200 255
163 200 255
163 200 255
163 200 255
163 200 255
163 200 255
163 200 255
163 200 255
163 200 255
163 200 255
163 200 255
163 200 255
163 200 255
164 200 255
164 200 255
164 200 255
164 200 255
164 201 255
164 201 255
164 201 255
164 201 255
164 201 255
164 201 255
164 201 255
164 201 255
165 201 255
165 201 255
165 201 255
165 201 255
165 201 255
165 201 255
165 201 255
165 201 255
165 201 255
165 201 255
165 201 255
166 202 255
166 202 255
166 202 255
166 202 255
166 202 255
166 202 255
166 202 255
166 202 255
166 202 255
166 202 255
167 202 255
167 202 255
167 202 255
167 202 255
167 202 255
167 202 255
167 202 255
167 202 255
167 203 255
167 203 255
167 203 255
168 203 255
168 203 255
168 203 255
168 203 255
168 203 255
168 203 255
168 203 255
168 203 255
168 203 255
168 203 255
168 203 255
169 203 255
169 203 255
169 203 255
169 203 255
169 204 255
169 204 255
169 204 255
169 204 255
169 204 255
169 204 255
169 204 255
169 204 255
170 204 255
170 204 255
170 204 255
170 204 255
170 204 255
170 204 255
170 204 255
170 204 255
170 204 255
170 204 255
170 204 255
171 205 255
171 205 255
171 205 255
171 205 255
171 205 255
171 205 255
171 205 255
171 205 255
171 205 255
171 205 255
171 205 255
171 205 255
171 205 255
172 205 255
172 205 255
172 205 255
172 205 255
172 205 255
172 205 255
172 205 255
172 205 255
172 205 255
172 206 255
172 206 255
172 206 255
172 206 255
173 206 255
173 206 255
173 206 255
173 206 255
173 206 255
173 206 255
173 206 255
173 206 255
173 206 255
173 206 255
173 206 255
173 206 255
173 206 255
173 206 255
173 206 255
174 206 255
174 206 255
174 206 255
174 206 255
174 206 255
174 207 255
174 207 255
174 207 255
174 207 255
174 207 255
174 207 255
174 207 255
174 207 255
174 207 255
174 207 255
174 207 255
175 207 255
175 207 255
175 207 255
175 207 255
175 207 255
175 207 255
175 207 255
175 207 255
175 207 255
175 207 255
175 207 255
175 207 255
175 207 255
175 207 255
175 207 255
174 207 255
174 207 255
174 207 255
174 207 255
174 207 255
174 207 255
174 207 255
174 207 255
174 207 255
174 207 255
174 206 255
174 206 255
174 206 255
174 206 255
174 206 255
173 206 255
173 206 255
173 206 255
173 206 255
173 206 255
173 206 255
173 206 255
173 206 255
173 206 255
173 206 255
173 206 255
173 206 255
173 206 255
173 206 255
173 206 255
172 206 255
172 206 255
172 206 255
172 206 255
172 205 255
172 205 255
172 205 255
172 205 255
172 205 255
172 205 255
172 205 255
172 205 255
171 205 255
171 205 255
171 205 255
171 205 255
171 205 255
171 205 255
171 205 255
171 205 255
171 205 255
171 205 255
171 205 255
171 205 255
171 205 255
170 204 255
170 204 255
170 204 255
170 204 255
170 204 255
170 204 255
170 204 255
170 204 255
170 204 255
170 204 255
170 204 255
170 204 255
169 204 255
169 204 255
169 204 255
169 204 255
169 204 255
169 204 255
169 204 255
169 203 255
169 203 255
169 203 255
169 203 255
168 203 255
168 203 255
168 203 255
168 203 255
168 203 255
168 203 255
168 203 255
168 203 255
168 203 255
168 203 255
168 203 255
168 203 255
167 203 255
167 203 255
167 203 255
167 203 255
167 202 255
167 202 255
167 202 255
167 202 255
167 202 255
167 202 255
166 202 255
166 202 255
166 202 255
166 202 255
166 202 255
166 202 255
166 202 255
166 202 255
166 202 255
166 202 255
166 202 255
165 201 255
165 201 255
165 201 255
165 201 255
165 201 255
165 201 255
165 201 255
165 201 255
165 201 255
165 201 255
165 201 255
165 201 255
164 201 255
164 201 255
164 201 255
164 201 255
164 201 255
164 201 255
164 201 255
164 200 255
164 200 255
164 200 255
164 200 255
164 200 255
163 200 255
163 200 255
163 200 255
163 200 255
163 200 255
163 200 255
163 200 255
163 200 255
163 200 255
163 200 255
163 200 255
163 200 255
163 200 255
162 200 255
162 200 255
162 200 255
162 200 255
162 200 255
162 200 255
162 199 255
162 199 255
162 199 255
162 199 255
162 199 255
162 199 255
162 199 255
162 199 255
162 199 255
162 199 255
162 199 255
162 199 255
152 188 243
137 169 217
104 129 166
74 95 127
74 93 121
70 90 121
70 88 115
81 99 127
78 95 121
68 89 121
68 83 105
70 88 115
75 93 121
79 96 121
67 83 108
77 95 121
63 81 108
80 96 121
68 84 108
77 95 121
74 90 115
76 94 121
81 97 121
75 94 121
61 77 102
80 99 127
72 89 115
77 95 121
70 91 121
67 84 108
74 93 121
65 83 108
74 93 121
75 96 127
80 94 115
68 84 108
80 96 121
84 99 121
70 88 115
64 80 103
62 78 102
76 94 121
73 92 121
78 95 121
75 94 121
91 116 153
134 165 211
161 199 255
162 199 255
162 199 255
162 199 255
162 199 255
162 199 255
162 199 255
162 199 255
162 199 255
162 199 255
162 199 255
162 199 255
162 199 255
162 200 255
162 200 255
162 200 255
162 200 255
162 200 255
162 200 255
162 200 255
163 200 255
163 200 255
163 200 255
163 200 255
163 200 255
163 200 255
163 200 255
163 200 255
163 200 255
163 200 255
163 200 255
163 200 255
164 200 255
164 200 255
164 200 255
164 200 255
164 200 255
164 201 255
164 201 255
164 201 255
164 201 255
164 201 255
164 201 255
164 201 255
165 201 255
165 201 255
165 201 255
165 201 255
165 201 255
165 201 255
165 201 255
165 201 255
165 201 255
165 201 255
165 201 255
165 201 255
166 202 255
166 202 255
166 202 255
166 202 255
166 202 255
166 202 255
166 202 255
166 202 255
166 202 255
166 202 255
167 202 255
167 202 255
167 202 255
167 202 255
167 202 255
167 202 255
167 202 255
167 202 255
167 203 255
167 203 255
167 203 255
167 203 255
168 203 255
168 203 255
168 203 255
168 203 255
168 203 255
168 203 255
168 203 255
168 203 255
168 203 255
168 203 255
169 203 255
169 203 255
169 203 255
169 203 255
169 204 255
169 204 255
169 204 255
169 204 255
169 204 255
169 204 255
169 204 255
169 204 255
170 204 255
170 204 255
170 204 255
170 204 255
170 204 255
170 204 255
170 204 255
170 204 255
170 204 255
170 204 255
170 204 255
171 205 255
171 205 255
171 205 255
171 205 255
171 205 255
171 205 255
171 205 255
171 205 255
171 205 255
171 205 255
171 205 255
171 205 255
171 205 255
171 205 255
172 205 255
172 205 255
172 205 255
172 205 255
172 205 255
172 205 255
172 205 255
172 205 255
172 206 255
172 206 255
172 206 255
172 206 255
172 206 255
173 206 255
173 206 255
173 206 255
173 206 255
173 206 255
173 206 255
173 206 255
173 206 255
173 206 255
173 206 255
173 206 255
173 206 255
173 206 255
173 206 255
173 206 255
174 206 255
174 206 255
174 206 255
174 206 255
174 207 255
174 207 255
174 207 255
174 207 255
174 207 255
174 207 255
174 207 255
174 207 255
174 207 255
174 207 255
175 207 255
175 207 255
175 207 255
175 207 255
175 207 255
175 207 255
175 207 255
175 207 255
175 207 255
175 207 255
175 207 255
175 207 255
175 207 255
175 207 255
175 207 255
175 207 255
175 207 255
175 207 255
175 207 255
175 207 255
175 207 255
175 207 255
175 207 255
174 207 255
174 207 255
174 207 255
174 207 255
174 207 255
174 207 255
174 207 255
174 207 255
174 207 255
174 207 255
174 206 255
174 206 255
174 206 255
174 206 255
174 206 255
174 206 255
173 206 255
173 206 255
173 206 255
173 206 255
173 206 255
173 206 255
173 206 255
173 206 255
173 206 255
173 206 255
173 206 255
173 206 255
173 206 255
173 206 255
172 206 255
172 206 255
172 206 255
172 206 255
172 206 255
172 205 255
172 205 255
172 205 255
172 205 255
172 205 255
172 205 255
172 205 255
172 205 255
171 205 255
171 205 255
171 205 255
171 205 255
171 205 255
171 205 255
171 205 255
171 205 255
171 205 255
171 205 255
171 205 255
171 205 255
171 205 255
170 204 255
170 204 255
170 204 255
170 204 255
170 204 255
170 204 255
170 204 255
170 204 255
170 204 255
170 204 255
170 204 255
170 204 255
169 204 255
169 204 255
169 204 255
169 204 255
169 204 255
169 204 255
169 204 255
169 203 255
169 203 255
169 203 255
169 203 255
168 203 255
168 203 255
168 203 255
168 203 255
168 203 255
168 203 255
168 203 255
168 203 255
168 203 255
168 203 255
168 203 255
167 203 255
167 203 255
167 203 255
167 203 255
167 202 255
167 202 255
167 202 255
167 202 255
167 202 255
167 202 255
167 202 255
166 202 255
166 202 255
166 202 255
166 202 255
166 202 255
166 202 255
166 202 255
166 202 255
166 202 255
166 202 255
166 202 255
165 201 255
165 201 255
165 201 255
165 201 255
165 201 255
165 201 255
165 201 255
165 201 255
165 201 255
165 201 255
165 201 255
165 201 255
165 201 255
164 201 255
164 201 255
164 201 255
164 201 255
164 201 255
164 201 255
164 201 255
164 201 255
164 200 255
164 200 255
163 200 255
164 200 255
163 200 255
163 200 255
163 200 255
163 200 255
163 200 255
163 200 255
163 200 255
163 200 255
163 200 255
163 200 255
163 200 255
163 200 255
163 200 255
163 200 255
163 200 255
162 200 255
162 200 255
162 200 255
162 200 255
162 200 255
162 200 255
162 199 255
162 199 255
162 199 255
123 153 198
113 142 185
88 106 134
67 86 115
77 94 121
77 94 121
76 97 127
74 93 121
63 81 108
63 81 108
75 96 127
77 97 127
67 86 115
73 92 121
63 79 103
76 94 121
78 98 127
77 97 127
72 94 127
74 96 127
69 85 108
71 88 115
62 80 108
76 94 121
74 93 121
59 73 95
74 90 115
70 85 108
75 94 121
71 91 121
70 88 115
84 101 127
74 93 121
70 88 115
74 93 121
70 88 115
68 82 102
75 94 121
70 88 115
77 94 121
77 94 121
75 96 127
66 83 108
68 84 108
70 88 115
71 88 115
75 94 121
72 89 115
75 96 127
78 96 121
67 86 115
127 158 204
162 199 255
162 199 255
162 199 255
162 200 255
162 200 255
162 200 255
162 200 255
162 200 255
162 200 255
163 200 255
163 200 255
163 200 255
163 200 255
163 200 255
163 200 255
163 200 255
163 200 255
163 200 255
163 200 255
163 200 255
163 200 255
163 200 255
163 200 255
163 200 255
163 200 255
164 200 255
164 200 255
164 200 255
164 200 255
164 201 255
164 201 255
164 201 255
164 201 255
164 201 255
164 201 255
164 201 255
164 201 255
165 201 255
165 201 255
165 201 255
165 201 255
165 201 255
165 201 255
165 201 255
165 201 255
165 201 255
165 201 255
165 201 255
165 201 255
166 202 255
166 202 255
166 202 255
166 202 255
166 202 255
166 202 255
166 202 255
166 202 255
166 202 255
166 202 255
166 202 255
167 202 255
167 202 255
167 202 255
167 202 255
167 202 255
167 202 255
167 202 255
167 203 255
167 203 255
167 203 255
167 203 255
168 203 255
168 203 255
168 203 255
168 203 255
168 203 255
168 203 255
168 203 255
168 203 255
168 203 255
168 203 255
168 203 255
169 203 255
169 203 255
169 203 255
169 203 255
169 204 255
169 204 255
169 204 255
169 204 255
169 204 255
169 204 255
169 204 255
169 204 255
170 204 255
170 204 255
170 204 255
170 204 255
170 204 255
170 204 255
170 204 255
170 204 255
170 204 255
170 204 255
170 204 255
171 205 255
171 205 255
171 205 255
171 205 255
171 205 255
171 205 255
171 205 255
171 205 255
171 205 255
171 205 255
171 205 255
171 205 255
171 205 255
172 205 255
172 205 255
172 205 255
172 205 255
172 205 255
172 205 255
172 205 255
172 205 255
172 206 255
172 206 255
172 206 255
172 206 255
172 206 255
173 206 255
173 206 255
173 206 255
173 206 255
173 206 255
173 206 255
173 206 255
173 206 255
173 206 255
173 206 255
173 206 255
173 206 255
173 206 255
173 206 255
174 206 255
174 206 255
174 206 255
174 206 255
174 206 255
174 207 255
174 207 255
174 207 255
174 207 255
174 207 255
174 207 255
174 207 255
174 207 255
174 207 255
174 207 255
175 207 255
175 207 255
175 207 255
175 207 255
175 207 255
175 207 255
175 207 255
175 207 255
175 207 255
175 207 255
175 207 255
175 207 255
175 207 255
175 207 255
176 208 255
175 207 255
175 207 255
175 207 255
175 207 255
175 207 255
175 207 255
175 207 255
175 207 255
175 207 255
175 207 255
175 207 255
175 207 255
175 207 255
175 207 255
175 207 255
175 207 255
174 207 255
174 207 255
174 207 255
174 207 255
174 207 255
174 207 255
174 207 255
174 207 255
174 207 255
174 207 255
174 207 255
174 206 255
174 206 255
174 206 255
174 206 255
174 206 255
173 206 255
173 206 255
173 206 255
173 206 255
173 206 255
173 206 255
173 206 255
173 206 255
173 206 255
173 206 255
173 206 255
173 206 255
173 206 255
173 206 255
172 206 255
172 206 255
172 206 255
172 206 255
172 205 255
172 205 255
172 205 255
172 205 255
172 205 255
172 205 255
172 205 255
172 205 255
172 205 255
172 205 255
171 205 255
171 205 255
171 205 255
171 205 255
171 205 255
171 205 255
171 205 255
171 205 255
171 205 255
171 205 255
171 205 255
171 205 255
170 204 255
170 204 255
170 204 255
170 204 255
170 204 255
170 204 255
170 204 255
170 204 255
170 204 255
170 204 255
170 204 255
170 204 255
169 204 255
169 204 255
169 204 255
169 204 255
169 204 255
169 204 255
169 204 255
169 203 255
169 203 255
169 203 255
169 203 255
168 203 255
168 203 255
168 203 255
168 203 255
168 203 255
168 203 255
168 203 255
168 203 255
168 203 255
168 203 255
168 203 255
168 203 255
167 203 255
167 203 255
167 203 255
167 202 255
167 202 255
167 202 255
167 202 255
167 202 255
167 202 255
167 202 255
166 202 255
166 202 255
166 202 255
166 202 255
166 202 255
166 202 255
166 202 255
166 202 255
166 202 255
166 202 255
166 202 255
165 201 255
165 201 255
165 201 255
165 201 255
165 201 255
165 201 255
165 201 255
165 201 255
165 201 255
165 201 255
165 201 255
165 201 255
165 201 255
164 201 255
164 201 255
164 201 255
164 201 255
164 201 255
164 201 255
164 201 255
164 201 255
164 200 255
164 200 255
164 200 255
164 200 255
164 200 255
163 200 255
163 200 255
163 200 255
163 200 255
163 200 255
163 200 255
163 200 255
163 200 255
163 200 255
163 200 255
163 200 255
163 200 255
163 200 255
163 200 255
163 200 255
163 200 255
163 200 255
133 164 211
96 116 147
77 95 121
63 81 108
63 79 102
81 97 121
73 92 121
69 90 121
77 95 121
67 86 115
74 93 121
69 87 115
78 95 121
64 79 102
60 74 95
70 88 115
78 98 127
71 88 115
69 85 108
67 83 108
72 92 121
63 79 102
60 79 108
70 85 108
67 83 108
73 90 115
69 85 108
76 94 121
64 77 95
80 96 121
83 101 127
67 86 115
85 102 127
60 77 102
71 86 108
75 91 115
71 91 121
75 93 121
83 101 127
70 86 108
60 77 102
56 72 95
70 88 115
62 75 95
75 96 127
79 98 127
79 98 127
68 87 115
65 80 102
76 94 121
77 97 127
63 79 102
76 94 121
66 86 115
81 100 127
101 127 166
163 200 255
163 200 255
163 200 255
163 200 255
163 200 255
163 200 255
163 200 255
163 200 255
163 200 255
163 200 255
163 200 255
163 200 255
163 200 255
163 200 255
163 200 255
163 200 255
163 200 255
164 200 255
164 200 255
164 200 255
164 200 255
164 200 255
164 201 255
164 201 255
164 201 255
164 201 255
164 201 255
164 201 255
164 201 255
164 201 255
165 201 255
165 201 255
165 201 255
165 201 255
165 201 255
165 201 255
165 201 255
165 201 255
165 201 255
165 201 255
165 201 255
165 201 255
166 202 255
166 202 255
166 202 255
166 202 255
166 202 255
166 202 255
166 202 255
166 202 255
166 202 255
166 202 255
166 202 255
166 202 255
167 202 255
167 202 255
167 202 255
167 202 255
167 202 255
167 202 255
167 202 255
167 203 255
167 203 255
167 203 255
167 203 255
168 203 255
168 203 255
168 203 255
168 203 255
168 203 255
168 203 255
168 203 255
168 203 255
168 203 255
168 203 255
168 203 255
169 203 255
169 203 255
169 203 255
169 203 255
169 204 255
169 204 255
169 204 255
169 204 255
169 204 255
169 204 255
169 204 255
169 204 255
170 204 255
170 204 255
170 204 255
170 204 255
170 204 255
170 204 255
170 204 255
170 204 255
170 204 255
170 204 255
170 204 255
170 204 255
171 205 255
171 205 255
171 205 255
171 205 255
171 205 255
171 205 255
171 205 255
171 205 255
171 205 255
171 205 255
171 205 255
171 205 255
172 205 255
172 205 255
172 205 255
172 205 255
172 205 255
172 205 255
172 205 255
172 205 255
172 206 255
172 206 255
172 206 255
172 206 255
172 206 255
173 206 255
173 206 255
173 206 255
173 206 255
173 206 255
173 206 255
173 206 255
173 206 255
173 206 255
173 206 255
173 206 255
173 206 255
173 206 255
173 206 255
174 206 255
174 206 255
174 206 255
174 206 255
174 206 255
174 207 255
174 207 255
174 207 255
174 207 255
174 207 255
174 207 255
174 207 255
174 207 255
174 207 255
174 207 255
175 207 255
175 207 255
175 207 255
175 207 255
175 207 255
175 207 255
175 207 255
175 207 255
175 207 255
175 207 255
175 207 255
175 207 255
175 207 255
175 207 255
175 207 255
175 207 255
176 208 255
176 208 255
176 208 255
176 208 255
176 208 255
176 208 255
176 208 255
175 207 255
175 207 255
175 207 255
175 207 255
175 207 255
175 207 255
175 207 255
175 207 255
175 207 255
175 207 255
175 207 255
175 207 255
175 207 255
175 207 255
175 207 255
175 207 255
175 207 255
175 207 255
174 207 255
174 207 255
174 207 255
174 207 255
174 207 255
174 207 255
174 207 255
174 207 255
174 207 255
174 206 255
174 206 255
174 206 255
174 206 255
174 206 255
173 206 255
173 206 255
173 206 255
173 206 255
173 206 255
173 206 255
173 206 255
173 206 255
173 206 255
173 206 255
173 206 255
173 206 255
173 206 255
173 206 255
173 206 255
172 206 255
172 206 255
172 206 255
172 205 255
172 205 255
172 205 255
172 205 255
172 205 255
172 205 255
172 205 255
172 205 255
172 205 255
172 205 255
171 205 255
171 205 255
171 205 255
171 205 255
171 205 255
171 205 255
171 205 255
171 205 255
171 205 255
171 205 255
171 205 255
171 205 255
170 204 255
170 204 255
170 204 255
170 204 255
170 204 255
170 204 255
170 204 255
170 204 255
170 204 255
170 204 255
170 204 255
169 204 255
170 204 255
169 204 255
169 204 255
169 204 255
169 204 255
169 204 255
169 204 255
169 203 255
169 203 255
169 203 255
169 203 255
168 203 255
168 203 255
168 203 255
168 203 255
168 203 255
168 203 255
168 203 255
168 203 255
168 203 255
168 203 255
168 203 255
167 203 255
167 203 255
167 203 255
167 202 255
167 202 255
167 202 255
167 202 255
167 202 255
167 202 255
167 202 255
167 202 255
166 202 255
166 202 255
166 202 255
166 202 255
166 202 255
166 202 255
166 202 255
166 202 255
166 202 255
166 202 255
166 202 255
166 202 255
165 201 255
165 201 255
165 201 255
165 201 255
165 201 255
165 201 255
165 201 255
165 201 255
165 201 255
165 201 255
165 201 255
165 201 255
165 201 255
164 201 255
164 201 255
164 201 255
164 201 255
164 201 255
164 201 255
164 201 255
164 201 255
164 200 255
164 201 255
164 200 255
164 200 255
164 200 255
164 200 255
163 200 255
163 200 255
163 200 255
163 200 255
163 200 255
163 200 255
163 200 255
163 200 255
163 200 255
145 179 230
69 90 121
74 93 121
65 82 108
71 88 115
77 95 121
66 83 108
82 100 127
67 84 108
83 101 127
70 85 108
64 82 108
62 76 95
72 89 115
60 74 95
70 87 111
60 77 102
82 100 127
74 93 121
74 90 115
76 97 127
69 85 108
76 94 121
67 84 108
79 98 127
62 80 108
76 94 121
74 93 121
68 84 108
66 81 102
66 83 108
66 83 108
74 93 121
62 78 102
65 79 102
56 69 89
67 84 108
67 83 108
76 94 121
67 83 108
77 95 121
78 95 121
68 84 108
71 88 115
70 85 108
69 90 121
65 82 108
69 88 115
75 91 115
69 87 115
78 95 121
67 83 108
60 74 95
63 79 102
67 86 115
70 88 115
60 76 102
61 77 102
106 130 166
132 164 211
163 200 255
163 200 255
163 200 255
163 200 255
163 200 255
163 200 255
163 200 255
163 200 255
163 200 255
163 200 255
164 200 255
164 200 255
164 200 255
164 200 255
164 200 255
164 201 255
164 201 255
164 201 255
164 201 255
164 201 255
164 201 255
164 201 255
164 201 255
164 201 255
165 201 255
165 201 255
165 201 255
165 201 255
165 201 255
165 201 255
165 201 255
165 201 255
165 201 255
165 201 255
165 201 255
165 201 255
166 202 255
166 202 255
166 202 255
166 202 255
166 202 255
166 202 255
166 202 255
166 202 255
166 202 255
166 202 255
166 202 255
167 202 255
167 202 255
167 202 255
167 202 255
167 202 255
167 202 255
167 202 255
167 202 255
167 202 255
167 203 255
167 203 255
167 203 255
167 203 255
168 203 255
168 203 255
168 203 255
168 203 255
168 203 255
168 203 255
168 203 255
168 203 255
168 203 255
168 203 255
169 203 255
169 203 255
169 203 255
169 203 255
169 204 255
169 204 255
169 204 255
169 204 255
169 204 255
169 204 255
169 204 255
170 204 255
170 204 255
170 204 255
170 204 255
170 204 255
170 204 255
170 204 255
170 204 255
170 204 255
170 204 255
170 204 255
170 204 255
170 204 255
171 205 255
171 205 255
171 205 255
171 205 255
171 205 255
171 205 255
171 205 255
171 205 255
171 205 255
171 205 255
171 205 255
171 205 255
172 205 255
172 205 255
172 205 255
172 205 255
172 205 255
172 205 255
172 205 255
172 205 255
172 205 255
172 206 255
172 206 255
172 206 255
172 206 255
173 206 255
173 206 255
173 206 255
173 206 255
173 206 255
173 206 255
173 206 255
173 206 255
173 206 255
173 206 255
173 206 255
173 206 255
173 206 255
173 206 255
174 206 255
174 206 255
174 206 255
174 206 255
174 206 255
174 207 255
174 207 255
174 207 255
174 207 255
174 207 255
174 207 255
174 207 255
174 207 255
174 207 255
174 207 255
175 207 255
175 207 255
175 207 255
175 207 255
175 207 255
175 207 255
175 207 255
175 207 255
175 207 255
175 207 255
175 207 255
175 207 255
175 207 255
175 207 255
175 207 255
175 207 255
175 207 255
176 208 255
176 208 255
176 208 255
176 208 255
176 208 255
176 208 255
176 208 255
176 208 255
176 208 255
176 208 255
176 208 255
176 208 255
176 208 255
176 208 255
176 208 255
176 208 255
175 207 255
175 207 255
175 207 255
175 207 255
175 207 255
175 207 255
175 207 255
175 207 255
175 207 255
175 207 255
175 207 255
175 207 255
175 207 255
175 207 255
175 207 255
175 207 255
174 207 255
174 207 255
174 207 255
174 207 255
174 207 255
174 207 255
174 207 255
174 207 255
174 207 255
174 206 255
174 206 255
174 206 255
174 206 255
174 206 255
174 206 255
173 206 255
173 206 255
173 206 255
173 206 255
173 206 255
173 206 255
173 206 255
173 206 255
173 206 255
173 206 255
173 206 255
173 206 255
173 206 255
172 206 255
172 206 255
172 206 255
172 206 255
172 206 255
172 205 255
172 205 255
172 205 255
172 205 255
172 205 255
172 205 255
172 205 255
172 205 255
171 205 255
171 205 255
171 205 255
171 205 255
171 205 255
171 205 255
171 205 255
171 205 255
171 205 255
171 205 255
171 205 255
171 205 255
171 205 255
170 204 255
170 204 255
170 204 255
170 204 255
170 204 255
170 204 255
170 204 255
170 204 255
170 204 255
170 204 255
170 204 255
169 204 255
169 204 255
169 204 255
169 204 255
169 204 255
169 204 255
169 204 255
169 204 255
169 203 255
169 203 255
169 203 255
169 203 255
168 203 255
168 203 255
168 203 255
168 203 255
168 203 255
168 203 255
168 203 255
168 203 255
168 203 255
168 203 255
168 203 255
168 203 255
167 203 255
167 203 255
167 203 255
167 202 255
167 202 255
167 202 255
167 202 255
167 202 255
167 202 255
167 202 255
167 202 255
166 202 255
166 202 255
166 202 255
166 202 255
166 202 255
166 202 255
166 202 255
166 202 255
166 202 255
166 202 255
166 202 255
165 201 255
165 201 255
165 201 255
165 201 255
165 201 255
165 201 255
165 201 255
165 201 255
165 201 255
165 201 255
165 201 255
165 201 255
165 201 255
164 201 255
164 201 255
164 201 255
164 201 255
164 201 255
164 201 255
164 201 255
164 201 255
164 201 255
164 201 255
164 200 255
164 200 255
164 200 255
164 200 255
164 200 255
164 200 255
163 200 255
97 122 159
74 90 115
69 87 115
77 97 127
73 90 115
63 78 102
72 89 115
64 79 102
69 88 115
81 100 127
64 80 103
70 88 115
78 98 127
72 89 115
65 78 97
69 87 115
74 93 121
63 79 102
75 93 121
77 92 115
57 75 102
63 79 102
64 82 108
73 90 115
75 93 121
73 89 115
65 82 108
61 77 102
73 90 115
74 91 115
64 82 108
77 97 127
75 93 121
62 78 102
77 97 127
75 89 110
65 80 103
86 100 121
63 79 102
65 80 102
59 76 102
65 85 115
71 86 108
72 89 115
64 79 102
71 89 115
63 81 108
66 80 102
63 79 103
72 91 121
64 79 102
72 89 115
75 96 127
74 93 121
70 88 115
67 81 102
70 86 110
65 85 115
71 91 121
70 88 115
70 88 115
67 84 108
98 123 159
143 175 223
164 200 255
164 200 255
164 200 255
164 200 255
164 200 255
164 200 255
164 201 255
164 201 255
164 201 255
164 201 255
164 201 255
164 201 255
164 201 255
164 201 255
164 201 255
164 201 255
164 201 255
165 201 255
165 201 255
165 201 255
165 201 255
165 201 255
165 201 255
165 201 255
165 201 255
165 201 255
165 201 255
165 201 255
165 201 255
166 202 255
166 202 255
166 202 255
166 202 255
166 202 255
166 202 255
166 202 255
166 202 255
166 202 255
166 202 255
166 202 255
166 202 255
166 202 255
167 202 255
167 202 255
167 202 255
167 202 255
167 202 255
167 202 255
167 202 255
167 203 255
167 203 255
167 203 255
168 203 255
168 203 255
168 203 255
168 203 255
168 203 255
168 203 255
168 203 255
168 203 255
168 203 255
168 203 255
168 203 255
168 203 255
168 203 255
169 203 255
169 203 255
169 203 255
169 204 255
169 204 255
169 204 255
169 204 255
169 204 255
169 204 255
169 204 255
169 204 255
170 204 255
170 204 255
170 204 255
170 204 255
170 204 255
170 204 255
170 204 255
170 204 255
170 204 255
170 204 255
170 204 255
170 204 255
171 205 255
171 205 255
171 205 255
171 205 255
171 205 255
171 205 255
171 205 255
171 205 255
171 205 255
171 205 255
171 205 255
171 205 255
172 205 255
172 205 255
172 205 255
172 205 255
172 205 255
172 205 255
172 205 255
172 205 255
172 205 255
172 206 255
172 206 255
172 206 255
172 206 255
173 206 255
173 206 255
173 206 255
173 206 255
173 206 255
173 206 255
173 206 255
173 206 255
173 206 255
173 206 255
173 206 255
173 206 255
173 206 255
173 206 255
174 206 255
174 206 255
174 206 255
174 206 255
174 207 255
174 207 255
174 207 255
174 207 255
174 207 255
174 207 255
174 207 255
174 207 255
174 207 255
174 207 255
174 207 255
175 207 255
175 207 255
175 207 255
175 207 255
175 207 255
175 207 255
175 207 255
175 207 255
175 207 255
175 207 255
175 207 255
175 207 255
175 207 255
175 207 255
175 207 255
175 207 255
176 208 255
176 208 255
176 208 255
176 208 255
176 208 255
176 208 255
176 208 255
176 208 255
176 208 255
176 208 255
176 208 255
176 208 255
176 208 255
176 208 255
176 208 255
176 208 255
176 208 255
176 208 255
176 208 255
176 208 255
176 208 255
176 208 255
176 208 255
176 208 255
175 207 255
175 207 255
175 207 255
175 207 255
175 207 255
175 207 255
175 207 255
175 207 255
175 207 255
175 207 255
175 207 255
175 207 255
175 207 255
175 207 255
175 207 255
175 207 255
175 207 255
174 207 255
174 207 255
174 207 255
174 207 255
174 207 255
174 207 255
174 207 255
174 207 255
174 207 255
174 207 255
174 207 255
174 206 255
174 206 255
174 206 255
174 206 255
173 206 255
173 206 255
173 206 255
173 206 255
173 206 255
173 206 255
173 206 255
173 206 255
173 206 255
173 206 255
173 206 255
173 206 255
173 206 255
173 206 255
172 206 255
172 206 255
172 206 255
172 206 255
172 205 255
172 205 255
172 205 255
172 205 255
172 205 255
172 205 255
172 205 255
172 205 255
171 205 255
171 205 255
171 205 255
171 205 255
171 205 255
171 205 255
171 205 255
171 205 255
171 205 255
171 205 255
171 205 255
171 205 255
171 205 255
170 204 255
170 204 255
170 204 255
170 204 255
170 204 255
170 204 255
170 204 255
170 204 255
170 204 255
170 204 255
170 204 255
170 204 255
169 204 255
169 204 255
169 204 255
169 204 255
169 204 255
169 204 255
169 203 255
169 203 255
169 203 255
169 203 255
169 203 255
169 203 255
168 203 255
168 203 255
168 203 255
168 203 255
168 203 255
168 203 255
168 203 255
168 203 255
168 203 255
168 203 255
167 203 255
167 203 255
167 203 255
167 203 255
167 202 255
167 202 255
167 202 255
167 202 255
167 202 255
167 202 255
167 202 255
167 202 255
166 202 255
166 202 255
166 202 255
166 202 255
166 202 255
166 202 255
166 202 255
166 202 255
166 202 255
166 202 255
166 202 255
166 202 255
166 202 255
165 201 255
165 201 255
165 201 255
165 201 255
165 201 255
165 201 255
165 201 255
165 201 255
165 201 255
165 201 255
165 201 255
165 201 255
165 201 255
164 201 255
164 201 255
164 201 255
164 201 255
164 201 255
164 201 255
164 201 255
164 201 255
164 201 255
134 165 211
95 118 153
72 89 115
69 87 115
74 90 115
70 85 108
71 88 115
69 85 108
75 91 115
72 87 108
68 87 115
65 82 108
82 97 121
64 79 102
71 88 115
73 90 115
73 90 115
74 90 115
72 92 121
64 82 108
67 86 115
72 89 115
81 97 121
67 82 105
69 84 108
68 84 108
70 86 108
67 86 115
74 93 121
67 83 108
68 82 102
76 94 121
62 81 108
61 77 102
61 75 95
72 89 115
77 95 121
77 95 121
76 92 115
70 85 108
65 82 108
72 89 115
69 87 115
73 89 115
72 92 121
67 84 108
66 83 108
69 87 115
70 87 111
65 81 105
76 91 115
69 87 115
59 71 89
68 84 108
65 83 108
71 88 115
69 88 115
76 97 127
71 91 121
64 82 108
64 79 102
62 80 108
67 84 108
78 95 121
54 68 89
65 80 103
112 139 179
164 201 255
164 201 255
164 201 255
164 201 255
164 201 255
164 201 255
164 201 255
164 201 255
164 201 255
165 201 255
165 201 255
165 201 255
165 201 255
165 201 255
165 201 255
165 201 255
165 201 255
165 201 255
165 201 255
165 201 255
165 201 255
165 201 255
165 201 255
166 202 255
165 201 255
166 202 255
166 202 255
166 202 255
166 202 255
166 202 255
166 202 255
166 202 255
166 202 255
166 202 255
166 202 255
166 202 255
167 202 255
167 202 255
167 202 255
167 202 255
167 202 255
167 202 255
167 202 255
167 202 255
167 203 255
167 203 255
167 203 255
167 203 255
168 203 255
168 203 255
168 203 255
168 203 255
168 203 255
168 203 255
168 203 255
168 203 255
168 203 255
168 203 255
168 203 255
169 203 255
169 203 255
169 203 255
169 203 255
169 203 255
169 204 255
169 204 255
169 204 255
169 204 255
169 204 255
169 204 255
170 204 255
170 204 255
170 204 255
170 204 255
170 204 255
170 204 255
170 204 255
170 204 255
170 204 255
170 204 255
170 204 255
170 204 255
170 204 255
171 205 255
171 205 255
171 205 255
171 205 255
171 205 255
171 205 255
171 205 255
171 205 255
171 205 255
171 205 255
171 205 255
172 205 255
172 205 255
172 205 255
172 205 255
172 205 255
172 205 255
172 205 255
172 205 255
172 205 255
172 206 255
172 206 255
172 206 255
172 206 255
173 206 255
173 206 255
173 206 255
173 206 255
173 206 255
173 206 255
173 206 255
173 206 255
173 206 255
173 206 255
173 206 255
173 206 255
173 206 255
173 206 255
173 206 255
174 206 255
174 206 255
174 206 255
174 206 255
174 206 255
174 207 255
174 207 255
174 207 255
174 207 255
174 207 255
174 207 255
174 207 255
174 207 255
174 207 255
175 207 255
175 207 255
175 207 255
175 207 255
175 207 255
175 207 255
175 207 255
175 207 255
175 207 255
175 207 255
175 207 255
175 207 255
175 207 255
175 207 255
175 207 255
175 207 255
175 207 255
176 208 255
176 208 255
176 208 255
176 208 255
176 208 255
176 208 255
176 208 255
176 208 255
176 208 255
176 208 255
176 208 255
176 208 255
176 208 255
176 208 255
177 208 255
176 208 255
176 208 255
176 208 255
176 208 255
176 208 255
176 208 255
176 208 255
176 208 255
176 208 255
176 208 255
176 208 255
176 208 255
176 208 255
176 208 255
176 208 255
176 208 255
176 208 255
176 208 255
175 207 255
175 207 255
175 207 255
175 207 255
175 207 255
175 207 255
175 207 255
175 207 255
175 207 255
175 207 255
175 207 255
175 207 255
175 207 255
175 207 255
175 207 255
175 207 255
174 207 255
174 207 255
174 207 255
174 207 255
174 207 255
174 207 255
174 207 255
174 207 255
174 207 255
174 207 255
174 206 255
174 206 255
174 206 255
174 206 255
174 206 255
173 206 255
173 206 255
173 206 255
173 206 255
173 206 255
173 206 255
173 206 255
173 206 255
173 206 255
173 206 255
173 206 255
173 206 255
173 206 255
173 206 255
172 206 255
172 206 255
172 206 255
172 206 255
172 205 255
172 205 255
172 205 255
172 205 255
172 205 255
172 205 255
172 205 255
172 205 255
172 205 255
171 205 255
171 205 255
171 205 255
171 205 255
171 205 255
171 205 255
171 205 255
171 205 255
171 205 255
171 205 255
171 205 255
171 205 255
170 204 255
170 204 255
170 204 255
170 204 255
170 204 255
170 204 255
170 204 255
170 204 255
170 204 255
170 204 255
170 204 255
170 204 255
169 204 255
169 204 255
169 204 255
169 204 255
169 204 255
169 204 255
169 204 255
169 203 255
169 203 255
169 203 255
169 203 255
168 203 255
168 203 255
168 203 255
168 203 255
168 203 255
168 203 255
168 203 255
168 203 255
168 203 255
168 203 255
168 203 255
168 203 255
167 203 255
167 203 255
167 203 255
167 203 255
167 202 255
167 202 255
167 202 255
167 202 255
167 202 255
167 202 255
167 202 255
167 202 255
166 202 255
166 202 255
166 202 255
166 202 255
166 202 255
166 202 255
166 202 255
166 202 255
166 202 255
166 202 255
166 202 255
166 202 255
166 202 255
165 201 255
165 201 255
165 201 255
165 201 255
165 201 255
165 201 255
165 201 255
165 201 255
165 201 255
165 201 255
165 201 255
165 201 255
165 201 255
165 201 255
165 201 255
164 201 255
142 175 223
71 91 121
66 83 108
61 77 102
67 89 121
81 100 127
74 90 115
74 93 121
69 86 111
62 78 102
75 91 115
74 90 115
81 100 127
71 88 115
70 88 115
64 82 108
63 81 108
78 95 121
71 86 108
74 91 115
73 92 121
67 81 102
55 67 86
77 97 127
71 88 115
81 100 127
79 96 121
66 83 108
71 89 115
79 98 127
62 78 102
72 87 108
71 88 115
49 63 83
68 85 110
67 86 115
67 86 115
76 94 121
56 69 89
72 89 115
74 90 115
59 75 99
71 86 108
72 89 115
62 78 102
59 76 102
73 88 111
64 82 108
76 92 115
67 86 115
59 76 102
74 88 108
64 82 108
67 86 115
63 81 108
59 76 102
73 90 115
76 92 115
77 95 121
61 75 95
64 79 102
66 80 102
71 86 108
73 90 115
64 79 102
73 90 115
69 85 108
75 91 115
76 97 127
115 141 179
164 201 255
165 201 255
165 201 255
165 201 255
165 201 255
165 201 255
165 201 255
165 201 255
165 201 255
165 201 255
165 201 255
165 201 255
165 201 255
165 201 255
165 201 255
165 201 255
165 201 255
166 202 255
166 202 255
166 202 255
166 202 255
166 202 255
166 202 255
166 202 255
166 202 255
166 202 255
166 202 255
166 202 255
166 202 255
167 202 255
167 202 255
167 202 255
167 202 255
167 202 255
167 202 255
167 202 255
167 202 255
167 202 255
167 203 255
167 203 255
167 203 255
167 203 255
168 203 255
168 203 255
168 203 255
168 203 255
168 203 255
168 203 255
168 203 255
168 203 255
168 203 255
168 203 255
168 203 255
169 203 255
169 203 255
169 203 255
169 203 255
169 204 255
169 204 255
169 204 255
169 204 255
169 204 255
169 204 255
169 204 255
170 204 255
170 204 255
170 204 255
170 204 255
170 204 255
170 204 255
170 204 255
170 204 255
170 204 255
170 204 255
170 204 255
170 204 255
171 205 255
171 205 255
171 205 255
171 205 255
171 205 255
171 205 255
171 205 255
171 205 255
171 205 255
171 205 255
171 205 255
171 205 255
171 205 255
172 205 255
172 205 255
172 205 255
172 205 255
172 205 255
172 205 255
172 205 255
172 205 255
172 206 255
172 206 255
172 206 255
172 206 255
172 206 255
173 206 255
173 206 255
173 206 255
173 206 255
173 206 255
173 206 255
173 206 255
173 206 255
173 206 255
173 206 255
173 206 255
173 206 255
173 206 255
174 206 255
174 206 255
174 206 255
174 206 255
174 206 255
174 207 255
174 207 255
174 207 255
174 207 255
174 207 255
174 207 255
174 207 255
174 207 255
174 207 255
174 207 255
175 207 255
175 207 255
175 207 255
175 207 255
175 207 255
175 207 255
175 207 255
175 207 255
175 207 255
175 207 255
175 207 255
175 207 255
175 207 255
175 207 255
175 207 255
175 207 255
176 208 255
176 208 255
176 208 255
176 208 255
176 208 255
176 208 255
176 208 255
176 208 255
176 208 255
176 208 255
176 208 255
176 208 255
176 208 255
176 208 255
176 208 255
176 208 255
176 208 255
177 208 255
177 208 255
177 208 255
177 208 255
177 208 255
177 208 255
177 208 255
177 208 255
177 208 255
176 208 255
176 208 255
176 208 255
176 208 255
176 208 255
176 208 255
176 208 255
176 208 255
176 208 255
176 208 255
176 208 255
176 208 255
176 208 255
176 208 255
176 208 255
176 208 255
175 207 255
175 207 255
175 207 255
175 207 255
175 207 255
175 207 255
175 207 255
175 207 255
175 207 255
175 207 255
175 207 255
175 207 255
175 207 255
175 207 255
175 207 255
175 207 255
175 207 255
174 207 255
174 207 255
174 207 255
174 207 255
174 207 255
174 207 255
174 207 255
174 207 255
174 207 255
174 206 255
174 206 255
174 206 255
174 206 255
174 206 255
173 206 255
173 206 255
173 206 255
173 206 255
173 206 255
173 206 255
173 206 255
173 206 255
173 206 255
173 206 255
173 206 255
173 206 255
173 206 255
172 206 255
172 206 255
172 206 255
172 206 255
172 206 255
172 205 255
172 205 255
172 205 255
172 205 255
172 205 255
172 205 255
172 205 255
172 205 255
171 205 255
171 205 255
171 205 255
171 205 255
171 205 255
171 205 255
171 205 255
171 205 255
171 205 255
171 205 255
171 205 255
171 205 255
170 204 255
170 204 255
170 204 255
170 204 255
170 204 255
170 204 255
170 204 255
170 204 255
170 204 255
170 204 255
170 204 255
170 204 255
169 204 255
170 204 255
169 204 255
169 204 255
169 204 255
169 204 255
169 204 255
169 204 255
169 203 255
169 203 255
169 203 255
169 203 255
168 203 255
168 203 255
168 203 255
168 203 255
168 203 255
168 203 255
168 203 255
168 203 255
168 203 255
168 203 255
168 203 255
168 203 255
167 203 255
167 203 255
167 203 255
167 203 255
167 202 255
167 202 255
167 202 255
167 202 255
167 202 255
167 202 255
167 202 255
167 202 255
166 202 255
166 202 255
166 202 255
166 202 255
166 202 255
166 202 255
166 202 255
166 202 255
166 202 255
166 202 255
166 202 255
166 202 255
166 202 255
166 202 255
165 201 255
165 201 255
165 201 255
165 201 255
165 201 255
165 201 255
165 201 255
165 201 255
165 201 255
150 182 230
76 97 127
73 90 115
70 88 115
71 88 115
68 87 115
69 84 108
72 89 115
72 86 108
75 94 121
75 93 121
79 96 121
76 94 121
69 90 121
76 94 121
74 93 121
73 92 121
72 92 121
70 88 115
56 72 95
81 100 127
73 90 115
61 77 102
64 76 95
63 78 102
68 87 115
69 85 108
73 90 115
63 79 102
64 78 99
73 95 127
78 93 115
58 74 97
64 82 108
60 77 102
73 92 121
68 84 108
76 94 121
67 83 108
68 84 108
56 72 95
79 96 121
68 83 105
77 95 121
77 92 115
71 88 115
72 89 115
75 88 108
65 82 108
62 78 102
64 81 108
57 72 95
78 93 115
59 73 95
67 83 108
69 87 115
75 94 121
75 94 121
64 82 108
70 88 115
63 79 102
74 93 121
71 89 115
75 91 115
74 95 127
70 88 115
51 64 83
73 92 121
73 87 108
71 88 115
68 86 115
79 96 121
62 75 95
126 155 198
165 201 255
165 201 255
165 201 255
165 201 255
165 201 255
165 201 255
165 201 255
165 201 255
165 201 255
166 202 255
166 202 255
166 202 255
166 202 255
166 202 255
166 202 255
166 202 255
166 202 255
166 202 255
166 202 255
166 202 255
166 202 255
166 202 255
167 202 255
167 202 255
167 202 255
167 202 255
167 202 255
167 202 255
167 202 255
167 202 255
167 203 255
167 203 255
167 203 255
167 203 255
167 203 255
168 203 255
168 203 255
168 203 255
168 203 255
168 203 255
168 203 255
168 203 255
168 203 255
168 203 255
168 203 255
168 203 255
168 203 255
169 203 255
169 203 255
169 203 255
169 203 255
169 204 255
169 204 255
169 204 255
169 204 255
169 204 255
169 204 255
169 204 255
170 204 255
170 204 255
170 204 255
170 204 255
170 204 255
170 204 255
170 204 255
170 204 255
170 204 255
170 204 255
170 204 255
170 204 255
171 205 255
171 205 255
171 205 255
171 205 255
171 205 255
171 205 255
171 205 255
171 205 255
171 205 255
171 205 255
171 205 255
171 205 255
172 205 255
172 205 255
172 205 255
172 205 255
172 205 255
172 205 255
172 205 255
172 205 255
172 205 255
172 206 255
172 206 255
172 206 255
172 206 255
172 206 255
173 206 255
173 206 255
173 206 255
173 206 255
173 206 255
173 206 255
173 206 255
173 206 255
173 206 255
173 206 255
173 206 255
173 206 255
173 206 255
174 206 255
174 206 255
174 206 255
174 206 255
174 207 255
174 207 255
174 207 255
174 207 255
174 207 255
174 207 255
174 207 255
174 207 255
174 207 255
174 207 255
175 207 255
175 207 255
175 207 255
175 207 255
175 207 255
175 207 255
175 207 255
175 207 255
175 207 255
175 207 255
175 207 255
175 207 255
175 207 255
175 207 255
175 207 255
176 208 255
176 208 255
176 208 255
176 208 255
176 208 255
176 208 255
176 208 255
176 208 255
176 208 255
176 208 255
176 208 255
176 208 255
176 208 255
176 208 255
176 208 255
176 208 255
176 208 255
176 208 255
176 208 255
177 208 255
177 208 255
177 208 255
177 208 255
177 208 255
177 208 255
177 208 255
177 208 255
177 208 255
177 208 255
177 208 255
177 208 255
177 208 255
177 208 255
177 208 255
177 208 255
177 208 255
176 208 255
176 208 255
176 208 255
176 208 255
176 208 255
176 208 255
176 208 255
176 208 255
176 208 255
176 208 255
176 208 255
176 208 255
176 208 255
176 208 255
176 208 255
176 208 255
176 208 255
176 208 255
175 207 255
175 207 255
175 207 255
175 207 255
175 207 255
175 207 255
175 207 255
175 207 255
175 207 255
175 207 255
175 207 255
175 207 255
175 207 255
175 207 255
175 207 255
174 207 255
174 207 255
174 207 255
174 207 255
174 207 255
174 207 255
174 207 255
174 207 255
174 207 255
174 206 255
174 206 255
174 206 255
174 206 255
174 206 255
174 206 255
173 206 255
173 206 255
173 206 255
173 206 255
173 206 255
173 206 255
173 206 255
173 206 255
173 206 255
173 206 255
173 206 255
173 206 255
173 206 255
172 206 255
172 206 255
172 206 255
172 205 255
172 205 255
172 205 255
172 205 255
172 205 255
172 205 255
172 205 255
172 205 255
172 205 255
171 205 255
171 205 255
171 205 255
171 205 255
171 205 255
171 205 255
171 205 255
171 205 255
171 205 255
171 205 255
171 205 255
171 205 255
170 204 255
170 204 255
170 204 255
170 204 255
170 204 255
170 204 255
170 204 255
170 204 255
170 204 255
170 204 255
170 204 255
170 204 255
170 204 255
169 204 255
169 204 255
169 204 255
169 204 255
169 204 255
169 204 255
169 204 255
169 203 255
169 203 255
169 203 255
169 203 255
169 203 255
168 203 255
168 203 255
168 203 255
168 203 255
168 203 255
168 203 255
168 203 255
168 203 255
168 203 255
168 203 255
168 203 255
168 203 255
167 203 255
167 203 255
167 203 255
167 203 255
167 202 255
167 202 255
167 202 255
167 202 255
167 202 255
167 202 255
167 202 255
167 202 255
167 202 255
166 202 255
166 202 255
166 202 255
166 202 255
166 202 255
166 202 255
166 202 255
166 202 255
166 202 255
166 202 255
166 202 255
166 202 255
166 202 255
166 202 255
165 201 255
165 201 255
92 114 147
76 94 121
71 88 115
73 90 115
67 83 108
64 82 108
76 94 121
63 79 102
68 84 108
63 79 103
70 85 109
66 83 108
72 89 115
58 76 102
76 97 127
70 88 115
68 87 115
69 90 121
71 86 108
66 86 115
68 87 115
78 98 127
76 94 121
74 90 115
69 87 115
69 87 115
67 81 103
78 95 121
72 87 110
62 81 110
77 95 121
69 87 115
67 84 108
74 90 115
81 100 127
69 87 115
71 86 108
75 93 121
74 93 121
77 95 121
66 83 108
61 77 102
70 88 115
81 97 121
68 87 115
62 81 108
70 91 121
77 95 121
65 85 115
64 82 108
65 80 102
65 82 108
69 90 121
71 89 115
64 79 102
64 79 102
69 90 121
70 88 115
68 84 108
75 91 115
73 92 121
70 88 115
78 95 121
59 76 102
67 85 111
74 93 121
63 81 108
82 98 121
74 90 115
75 93 121
70 91 121
69 87 115
71 88 115
71 86 108
70 88 116
97 117 147
165 201 255
165 201 255
166 202 255
166 202 255
166 202 255
166 202 255
166 202 255
166 202 255
166 202 255
166 202 255
166 202 255
166 202 255
166 202 255
166 202 255
166 202 255
166 202 255
167 202 255
167 202 255
167 202 255
167 202 255
167 202 255
167 202 255
167 202 255
167 202 255
167 202 255
167 203 255
167 203 255
167 203 255
167 203 255
168 203 255
168 203 255
168 203 255
168 203 255
168 203 255
168 203 255
168 203 255
168 203 255
168 203 255
168 203 255
168 203 255
168 203 255
169 203 255
169 203 255
169 203 255
169 203 255
169 204 255
169 204 255
169 204 255
169 204 255
169 204 255
169 204 255
169 204 255
169 204 255
170 204 255
170 204 255
170 204 255
170 204 255
170 204 255
170 204 255
170 204 255
170 204 255
170 204 255
170 204 255
170 204 255
170 204 255
171 205 255
171 205 255
171 205 255
171 205 255
171 205 255
171 205 255
171 205 255
171 205 255
171 205 255
171 205 255
171 205 255
171 205 255
171 205 255
172 205 255
172 205 255
172 205 255
172 205 255
172 205 255
172 205 255
172 205 255
172 205 255
172 206 255
172 206 255
172 206 255
172 206 255
173 206 255
173 206 255
173 206 255
173 206 255
173 206 255
173 206 255
173 206 255
173 206 255
173 206 255
173 206 255
173 206 255
173 206 255
173 206 255
173 206 255
174 206 255
174 206 255
174 206 255
174 206 255
174 207 255
174 207 255
174 207 255
174 207 255
174 207 255
174 207 255
174 207 255
174 207 255
174 207 255
174 207 255
174 207 255
175 207 255
175 207 255
175 207 255
175 207 255
175 207 255
175 207 255
175 207 255
175 207 255
175 207 255
175 207 255
175 207 255
175 207 255
175 207 255
175 207 255
175 207 255
176 208 255
176 208 255
176 208 255
176 208 255
176 208 255
176 208 255
176 208 255
176 208 255
176 208 255
176 208 255
176 208 255
176 208 255
176 208 255
176 208 255
176 208 255
176 208 255
176 208 255
177 208 255
177 208 255
177 208 255
177 208 255
177 208 255
177 208 255
177 208 255
177 208 255
177 208 255
177 208 255
177 208 255
177 209 255
177 209 255
177 209 255
177 209 255
177 208 255
177 208 255
177 208 255
177 208 255
177 208 255
177 208 255
177 208 255
177 208 255
177 208 255
177 208 255
177 208 255
177 208 255
176 208 255
176 208 255
176 208 255
176 208 255
176 208 255
176 208 255
176 208 255
176 208 255
176 208 255
176 208 255
176 208 255
176 208 255
176 208 255
176 208 255
176 208 255
176 208 255
176 208 255
175 207 255
175 207 255
175 207 255
175 207 255
175 207 255
175 207 255
175 207 255
175 207 255
175 207 255
175 207 255
175 207 255
175 207 255
175 207 255
175 207 255
175 207 255
175 207 255
174 207 255
174 207 255
174 207 255
174 207 255
174 207 255
174 207 255
174 207 255
174 207 255
174 207 255
174 206 255
174 206 255
174 206 255
174 206 255
174 206 255
173 206 255
173 206 255
173 206 255
173 206 255
173 206 255
173 206 255
173 206 255
173 206 255
173 206 255
173 206 255
173 206 255
173 206 255
173 206 255
173 206 255
172 206 255
172 206 255
172 206 255
172 206 255
172 205 255
172 205 255
172 205 255
172 205 255
172 205 255
172 205 255
172 205 255
172 205 255
171 205 255
171 205 255
171 205 255
171 205 255
171 205 255
171 205 255
171 205 255
171 205 255
171 205 255
171 205 255
171 205 255
171 205 255
171 205 255
170 204 255
170 204 255
170 204 255
170 204 255
170 204 255
170 204 255
170 204 255
170 204 255
170 204 255
170 204 255
170 204 255
169 204 255
169 204 255
169 204 255
169 204 255
169 204 255
169 204 255
169 204 255
169 204 255
169 203 255
169 203 255
169 203 255
169 203 255
169 203 255
168 203 255
168 203 255
168 203 255
168 203 255
168 203 255
168 203 255
168 203 255
168 203 255
168 203 255
168 203 255
168 203 255
168 203 255
167 203 255
167 203 255
167 203 255
167 203 255
167 202 255
167 202 255
167 202 255
167 202 255
167 202 255
167 202 255
167 202 255
167 202 255
167 202 255
167 202 255
166 202 255
166 202 255
166 202 255
166 202 255
166 202 255
166 202 255
166 202 255
166 202 255
166 202 255
111 135 172
62 78 102
77 92 115
68 84 108
69 85 108
63 78 102
71 89 116
81 99 127
69 84 108
69 87 115
61 75 95
67 83 108
75 91 115
75 94 121
70 90 121
77 95 121
58 76 102
70 90 121
70 86 110
73 95 127
65 80 102
70 88 115
60 77 102
71 91 121
71 86 108
60 78 103
66 83 108
71 91 121
64 79 102
70 88 115
65 85 115
67 83 108
54 68 89
66 83 108
68 84 108
76 94 121
62 78 102
84 101 127
77 95 121
68 82 102
81 100 127
55 71 95
73 90 115
75 94 121
68 84 108
67 86 115
73 92 121
52 67 89
68 84 108
70 88 115
68 87 115
66 80 102
71 89 115
70 88 115
59 74 96
75 93 121
83 98 121
69 87 115
71 91 121
84 102 127
71 88 115
62 80 108
66 83 108
73 93 121
63 78 102
71 88 115
77 92 115
61 77 102
80 96 121
66 83 108
64 82 108
70 88 115
66 83 108
60 79 108
66 83 108
70 88 115
66 83 108
96 116 147
140 171 217
166 202 255
166 202 255
166 202 255
166 202 255
166 202 255
166 202 255
166 202 255
166 202 255
166 202 255
167 202 255
167 202 255
167 202 255
167 202 255
167 202 255
167 202 255
167 202 255
167 202 255
167 202 255
167 203 255
167 203 255
167 203 255
167 203 255
168 203 255
168 203 255
168 203 255
168 203 255
168 203 255
168 203 255
168 203 255
168 203 255
168 203 255
168 203 255
168 203 255
168 203 255
169 203 255
169 203 255
169 203 255
169 203 255
169 203 255
169 204 255
169 204 255
169 204 255
169 204 255
169 204 255
169 204 255
169 204 255
169 204 255
170 204 255
170 204 255
170 204 255
170 204 255
170 204 255
170 204 255
170 204 255
170 204 255
170 204 255
170 204 255
170 204 255
170 204 255
171 205 255
171 205 255
171 205 255
171 205 255
171 205 255
171 205 255
171 205 255
171 205 255
171 205 255
171 205 255
171 205 255
171 205 255
171 205 255
172 205 255
172 205 255
172 205 255
172 205 255
172 205 255
172 205 255
172 205 255
172 205 255
172 206 255
172 206 255
172 206 255
172 206 255
173 206 255
173 206 255
173 206 255
173 206 255
173 206 255
173 206 255
173 206 255
173 206 255
173 206 255
173 206 255
173 206 255
173 206 255
173 206 255
174 206 255
174 206 255
174 206 255
174 206 255
174 207 255
174 207 255
174 207 255
174 207 255
174 207 255
174 207 255
174 207 255
174 207 255
174 207 255
174 207 255
174 207 255
174 207 255
175 207 255
175 207 255
175 207 255
175 207 255
175 207 255
175 207 255
175 207 255
175 207 255
175 207 255
175 207 255
175 207 255
175 207 255
175 207 255
175 207 255
175 207 255
176 208 255
176 208 255
176 208 255
176 208 255
176 208 255
176 208 255
176 208 255
176 208 255
176 208 255
176 208 255
176 208 255
176 208 255
176 208 255
176 208 255
176 208 255
176 208 255
177 208 255
177 208 255
177 208 255
177 208 255
177 208 255
177 208 255
177 208 255
177 208 255
177 208 255
177 208 255
177 208 255
177 208 255
177 209 255
177 209 255
177 209 255
177 209 255
178 209 255
178 209 255
177 209 255
177 209 255
177 209 255
177 209 255
177 209 255
177 209 255
177 209 255
177 208 255
177 208 255
177 208 255
177 208 255
177 208 255
177 208 255
177 208 255
177 208 255
177 208 255
177 208 255
177 208 255
177 208 255
176 208 255
176 208 255
176 208 255
176 208 255
176 208 255
176 208 255
176 208 255
176 208 255
176 208 255
176 208 255
176 208 255
176 208 255
176 208 255
176 208 255
176 208 255
176 208 255
175 207 255
175 207 255
175 207 255
175 207 255
175 207 255
175 207 255
175 207 255
175 207 255
175 207 255
175 207 255
175 207 255
175 207 255
175 207 255
175 207 255
175 207 255
175 207 255
174 207 255
174 207 255
174 207 255
174 207 255
174 207 255
174 207 255
174 207 255
174 207 255
174 207 255
174 207 255
174 206 255
174 206 255
174 206 255
174 206 255
173 206 255
173 206 255
173 206 255
173 206 255
173 206 255
173 206 255
173 206 255
173 206 255
173 206 255
173 206 255
173 206 255
173 206 255
173 206 255
173 206 255
172 206 255
172 206 255
172 206 255
172 206 255
172 205 255
172 205 255
172 205 255
172 205 255
172 205 255
172 205 255
172 205 255
172 205 255
171 205 255
171 205 255
171 205 255
171 205 255
171 205 255
171 205 255
171 205 255
171 205 255
171 205 255
171 205 255
171 205 255
171 205 255
170 204 255
170 204 255
170 204 255
170 204 255
170 204 255
170 204 255
170 204 255
170 204 255
170 204 255
170 204 255
170 204 255
170 204 255
170 204 255
169 204 255
169 204 255
169 204 255
169 204 255
169 204 255
169 204 255
169 204 255
169 204 255
169 203 255
169 203 255
169 203 255
169 203 255
168 203 255
168 203 255
168 203 255
168 203 255
168 203 255
168 203 255
168 203 255
168 203 255
168 203 255
168 203 255
168 203 255
168 203 255
168 203 255
167 203 255
167 203 255
167 203 255
167 203 255
167 203 255
167 202 255
167 202 255
167 202 255
167 202 255
167 202 255
167 202 255
167 202 255
167 202 255
167 202 255
166 202 255
166 202 255
141 172 217
73 92 121
69 84 108
73 92 121
72 86 108
74 90 115
72 89 115
63 79 102
77 95 121
70 88 115
67 86 115
64 79 102
67 84 108
69 85 108
76 94 121
61 75 95
71 88 115
73 92 121
67 86 115
75 93 121
70 85 108
78 98 127
67 86 115
72 89 115
78 93 115
79 96 121
63 78 102
57 75 102
70 85 108
75 91 115
74 93 121
62 79 103
62 75 95
72 89 115
73 90 115
75 91 115
56 72 95
73 89 115
73 90 115
70 88 115
71 91 121
77 95 121
68 87 115
81 99 127
71 87 111
80 96 121
73 90 115
71 89 115
65 80 102
68 84 108
69 85 108
61 77 102
67 83 108
63 79 102
69 85 108
80 99 127
50 65 89
73 90 115
57 72 95
76 94 121
63 81 108
76 91 115
82 98 121
63 79 102
71 88 115
71 86 108
68 84 108
69 85 108
62 78 102
71 89 115
59 76 102
59 75 99
74 93 121
67 84 110
82 98 121
68 87 115
69 87 115
72 89 115
75 91 115
76 94 121
71 91 121
132 161 204
166 202 255
166 202 255
167 202 255
167 202 255
167 202 255
167 202 255
167 202 255
167 202 255
167 202 255
167 202 255
167 203 255
167 203 255
167 203 255
167 203 255
167 203 255
167 203 255
168 203 255
168 203 255
168 203 255
168 203 255
168 203 255
168 203 255
168 203 255
168 203 255
168 203 255
168 203 255
168 203 255
168 203 255
168 203 255
169 203 255
169 203 255
169 203 255
169 203 255
169 204 255
169 204 255
169 204 255
169 204 255
169 204 255
169 204 255
169 204 255
169 204 255
170 204 255
170 204 255
170 204 255
170 204 255
170 204 255
170 204 255
170 204 255
170 204 255
170 204 255
170 204 255
170 204 255
170 204 255
171 205 255
171 205 255
171 205 255
171 205 255
171 205 255
171 205 255
171 205 255
171 205 255
171 205 255
171 205 255
171 205 255
171 205 255
172 205 255
172 205 255
172 205 255
172 205 255
172 205 255
172 205 255
172 205 255
172 205 255
172 205 255
172 205 255
172 206 255
172 206 255
172 206 255
172 206 255
173 206 255
173 206 255
173 206 255
173 206 255
173 206 255
173 206 255
173 206 255
173 206 255
173 206 255
173 206 255
173 206 255
173 206 255
173 206 255
174 206 255
174 206 255
174 206 255
174 206 255
174 206 255
174 207 255
174 207 255
174 207 255
174 207 255
174 207 255
174 207 255
174 207 255
174 207 255
174 207 255
175 207 255
175 207 255
175 207 255
175 207 255
175 207 255
175 207 255
175 207 255
175 207 255
175 207 255
175 207 255
175 207 255
175 207 255
175 207 255
175 207 255
175 207 255
175 207 255
176 208 255
176 208 255
176 208 255
176 208 255
176 208 255
176 208 255
176 208 255
176 208 255
176 208 255
176 208 255
176 208 255
176 208 255
176 208 255
176 208 255
176 208 255
176 208 255
177 208 255
177 208 255
177 208 255
177 208 255
177 208 255
177 208 255
177 208 255
177 208 255
177 208 255
177 208 255
177 208 255
177 208 255
177 209 255
177 209 255
177 209 255
177 209 255
177 209 255
177 209 255
177 209 255
178 209 255
178 209 255
178 209 255
178 209 255
178 209 255
178 209 255
178 209 255
178 209 255
178 209 255
177 209 255
177 209 255
177 209 255
177 209 255
177 209 255
177 209 255
177 209 255
177 208 255
177 208 255
177 208 255
177 208 255
177 208 255
177 208 255
177 208 255
177 208 255
177 208 255
177 208 255
177 208 255
177 208 255
176 208 255
176 208 255
176 208 255
176 208 255
176 208 255
176 208 255
176 208 255
176 208 255
176 208 255
176 208 255
176 208 255
176 208 255
176 208 255
176 208 255
176 208 255
176 208 255
176 208 255
175 207 255
175 207 255
175 207 255
175 207 255
175 207 255
175 207 255
175 207 255
175 207 255
175 207 255
175 207 255
175 207 255
175 207 255
175 207 255
175 207 255
175 207 255
174 207 255
174 207 255
174 207 255
174 207 255
174 207 255
174 207 255
174 207 255
174 207 255
174 207 255
174 206 255
174 206 255
174 206 255
174 206 255
174 206 255
173 206 255
173 206 255
173 206 255
173 206 255
173 206 255
173 206 255
173 206 255
173 206 255
173 206 255
173 206 255
173 206 255
173 206 255
173 206 255
172 206 255
172 206 255
172 206 255
172 206 255
172 206 255
172 205 255
172 205 255
172 205 255
172 205 255
172 205 255
172 205 255
172 205 255
172 205 255
171 205 255
171 205 255
171 205 255
171 205 255
171 205 255
171 205 255
171 205 255
171 205 255
171 205 255
171 205 255
171 205 255
171 205 255
171 205 255
170 204 255
170 204 255
170 204 255
170 204 255
170 204 255
170 204 255
170 204 255
170 204 255
170 204 255
170 204 255
170 204 255
170 204 255
169 204 255
169 204 255
169 204 255
169 204 255
169 204 255
169 204 255
169 204 255
169 204 255
169 203 255
169 203 255
169 203 255
169 203 255
168 203 255
168 203 255
168 203 255
168 203 255
168 203 255
168 203 255
168 203 255
168 203 255
168 203 255
168 203 255
168 203 255
168 203 255
168 203 255
167 203 255
168 203 255
167 203 255
167 203 255
167 203 255
167 202 255
167 202 255
167 202 255
167 202 255
167 202 255
157 191 243
67 83 108
73 89 115
61 77 102
74 91 116
71 88 115
70 88 115
69 86 111
70 88 115
77 97 127
74 90 115
71 86 108
70 85 108
83 98 121
75 94 121
66 80 102
67 84 108
74 93 121
56 69 89
69 85 108
72 89 115
64 82 108
81 100 127
66 80 102
66 81 102
58 73 97
61 79 105
59 71 90
61 75 95
67 84 108
72 89 115
71 91 121
65 80 102
78 92 115
73 90 115
77 95 121
69 85 108
80 96 121
67 84 108
70 88 115
77 95 121
67 83 108
71 86 108
66 86 115
53 68 89
70 85 108
78 95 121
60 77 102
52 67 89
69 87 115
77 95 121
57 72 95
68 87 115
80 94 115
69 87 115
75 93 121
68 84 108
82 98 121
54 68 89
55 70 92
60 74 95
67 86 115
68 86 115
67 81 102
63 79 103
65 80 102
59 76 102
66 80 102
60 78 105
74 93 121
68 84 108
63 81 108
76 91 115
72 89 115
72 91 121
76 94 121
75 91 115
57 73 99
54 68 89
73 92 121
71 91 121
72 91 121
77 95 121
103 126 159
167 202 255
167 202 255
167 202 255
167 202 255
167 203 255
167 203 255
167 203 255
167 203 255
167 203 255
168 203 255
168 203 255
168 203 255
168 203 255
168 203 255
168 203 255
168 203 255
168 203 255
168 203 255
168 203 255
168 203 255
168 203 255
168 203 255
168 203 255
169 203 255
169 203 255
169 203 255
169 203 255
169 204 255
169 204 255
169 204 255
169 204 255
169 204 255
169 204 255
169 204 255
169 204 255
169 204 255
170 204 255
170 204 255
170 204 255
170 204 255
170 204 255
170 204 255
170 204 255
170 204 255
170 204 255
170 204 255
170 204 255
170 204 255
171 205 255
171 205 255
171 205 255
171 205 255
171 205 255
171 205 255
171 205 255
171 205 255
171 205 255
171 205 255
171 205 255
171 205 255
172 205 255
172 205 255
172 205 255
172 205 255
172 205 255
172 205 255
172 205 255
172 205 255
172 205 255
172 206 255
172 206 255
172 206 255
172 206 255
173 206 255
173 206 255
173 206 255
173 206 255
173 206 255
173 206 255
173 206 255
173 206 255
173 206 255
173 206 255
173 206 255
173 206 255
173 206 255
173 206 255
174 206 255
174 206 255
174 206 255
174 206 255
174 207 255
174 207 255
174 207 255
174 207 255
174 207 255
174 207 255
174 207 255
174 207 255
174 207 255
175 207 255
175 207 255
175 207 255
175 207 255
175 207 255
175 207 255
175 207 255
175 207 255
175 207 255
175 207 255
175 207 255
175 207 255
175 207 255
175 207 255
175 207 255
175 207 255
176 208 255
176 208 255
176 208 255
176 208 255
176 208 255
176 208 255
176 208 255
176 208 255
176 208 255
176 208 255
176 208 255
176 208 255
176 208 255
176 208 255
176 208 255
176 208 255
177 208 255
177 208 255
177 208 255
177 208 255
177 208 255
177 208 255
177 208 255
177 208 255
177 208 255
177 208 255
177 208 255
177 208 255
177 209 255
177 209 255
177 209 255
177 209 255
177 209 255
177 209 255
177 209 255
178 209 255
178 209 255
178 209 255
178 209 255
178 209 255
178 209 255
178 209 255
178 209 255
178 209 255
178 209 255
178 209 255
178 209 255
178 209 255
178 209 255
178 209 255
178 209 255
178 209 255
178 209 255
178 209 255
177 209 255
177 209 255
177 209 255
177 209 255
177 209 255
177 209 255
177 209 255
177 208 255
177 208 255
177 208 255
177 208 255
177 208 255
177 208 255
177 208 255
177 208 255
177 208 255
177 208 255
177 208 255
176 208 255
176 208 255
176 208 255
176 208 255
176 208 255
176 208 255
176 208 255
176 208 255
176 208 255
176 208 255
176 208 255
176 208 255
176 208 255
176 208 255
176 208 255
176 208 255
176 208 255
175 207 255
175 207 255
175 207 255
175 207 255
175 207 255
175 207 255
175 207 255
175 207 255
175 207 255
175 207 255
175 207 255
175 207 255
175 207 255
175 207 255
175 207 255
174 207 255
174 207 255
174 207 255
174 207 255
174 207 255
174 207 255
174 207 255
174 207 255
174 207 255
174 207 255
174 206 255
174 206 255
174 206 255
174 206 255
173 206 255
173 206 255
173 206 255
173 206 255
173 206 255
173 206 255
173 206 255
173 206 255
173 206 255
173 206 255
173 206 255
173 206 255
173 206 255
173 206 255
172 206 255
172 206 255
172 206 255
172 205 255
172 205 255
172 205 255
172 205 255
172 205 255
172 205 255
172 205 255
172 205 255
172 205 255
172 205 255
171 205 255
171 205 255
171 205 255
171 205 255
171 205 255
171 205 255
171 205 255
171 205 255
171 205 255
171 205 255
171 205 255
171 205 255
170 204 255
170 204 255
170 204 255
170 204 255
170 204 255
170 204 255
170 204 255
170 204 255
170 204 255
170 204 255
170 204 255
170 204 255
169 204 255
169 204 255
169 204 255
169 204 255
169 204 255
169 204 255
169 204 255
169 204 255
169 204 255
169 203 255
169 203 255
169 203 255
169 203 255
169 203 255
168 203 255
168 203 255
168 203 255
168 203 255
168 203 255
168 203 255
168 203 255
168 203 255
168 203 255
168 203 255
168 203 255
168 203 255
168 203 255
168 203 255
167 203 255
167 203 255
118 145 185
63 79 102
69 87 115
78 95 121
66 85 115
69 87 115
64 79 102
69 85 108
72 86 108
67 83 108
58 73 95
54 68 89
67 84 108
75 93 121
64 82 108
66 85 115
56 70 91
61 78 102
65 82 108
80 99 127
75 91 115
78 95 121
68 84 108
66 81 103
65 80 102
73 92 121
64 82 108
68 84 108
68 84 108
69 85 108
77 95 121
74 93 121
63 78 102
60 79 108
76 91 115
63 79 103
76 91 115
67 84 108
65 82 108
67 81 102
68 84 108
79 98 127
78 95 121
61 77 102
72 89 115
79 96 121
64 82 108
69 85 108
70 88 115
73 89 115
73 90 115
71 89 115
61 75 95
72 89 115
66 83 108
68 84 108
65 82 108
74 90 115
70 88 115
62 78 102
59 71 89
73 90 115
72 91 121
71 86 108
69 82 102
78 95 121
68 84 108
69 85 108
73 92 121
72 92 121
69 85 108
68 84 108
59 74 97
65 82 109
78 93 115
72 89 115
60 74 95
80 99 127
71 86 108
61 78 102
62 80 108
73 92 121
70 88 115
67 86 115
66 86 115
119 146 185
160 193 243
168 203 255
168 203 255
168 203 255
168 203 255
168 203 255
168 203 255
168 203 255
168 203 255
168 203 255
168 203 255
168 203 255
168 203 255
168 203 255
168 203 255
168 203 255
169 203 255
169 203 255
169 203 255
169 203 255
169 203 255
169 204 255
169 204 255
169 204 255
169 204 255
169 204 255
169 204 255
169 204 255
169 204 255
169 204 255
170 204 255
170 204 255
170 204 255
170 204 255
170 204 255
170 204 255
170 204 255
170 204 255
170 204 255
170 204 255
170 204 255
170 204 255
171 205 255
171 205 255
171 205 255
171 205 255
171 205 255
171 205 255
171 205 255
171 205 255
171 205 255
171 205 255
171 205 255
171 205 255
171 205 255
172 205 255
172 205 255
172 205 255
172 205 255
172 205 255
172 205 255
172 205 255
172 205 255
172 206 255
172 206 255
172 206 255
172 206 255
173 206 255
173 206 255
173 206 255
173 206 255
173 206 255
173 206 255
173 206 255
173 206 255
173 206 255
173 206 255
173 206 255
173 206 255
173 206 255
173 206 255
174 206 255
174 206 255
174 206 255
174 206 255
174 207 255
174 207 255
174 207 255
174 207 255
174 207 255
174 207 255
174 207 255
174 207 255
174 207 255
174 207 255
175 207 255
175 207 255
175 207 255
175 207 255
175 207 255
175 207 255
175 207 255
175 207 255
175 207 255
175 207 255
175 207 255
175 207 255
175 207 255
175 207 255
175 207 255
176 208 255
176 208 255
176 208 255
176 208 255
176 208 255
176 208 255
176 208 255
176 208 255
176 208 255
176 208 255
176 208 255
176 208 255
176 208 255
176 208 255
176 208 255
176 208 255
177 208 255
177 208 255
177 208 255
177 208 255
177 208 255
177 208 255
177 208 255
177 208 255
177 208 255
177 208 255
177 208 255
177 208 255
177 208 255
177 209 255
177 209 255
177 209 255
177 209 255
177 209 255
178 209 255
178 209 255
178 209 255
178 209 255
178 209 255
178 209 255
178 209 255
178 209 255
178 209 255
178 209 255
178 209 255
178 209 255
178 209 255
178 209 255
178 209 255
178 209 255
178 209 255
178 209 255
178 209 255
178 209 255
178 209 255
178 209 255
178 209 255
178 209 255
178 209 255
178 209 255
178 209 255
178 209 255
178 209 255
178 209 255
178 209 255
177 209 255
177 209 255
177 209 255
177 209 255
177 209 255
177 208 255
177 208 255
177 208 255
177 208 255
177 208 255
177 208 255
177 208 255
177 208 255
177 208 255
177 208 255
177 208 255
177 208 255
176 208 255
176 208 255
176 208 255
176 208 255
176 208 255
176 208 255
176 208 255
176 208 255
176 208 255
176 208 255
176 208 255
176 208 255
176 208 255
176 208 255
176 208 255
176 208 255
176 208 255
175 207 255
175 207 255
175 207 255
175 207 255
175 207 255
175 207 255
175 207 255
175 207 255
175 207 255
175 207 255
175 207 255
175 207 255
175 207 255
175 207 255
175 207 255
174 207 255
174 207 255
174 207 255
174 207 255
174 207 255
174 207 255
174 207 255
174 207 255
174 207 255
174 206 255
174 206 255
174 206 255
174 206 255
174 206 255
173 206 255
173 206 255
173 206 255
173 206 255
173 206 255
173 206 255
173 206 255
173 206 255
173 206 255
173 206 255
173 206 255
173 206 255
173 206 255
172 206 255
172 206 255
172 206 255
172 206 255
172 205 255
172 205 255
172 205 255
172 205 255
172 205 255
172 205 255
172 205 255
172 205 255
172 205 255
171 205 255
171 205 255
171 205 255
171 205 255
171 205 255
171 205 255
171 205 255
171 205 255
171 205 255
171 205 255
171 205 255
171 205 255
171 205 255
170 204 255
170 204 255
170 204 255
170 204 255
170 204 255
170 204 255
170 204 255
170 204 255
170 204 255
170 204 255
170 204 255
170 204 255
169 204 255
169 204 255
169 204 255
169 204 255
169 204 255
169 204 255
169 204 255
169 204 255
169 204 255
169 203 255
169 203 255
169 203 255
169 203 255
169 203 255
169 203 255
168 203 255
168 203 255
168 203 255
168 203 255
168 203 255
168 203 255
168 203 255
168 203 255
155 188 236
102 125 159
75 93 121
72 89 115
62 81 108
63 74 92
61 73 92
65 80 102
70 85 108
68 84 108
64 84 115
65 85 115
69 87 115
64 79 102
67 83 108
66 81 103
81 97 121
71 91 121
74 90 115
74 90 115
68 84 108
63 81 108
75 91 115
66 80 102
68 83 105
77 95 121
78 98 127
73 90 115
60 77 102
76 94 121
72 91 121
60 74 95
67 86 115
67 86 115
73 95 127
63 78 102
71 88 115
76 92 115
65 80 102
66 79 99
60 77 102
53 68 91
75 93 121
64 81 108
59 73 95
68 84 108
66 85 115
78 95 121
67 86 115
75 91 115
68 84 108
69 85 108
69 84 108
63 79 102
79 96 121
63 79 102
65 85 115
70 85 108
60 74 96
71 88 115
76 91 115
63 76 97
74 90 115
67 83 108
66 83 108
71 88 115
65 83 110
75 91 115
63 79 102
62 78 103
58 73 95
59 76 102
66 83 108
65 81 103
72 91 121
71 94 127
79 96 121
70 90 121
69 87 115
62 82 111
75 93 121
68 87 115
58 76 102
80 99 127
63 79 102
59 73 95
70 87 111
76 94 121
98 120 153
168 203 255
168 203 255
168 203 255
168 203 255
168 203 255
168 203 255
168 203 255
168 203 255
168 203 255
169 203 255
169 203 255
169 203 255
169 203 255
169 203 255
169 204 255
169 204 255
169 204 255
169 204 255
169 204 255
169 204 255
169 204 255
169 204 255
169 204 255
170 204 255
170 204 255
170 204 255
170 204 255
170 204 255
170 204 255
170 204 255
170 204 255
170 204 255
170 204 255
170 204 255
170 204 255
170 204 255
171 205 255
171 205 255
171 205 255
171 205 255
171 205 255
171 205 255
171 205 255
171 205 255
171 205 255
171 205 255
171 205 255
171 205 255
172 205 255
171 205 255
172 205 255
172 205 255
172 205 255
172 205 255
172 205 255
172 205 255
172 205 255
172 206 255
172 206 255
172 206 255
172 206 255
172 206 255
173 206 255
173 206 255
173 206 255
173 206 255
173 206 255
173 206 255
173 206 255
173 206 255
173 206 255
173 206 255
173 206 255
173 206 255
174 206 255
174 206 255
174 206 255
174 206 255
174 206 255
174 206 255
174 207 255
174 207 255
174 207 255
174 207 255
174 207 255
174 207 255
174 207 255
174 207 255
174 207 255
175 207 255
175 207 255
175 207 255
175 207 255
175 207 255
175 207 255
175 207 255
175 207 255
175 207 255
175 207 255
175 207 255
175 207 255
175 207 255
175 207 255
175 207 255
176 208 255
176 208 255
176 208 255
176 208 255
176 208 255
176 208 255
176 208 255
176 208 255
176 208 255
176 208 255
176 208 255
176 208 255
176 208 255
176 208 255
176 208 255
176 208 255
177 208 255
177 208 255
177 208 255
177 208 255
177 208 255
177 208 255
177 208 255
177 208 255
177 208 255
177 208 255
177 208 255
177 208 255
177 209 255
177 209 255
177 209 255
177 209 255
177 209 255
177 209 255
177 209 255
178 209 255
178 209 255
178 209 255
178 209 255
178 209 255
178 209 255
178 209 255
178 209 255
178 209 255
178 209 255
178 209 255
178 209 255
178 209 255
178 209 255
178 209 255
178 209 255
178 209 255
179 209 255
179 209 255
179 209 255
178 209 255
178 209 255
178 209 255
178 209 255
178 209 255
178 209 255
178 209 255
178 209 255
178 209 255
178 209 255
178 209 255
178 209 255
178 209 255
178 209 255
178 209 255
178 209 255
178 209 255
178 209 255
178 209 255
178 209 255
177 209 255
177 209 255
177 209 255
177 209 255
177 209 255
177 209 255
177 208 255
177 208 255
177 208 255
177 208 255
177 208 255
177 208 255
177 208 255
177 208 255
177 208 255
177 208 255
177 208 255
176 208 255
176 208 255
176 208 255
176 208 255
176 208 255
176 208 255
176 208 255
176 208 255
176 208 255
176 208 255
176 208 255
176 208 255
176 208 255
176 208 255
176 208 255
176 208 255
175 207 255
175 207 255
175 207 255
175 207 255
175 207 255
175 207 255
175 207 255
175 207 255
175 207 255
175 207 255
175 207 255
175 207 255
175 207 255
175 207 255
175 207 255
175 207 255
174 207 255
174 207 255
174 207 255
174 207 255
174 207 255
174 207 255
174 207 255
174 207 255
174 207 255
174 206 255
174 206 255
174 206 255
174 206 255
174 206 255
173 206 255
173 206 255
173 206 255
173 206 255
173 206 255
173 206 255
173 206 255
173 206 255
173 206 255
173 206 255
173 206 255
173 206 255
172 206 255
172 206 255
172 206 255
172 206 255
172 206 255
172 205 255
172 205 255
172 205 255
172 205 255
172 205 255
172 205 255
172 205 255
172 205 255
172 205 255
171 205 255
171 205 255
171 205 255
171 205 255
171 205 255
171 205 255
171 205 255
171 205 255
171 205 255
171 205 255
171 205 255
171 205 255
171 205 255
170 204 255
170 204 255
170 204 255
170 204 255
170 204 255
170 204 255
170 204 255
170 204 255
170 204 255
170 204 255
170 204 255
170 204 255
169 204 255
170 204 255
169 204 255
169 204 255
169 204 255
169 204 255
169 204 255
169 204 255
169 204 255
169 204 255
169 204 255
169 203 255
169 203 255
169 203 255
169 203 255
168 203 255
168 203 255
160 193 243
92 116 153
72 92 121
70 88 115
81 100 127
70 88 115
58 73 95
65 85 115
59 74 96
76 94 121
64 77 95
63 78 102
64 82 108
70 88 115
66 80 102
74 90 115
68 85 110
71 88 115
76 92 115
68 87 115
57 72 95
62 78 102
62 79 103
73 85 103
72 86 108
72 89 115
47 59 76
63 81 108
76 94 121
76 91 115
61 78 102
64 79 102
80 97 121
72 87 108
70 88 115
64 79 102
69 87 115
64 79 102
60 74 95
66 83 108
64 82 110
59 74 95
61 76 99
72 89 115
68 86 115
75 93 121
66 83 108
67 81 102
82 100 127
64 79 102
62 78 102
74 90 115
69 88 115
59 74 95
76 94 121
70 88 115
59 76 102
64 79 102
61 75 95
66 80 102
67 83 108
65 80 102
74 88 108
64 79 102
69 87 115
63 80 105
74 90 115
74 91 115
64 79 102
70 86 108
61 77 102
65 82 108
68 84 108
72 87 108
58 70 89
69 87 115
62 75 95
84 102 127
68 84 108
67 81 102
58 73 97
78 95 121
68 84 108
61 78 102
57 70 89
68 84 108
58 75 102
52 67 89
73 93 121
70 85 108
108 131 166
168 203 255
168 203 255
168 203 255
169 203 255
169 203 255
169 203 255
169 203 255
169 204 255
169 204 255
169 204 255
169 204 255
169 204 255
169 204 255
169 204 255
169 204 255
169 204 255
169 204 255
170 204 255
170 204 255
170 204 255
170 204 255
170 204 255
170 204 255
170 204 255
170 204 255
170 204 255
170 204 255
170 204 255
170 204 255
170 204 255
171 205 255
171 205 255
171 205 255
171 205 255
171 205 255
171 205 255
171 205 255
171 205 255
171 205 255
171 205 255
171 205 255
171 205 255
171 205 255
171 205 255
172 205 255
172 205 255
172 205 255
172 205 255
172 205 255
172 205 255
172 205 255
172 206 255
172 206 255
172 206 255
172 206 255
173 206 255
173 206 255
173 206 255
173 206 255
173 206 255
173 206 255
173 206 255
173 206 255
173 206 255
173 206 255
173 206 255
173 206 255
173 206 255
173 206 255
174 206 255
174 206 255
174 206 255
174 206 255
174 207 255
174 207 255
174 207 255
174 207 255
174 207 255
174 207 255
174 207 255
174 207 255
174 207 255
174 207 255
175 207 255
175 207 255
175 207 255
175 207 255
175 207 255
175 207 255
175 207 255
175 207 255
175 207 255
175 207 255
175 207 255
175 207 255
175 207 255
175 207 255
175 207 255
176 208 255
176 208 255
176 208 255
176 208 255
176 208 255
176 208 255
176 208 255
176 208 255
176 208 255
176 208 255
176 208 255
176 208 255
176 208 255
176 208 255
176 208 255
176 208 255
177 208 255
177 208 255
177 208 255
177 208 255
177 208 255
177 208 255
177 208 255
177 208 255
177 208 255
177 208 255
177 208 255
177 208 255
177 209 255
177 209 255
177 209 255
177 209 255
177 209 255
177 209 255
178 209 255
178 209 255
178 209 255
178 209 255
178 209 255
178 209 255
178 209 255
178 209 255
178 209 255
178 209 255
178 209 255
178 209 255
178 209 255
178 209 255
178 209 255
178 209 255
178 209 255
178 209 255
178 209 255
179 209 255
179 209 255
179 209 255
179 209 255
179 210 255
179 210 255
179 209 255
179 209 255
179 209 255
179 209 255
179 209 255
179 209 255
179 209 255
179 209 255
178 209 255
178 209 255
178 209 255
178 209 255
178 209 255
178 209 255
178 209 255
178 209 255
178 209 255
178 209 255
178 209 255
178 209 255
178 209 255
178 209 255
178 209 255
178 209 255
178 209 255
178 209 255
177 209 255
177 209 255
177 209 255
177 209 255
177 209 255
177 209 255
177 209 255
177 208 255
177 208 255
177 208 255
177 208 255
177 208 255
177 208 255
177 208 255
177 208 255
177 208 255
177 208 255
177 208 255
176 208 255
176 208 255
176 208 255
176 208 255
176 208 255
176 208 255
176 208 255
176 208 255
176 208 255
176 208 255
176 208 255
176 208 255
176 208 255
176 208 255
176 208 255
175 207 255
175 207 255
175 207 255
175 207 255
175 207 255
175 207 255
175 207 255
175 207 255
175 207 255
175 207 255
175 207 255
175 207 255
175 207 255
175 207 255
175 207 255
175 207 255
174 207 255
174 207 255
174 207 255
174 207 255
174 207 255
174 207 255
174 207 255
174 207 255
174 207 255
174 206 255
174 206 255
174 206 255
174 206 255
174 206 255
173 206 255
173 206 255
173 206 255
173 206 255
173 206 255
173 206 255
173 206 255
173 206 255
173 206 255
173 206 255
173 206 255
173 206 255
173 206 255
172 206 255
172 206 255
172 206 255
172 206 255
172 205 255
172 205 255
172 205 255
172 205 255
172 205 255
172 205 255
172 205 255
172 205 255
172 205 255
171 205 255
171 205 255
171 205 255
171 205 255
171 205 255
171 205 255
171 205 255
171 205 255
171 205 255
171 205 255
171 205 255
171 205 255
171 205 255
170 204 255
170 204 255
170 204 255
170 204 255
170 204 255
170 204 255
170 204 255
170 204 255
170 204 255
170 204 255
170 204 255
170 204 255
170 204 255
170 204 255
169 204 255
169 204 255
169 204 255
169 204 255
169 204 255
169 204 255
169 204 255
169 204 255
169 204 255
169 204 255
96 119 153
75 93 121
82 97 121
74 90 115
61 78 102
74 93 121
64 79 102
64 79 102
70 88 115
73 95 127
67 83 108
75 91 115
63 81 108
77 94 121
66 83 108
68 87 115
75 96 127
64 79 102
66 81 103
62 78 102
74 90 115
70 86 108
64 78 99
73 92 121
62 75 95
72 89 115
66 83 108
64 82 108
59 76 102
74 93 121
74 90 115
59 75 99
71 86 108
67 86 115
63 79 102
73 92 121
65 82 108
71 88 115
66 83 108
69 85 108
59 76 102
66 83 108
66 80 102
58 73 95
58 76 103
64 78 99
79 96 121
67 86 115
70 84 105
73 92 121
77 95 121
75 91 115
74 93 121
68 84 108
69 87 115
66 83 108
62 78 102
75 93 121
73 92 121
71 89 115
77 94 121
63 77 99
74 93 121
64 82 108
75 96 127
69 87 115
66 83 108
86 100 121
77 92 115
60 74 95
73 87 108
66 83 108
74 93 121
63 76 95
72 89 115
71 91 121
70 88 115
69 87 115
63 79 102
74 93 121
68 84 108
72 89 115
58 74 97
70 88 115
74 88 108
58 73 95
76 94 121
74 93 121
77 92 115
51 64 83
66 83 108
78 98 127
169 204 255
169 204 255
169 204 255
169 204 255
169 204 255
169 204 255
169 204 255
169 204 255
169 204 255
169 204 255
170 204 255
170 204 255
170 204 255
170 204 255
170 204 255
170 204 255
170 204 255
170 204 255
170 204 255
170 204 255
170 204 255
170 204 255
170 204 255
170 204 255
171 205 255
171 205 255
171 205 255
171 205 255
171 205 255
171 205 255
171 205 255
171 205 255
171 205 255
171 205 255
171 205 255
171 205 255
171 205 255
172 205 255
172 205 255
172 205 255
172 205 255
172 205 255
172 205 255
172 205 255
172 205 255
172 206 255
172 206 255
172 206 255
172 206 255
172 206 255
173 206 255
173 206 255
173 206 255
173 206 255
173 206 255
173 206 255
173 206 255
173 206 255
173 206 255
173 206 255
173 206 255
173 206 255
173 206 255
174 206 255
174 206 255
174 206 255
174 206 255
174 206 255
174 207 255
174 207 255
174 207 255
174 207 255
174 207 255
174 207 255
174 207 255
174 207 255
174 207 255
175 207 255
175 207 255
175 207 255
175 207 255
175 207 255
175 207 255
175 207 255
175 207 255
175 207 255
175 207 255
175 207 255
175 207 255
175 207 255
175 207 255
175 207 255
176 208 255
176 208 255
176 208 255
176 208 255
176 208 255
176 208 255
176 208 255
176 208 255
176 208 255
176 208 255
176 208 255
176 208 255
176 208 255
176 208 255
176 208 255
176 208 255
177 208 255
177 208 255
177 208 255
177 208 255
177 208 255
177 208 255
177 208 255
177 208 255
177 208 255
177 208 255
177 208 255
177 208 255
177 209 255
177 209 255
177 209 255
177 209 255
177 209 255
177 209 255
178 209 255
178 209 255
178 209 255
178 209 255
178 209 255
178 209 255
178 209 255
178 209 255
178 209 255
178 209 255
178 209 255
178 209 255
178 209 255
178 209 255
178 209 255
178 209 255
178 209 255
178 209 255
178 209 255
179 209 255
179 209 255
179 209 255
179 209 255
179 209 255
179 209 255
179 209 255
179 209 255
179 210 255
179 210 255
179 210 255
179 210 255
179 210 255
179 210 255
179 210 255
179 210 255
179 210 255
179 209 255
179 209 255
179 209 255
179 209 255
179 209 255
179 209 255
179 209 255
178 209 255
178 209 255
178 209 255
178 209 255
178 209 255
178 209 255
178 209 255
178 209 255
178 209 255
178 209 255
178 209 255
178 209 255
178 209 255
178 209 255
178 209 255
178 209 255
178 209 255
178 209 255
178 209 255
177 209 255
177 209 255
177 209 255
177 209 255
177 209 255
177 209 255
177 209 255
177 208 255
177 208 255
177 208 255
177 208 255
177 208 255
177 208 255
177 208 255
177 208 255
177 208 255
177 208 255
176 208 255
176 208 255
176 208 255
176 208 255
176 208 255
176 208 255
176 208 255
176 208 255
176 208 255
176 208 255
176 208 255
176 208 255
176 208 255
176 208 255
176 208 255
176 208 255
175 207 255
175 207 255
175 207 255
175 207 255
175 207 255
175 207 255
175 207 255
175 207 255
175 207 255
175 207 255
175 207 255
175 207 255
175 207 255
175 207 255
175 207 255
174 207 255
174 207 255
174 207 255
174 207 255
174 207 255
174 207 255
174 207 255
174 207 255
174 207 255
174 206 255
174 206 255
174 206 255
174 206 255
173 206 255
173 206 255
173 206 255
173 206 255
173 206 255
173 206 255
173 206 255
173 206 255
173 206 255
173 206 255
173 206 255
173 206 255
173 206 255
173 206 255
172 206 255
172 206 255
172 206 255
172 206 255
172 205 255
172 205 255
172 205 255
172 205 255
172 205 255
172 205 255
172 205 255
172 205 255
172 205 255
171 205 255
171 205 255
171 205 255
171 205 255
171 205 255
171 205 255
171 205 255
171 205 255
171 205 255
171 205 255
171 205 255
171 205 255
171 205 255
171 205 255
170 204 255
170 204 255
170 204 255
170 204 255
170 204 255
170 204 255
170 204 255
170 204 255
170 204 255
170 204 255
170 204 255
170 204 255
169 204 255
170 204 255
170 204 255
169 204 255
169 204 255
111 133 166
61 76 99
81 99 127
64 79 102
56 68 86
55 72 97
68 87 115
69 87 115
78 98 127
67 83 108
65 82 108
74 93 121
67 84 108
56 73 99
58 73 95
74 93 121
74 93 121
73 90 116
77 95 121
74 93 121
69 85 108
73 90 115
83 98 121
61 78 102
65 77 95
56 72 95
63 79 102
56 71 92
72 89 115
73 90 115
70 85 108
59 76 102
74 90 115
67 84 109
63 81 108
54 68 89
74 93 121
68 84 108
67 83 108
63 79 102
74 90 115
70 85 108
66 83 108
51 65 86
71 88 115
58 73 95
70 91 121
66 86 115
62 78 102
62 80 108
68 84 108
67 81 102
74 93 121
64 79 102
55 71 95
66 83 108
55 68 89
66 85 115
80 97 121
62 78 102
68 87 115
68 81 102
70 88 115
77 97 127
61 78 102
76 91 115
72 89 115
66 83 108
75 94 121
64 80 103
78 95 121
70 88 115
70 86 108
63 78 102
68 84 108
69 87 115
61 78 103
59 76 102
73 93 121
56 67 84
57 73 95
68 84 108
63 78 102
67 81 102
64 82 108
77 95 121
66 83 108
65 82 108
58 73 95
67 83 108
67 86 115
61 77 102
61 80 108
66 83 108
169 204 255
169 204 255
170 204 255
170 204 255
170 204 255
170 204 255
170 204 255
170 204 255
170 204 255
170 204 255
170 204 255
170 204 255
170 204 255
170 204 255
170 204 255
170 204 255
170 204 255
171 205 255
171 205 255
171 205 255
171 205 255
171 205 255
171 205 255
171 205 255
171 205 255
171 205 255
171 205 255
171 205 255
171 205 255
171 205 255
172 205 255
172 205 255
172 205 255
172 205 255
172 205 255
172 205 255
172 205 255
172 205 255
172 205 255
172 205 255
172 206 255
172 206 255
172 206 255
172 206 255
172 206 255
173 206 255
173 206 255
173 206 255
173 206 255
173 206 255
173 206 255
173 206 255
173 206 255
173 206 255
173 206 255
173 206 255
173 206 255
173 206 255
174 206 255
174 206 255
174 206 255
174 206 255
174 207 255
174 207 255
174 207 255
174 207 255
174 207 255
174 207 255
174 207 255
174 207 255
174 207 255
174 207 255
175 207 255
175 207 255
175 207 255
175 207 255
175 207 255
175 207 255
175 207 255
175 207 255
175 207 255
175 207 255
175 207 255
175 207 255
175 207 255
175 207 255
176 208 255
176 208 255
176 208 255
176 208 255
176 208 255
176 208 255
176 208 255
176 208 255
176 208 255
176 208 255
176 208 255
176 208 255
176 208 255
176 208 255
176 208 255
176 208 255
177 208 255
177 208 255
177 208 255
177 208 255
177 208 255
177 208 255
177 208 255
177 208 255
177 208 255
177 208 255
177 208 255
177 209 255
177 209 255
177 209 255
177 209 255
177 209 255
177 209 255
177 209 255
178 209 255
178 209 255
178 209 255
178 209 255
178 209 255
178 209 255
178 209 255
178 209 255
178 209 255
178 209 255
178 209 255
178 209 255
178 209 255
178 209 255
178 209 255
178 209 255
178 209 255
178 209 255
178 209 255
179 209 255
179 209 255
179 209 255
179 209 255
179 209 255
179 209 255
179 209 255
179 210 255
179 210 255
179 210 255
179 210 255
179 210 255
179 210 255
179 210 255
179 210 255
179 210 255
179 210 255
179 210 255
179 210 255
179 210 255
179 210 255
179 210 255
179 210 255
179 210 255
179 210 255
179 210 255
179 210 255
179 209 255
179 209 255
179 209 255
179 209 255
179 209 255
179 209 255
179 209 255
179 209 255
178 209 255
178 209 255
178 209 255
178 209 255
178 209 255
178 209 255
178 209 255
178 209 255
178 209 255
178 209 255
178 209 255
178 209 255
178 209 255
178 209 255
178 209 255
178 209 255
178 209 255
178 209 255
177 209 255
177 209 255
177 209 255
177 209 255
177 209 255
177 209 255
177 208 255
177 208 255
177 208 255
177 208 255
177 208 255
177 208 255
177 208 255
177 208 255
177 208 255
177 208 255
176 208 255
177 208 255
176 208 255
176 208 255
176 208 255
176 208 255
176 208 255
176 208 255
176 208 255
176 208 255
176 208 255
176 208 255
176 208 255
176 208 255
176 208 255
176 208 255
176 208 255
175 207 255
175 207 255
175 207 255
175 207 255
175 207 255
175 207 255
175 207 255
175 207 255
175 207 255
175 207 255
175 207 255
175 207 255
175 207 255
175 207 255
175 207 255
174 207 255
174 207 255
174 207 255
174 207 255
174 207 255
174 207 255
174 207 255
174 207 255
174 207 255
174 206 255
174 206 255
174 206 255
174 206 255
174 206 255
173 206 255
173 206 255
173 206 255
173 206 255
173 206 255
173 206 255
173 206 255
173 206 255
173 206 255
173 206 255
173 206 255
173 206 255
173 206 255
173 206 255
172 206 255
172 206 255
172 206 255
172 205 255
172 205 255
172 205 255
172 205 255
172 205 255
172 205 255
172 205 255
172 205 255
172 205 255
172 205 255
171 205 255
171 205 255
171 205 255
171 205 255
171 205 255
171 205 255
171 205 255
171 205 255
171 205 255
171 205 255
171 205 255
171 205 255
171 205 255
170 204 255
171 205 255
170 204 255
170 204 255
170 204 255
170 204 255
170 204 255
170 204 255
170 204 255
170 204 255
170 204 255
88 109 140
71 88 115
63 80 105
66 80 102
57 74 99
65 83 108
58 73 95
78 96 121
72 89 115
71 88 115
74 91 115
58 73 95
53 67 87
61 77 102
62 78 102
71 89 115
70 88 115
69 87 115
63 79 102
57 72 95
65 79 102
75 94 121
63 79 102
64 79 102
69 87 115
73 92 121
69 85 108
64 79 102
78 98 127
66 82 105
71 89 115
59 73 95
66 83 108
62 81 108
57 70 89
74 93 121
64 80 103
67 83 108
76 94 121
67 83 108
69 87 115
72 92 121
64 82 108
73 90 115
79 96 121
65 82 108
63 79 102
61 75 97
58 73 95
65 82 108
50 63 83
77 95 121
76 94 121
54 69 92
65 82 108
67 84 108
63 77 99
68 87 115
51 66 89
66 85 115
66 79 99
52 67 89
67 81 102
60 71 89
63 79 102
74 91 115
62 75 95
70 86 111
71 87 111
66 83 108
65 80 102
66 81 102
77 95 121
68 84 108
59 76 102
67 82 105
62 75 95
59 76 102
73 90 115
76 92 115
74 88 108
73 90 115
65 80 102
65 82 108
65 80 102
73 89 115
64 79 102
73 90 115
63 75 94
61 75 95
68 87 115
65 82 108
66 83 108
70 88 115
76 94 121
72 89 115
170 204 255
170 204 255
170 204 255
170 204 255
170 204 255
170 204 255
170 204 255
170 204 255
170 204 255
170 204 255
171 205 255
171 205 255
171 205 255
171 205 255
171 205 255
171 205 255
171 205 255
171 205 255
171 205 255
171 205 255
171 205 255
171 205 255
171 205 255
171 205 255
171 205 255
172 205 255
172 205 255
172 205 255
172 205 255
172 205 255
172 205 255
172 205 255
172 205 255
172 206 255
172 206 255
172 206 255
172 206 255
173 206 255
173 206 255
173 206 255
173 206 255
173 206 255
173 206 255
173 206 255
173 206 255
173 206 255
173 206 255
173 206 255
173 206 255
173 206 255
173 206 255
173 206 255
174 206 255
174 206 255
174 206 255
174 206 255
174 206 255
174 207 255
174 207 255
174 207 255
174 207 255
174 207 255
174 207 255
174 207 255
174 207 255
174 207 255
175 207 255
175 207 255
175 207 255
175 207 255
175 207 255
175 207 255
175 207 255
175 207 255
175 207 255
175 207 255
175 207 255
175 207 255
175 207 255
175 207 255
176 208 255
176 208 255
176 208 255
176 208 255
176 208 255
176 208 255
176 208 255
176 208 255
176 208 255
176 208 255
176 208 255
176 208 255
176 208 255
176 208 255
176 208 255
176 208 255
177 208 255
177 208 255
177 208 255
177 208 255
177 208 255
177 208 255
177 208 255
177 208 255
177 208 255
177 208 255
177 209 255
177 209 255
177 209 255
177 209 255
177 209 255
177 209 255
177 209 255
178 209 255
178 209 255
178 209 255
178 209 255
178 209 255
178 209 255
178 209 255
178 209 255
178 209 255
178 209 255
178 209 255
178 209 255
178 209 255
178 209 255
178 209 255
178 209 255
178 209 255
178 209 255
179 209 255
179 209 255
179 209 255
179 209 255
179 209 255
179 209 255
179 209 255
179 210 255
179 210 255
179 210 255
179 210 255
179 210 255
179 210 255
179 210 255
179 210 255
179 210 255
179 210 255
179 210 255
179 210 255
179 210 255
179 210 255
180 210 255
180 210 255
180 210 255
180 210 255
180 210 255
179 210 255
179 210 255
179 210 255
179 210 255
179 210 255
179 210 255
179 210 255
179 210 255
179 210 255
179 210 255
179 210 255
179 210 255
179 210 255
179 210 255
179 209 255
179 209 255
179 209 255
179 209 255
179 209 255
179 209 255
179 209 255
178 209 255
178 209 255
178 209 255
178 209 255
178 209 255
178 209 255
178 209 255
178 209 255
178 209 255
178 209 255
178 209 255
178 209 255
178 209 255
178 209 255
178 209 255
178 209 255
178 209 255
178 209 255
178 209 255
177 209 255
177 209 255
177 209 255
177 209 255
177 209 255
177 209 255
177 208 255
177 208 255
177 208 255
177 208 255
177 208 255
177 208 255
177 208 255
177 208 255
177 208 255
177 208 255
176 208 255
176 208 255
176 208 255
176 208 255
176 208 255
176 208 255
176 208 255
176 208 255
176 208 255
176 208 255
176 208 255
176 208 255
176 208 255
176 208 255
176 208 255
176 208 255
175 207 255
175 207 255
175 207 255
175 207 255
175 207 255
175 207 255
175 207 255
175 207 255
175 207 255
175 207 255
175 207 255
175 207 255
175 207 255
175 207 255
175 207 255
174 207 255
174 207 255
174 207 255
174 207 255
174 207 255
174 207 255
174 207 255
174 207 255
174 207 255
174 206 255
174 206 255
174 206 255
174 206 255
173 206 255
173 206 255
173 206 255
173 206 255
173 206 255
173 206 255
173 206 255
173 206 255
173 206 255
173 206 255
173 206 255
173 206 255
173 206 255
173 206 255
173 206 255
172 206 255
172 206 255
172 206 255
172 206 255
172 206 255
172 205 255
172 205 255
172 205 255
172 205 255
172 205 255
172 205 255
172 205 255
172 205 255
171 205 255
171 205 255
171 205 255
171 205 255
171 205 255
171 205 255
171 205 255
171 205 255
171 205 255
171 205 255
171 205 255
171 205 255
171 205 255
171 205 255
171 205 255
170 204 255
170 204 255
170 204 255
65 79 102
75 91 115
75 93 121
57 75 102
72 89 115
58 73 95
69 87 115
63 79 103
62 76 97
77 95 121
69 87 115
63 78 102
64 79 102
61 77 102
69 85 108
77 94 121
70 85 108
63 79 103
80 96 121
67 86 115
67 81 102
56 73 99
68 82 102
71 91 121
60 76 102
66 80 102
73 90 115
68 84 108
71 86 108
74 93 121
72 89 115
65 79 102
57 73 95
64 82 108
74 89 110
73 87 108
56 69 89
78 95 121
74 90 115
63 76 95
60 74 95
55 68 89
73 92 121
67 82 103
65 80 102
70 85 108
65 83 108
66 86 115
56 69 89
71 87 111
59 76 102
57 71 91
61 76 99
69 85 108
59 76 102
59 76 102
71 86 108
68 84 108
76 94 121
72 89 115
66 81 103
64 79 102
61 76 99
68 84 108
71 83 102
70 88 115
65 81 103
57 76 105
60 77 102
67 84 108
70 83 102
70 88 115
72 87 108
76 89 108
72 89 115
64 79 102
70 88 115
65 80 102
69 87 115
75 96 127
56 69 89
67 86 115
72 85 105
73 90 115
71 88 115
66 85 115
68 87 115
70 88 115
67 84 108
69 85 108
63 78 102
68 84 108
75 91 115
66 83 108
66 88 121
75 91 115
65 82 108
112 136 172
170 204 255
170 204 255
170 204 255
171 205 255
171 205 255
171 205 255
171 205 255
171 205 255
171 205 255
171 205 255
171 205 255
171 205 255
171 205 255
171 205 255
171 205 255
171 205 255
171 205 255
171 205 255
172 205 255
172 205 255
172 205 255
172 205 255
172 205 255
172 205 255
172 205 255
172 205 255
172 205 255
172 206 255
172 206 255
172 206 255
172 206 255
173 206 255
173 206 255
173 206 255
173 206 255
173 206 255
173 206 255
173 206 255
173 206 255
173 206 255
173 206 255
173 206 255
173 206 255
173 206 255
173 206 255
174 206 255
174 206 255
174 206 255
174 206 255
174 207 255
174 207 255
174 207 255
174 207 255
174 207 255
174 207 255
174 207 255
174 207 255
174 207 255
174 207 255
175 207 255
175 207 255
175 207 255
175 207 255
175 207 255
175 207 255
175 207 255
175 207 255
175 207 255
175 207 255
175 207 255
175 207 255
175 207 255
175 207 255
175 207 255
176 208 255
176 208 255
176 208 255
176 208 255
176 208 255
176 208 255
176 208 255
176 208 255
176 208 255
176 208 255
176 208 255
176 208 255
176 208 255
176 208 255
176 208 255
176 208 255
177 208 255
177 208 255
177 208 255
177 208 255
177 208 255
177 208 255
177 208 255
177 208 255
177 208 255
177 208 255
177 208 255
177 209 255
177 209 255
177 209 255
177 209 255
177 209 255
178 209 255
178 209 255
178 209 255
178 209 255
178 209 255
178 209 255
178 209 255
178 209 255
178 209 255
178 209 255
178 209 255
178 209 255
178 209 255
178 209 255
178 209 255
178 209 255
178 209 255
178 209 255
178 209 255
179 209 255
179 209 255
179 209 255
179 209 255
179 209 255
179 209 255
179 209 255
179 210 255
179 210 255
179 210 255
179 210 255
179 210 255
179 210 255
179 210 255
179 210 255
179 210 255
179 210 255
179 210 255
179 210 255
179 210 255
179 210 255
180 210 255
180 210 255
180 210 255
180 210 255
180 210 255
180 210 255
180 210 255
180 210 255
180 210 255
180 210 255
180 210 255
180 210 255
180 210 255
180 210 255
180 210 255
180 210 255
179 210 255
179 210 255
179 210 255
179 210 255
179 210 255
179 210 255
179 210 255
179 210 255
179 210 255
179 210 255
179 210 255
179 210 255
179 210 255
179 210 255
179 209 255
179 209 255
179 209 255
179 209 255
179 209 255
179 209 255
179 209 255
178 209 255
178 209 255
178 209 255
178 209 255
178 209 255
178 209 255
178 209 255
178 209 255
178 209 255
178 209 255
178 209 255
178 209 255
178 209 255
178 209 255
178 209 255
178 209 255
178 209 255
178 209 255
178 209 255
177 209 255
177 209 255
177 209 255
177 209 255
177 209 255
177 209 255
177 208 255
177 208 255
177 208 255
177 208 255
177 208 255
177 208 255
177 208 255
177 208 255
177 208 255
177 208 255
176 208 255
176 208 255
176 208 255
176 208 255
176 208 255
176 208 255
176 208 255
176 208 255
176 208 255
176 208 255
176 208 255
176 208 255
176 208 255
176 208 255
176 208 255
175 207 255
175 207 255
175 207 255
175 207 255
175 207 255
175 207 255
175 207 255
175 207 255
175 207 255
175 207 255
175 207 255
175 207 255
175 207 255
175 207 255
175 207 255
174 207 255
174 207 255
174 207 255
174 207 255
174 207 255
174 207 255
174 207 255
174 207 255
174 207 255
174 206 255
174 206 255
174 206 255
174 206 255
174 206 255
173 206 255
173 206 255
173 206 255
173 206 255
173 206 255
173 206 255
173 206 255
173 206 255
173 206 255
173 206 255
173 206 255
173 206 255
173 206 255
173 206 255
172 206 255
172 206 255
172 206 255
172 206 255
172 205 255
172 206 255
172 205 255
172 205 255
172 205 255
172 205 255
172 205 255
172 205 255
172 205 255
172 205 255
172 205 255
171 205 255
171 205 255
171 205 255
171 205 255
171 205 255
171 205 255
171 205 255
171 205 255
171 205 255
171 205 255
120 146 185
66 83 108
59 74 95
68 84 108
58 73 95
73 87 108
56 72 95
79 96 121
76 94 121
83 101 127
64 79 102
69 85 108
61 77 102
68 84 108
60 72 91
65 85 115
73 92 121
68 84 108
58 77 105
61 77 102
68 89 121
67 83 108
61 75 95
77 92 115
62 75 95
78 95 121
71 91 121
62 75 95
69 87 115
67 84 108
63 76 95
60 73 92
76 94 121
55 71 95
72 89 115
76 94 121
70 90 121
73 92 121
66 81 102
57 73 97
65 80 102
69 87 115
63 81 108
79 93 115
66 80 102
68 82 103
73 90 115
64 82 108
76 94 121
61 80 108
65 80 102
64 79 102
71 86 108
82 97 121
69 85 108
67 81 102
55 69 89
66 86 115
71 89 115
62 75 95
67 84 108
70 88 115
75 93 121
63 76 96
76 94 121
68 81 102
79 96 121
74 90 115
64 76 95
55 71 96
71 89 115
67 82 105
65 80 102
70 85 108
62 78 102
55 69 89
73 93 121
70 86 110
71 87 110
69 85 108
65 80 102
61 78 102
67 84 108
78 95 121
72 89 115
60 74 95
76 94 121
69 87 115
71 88 115
62 78 102
71 88 115
60 72 89
61 75 95
56 72 95
67 82 105
64 82 108
62 78 102
58 73 95
69 90 121
112 134 166
171 205 255
171 205 255
171 205 255
171 205 255
171 205 255
171 205 255
171 205 255
171 205 255
171 205 255
171 205 255
171 205 255
171 205 255
172 205 255
172 205 255
172 205 255
172 205 255
172 205 255
172 205 255
172 205 255
172 205 255
172 206 255
172 206 255
172 206 255
172 206 255
172 206 255
173 206 255
173 206 255
173 206 255
173 206 255
173 206 255
173 206 255
173 206 255
173 206 255
173 206 255
173 206 255
173 206 255
173 206 255
173 206 255
173 206 255
173 206 255
174 206 255
174 206 255
174 206 255
174 207 255
174 207 255
174 207 255
174 207 255
174 207 255
174 207 255
174 207 255
174 207 255
174 207 255
175 207 255
175 207 255
175 207 255
175 207 255
175 207 255
175 207 255
175 207 255
175 207 255
175 207 255
175 207 255
175 207 255
175 207 255
175 207 255
175 207 255
175 207 255
176 208 255
176 208 255
176 208 255
176 208 255
176 208 255
176 208 255
176 208 255
176 208 255
176 208 255
176 208 255
176 208 255
176 208 255
176 208 255
176 208 255
176 208 255
176 208 255
177 208 255
177 208 255
177 208 255
177 208 255
177 208 255
177 208 255
177 208 255
177 208 255
177 208 255
177 208 255
177 208 255
177 209 255
177 209 255
177 209 255
177 209 255
177 209 255
178 209 255
178 209 255
178 209 255
178 209 255
178 209 255
178 209 255
178 209 255
178 209 255
178 209 255
178 209 255
178 209 255
178 209 255
178 209 255
178 209 255
178 209 255
178 209 255
178 209 255
178 209 255
178 209 255
179 209 255
179 209 255
179 209 255
179 209 255
179 209 255
179 209 255
179 209 255
179 210 255
179 210 255
179 210 255
179 210 255
179 210 255
179 210 255
179 210 255
179 210 255
179 210 255
179 210 255
179 210 255
179 210 255
179 210 255
179 210 255
179 210 255
180 210 255
180 210 255
180 210 255
180 210 255
180 210 255
180 210 255
180 210 255
180 210 255
180 210 255
180 210 255
180 210 255
180 210 255
180 210 255
180 210 255
180 210 255
180 210 255
180 210 255
180 210 255
180 210 255
180 210 255
180 210 255
180 210 255
180 210 255
180 210 255
180 210 255
180 210 255
180 210 255
180 210 255
179 210 255
179 210 255
179 210 255
179 210 255
179 210 255
179 210 255
179 210 255
179 210 255
179 210 255
179 210 255
179 210 255
179 210 255
179 210 255
179 209 255
179 209 255
179 209 255
179 209 255
179 209 255
179 209 255
179 209 255
178 209 255
178 209 255
178 209 255
178 209 255
178 209 255
178 209 255
178 209 255
178 209 255
178 209 255
178 209 255
178 209 255
178 209 255
178 209 255
178 209 255
178 209 255
178 209 255
178 209 255
178 209 255
177 209 255
177 209 255
177 209 255
177 209 255
177 208 255
177 209 255
177 208 255
177 208 255
177 208 255
177 208 255
177 208 255
177 208 255
177 208 255
177 208 255
177 208 255
177 208 255
176 208 255
176 208 255
176 208 255
176 208 255
176 208 255
176 208 255
176 208 255
176 208 255
176 208 255
176 208 255
176 208 255
176 208 255
176 208 255
176 208 255
176 208 255
176 208 255
175 207 255
175 207 255
175 207 255
175 207 255
175 207 255
175 207 255
175 207 255
175 207 255
175 207 255
175 207 255
175 207 255
175 207 255
175 207 255
175 207 255
174 207 255
174 207 255
174 207 255
174 207 255
174 207 255
174 207 255
174 207 255
174 207 255
174 207 255
174 207 255
174 206 255
174 206 255
174 206 255
174 206 255
174 206 255
173 206 255
173 206 255
173 206 255
173 206 255
173 206 255
173 206 255
173 206 255
173 206 255
173 206 255
173 206 255
173 206 255
173 206 255
173 206 255
172 206 255
172 206 255
172 206 255
172 206 255
172 206 255
172 206 255
172 205 255
172 205 255
172 205 255
172 205 255
172 205 255
172 205 255
172 205 255
172 205 255
172 205 255
171 205 255
172 205 255
171 205 255
171 205 255
154 184 230
91 111 140
61 75 95
78 95 121
66 83 108
75 91 115
58 76 102
71 88 115
68 84 108
77 95 121
64 76 95
61 77 102
68 84 108
69 85 108
71 86 108
58 76 102
66 83 108
61 76 97
65 82 108
71 88 115
64 79 102
79 98 127
58 73 95
84 101 127
63 81 108
69 90 121
66 83 108
76 91 115
62 78 102
67 84 108
74 93 121
78 98 127
70 90 121
57 70 89
71 86 108
72 89 115
74 90 115
70 88 115
65 79 102
54 66 84
71 86 108
62 78 102
60 74 95
61 77 102
80 99 127
75 94 121
82 100 127
68 84 108
84 101 127
72 89 115
70 88 115
64 76 95
72 89 115
70 91 121
80 96 121
66 80 102
70 85 108
70 88 115
65 82 108
73 90 115
59 76 102
66 80 102
57 72 95
80 96 121
68 84 108
79 96 121
66 83 108
67 81 102
64 79 102
69 85 108
71 90 118
71 89 115
67 81 102
71 86 108
50 63 83
59 76 102
70 85 108
80 96 121
63 76 95
71 88 115
64 79 102
60 77 102
64 79 102
78 95 121
64 80 105
76 94 121
54 68 89
68 81 102
64 79 102
81 100 127
70 90 121
78 95 121
76 91 115
73 92 121
58 73 95
59 76 102
73 90 115
79 96 121
66 83 108
70 88 115
72 87 108
132 159 198
171 205 255
171 205 255
172 205 255
172 205 255
172 205 255
172 205 255
172 205 255
172 205 255
172 205 255
172 205 255
172 205 255
172 205 255
172 205 255
172 206 255
172 206 255
172 206 255
172 206 255
172 206 255
173 206 255
173 206 255
173 206 255
173 206 255
173 206 255
173 206 255
173 206 255
173 206 255
173 206 255
173 206 255
173 206 255
173 206 255
173 206 255
174 206 255
174 206 255
174 206 255
174 206 255
174 206 255
174 206 255
174 207 255
174 207 255
174 207 255
174 207 255
174 207 255
174 207 255
174 207 255
174 207 255
174 207 255
175 207 255
175 207 255
175 207 255
175 207 255
175 207 255
175 207 255
175 207 255
175 207 255
175 207 255
175 207 255
175 207 255
175 207 255
175 207 255
175 207 255
176 208 255
175 207 255
176 208 255
176 208 255
176 208 255
176 208 255
176 208 255
176 208 255
176 208 255
176 208 255
176 208 255
176 208 255
176 208 255
176 208 255
176 208 255
177 208 255
177 208 255
177 208 255
177 208 255
177 208 255
177 208 255
177 208 255
177 208 255
177 208 255
177 208 255
177 208 255
177 208 255
177 209 255
177 209 255
177 209 255
177 209 255
177 209 255
178 209 255
178 209 255
178 209 255
178 209 255
178 209 255
178 209 255
178 209 255
178 209 255
178 209 255
178 209 255
178 209 255
178 209 255
178 209 255
178 209 255
178 209 255
178 209 255
178 209 255
178 209 255
179 209 255
178 209 255
179 209 255
179 209 255
179 209 255
179 209 255
179 209 255
179 209 255
179 209 255
179 210 255
179 210 255
179 210 255
179 210 255
179 210 255
179 210 255
179 210 255
179 210 255
179 210 255
179 210 255
179 210 255
179 210 255
179 210 255
180 210 255
180 210 255
180 210 255
180 210 255
180 210 255
180 210 255
180 210 255
180 210 255
180 210 255
180 210 255
180 210 255
180 210 255
180 210 255
180 210 255
180 210 255
180 210 255
180 210 255
181 211 255
180 210 255
180 210 255
180 210 255
180 210 255
180 210 255
180 210 255
180 210 255
180 210 255
180 210 255
180 210 255
180 210 255
180 210 255
180 210 255
180 210 255
180 210 255
180 210 255
180 210 255
180 210 255
180 210 255
180 210 255
180 210 255
180 210 255
179 210 255
179 210 255
179 210 255
179 210 255
179 210 255
179 210 255
179 210 255
179 210 255
179 210 255
179 210 255
179 210 255
179 210 255
179 210 255
179 210 255
179 209 255
179 209 255
179 209 255
179 209 255
179 209 255
179 209 255
178 209 255
178 209 255
178 209 255
178 209 255
178 209 255
178 209 255
178 209 255
178 209 255
178 209 255
178 209 255
178 209 255
178 209 255
178 209 255
178 209 255
178 209 255
178 209 255
178 209 255
178 209 255
178 209 255
177 209 255
177 209 255
177 209 255
177 209 255
177 209 255
177 209 255
177 208 255
177 208 255
177 208 255
177 208 255
177 208 255
177 208 255
177 208 255
177 208 255
177 208 255
177 208 255
176 208 255
176 208 255
176 208 255
176 208 255
176 208 255
176 208 255
176 208 255
176 208 255
176 208 255
176 208 255
176 208 255
176 208 255
176 208 255
176 208 255
176 208 255
175 207 255
175 207 255
175 207 255
175 207 255
175 207 255
175 207 255
175 207 255
175 207 255
175 207 255
175 207 255
175 207 255
175 207 255
175 207 255
175 207 255
175 207 255
174 207 255
174 207 255
174 207 255
174 207 255
174 207 255
174 207 255
174 207 255
174 207 255
174 207 255
174 207 255
174 206 255
174 206 255
174 206 255
174 206 255
174 206 255
173 206 255
173 206 255
173 206 255
173 206 255
173 206 255
173 206 255
173 206 255
173 206 255
173 206 255
173 206 255
173 206 255
173 206 255
173 206 255
173 206 255
173 206 255
172 206 255
172 206 255
172 206 255
172 206 255
172 206 255
172 205 255
172 205 255
172 205 255
172 205 255
172 205 255
151 183 230
75 94 121
72 92 121
66 83 108
73 87 108
71 86 108
64 82 108
64 81 108
71 86 110
51 63 83
68 87 115
63 79 102
70 88 115
68 89 121
53 68 92
73 89 115
55 69 89
66 83 108
69 85 108
71 86 108
64 82 108
61 78 103
58 73 95
51 66 89
54 68 89
54 70 95
68 84 108
60 76 102
56 72 95
78 95 121
59 76 102
74 90 115
80 99 127
68 84 109
74 90 115
67 84 108
64 80 103
71 89 115
67 84 110
63 76 95
65 77 95
66 83 108
64 79 102
54 69 91
60 74 95
58 71 89
79 96 121
60 77 102
65 80 102
72 86 108
73 90 115
73 90 115
61 80 108
66 83 108
67 83 108
60 74 95
56 71 94
66 80 102
58 73 97
69 87 115
74 93 121
56 69 89
65 82 108
75 94 121
67 86 115
73 90 115
50 63 83
67 81 102
65 80 102
56 70 92
68 84 108
65 82 108
77 97 127
71 86 108
79 98 127
63 81 108
74 93 121
61 75 95
67 82 103
67 84 108
69 85 108
67 81 102
69 85 108
82 100 127
71 86 108
61 76 99
67 83 108
71 88 115
58 73 95
77 92 115
64 82 108
75 91 115
58 70 89
73 90 115
65 77 95
74 93 121
62 81 108
70 90 121
59 73 95
66 78 95
75 94 121
59 73 95
74 90 115
172 205 255
172 205 255
172 205 255
172 205 255
172 205 255
172 205 255
172 206 255
172 206 255
172 206 255
172 206 255
172 206 255
173 206 255
173 206 255
173 206 255
173 206 255
173 206 255
173 206 255
173 206 255
173 206 255
173 206 255
173 206 255
173 206 255
173 206 255
173 206 255
173 206 255
173 206 255
174 206 255
174 206 255
174 206 255
174 206 255
174 206 255
174 206 255
174 207 255
174 207 255
174 207 255
174 207 255
174 207 255
174 207 255
174 207 255
174 207 255
174 207 255
175 207 255
175 207 255
175 207 255
175 207 255
175 207 255
175 207 255
175 207 255
175 207 255
175 207 255
175 207 255
175 207 255
175 207 255
175 207 255
175 207 255
175 207 255
176 208 255
176 208 255
176 208 255
176 208 255
176 208 255
176 208 255
176 208 255
176 208 255
176 208 255
176 208 255
176 208 255
176 208 255
176 208 255
176 208 255
176 208 255
177 208 255
177 208 255
177 208 255
177 208 255
177 208 255
177 208 255
177 208 255
177 208 255
177 208 255
177 208 255
177 208 255
177 209 255
177 209 255
177 209 255
177 209 255
177 209 255
177 209 255
178 209 255
178 209 255
178 209 255
178 209 255
178 209 255
178 209 255
178 209 255
178 209 255
178 209 255
178 209 255
178 209 255
178 209 255
178 209 255
178 209 255
178 209 255
178 209 255
178 209 255
179 209 255
179 209 255
179 209 255
179 209 255
179 209 255
179 209 255
179 209 255
179 209 255
179 210 255
179 210 255
179 210 255
179 210 255
179 210 255
179 210 255
179 210 255
179 210 255
179 210 255
179 210 255
179 210 255
179 210 255
180 210 255
180 210 255
180 210 255
180 210 255
180 210 255
180 210 255
180 210 255
180 210 255
180 210 255
180 210 255
180 210 255
180 210 255
180 210 255
180 210 255
180 210 255
180 210 255
180 210 255
180 210 255
180 210 255
180 210 255
180 210 255
180 210 255
180 210 255
181 211 255
181 211 255
181 211 255
181 211 255
181 211 255
181 211 255
181 211 255
181 211 255
180 210 255
180 210 255
180 210 255
180 210 255
180 210 255
180 210 255
180 210 255
180 210 255
180 210 255
180 210 255
180 210 255
180 210 255
180 210 255
180 210 255
180 210 255
180 210 255
180 210 255
180 210 255
180 210 255
180 210 255
180 210 255
180 210 255
180 210 255
179 210 255
179 210 255
179 210 255
179 210 255
179 210 255
179 210 255
179 210 255
179 210 255
179 210 255
179 210 255
179 210 255
179 210 255
179 210 255
179 209 255
179 209 255
179 209 255
179 209 255
179 209 255
179 209 255
178 209 255
178 209 255
178 209 255
178 209 255
178 209 255
178 209 255
178 209 255
178 209 255
178 209 255
178 209 255
178 209 255
178 209 255
178 209 255
178 209 255
178 209 255
178 209 255
178 209 255
178 209 255
177 209 255
177 209 255
177 209 255
177 209 255
177 209 255
177 209 255
177 208 255
177 208 255
177 208 255
177 208 255
177 208 255
177 208 255
177 208 255
177 208 255
177 208 255
177 208 255
177 208 255
176 208 255
176 208 255
176 208 255
176 208 255
176 208 255
176 208 255
176 208 255
176 208 255
176 208 255
176 208 255
176 208 255
176 208 255
176 208 255
176 208 255
176 208 255
175 207 255
175 207 255
175 207 255
175 207 255
175 207 255
175 207 255
175 207 255
175 207 255
175 207 255
175 207 255
175 207 255
175 207 255
175 207 255
175 207 255
175 207 255
174 207 255
174 207 255
174 207 255
174 207 255
174 207 255
174 207 255
174 207 255
174 207 255
174 207 255
174 207 255
174 206 255
174 206 255
174 206 255
174 206 255
174 206 255
173 206 255
173 206 255
173 206 255
173 206 255
173 206 255
173 206 255
173 206 255
173 206 255
173 206 255
173 206 255
173 206 255
173 206 255
173 206 255
173 206 255
173 206 255
173 206 255
172 206 255
172 206 255
158 189 236
96 116 147
67 83 108
60 77 102
65 80 102
81 99 127
60 77 102
72 89 115
71 87 110
73 90 115
64 79 102
76 92 115
80 99 127
61 77 102
78 95 121
69 85 108
70 88 115
68 84 108
68 84 108
62 78 102
74 90 115
80 99 127
68 87 115
69 86 111
68 81 102
64 79 102
59 74 95
62 80 108
68 87 115
62 78 102
73 90 115
79 98 127
70 88 115
61 76 99
63 77 99
68 84 108
69 85 108
64 82 108
82 100 127
68 86 115
61 77 102
51 65 86
75 91 115
75 91 115
65 82 108
70 85 108
74 90 115
79 96 121
74 90 115
75 91 115
66 79 99
69 85 108
68 87 115
65 82 108
71 86 108
65 80 102
55 70 92
73 90 115
59 76 102
73 87 108
67 83 108
52 64 83
67 82 105
67 84 108
76 97 127
57 70 89
67 89 121
63 81 108
74 91 115
67 81 102
66 83 108
60 77 102
77 92 115
59 71 89
75 94 121
77 95 121
72 89 115
62 78 103
77 95 121
68 86 115
66 83 108
68 87 115
68 87 115
68 84 108
70 83 102
70 88 115
69 82 102
53 67 89
64 79 102
65 83 108
51 63 83
55 72 97
61 80 108
68 87 115
62 79 103
75 91 115
61 78 102
84 101 127
62 78 102
64 79 102
68 87 115
71 88 115
76 94 121
70 88 115
91 111 140
140 169 211
172 206 255
172 206 255
173 206 255
173 206 255
173 206 255
173 206 255
173 206 255
173 206 255
173 206 255
173 206 255
173 206 255
173 206 255
173 206 255
173 206 255
173 206 255
173 206 255
173 206 255
173 206 255
173 206 255
174 206 255
174 206 255
174 206 255
174 207 255
174 207 255
174 207 255
174 207 255
174 207 255
174 207 255
174 207 255
174 207 255
174 207 255
174 207 255
174 207 255
175 207 255
175 207 255
175 207 255
175 207 255
175 207 255
175 207 255
175 207 255
175 207 255
175 207 255
175 207 255
175 207 255
175 207 255
175 207 255
175 207 255
175 207 255
176 208 255
176 208 255
176 208 255
176 208 255
176 208 255
176 208 255
176 208 255
176 208 255
176 208 255
176 208 255
176 208 255
176 208 255
176 208 255
176 208 255
176 208 255
177 208 255
177 208 255
177 208 255
177 208 255
177 208 255
177 208 255
177 208 255
177 208 255
177 208 255
177 208 255
177 208 255
177 209 255
177 209 255
177 209 255
177 209 255
177 209 255
177 209 255
178 209 255
178 209 255
178 209 255
178 209 255
178 209 255
178 209 255
178 209 255
178 209 255
178 209 255
178 209 255
178 209 255
178 209 255
178 209 255
178 209 255
178 209 255
178 209 255
178 209 255
178 209 255
179 209 255
179 209 255
179 209 255
179 209 255
179 209 255
179 209 255
179 210 255
179 210 255
179 210 255
179 210 255
179 210 255
179 210 255
179 210 255
179 210 255
179 210 255
179 210 255
179 210 255
179 210 255
179 210 255
179 210 255
180 210 255
180 210 255
180 210 255
180 210 255
180 210 255
180 210 255
180 210 255
180 210 255
180 210 255
180 210 255
180 210 255
180 210 255
180 210 255
180 210 255
180 210 255
180 210 255
180 210 255
180 210 255
180 210 255
180 210 255
180 210 255
180 210 255
180 210 255
181 211 255
181 211 255
181 211 255
181 211 255
181 211 255
181 211 255
181 211 255
181 211 255
181 211 255
181 211 255
181 211 255
181 211 255
181 211 255
181 211 255
181 211 255
181 211 255
181 211 255
181 211 255
181 211 255
181 211 255
180 210 255
180 210 255
180 210 255
180 210 255
180 210 255
180 210 255
180 210 255
180 210 255
180 210 255
180 210 255
180 210 255
180 210 255
180 210 255
180 210 255
180 210 255
180 210 255
180 210 255
180 210 255
180 210 255
180 210 255
180 210 255
180 210 255
179 210 255
179 210 255
179 210 255
179 210 255
179 210 255
179 210 255
179 210 255
179 210 255
179 210 255
179 210 255
179 210 255
179 210 255
179 210 255
179 209 255
179 209 255
179 209 255
179 209 255
179 209 255
179 209 255
179 209 255
178 209 255
178 209 255
178 209 255
178 209 255
178 209 255
178 209 255
178 209 255
178 209 255
178 209 255
178 209 255
178 209 255
178 209 255
178 209 255
178 209 255
178 209 255
178 209 255
178 209 255
177 209 255
177 209 255
177 209 255
177 209 255
177 209 255
177 209 255
177 208 255
177 208 255
177 208 255
177 208 255
177 208 255
177 208 255
177 208 255
177 208 255
177 208 255
177 208 255
177 208 255
176 208 255
176 208 255
176 208 255
176 208 255
176 208 255
176 208 255
176 208 255
176 208 255
176 208 255
176 208 255
176 208 255
176 208 255
176 208 255
176 208 255
176 208 255
175 207 255
175 207 255
175 207 255
175 207 255
175 207 255
175 207 255
175 207 255
175 207 255
175 207 255
175 207 255
175 207 255
175 207 255
175 207 255
175 207 255
175 207 255
174 207 255
174 207 255
174 207 255
174 207 255
174 207 255
174 207 255
174 207 255
174 207 255
174 207 255
174 207 255
174 206 255
174 206 255
174 206 255
174 206 255
174 206 255
173 206 255
173 206 255
173 206 255
173 206 255
173 206 255
173 206 255
173 206 255
173 206 255
173 206 255
173 206 255
173 206 255
173 206 255
84 104 134
59 74 95
69 82 102
51 67 91
60 74 95
69 87 115
71 89 115
63 81 108
74 93 121
59 74 95
67 84 108
69 85 108
65 82 108
73 90 115
65 82 108
55 74 102
68 84 108
69 85 108
65 82 108
65 85 115
69 89 118
64 79 102
73 92 121
65 80 102
62 78 102
55 71 95
64 82 108
64 79 102
71 88 115
56 69 89
74 90 115
72 89 115
73 90 115
73 90 115
64 77 95
63 81 108
73 90 115
64 81 108
64 81 108
69 85 108
81 99 127
73 87 108
54 68 89
69 85 108
68 82 102
62 78 102
67 83 108
64 82 108
71 86 108
66 83 108
63 81 108
72 89 115
64 78 99
54 68 89
70 88 115
64 82 108
67 81 102
62 78 102
70 83 102
64 82 108
68 84 108
71 89 115
60 77 102
57 73 95
70 85 108
73 90 115
67 84 108
62 78 102
73 92 121
51 64 83
67 83 108
58 73 95
69 87 115
67 83 108
74 90 115
78 98 127
70 85 108
56 72 95
73 87 108
67 84 108
59 73 92
69 84 108
78 95 121
68 84 108
73 92 121
61 75 97
49 61 79
66 83 108
75 94 121
65 85 115
67 81 102
79 93 115
65 80 102
64 82 108
73 92 121
71 86 108
67 83 108
72 89 115
68 82 103
75 93 121
72 89 115
57 72 95
66 83 108
60 74 95
68 84 108
99 121 153
173 206 255
173 206 255
173 206 255
173 206 255
173 206 255
173 206 255
173 206 255
173 206 255
173 206 255
173 206 255
173 206 255
174 206 255
174 206 255
174 206 255
174 206 255
174 206 255
174 206 255
174 207 255
174 207 255
174 207 255
174 207 255
174 207 255
174 207 255
174 207 255
174 207 255
174 207 255
174 207 255
174 207 255
175 207 255
175 207 255
175 207 255
175 207 255
175 207 255
175 207 255
175 207 255
175 207 255
175 207 255
175 207 255
175 207 255
175 207 255
175 207 255
176 208 255
175 207 255
176 208 255
176 208 255
176 208 255
176 208 255
176 208 255
176 208 255
176 208 255
176 208 255
176 208 255
176 208 255
176 208 255
176 208 255
176 208 255
176 208 255
176 208 255
176 208 255
177 208 255
177 208 255
177 208 255
177 208 255
177 208 255
177 208 255
177 208 255
177 208 255
177 208 255
177 209 255
177 209 255
177 209 255
177 209 255
177 209 255
177 209 255
178 209 255
178 209 255
178 209 255
178 209 255
178 209 255
178 209 255
178 209 255
178 209 255
178 209 255
178 209 255
178 209 255
178 209 255
178 209 255
178 209 255
178 209 255
178 209 255
178 209 255
179 209 255
179 209 255
179 209 255
179 209 255
179 209 255
179 209 255
179 209 255
179 210 255
179 210 255
179 210 255
179 210 255
179 210 255
179 210 255
179 210 255
179 210 255
179 210 255
179 210 255
179 210 255
179 210 255
179 210 255
179 210 255
180 210 255
180 210 255
180 210 255
180 210 255
180 210 255
180 210 255
180 210 255
180 210 255
180 210 255
180 210 255
180 210 255
180 210 255
180 210 255
180 210 255
180 210 255
180 210 255
180 210 255
180 210 255
180 210 255
180 210 255
180 210 255
181 211 255
181 211 255
181 211 255
181 211 255
181 211 255
181 211 255
181 211 255
181 211 255
181 211 255
181 211 255
181 211 255
181 211 255
181 211 255
181 211 255
181 211 255
181 211 255
181 211 255
181 211 255
181 211 255
181 211 255
181 211 255
181 211 255
181 211 255
181 211 255
181 211 255
181 211 255
181 211 255
181 211 255
181 211 255
181 211 255
181 211 255
181 211 255
181 211 255
181 211 255
181 211 255
180 210 255
180 210 255
180 210 255
180 210 255
180 210 255
180 210 255
180 210 255
180 210 255
180 210 255
180 210 255
180 210 255
180 210 255
180 210 255
180 210 255
180 210 255
180 210 255
180 210 255
180 210 255
180 210 255
180 210 255
180 210 255
179 210 255
179 210 255
179 210 255
179 210 255
179 210 255
179 210 255
179 210 255
179 210 255
179 210 255
179 210 255
179 210 255
179 210 255
179 210 255
179 209 255
179 209 255
179 209 255
179 209 255
179 209 255
179 209 255
178 209 255
178 209 255
178 209 255
178 209 255
178 209 255
178 209 255
178 209 255
178 209 255
178 209 255
178 209 255
178 209 255
178 209 255
178 209 255
178 209 255
178 209 255
178 209 255
178 209 255
177 209 255
178 209 255
177 209 255
177 209 255
177 209 255
177 209 255
177 209 255
177 208 255
177 208 255
177 208 255
177 208 255
177 208 255
177 208 255
177 208 255
177 208 255
177 208 255
177 208 255
177 208 255
176 208 255
176 208 255
176 208 255
176 208 255
176 208 255
176 208 255
176 208 255
176 208 255
176 208 255
176 208 255
176 208 255
176 208 255
176 208 255
176 208 255
176 208 255
176 208 255
175 207 255
175 207 255
175 207 255
175 207 255
175 207 255
175 207 255
175 207 255
175 207 255
175 207 255
175 207 255
175 207 255
175 207 255
175 207 255
175 207 255
174 207 255
174 207 255
174 207 255
174 207 255
174 207 255
174 207 255
174 207 255
174 207 255
174 207 255
174 207 255
174 207 255
174 206 255
174 206 255
174 206 255
174 206 255
174 206 255
174 206 255
173 206 255
173 206 255
173 206 255
156 186 230
82 100 127
52 67 89
69 85 108
52 67 89
70 88 115
70 85 108
85 102 127
67 84 108
66 82 105
73 90 115
71 86 108
76 94 121
65 77 95
57 72 95
65 82 108
72 92 121
59 70 86
52 67 89
73 92 121
76 94 121
61 77 102
63 78 102
71 89 115
60 74 95
69 86 111
65 82 108
77 94 121
73 90 115
66 80 102
68 87 115
65 85 115
72 86 108
70 86 111
76 94 121
66 83 108
73 90 115
65 82 108
66 80 102
76 94 121
74 93 121
64 78 99
67 84 108
73 90 115
71 86 108
59 74 95
63 79 102
76 94 121
75 93 121
66 83 108
75 91 115
66 82 105
61 75 95
74 88 108
75 93 121
63 81 108
65 78 99
64 79 102
73 89 115
59 73 95
85 102 127
77 94 121
60 71 89
61 77 102
68 84 108
66 83 108
64 76 95
57 70 89
72 92 121
68 87 115
76 94 121
73 89 115
66 83 108
65 77 95
62 78 103
66 83 108
57 70 89
81 97 121
65 80 102
75 91 115
68 84 108
68 84 108
69 87 115
63 79 102
63 79 102
71 89 115
72 92 121
67 84 108
62 78 102
68 84 108
77 95 121
71 86 108
63 81 108
56 69 89
67 83 108
63 78 102
59 73 95
59 74 95
68 83 105
71 89 115
60 77 102
60 77 102
77 92 115
59 74 95
65 82 108
67 81 102
71 89 115
133 157 191
173 206 255
173 206 255
173 206 255
174 206 255
174 206 255
174 206 255
174 206 255
174 206 255
174 206 255
174 207 255
174 207 255
174 207 255
174 207 255
174 207 255
174 207 255
174 207 255
174 207 255
174 207 255
174 207 255
175 207 255
175 207 255
175 207 255
175 207 255
175 207 255
175 207 255
175 207 255
175 207 255
175 207 255
175 207 255
175 207 255
175 207 255
175 207 255
175 207 255
175 207 255
175 207 255
176 208 255
176 208 255
176 208 255
176 208 255
176 208 255
176 208 255
176 208 255
176 208 255
176 208 255
176 208 255
176 208 255
176 208 255
176 208 255
176 208 255
176 208 255
177 208 255
177 208 255
177 208 255
177 208 255
177 208 255
177 208 255
177 208 255
177 208 255
177 208 255
177 208 255
177 208 255
177 209 255
177 209 255
177 209 255
177 209 255
177 209 255
177 209 255
178 209 255
178 209 255
178 209 255
178 209 255
178 209 255
178 209 255
178 209 255
178 209 255
178 209 255
178 209 255
178 209 255
178 209 255
178 209 255
178 209 255
178 209 255
178 209 255
178 209 255
179 209 255
179 209 255
179 209 255
179 209 255
179 209 255
179 209 255
179 210 255
179 210 255
179 210 255
179 210 255
179 210 255
179 210 255
179 210 255
179 210 255
179 210 255
179 210 255
179 210 255
179 210 255
179 210 255
179 210 255
180 210 255
180 210 255
180 210 255
180 210 255
180 210 255
180 210 255
180 210 255
180 210 255
180 210 255
180 210 255
180 210 255
180 210 255
180 210 255
180 210 255
180 210 255
180 210 255
180 210 255
180 210 255
180 210 255
180 210 255
180 210 255
180 210 255
181 211 255
181 211 255
181 211 255
181 211 255
181 211 255
181 211 255
181 211 255
181 211 255
181 211 255
181 211 255
181 211 255
181 211 255
181 211 255
181 211 255
181 211 255
181 211 255
181 211 255
181 211 255
181 211 255
181 211 255
182 211 255
182 211 255
181 211 255
181 211 255
181 211 255
181 211 255
181 211 255
181 211 255
181 211 255
181 211 255
181 211 255
181 211 255
181 211 255
181 211 255
181 211 255
181 211 255
181 211 255
181 211 255
181 211 255
181 211 255
181 211 255
181 211 255
181 211 255
181 211 255
181 211 255
181 211 255
181 211 255
180 210 255
180 210 255
180 210 255
180 210 255
180 210 255
180 210 255
180 210 255
180 210 255
180 210 255
180 210 255
180 210 255
180 210 255
180 210 255
180 210 255
180 210 255
180 210 255
180 210 255
180 210 255
180 210 255
180 210 255
180 210 255
179 210 255
179 210 255
179 210 255
179 210 255
179 210 255
179 210 255
179 210 255
179 210 255
179 210 255
179 210 255
179 210 255
179 210 255
179 210 255
179 209 255
179 210 255
179 209 255
179 209 255
179 209 255
179 209 255
179 209 255
178 209 255
178 209 255
178 209 255
178 209 255
178 209 255
178 209 255
178 209 255
178 209 255
178 209 255
178 209 255
178 209 255
178 209 255
178 209 255
178 209 255
178 209 255
178 209 255
178 209 255
177 209 255
177 209 255
177 209 255
177 209 255
177 209 255
177 208 255
177 209 255
177 208 255
177 208 255
177 208 255
177 208 255
177 208 255
177 208 255
177 208 255
177 208 255
177 208 255
177 208 255
176 208 255
176 208 255
176 208 255
176 208 255
176 208 255
176 208 255
176 208 255
176 208 255
176 208 255
176 208 255
176 208 255
176 208 255
176 208 255
176 208 255
176 208 255
175 207 255
175 207 255
175 207 255
175 207 255
175 207 255
175 207 255
175 207 255
175 207 255
175 207 255
175 207 255
175 207 255
175 207 255
175 207 255
175 207 255
175 207 255
175 207 255
174 207 255
174 207 255
174 207 255
174 207 255
174 207 255
174 207 255
174 207 255
174 207 255
174 207 255
174 207 255
174 207 255
174 207 255
164 195 243
67 84 108
68 84 108
73 90 115
71 87 110
67 81 102
56 72 95
71 86 108
71 89 115
52 67 89
63 76 95
79 96 121
65 82 108
52 65 86
68 84 108
72 87 110
65 79 102
72 91 121
62 78 102
71 88 115
64 82 108
66 85 115
66 83 108
57 73 95
65 80 103
82 98 121
68 87 115
72 89 115
50 66 89
69 85 108
57 72 95
69 84 108
65 82 108
68 81 102
70 91 121
60 77 103
58 73 95
73 92 121
57 70 89
77 92 115
63 78 102
64 79 102
62 78 102
60 80 108
69 86 111
56 72 95
76 94 121
70 88 115
61 75 95
78 95 121
61 80 108
61 78 102
58 70 89
66 83 108
59 76 102
61 75 95
67 86 115
63 78 102
54 68 89
52 62 78
68 84 108
69 87 115
73 87 108
69 85 108
58 72 92
57 70 89
65 80 102
58 74 97
65 80 102
58 73 95
56 72 95
67 81 102
59 78 105
69 87 115
59 75 99
63 76 95
63 80 105
68 87 115
62 80 108
72 86 108
75 94 121
69 85 108
57 72 95
67 81 102
67 84 108
63 79 102
63 79 102
67 83 108
63 79 102
67 83 108
65 80 102
78 95 121
67 83 108
53 63 78
62 78 102
52 67 91
72 87 108
78 93 115
71 91 121
68 84 108
76 92 115
66 80 102
68 84 108
81 95 115
56 71 92
70 85 108
62 73 89
59 74 95
87 103 127
174 206 255
174 207 255
174 207 255
174 207 255
174 207 255
174 207 255
174 207 255
174 207 255
174 207 255
174 207 255
174 207 255
174 207 255
174 207 255
175 207 255
175 207 255
175 207 255
175 207 255
175 207 255
175 207 255
175 207 255
175 207 255
175 207 255
175 207 255
175 207 255
175 207 255
175 207 255
175 207 255
175 207 255
176 208 255
176 208 255
176 208 255
176 208 255
176 208 255
176 208 255
176 208 255
176 208 255
176 208 255
176 208 255
176 208 255
176 208 255
176 208 255
176 208 255
176 208 255
176 208 255
177 208 255
177 208 255
177 208 255
177 208 255
177 208 255
177 208 255
177 208 255
177 208 255
177 208 255
177 208 255
177 209 255
177 209 255
177 209 255
177 209 255
177 209 255
177 209 255
177 209 255
178 209 255
178 209 255
178 209 255
178 209 255
178 209 255
178 209 255
178 209 255
178 209 255
178 209 255
178 209 255
178 209 255
178 209 255
178 209 255
178 209 255
178 209 255
178 209 255
178 209 255
179 209 255
179 209 255
179 209 255
179 209 255
179 209 255
179 209 255
179 210 255
179 210 255
179 210 255
179 210 255
179 210 255
179 210 255
179 210 255
179 210 255
179 210 255
179 210 255
179 210 255
179 210 255
179 210 255
180 210 255
180 210 255
180 210 255
180 210 255
180 210 255
180 210 255
180 210 255
180 210 255
180 210 255
180 210 255
180 210 255
180 210 255
180 210 255
180 210 255
180 210 255
180 210 255
180 210 255
180 210 255
180 210 255
180 210 255
180 210 255
180 210 255
181 211 255
181 211 255
181 211 255
181 211 255
181 211 255
181 211 255
181 211 255
181 211 255
181 211 255
181 211 255
181 211 255
181 211 255
181 211 255
181 211 255
181 211 255
181 211 255
181 211 255
181 211 255
181 211 255
181 211 255
181 211 255
181 211 255
181 211 255
181 211 255
181 211 255
182 211 255
182 211 255
182 211 255
182 211 255
182 211 255
182 211 255
182 211 255
182 211 255
182 211 255
182 211 255
182 211 255
182 211 255
181 211 255
181 211 255
181 211 255
181 211 255
181 211 255
181 211 255
181 211 255
181 211 255
181 211 255
181 211 255
181 211 255
181 211 255
181 211 255
181 211 255
181 211 255
181 211 255
181 211 255
181 211 255
181 211 255
181 211 255
181 211 255
181 211 255
181 211 255
181 211 255
180 210 255
180 210 255
180 210 255
180 210 255
180 210 255
180 210 255
180 210 255
180 210 255
180 210 255
180 210 255
180 210 255
180 210 255
180 210 255
180 210 255
180 210 255
180 210 255
180 210 255
180 210 255
180 210 255
180 210 255
180 210 255
179 210 255
179 210 255
179 210 255
179 210 255
179 210 255
179 210 255
179 210 255
179 210 255
179 210 255
179 210 255
179 210 255
179 210 255
179 210 255
179 209 255
179 209 255
179 209 255
179 209 255
179 209 255
179 209 255
178 209 255
178 209 255
178 209 255
178 209 255
178 209 255
178 209 255
178 209 255
178 209 255
178 209 255
178 209 255
178 209 255
178 209 255
178 209 255
178 209 255
178 209 255
178 209 255
178 209 255
178 209 255
177 209 255
177 209 255
177 209 255
177 209 255
177 209 255
177 209 255
177 208 255
177 208 255
177 208 255
177 208 255
177 208 255
177 208 255
177 208 255
177 208 255
177 208 255
176 208 255
177 208 255
176 208 255
176 208 255
176 208 255
176 208 255
176 208 255
176 208 255
176 208 255
176 208 255
176 208 255
176 208 255
176 208 255
176 208 255
176 208 255
176 208 255
176 208 255
175 207 255
175 207 255
175 207 255
175 207 255
175 207 255
175 207 255
175 207 255
175 207 255
175 207 255
175 207 255
175 207 255
175 207 255
175 207 255
175 207 255
175 207 255
175 207 255
174 207 255
174 207 255
174 207 255
174 207 255
174 207 255
97 117 147
67 83 108
68 84 108
51 65 86
57 73 95
75 88 108
62 78 102
72 86 108
73 90 115
66 80 102
71 91 121
74 93 121
58 73 95
72 89 115
75 94 121
68 84 108
69 85 110
81 97 121
61 77 102
71 87 110
64 81 108
66 81 103
56 69 89
66 80 102
66 83 108
67 84 108
63 78 102
70 88 115
66 83 108
57 71 92
69 85 108
78 95 121
69 82 102
58 71 92
71 86 108
69 87 115
73 87 108
59 73 95
56 70 92
64 79 102
63 79 102
50 64 86
72 89 115
56 69 89
62 79 105
79 96 121
70 90 121
71 88 115
65 81 105
60 79 108
60 77 102
59 72 92
54 68 89
69 85 108
70 83 102
61 78 102
71 86 108
60 77 102
72 89 115
70 85 108
63 79 102
65 83 108
59 72 91
59 74 97
57 73 97
58 72 92
65 82 108
72 92 121
60 74 95
61 77 102
62 77 99
64 79 102
61 75 95
71 89 115
73 90 115
55 70 92
81 97 121
67 82 105
67 84 108
68 84 108
71 89 115
71 91 121
72 89 115
71 87 110
60 77 102
65 83 108
62 75 95
71 86 108
67 84 108
65 80 102
63 81 108
69 85 108
75 91 115
50 60 76
62 78 102
66 83 108
65 82 108
73 90 115
66 83 108
74 93 121
75 89 108
71 86 108
60 77 102
73 90 115
67 83 108
60 77 102
52 67 89
67 84 108
71 86 108
106 128 159
174 207 255
174 207 255
174 207 255
175 207 255
175 207 255
175 207 255
175 207 255
175 207 255
175 207 255
175 207 255
175 207 255
175 207 255
175 207 255
175 207 255
175 207 255
175 207 255
175 207 255
175 207 255
175 207 255
175 207 255
175 207 255
176 208 255
176 208 255
176 208 255
176 208 255
176 208 255
176 208 255
176 208 255
176 208 255
176 208 255
176 208 255
176 208 255
176 208 255
176 208 255
176 208 255
176 208 255
176 208 255
177 208 255
177 208 255
177 208 255
177 208 255
177 208 255
177 208 255
177 208 255
177 208 255
177 208 255
177 208 255
177 208 255
177 209 255
177 209 255
177 209 255
177 209 255
177 209 255
178 209 255
178 209 255
178 209 255
178 209 255
178 209 255
178 209 255
178 209 255
178 209 255
178 209 255
178 209 255
178 209 255
178 209 255
178 209 255
178 209 255
178 209 255
178 209 255
178 209 255
179 209 255
179 209 255
179 209 255
179 209 255
179 209 255
179 209 255
179 209 255
179 210 255
179 210 255
179 210 255
179 210 255
179 210 255
179 210 255
179 210 255
179 210 255
179 210 255
179 210 255
179 210 255
179 210 255
179 210 255
180 210 255
180 210 255
180 210 255
180 210 255
180 210 255
180 210 255
180 210 255
180 210 255
180 210 255
180 210 255
180 210 255
180 210 255
180 210 255
180 210 255
180 210 255
180 210 255
180 210 255
180 210 255
180 210 255
180 210 255
180 210 255
180 210 255
181 211 255
181 211 255
181 211 255
181 211 255
181 211 255
181 211 255
181 211 255
181 211 255
181 211 255
181 211 255
181 211 255
181 211 255
181 211 255
181 211 255
181 211 255
181 211 255
181 211 255
181 211 255
181 211 255
181 211 255
181 211 255
181 211 255
181 211 255
182 211 255
182 211 255
182 211 255
182 211 255
182 211 255
182 211 255
182 211 255
182 211 255
182 211 255
182 211 255
182 211 255
182 211 255
182 211 255
182 211 255
182 211 255
182 211 255
182 211 255
182 211 255
182 211 255
182 211 255
182 211 255
182 211 255
182 211 255
182 211 255
182 211 255
182 211 255
181 211 255
181 211 255
181 211 255
181 211 255
181 211 255
181 211 255
181 211 255
181 211 255
181 211 255
181 211 255
181 211 255
181 211 255
181 211 255
181 211 255
181 211 255
181 211 255
181 211 255
181 211 255
181 211 255
181 211 255
181 211 255
181 211 255
181 211 255
181 211 255
181 211 255
181 211 255
180 210 255
180 210 255
180 210 255
180 210 255
180 210 255
180 210 255
180 210 255
180 210 255
180 210 255
180 210 255
180 210 255
180 210 255
180 210 255
180 210 255
180 210 255
180 210 255
180 210 255
180 210 255
180 210 255
180 210 255
179 210 255
179 210 255
179 210 255
179 210 255
179 210 255
179 210 255
179 210 255
179 210 255
179 210 255
179 210 255
179 210 255
179 210 255
179 210 255
179 209 255
179 209 255
179 209 255
179 209 255
179 209 255
179 209 255
178 209 255
178 209 255
178 209 255
178 209 255
178 209 255
178 209 255
178 209 255
178 209 255
178 209 255
178 209 255
178 209 255
178 209 255
178 209 255
178 209 255
178 209 255
178 209 255
178 209 255
177 209 255
177 209 255
177 209 255
177 209 255
177 209 255
177 209 255
177 209 255
177 208 255
177 208 255
177 208 255
177 208 255
177 208 255
177 208 255
177 208 255
177 208 255
177 208 255
177 208 255
177 208 255
176 208 255
176 208 255
176 208 255
176 208 255
176 208 255
176 208 255
176 208 255
176 208 255
176 208 255
176 208 255
176 208 255
176 208 255
176 208 255
176 208 255
176 208 255
175 207 255
175 207 255
175 207 255
175 207 255
175 207 255
175 207 255
175 207 255
175 207 255
175 207 255
175 207 255
175 207 255
175 207 255
175 207 255
175 207 255
51 64 83
77 94 121
59 74 95
72 89 115
61 78 102
61 75 95
58 68 83
70 88 115
69 85 108
69 85 108
71 91 121
65 82 108
71 86 108
72 86 108
59 74 95
77 95 121
72 89 115
65 77 95
71 86 108
67 83 108
64 81 108
64 82 108
76 94 121
67 83 108
68 84 108
60 72 89
55 69 89
71 86 108
64 82 108
66 80 102
77 92 115
74 93 121
64 82 108
61 76 99
60 77 102
57 72 96
76 91 115
57 72 95
55 69 89
55 69 89
77 92 115
69 84 105
62 78 102
66 83 108
70 85 108
69 85 108
55 71 95
48 60 78
62 78 102
69 85 108
62 78 102
59 74 95
71 88 115
49 63 83
70 85 108
60 74 95
65 82 108
70 88 115
74 93 121
64 76 95
66 81 102
66 81 102
70 86 110
68 84 108
67 83 108
68 84 108
72 89 115
71 85 105
83 101 127
69 85 108
55 70 92
68 87 115
62 79 103
49 63 83
70 88 115
63 79 102
62 78 102
71 89 115
81 97 121
58 73 95
77 92 115
58 76 102
56 69 89
53 65 83
65 78 97
73 90 115
56 69 89
68 84 108
67 81 102
53 67 89
64 80 103
71 86 108
76 94 121
58 75 102
60 74 95
56 69 89
72 89 115
52 67 89
71 86 108
73 90 115
53 65 83
80 95 118
52 64 83
70 88 115
67 82 103
67 84 108
66 81 103
77 97 127
76 94 121
57 71 92
113 135 167
175 207 255
175 207 255
175 207 255
175 207 255
175 207 255
175 207 255
175 207 255
175 207 255
175 207 255
175 207 255
175 207 255
175 207 255
176 208 255
176 208 255
176 208 255
176 208 255
176 208 255
176 208 255
176 208 255
176 208 255
176 208 255
176 208 255
176 208 255
176 208 255
176 208 255
176 208 255
176 208 255
176 208 255
176 208 255
177 208 255
177 208 255
177 208 255
177 208 255
177 208 255
177 208 255
177 208 255
177 208 255
177 208 255
177 208 255
177 209 255
177 209 255
177 209 255
177 209 255
177 209 255
177 209 255
177 209 255
178 209 255
178 209 255
178 209 255
178 209 255
178 209 255
178 209 255
178 209 255
178 209 255
178 209 255
178 209 255
178 209 255
178 209 255
178 209 255
178 209 255
178 209 255
178 209 255
178 209 255
178 209 255
179 209 255
179 209 255
179 209 255
179 209 255
179 210 255
179 210 255
179 210 255
179 210 255
179 210 255
179 210 255
179 210 255
179 210 255
179 210 255
179 210 255
179 210 255
179 210 255
179 210 255
179 210 255
180 210 255
180 210 255
180 210 255
180 210 255
180 210 255
180 210 255
180 210 255
180 210 255
180 210 255
180 210 255
180 210 255
180 210 255
180 210 255
180 210 255
180 210 255
180 210 255
180 210 255
180 210 255
180 210 255
180 210 255
180 210 255
181 211 255
181 211 255
181 211 255
181 211 255
181 211 255
181 211 255
181 211 255
181 211 255
181 211 255
181 211 255
181 211 255
181 211 255
181 211 255
181 211 255
181 211 255
181 211 255
181 211 255
181 211 255
181 211 255
181 211 255
181 211 255
181 211 255
181 211 255
181 211 255
181 211 255
182 211 255
182 211 255
182 211 255
182 211 255
182 211 255
182 211 255
182 211 255
182 211 255
182 211 255
182 211 255
182 211 255
182 211 255
182 211 255
182 211 255
182 211 255
182 211 255
182 212 255
182 212 255
182 212 255
182 212 255
182 212 255
182 212 255
182 212 255
182 211 255
182 211 255
182 211 255
182 211 255
182 211 255
182 211 255
182 211 255
182 211 255
182 211 255
182 211 255
182 211 255
182 211 255
182 211 255
182 211 255
182 211 255
182 211 255
182 211 255
182 211 255
181 211 255
181 211 255
181 211 255
181 211 255
181 211 255
181 211 255
181 211 255
181 211 255
181 211 255
181 211 255
181 211 255
181 211 255
181 211 255
181 211 255
181 211 255
181 211 255
181 211 255
181 211 255
181 211 255
181 211 255
181 211 255
181 211 255
180 210 255
180 210 255
180 210 255
180 210 255
180 210 255
180 210 255
180 210 255
180 210 255
180 210 255
180 210 255
180 210 255
180 210 255
180 210 255
180 210 255
180 210 255
180 210 255
180 210 255
180 210 255
180 210 255
180 210 255
180 210 255
179 210 255
179 210 255
179 210 255
179 210 255
179 210 255
179 210 255
179 210 255
179 210 255
179 210 255
179 210 255
179 210 255
179 210 255
179 210 255
179 209 255
179 209 255
179 209 255
179 209 255
179 209 255
179 209 255
179 209 255
178 209 255
178 209 255
178 209 255
178 209 255
178 209 255
178 209 255
178 209 255
178 209 255
178 209 255
178 209 255
178 209 255
178 209 255
178 209 255
178 209 255
178 209 255
178 209 255
178 209 255
177 209 255
177 209 255
177 209 255
177 209 255
177 208 255
177 209 255
177 208 255
177 208 255
177 208 255
177 208 255
177 208 255
177 208 255
177 208 255
177 208 255
177 208 255
177 208 255
177 208 255
176 208 255
176 208 255
176 208 255
176 208 255
176 208 255
176 208 255
176 208 255
176 208 255
176 208 255
176 208 255
176 208 255
176 208 255
176 208 255
176 208 255
176 208 255
176 208 255
176 207 255
176 208 255
175 207 255
175 207 255
175 207 255
175 207 255
51 64 83
64 85 115
66 83 108
75 91 115
64 82 108
76 94 121
71 86 108
75 91 115
57 72 95
59 76 102
65 80 102
55 71 95
58 73 95
70 88 115
68 84 108
59 74 95
63 79 103
69 85 108
83 101 127
58 73 95
71 89 115
63 78 102
63 78 102
57 72 95
64 80 103
73 87 108
64 77 97
71 83 102
76 91 115
75 91 115
58 73 95
75 94 121
59 76 102
71 88 115
60 75 97
68 84 108
53 70 95
63 78 102
70 88 115
75 89 111
65 79 99
66 80 102
71 86 108
66 83 108
61 73 92
61 75 95
70 85 108
68 87 115
67 81 102
63 81 108
65 82 108
69 85 108
52 65 84
74 90 115
68 84 108
66 80 102
67 86 115
71 89 115
64 78 99
76 94 121
59 74 95
67 85 111
67 83 108
78 95 121
66 83 108
63 79 102
64 77 97
59 76 102
75 91 115
48 62 83
63 81 108
67 83 108
79 96 121
56 72 95
57 71 92
69 82 102
62 78 102
63 79 102
82 97 121
70 85 108
72 86 108
73 92 121
66 80 102
67 83 108
56 72 95
59 76 102
71 86 108
68 82 102
63 76 95
57 71 92
48 60 78
61 75 95
67 82 105
63 79 102
73 87 108
78 92 115
65 80 102
60 74 95
61 77 102
66 80 102
66 83 108
72 84 102
70 84 105
75 93 121
71 84 103
74 90 115
65 78 97
68 84 108
70 88 115
66 83 108
58 73 95
87 106 134
175 207 255
175 207 255
175 207 255
175 207 255
175 207 255
176 208 255
176 208 255
176 208 255
176 208 255
176 208 255
176 208 255
176 208 255
176 208 255
176 208 255
176 208 255
176 208 255
176 208 255
176 208 255
176 208 255
176 208 255
176 208 255
176 208 255
176 208 255
177 208 255
177 208 255
177 208 255
177 208 255
177 208 255
177 208 255
177 208 255
177 208 255
177 208 255
177 208 255
177 209 255
177 209 255
177 209 255
177 209 255
177 209 255
178 209 255
177 209 255
178 209 255
178 209 255
178 209 255
178 209 255
178 209 255
178 209 255
178 209 255
178 209 255
178 209 255
178 209 255
178 209 255
178 209 255
178 209 255
178 209 255
178 209 255
178 209 255
178 209 255
179 209 255
179 209 255
179 209 255
179 209 255
179 209 255
179 209 255
179 210 255
179 210 255
179 210 255
179 210 255
179 210 255
179 210 255
179 210 255
179 210 255
179 210 255
179 210 255
179 210 255
179 210 255
179 210 255
180 210 255
180 210 255
180 210 255
180 210 255
180 210 255
180 210 255
180 210 255
180 210 255
180 210 255
180 210 255
180 210 255
180 210 255
180 210 255
180 210 255
180 210 255
180 210 255
180 210 255
180 210 255
180 210 255
180 210 255
181 211 255
181 211 255
181 211 255
181 211 255
181 211 255
181 211 255
181 211 255
181 211 255
181 211 255
181 211 255
181 211 255
181 211 255
181 211 255
181 211 255
181 211 255
181 211 255
181 211 255
181 211 255
181 211 255
181 211 255
181 211 255
181 211 255
181 211 255
181 211 255
182 211 255
182 211 255
182 211 255
182 211 255
182 211 255
182 211 255
182 211 255
182 211 255
182 211 255
182 211 255
182 211 255
182 211 255
182 211 255
182 211 255
182 211 255
182 211 255
182 211 255
182 211 255
182 212 255
182 212 255
182 212 255
182 212 255
182 212 255
182 212 255
183 212 255
183 212 255
183 212 255
183 212 255
182 212 255
182 212 255
182 212 255
182 212 255
182 212 255
182 212 255
182 212 255
182 212 255
182 212 255
182 212 255
182 212 255
182 211 255
182 211 255
182 211 255
182 211 255
182 211 255
182 211 255
182 211 255
182 211 255
182 211 255
182 211 255
182 211 255
182 211 255
182 211 255
182 211 255
182 211 255
182 211 255
182 211 255
181 211 255
181 211 255
181 211 255
181 211 255
181 211 255
181 211 255
181 211 255
181 211 255
181 211 255
181 211 255
181 211 255
181 211 255
181 211 255
181 211 255
181 211 255
181 211 255
181 211 255
181 211 255
181 211 255
181 211 255
181 211 255
181 211 255
180 210 255
180 210 255
180 210 255
180 210 255
180 210 255
180 210 255
180 210 255
180 210 255
180 210 255
180 210 255
180 210 255
180 210 255
180 210 255
180 210 255
180 210 255
180 210 255
180 210 255
180 210 255
180 210 255
180 210 255
180 210 255
179 210 255
179 210 255
179 210 255
179 210 255
179 210 255
179 210 255
179 210 255
179 210 255
179 210 255
179 210 255
179 210 255
179 210 255
179 210 255
179 210 255
179 209 255
179 209 255
179 209 255
179 209 255
179 209 255
178 209 255
179 209 255
178 209 255
178 209 255
178 209 255
178 209 255
178 209 255
178 209 255
178 209 255
178 209 255
178 209 255
178 209 255
178 209 255
178 209 255
178 209 255
178 209 255
178 209 255
178 209 255
177 209 255
177 209 255
177 209 255
177 209 255
177 209 255
177 209 255
177 208 255
177 208 255
177 208 255
177 208 255
177 208 255
177 208 255
177 208 255
177 208 255
177 208 255
177 208 255
176 208 255
177 208 255
176 208 255
176 208 255
176 208 255
176 208 255
176 208 255
176 208 255
176 208 255
176 208 255
176 208 255
176 208 255
176 208 255
176 208 255
176 208 255
103 123 153
82 100 127
64 82 108
69 85 108
72 92 121
54 69 92
75 93 121
71 89 115
70 84 105
68 87 115
56 72 95
70 88 115
69 82 102
70 88 115
70 86 108
65 82 108
65 80 102
62 76 95
64 79 102
80 97 121
63 78 102
75 91 115
77 95 121
67 79 97
69 87 115
69 83 105
61 75 95
63 76 95
65 81 105
61 78 102
70 88 115
61 75 95
64 82 108
51 65 86
64 82 108
63 78 102
61 75 95
60 71 88
65 78 99
72 87 108
62 77 99
64 79 102
71 86 108
62 78 102
64 82 108
79 96 121
62 76 96
57 72 96
74 90 115
86 100 121
67 81 102
73 88 111
67 84 108
70 88 115
57 70 89
68 84 108
69 87 115
74 90 115
81 97 121
52 67 89
53 67 89
66 83 108
54 71 95
48 59 76
62 79 103
65 80 102
69 87 115
52 67 89
72 89 115
71 86 108
54 68 89
80 99 127
66 79 99
58 73 95
67 81 102
72 89 115
64 79 102
70 86 108
67 83 108
62 78 102
61 75 95
67 84 108
61 73 92
62 76 95
57 73 97
71 86 108
72 89 115
60 73 92
69 87 115
58 71 89
70 88 115
65 79 99
75 91 115
68 84 108
73 90 115
65 80 103
66 83 108
62 78 102
66 86 115
78 95 121
76 94 121
70 88 115
63 76 97
71 84 102
71 88 115
58 70 89
56 70 92
82 95 115
73 89 115
68 82 104
79 96 121
66 86 115
83 98 121
121 146 185
176 208 255
176 208 255
176 208 255
176 208 255
176 208 255
176 208 255
176 208 255
176 208 255
176 208 255
176 208 255
176 208 255
176 208 255
176 208 255
177 208 255
177 208 255
177 208 255
177 208 255
177 208 255
177 208 255
177 208 255
177 208 255
177 208 255
177 208 255
177 208 255
177 209 255
177 209 255
177 209 255
177 209 255
177 209 255
177 209 255
177 209 255
178 209 255
178 209 255
178 209 255
178 209 255
178 209 255
178 209 255
178 209 255
178 209 255
178 209 255
178 209 255
178 209 255
178 209 255
178 209 255
178 209 255
178 209 255
178 209 255
178 209 255
179 209 255
179 209 255
179 209 255
179 209 255
179 209 255
179 209 255
179 209 255
179 210 255
179 210 255
179 210 255
179 210 255
179 210 255
179 210 255
179 210 255
179 210 255
179 210 255
179 210 255
179 210 255
179 210 255
180 210 255
180 210 255
180 210 255
180 210 255
180 210 255
180 210 255
180 210 255
180 210 255
180 210 255
180 210 255
180 210 255
180 210 255
180 210 255
180 210 255
180 210 255
180 210 255
180 210 255
180 210 255
180 210 255
180 210 255
180 210 255
181 211 255
181 211 255
181 211 255
181 211 255
181 211 255
181 211 255
181 211 255
181 211 255
181 211 255
181 211 255
181 211 255
181 211 255
181 211 255
181 211 255
181 211 255
181 211 255
181 211 255
181 211 255
181 211 255
181 211 255
181 211 255
181 211 255
181 211 255
182 211 255
182 211 255
182 211 255
182 211 255
182 211 255
182 211 255
182 211 255
182 211 255
182 211 255
182 211 255
182 211 255
182 211 255
182 211 255
182 211 255
182 211 255
182 211 255
182 211 255
182 212 255
182 212 255
182 212 255
182 212 255
182 212 255
182 212 255
182 212 255
182 212 255
182 212 255
182 212 255
183 212 255
183 212 255
183 212 255
183 212 255
183 212 255
183 212 255
183 212 255
183 212 255
183 212 255
183 212 255
183 212 255
183 212 255
183 212 255
183 212 255
183 212 255
183 212 255
183 212 255
183 212 255
182 212 255
182 212 255
182 212 255
182 212 255
182 212 255
182 212 255
182 212 255
182 212 255
182 212 255
182 211 255
182 211 255
182 211 255
182 211 255
182 211 255
182 211 255
182 211 255
182 211 255
182 211 255
182 211 255
182 211 255
182 211 255
182 211 255
182 211 255
182 211 255
182 211 255
182 211 255
182 211 255
182 211 255
181 211 255
181 211 255
181 211 255
181 211 255
181 211 255
181 211 255
181 211 255
181 211 255
181 211 255
181 211 255
181 211 255
181 211 255
181 211 255
181 211 255
181 211 255
181 211 255
181 211 255
181 211 255
181 211 255
181 211 255
181 211 255
180 210 255
180 210 255
180 210 255
180 210 255
180 210 255
180 210 255
180 210 255
180 210 255
180 210 255
180 210 255
180 210 255
180 210 255
180 210 255
180 210 255
180 210 255
180 210 255
180 210 255
180 210 255
180 210 255
180 210 255
180 210 255
179 210 255
179 210 255
179 210 255
179 210 255
179 210 255
179 210 255
179 210 255
179 210 255
179 210 255
179 210 255
179 210 255
179 210 255
179 209 255
179 209 255
179 209 255
179 209 255
179 209 255
179 209 255
179 209 255
178 209 255
178 209 255
178 209 255
178 209 255
178 209 255
178 209 255
178 209 255
178 209 255
178 209 255
178 209 255
178 209 255
178 209 255
178 209 255
178 209 255
178 209 255
178 209 255
178 209 255
177 209 255
177 209 255
177 209 255
177 209 255
177 209 255
177 209 255
177 208 255
177 208 255
177 208 255
177 208 255
177 208 255
177 208 255
177 208 255
177 208 255
177 208 255
177 208 255
177 208 255
177 208 255
177 208 255
176 208 255
176 208 255
176 208 255
176 208 255
176 208 255
68 82 103
75 93 121
54 68 89
64 79 102
65 82 108
46 58 76
66 83 108
60 73 92
64 79 102
66 80 102
55 68 89
69 85 108
69 85 108
65 82 108
61 75 95
71 89 115
69 87 115
56 72 95
75 91 115
72 87 108
68 84 108
63 77 99
77 95 121
77 95 121
50 64 84
59 73 95
54 67 86
64 80 103
53 67 89
63 78 102
64 82 108
60 74 95
64 80 105
71 88 115
70 84 105
55 69 89
62 81 108
71 88 115
64 82 108
67 81 102
66 80 102
69 82 102
64 77 95
65 80 102
67 86 115
66 80 102
76 92 115
56 72 95
59 73 95
65 80 102
70 85 108
69 85 108
69 87 115
71 86 108
73 89 115
62 78 102
61 78 102
64 79 102
63 77 99
69 85 108
70 85 108
53 67 89
62 76 99
67 84 108
63 79 102
65 80 102
71 86 108
60 77 102
70 85 108
69 84 108
71 86 108
62 76 95
72 91 121
66 83 108
66 83 108
61 75 95
77 95 121
75 91 115
56 73 99
58 71 91
63 81 108
72 89 115
71 89 115
64 79 102
75 89 111
59 77 103
65 80 102
74 93 121
79 93 115
67 84 108
68 84 108
70 85 108
73 90 115
59 74 95
75 88 108
51 63 83
72 87 108
55 71 95
67 81 102
59 77 103
62 78 102
66 80 102
65 83 108
67 86 115
65 83 108
60 77 103
56 72 95
66 83 108
75 91 115
71 86 108
76 92 115
67 81 102
54 71 95
69 85 108
155 182 223
176 208 255
176 208 255
176 208 255
176 208 255
177 208 255
177 208 255
177 208 255
177 208 255
177 208 255
177 208 255
177 208 255
177 208 255
177 208 255
177 208 255
177 208 255
177 208 255
177 208 255
177 209 255
177 209 255
177 209 255
177 209 255
177 209 255
177 209 255
178 209 255
178 209 255
178 209 255
178 209 255
178 209 255
178 209 255
178 209 255
178 209 255
178 209 255
178 209 255
178 209 255
178 209 255
178 209 255
178 209 255
178 209 255
178 209 255
178 209 255
178 209 255
179 209 255
179 209 255
179 209 255
179 209 255
179 209 255
179 210 255
179 210 255
179 210 255
179 210 255
179 210 255
179 210 255
179 210 255
179 210 255
179 210 255
179 210 255
179 210 255
179 210 255
179 210 255
179 210 255
180 210 255
180 210 255
180 210 255
180 210 255
180 210 255
180 210 255
180 210 255
180 210 255
180 210 255
180 210 255
180 210 255
180 210 255
180 210 255
180 210 255
180 210 255
180 210 255
180 210 255
180 210 255
180 210 255
180 210 255
181 211 255
181 211 255
181 211 255
181 211 255
181 211 255
181 211 255
181 211 255
181 211 255
181 211 255
181 211 255
181 211 255
181 211 255
181 211 255
181 211 255
181 211 255
181 211 255
181 211 255
181 211 255
181 211 255
181 211 255
181 211 255
181 211 255
181 211 255
182 211 255
182 211 255
182 211 255
182 211 255
182 211 255
182 211 255
182 211 255
182 211 255
182 211 255
182 211 255
182 211 255
182 211 255
182 211 255
182 211 255
182 211 255
182 211 255
182 211 255
182 211 255
182 212 255
182 212 255
182 212 255
182 212 255
182 212 255
182 212 255
182 212 255
183 212 255
183 212 255
183 212 255
183 212 255
183 212 255
183 212 255
183 212 255
183 212 255
183 212 255
183 212 255
183 212 255
183 212 255
183 212 255
183 212 255
183 212 255
183 212 255
183 212 255
183 212 255
183 212 255
183 212 255
183 212 255
183 212 255
183 212 255
183 212 255
183 212 255
183 212 255
183 212 255
183 212 255
183 212 255
183 212 255
183 212 255
183 212 255
183 212 255
183 212 255
183 212 255
182 212 255
182 212 255
182 212 255
182 212 255
182 212 255
182 212 255
182 212 255
182 212 255
182 212 255
182 211 255
182 212 255
182 211 255
182 211 255
182 211 255
182 211 255
182 211 255
182 211 255
182 211 255
182 211 255
182 211 255
182 211 255
182 211 255
182 211 255
182 211 255
182 211 255
182 211 255
181 211 255
181 211 255
181 211 255
181 211 255
181 211 255
181 211 255
181 211 255
181 211 255
181 211 255
181 211 255
181 211 255
181 211 255
181 211 255
181 211 255
181 211 255
181 211 255
181 211 255
181 211 255
181 211 255
181 211 255
181 211 255
181 211 255
181 211 255
180 210 255
180 210 255
180 210 255
180 210 255
180 210 255
180 210 255
180 210 255
180 210 255
180 210 255
180 210 255
180 210 255
180 210 255
180 210 255
180 210 255
180 210 255
180 210 255
180 210 255
180 210 255
180 210 255
180 210 255
179 210 255
179 210 255
179 210 255
179 210 255
179 210 255
179 210 255
179 210 255
179 210 255
179 210 255
179 210 255
179 210 255
179 210 255
179 210 255
179 210 255
179 209 255
179 209 255
179 209 255
179 209 255
179 209 255
178 209 255
178 209 255
178 209 255
178 209 255
178 209 255
178 209 255
178 209 255
178 209 255
178 209 255
178 209 255
178 209 255
178 209 255
178 209 255
178 209 255
178 209 255
178 209 255
178 209 255
178 209 255
177 209 255
178 209 255
177 209 255
177 209 255
177 209 255
177 209 255
177 208 255
177 208 255
177 208 255
177 208 255
177 208 255
177 208 255
177 208 255
177 208 255
177 208 255
117 142 179
58 74 97
61 77 102
52 67 89
70 91 121
64 79 102
65 80 102
66 80 102
64 79 102
57 73 95
65 85 115
61 80 108
69 85 108
60 79 108
62 78 102
74 90 115
63 82 111
70 91 121
50 63 83
62 81 108
69 84 108
49 62 83
85 102 127
62 76 97
75 91 115
69 85 108
57 72 95
62 75 95
60 76 99
65 80 102
58 70 89
65 85 115
58 73 95
55 69 89
65 82 108
61 78 102
63 78 102
66 82 105
76 94 121
71 89 115
70 85 108
45 58 78
65 80 102
61 78 103
56 69 89
60 77 102
65 80 102
75 91 115
79 96 121
57 71 92
62 75 95
65 82 108
78 93 115
54 67 86
61 77 102
72 92 121
70 85 108
69 88 115
60 74 95
64 79 102
80 96 121
72 89 115
64 82 108
63 81 108
64 79 102
57 70 89
53 66 84
68 84 108
74 90 115
76 92 116
67 86 115
60 77 102
78 95 121
71 86 108
53 65 83
59 76 102
52 67 89
69 85 108
46 57 73
65 83 108
67 84 108
61 75 95
60 74 95
57 72 95
72 86 108
65 80 102
57 70 89
56 69 89
58 73 95
47 58 75
60 77 102
67 81 102
67 81 102
80 97 121
56 68 86
61 77 102
61 78 102
74 90 115
62 76 95
72 89 115
66 83 108
77 94 121
68 81 102
68 87 115
61 75 95
62 78 102
79 96 121
61 77 102
67 81 102
73 90 115
70 88 115
69 85 108
62 78 103
66 86 115
58 73 95
103 126 159
177 208 255
177 208 255
177 208 255
177 208 255
177 208 255
177 208 255
177 208 255
177 208 255
177 209 255
177 209 255
177 209 255
177 209 255
177 209 255
177 209 255
177 209 255
177 209 255
178 209 255
178 209 255
178 209 255
178 209 255
178 209 255
178 209 255
178 209 255
178 209 255
178 209 255
178 209 255
178 209 255
178 209 255
178 209 255
178 209 255
178 209 255
178 209 255
179 209 255
179 209 255
179 209 255
179 209 255
179 209 255
179 209 255
179 210 255
179 210 255
179 210 255
179 210 255
179 210 255
179 210 255
179 210 255
179 210 255
179 210 255
179 210 255
179 210 255
179 210 255
179 210 255
180 210 255
180 210 255
180 210 255
180 210 255
180 210 255
180 210 255
180 210 255
180 210 255
180 210 255
180 210 255
180 210 255
180 210 255
180 210 255
180 210 255
180 210 255
180 210 255
180 210 255
180 210 255
180 210 255
180 210 255
180 210 255
181 211 255
181 211 255
181 211 255
181 211 255
181 211 255
181 211 255
181 211 255
181 211 255
181 211 255
181 211 255
181 211 255
181 211 255
181 211 255
181 211 255
181 211 255
181 211 255
181 211 255
181 211 255
181 211 255
181 211 255
181 211 255
181 211 255
181 211 255
181 211 255
182 211 255
182 211 255
182 211 255
182 211 255
182 211 255
182 211 255
182 211 255
182 211 255
182 211 255
182 211 255
182 211 255
182 211 255
182 211 255
182 211 255
182 211 255
182 212 255
182 212 255
182 212 255
182 212 255
182 212 255
182 212 255
182 212 255
182 212 255
183 212 255
182 212 255
183 212 255
183 212 255
183 212 255
183 212 255
183 212 255
183 212 255
183 212 255
183 212 255
183 212 255
183 212 255
183 212 255
183 212 255
183 212 255
183 212 255
183 212 255
183 212 255
183 212 255
183 212 255
183 212 255
183 212 255
183 212 255
183 212 255
183 212 255
183 212 255
183 212 255
183 212 255
183 212 255
183 212 255
183 212 255
183 212 255
183 212 255
183 212 255
183 212 255
183 212 255
183 212 255
183 212 255
183 212 255
183 212 255
183 212 255
183 212 255
183 212 255
183 212 255
183 212 255
183 212 255
183 212 255
183 212 255
183 212 255
183 212 255
183 212 255
183 212 255
182 212 255
182 212 255
182 212 255
182 212 255
182 212 255
182 212 255
182 212 255
182 212 255
182 212 255
182 211 255
182 211 255
182 211 255
182 211 255
182 211 255
182 211 255
182 211 255
182 211 255
182 211 255
182 211 255
182 211 255
182 211 255
182 211 255
182 211 255
182 211 255
182 211 255
181 211 255
182 211 255
181 211 255
181 211 255
181 211 255
181 211 255
181 211 255
181 211 255
181 211 255
181 211 255
181 211 255
181 211 255
181 211 255
181 211 255
181 211 255
181 211 255
181 211 255
181 211 255
181 211 255
181 211 255
181 211 255
181 211 255
181 211 255
181 211 255
180 210 255
180 210 255
180 210 255
180 210 255
180 210 255
180 210 255
180 210 255
180 210 255
180 210 255
180 210 255
180 210 255
180 210 255
180 210 255
180 210 255
180 210 255
180 210 255
180 210 255
180 210 255
180 210 255
179 210 255
179 210 255
179 210 255
179 210 255
179 210 255
179 210 255
179 210 255
179 210 255
179 210 255
179 210 255
179 210 255
179 210 255
179 210 255
179 210 255
179 209 255
179 209 255
179 209 255
179 209 255
179 209 255
179 209 255
178 209 255
178 209 255
178 209 255
178 209 255
178 209 255
178 209 255
178 209 255
178 209 255
178 209 255
178 209 255
178 209 255
178 209 255
178 209 255
178 209 255
178 209 255
178 209 255
178 209 255
178 209 255
178 209 255
178 209 255
177 209 255
177 209 255
177 209 255
177 209 255
177 209 255
73 88 111
65 80 102
78 95 121
70 85 108
61 76 97
63 76 96
69 85 108
76 94 121
61 75 95
63 78 102
63 78 102
71 88 115
69 85 108
67 84 108
66 81 102
59 71 89
51 65 86
66 81 103
66 83 108
73 89 115
73 90 115
73 95 127
52 65 84
54 68 89
66 80 102
72 86 108
59 76 102
59 74 97
66 83 108
64 79 102
65 82 108
67 81 102
68 82 102
67 81 102
68 84 108
67 84 108
72 86 108
65 83 108
69 87 115
66 81 103
67 83 108
70 85 108
61 75 95
56 69 89
69 85 108
71 89 115
68 84 108
68 89 121
66 86 115
61 77 102
61 75 95
60 73 92
58 71 89
73 90 115
71 88 115
69 87 115
58 73 95
57 70 89
63 79 102
55 71 95
68 84 108
68 87 115
78 95 121
80 94 115
63 79 102
62 78 102
66 80 102
63 79 102
65 77 95
69 85 108
58 76 102
57 73 97
59 73 95
73 95 127
67 82 105
66 80 102
78 95 121
71 88 115
65 80 102
55 70 91
58 74 99
71 86 108
55 69 89
58 71 91
64 80 103
74 93 121
69 84 108
72 86 108
61 75 95
59 73 95
72 89 115
54 68 89
67 86 115
68 88 116
54 68 89
70 86 111
65 82 108
64 79 102
76 94 121
75 91 115
70 85 108
73 89 115
61 73 92
68 84 108
65 82 108
67 81 102
66 83 108
69 87 115
73 90 115
60 77 102
58 72 92
61 73 92
69 85 108
55 67 86
73 90 115
65 82 108
166 197 243
177 209 255
177 209 255
177 209 255
177 209 255
177 209 255
178 209 255
178 209 255
178 209 255
178 209 255
178 209 255
178 209 255
178 209 255
178 209 255
178 209 255
178 209 255
178 209 255
178 209 255
178 209 255
178 209 255
178 209 255
178 209 255
178 209 255
178 209 255
178 209 255
179 209 255
179 209 255
179 209 255
179 209 255
179 209 255
179 209 255
179 210 255
179 210 255
179 210 255
179 210 255
179 210 255
179 210 255
179 210 255
179 210 255
179 210 255
179 210 255
179 210 255
179 210 255
179 210 255
180 210 255
180 210 255
180 210 255
180 210 255
180 210 255
180 210 255
180 210 255
180 210 255
180 210 255
180 210 255
180 210 255
180 210 255
180 210 255
180 210 255
180 210 255
180 210 255
180 210 255
180 210 255
180 210 255
180 210 255
181 211 255
181 211 255
181 211 255
181 211 255
181 211 255
181 211 255
181 211 255
181 211 255
181 211 255
181 211 255
181 211 255
181 211 255
181 211 255
181 211 255
181 211 255
181 211 255
181 211 255
181 211 255
181 211 255
181 211 255
181 211 255
181 211 255
181 211 255
182 211 255
182 211 255
182 211 255
182 211 255
182 211 255
182 211 255
182 211 255
182 211 255
182 211 255
182 211 255
182 211 255
182 211 255
182 211 255
182 211 255
182 211 255
182 211 255
182 211 255
182 212 255
182 212 255
182 212 255
182 212 255
182 212 255
182 212 255
182 212 255
182 212 255
183 212 255
183 212 255
183 212 255
183 212 255
183 212 255
183 212 255
183 212 255
183 212 255
183 212 255
183 212 255
183 212 255
183 212 255
183 212 255
183 212 255
183 212 255
183 212 255
183 212 255
183 212 255
183 212 255
183 212 255
183 212 255
183 212 255
183 212 255
183 212 255
183 212 255
183 212 255
183 212 255
183 212 255
183 212 255
183 212 255
184 212 255
184 212 255
184 212 255
184 212 255
184 212 255
184 212 255
184 212 255
184 212 255
184 212 255
184 212 255
183 212 255
183 212 255
183 212 255
183 212 255
183 212 255
183 212 255
183 212 255
183 212 255
183 212 255
183 212 255
183 212 255
183 212 255
183 212 255
183 212 255
183 212 255
183 212 255
183 212 255
183 212 255
183 212 255
183 212 255
183 212 255
183 212 255
183 212 255
183 212 255
183 212 255
183 212 255
183 212 255
183 212 255
182 212 255
182 212 255
182 212 255
182 212 255
182 212 255
182 212 255
182 212 255
182 212 255
182 212 255
182 211 255
182 211 255
182 211 255
182 211 255
182 211 255
182 211 255
182 211 255
182 211 255
182 211 255
182 211 255
182 211 255
182 211 255
182 211 255
182 211 255
182 211 255
182 211 255
181 211 255
182 211 255
181 211 255
181 211 255
181 211 255
181 211 255
181 211 255
181 211 255
181 211 255
181 211 255
181 211 255
181 211 255
181 211 255
181 211 255
181 211 255
181 211 255
181 211 255
181 211 255
181 211 255
181 211 255
181 211 255
180 210 255
181 211 255
180 210 255
180 210 255
180 210 255
180 210 255
180 210 255
180 210 255
180 210 255
180 210 255
180 210 255
180 210 255
180 210 255
180 210 255
180 210 255
180 210 255
180 210 255
180 210 255
180 210 255
180 210 255
180 210 255
180 210 255
179 210 255
179 210 255
179 210 255
179 210 255
179 210 255
179 210 255
179 210 255
179 210 255
179 210 255
179 210 255
179 210 255
179 210 255
179 209 255
179 209 255
179 209 255
179 209 255
179 209 255
179 209 255
179 209 255
179 209 255
179 209 255
178 209 255
178 209 255
178 209 255
178 209 255
178 209 255
178 209 255
178 209 255
178 209 255
178 209 255
178 209 255
178 209 255
178 209 255
178 209 255
178 209 255
93 112 140
63 78 102
70 88 115
58 73 95
64 80 103
55 69 89
65 85 115
77 92 115
65 82 108
68 87 115
75 91 115
66 83 108
67 81 103
60 74 95
70 85 108
66 81 103
67 81 102
65 80 102
79 96 121
55 68 89
63 76 95
71 88 115
77 92 115
60 75 97
58 73 95
56 69 89
66 80 102
56 69 89
50 64 84
68 85 110
74 93 121
66 80 102
61 77 102
54 68 89
73 90 115
64 79 102
79 96 121
57 73 97
60 74 95
70 88 115
47 57 71
57 72 95
71 89 115
62 78 102
69 85 108
61 75 95
61 80 108
64 81 108
53 70 95
56 67 84
68 84 108
67 84 108
68 81 102
57 73 96
62 78 102
58 70 89
74 93 121
56 70 91
65 83 108
83 98 121
60 72 89
64 78 99
52 67 89
60 77 102
58 72 92
61 73 91
66 78 95
68 82 102
70 88 115
60 74 95
64 82 110
67 79 97
62 75 95
78 93 115
74 90 115
66 83 108
73 90 115
57 73 95
60 77 102
72 89 115
60 74 95
67 84 108
65 82 108
60 74 95
47 56 70
63 77 99
66 83 108
70 88 115
75 91 115
68 84 110
65 80 102
73 90 115
77 95 121
69 85 108
76 94 121
58 71 92
64 82 108
68 87 115
68 82 102
68 87 115
64 76 95
55 69 89
65 80 102
60 77 102
72 89 115
69 87 115
59 71 89
65 82 108
63 81 108
70 85 108
68 84 108
63 78 102
69 87 115
70 88 115
61 75 95
57 73 97
69 85 108
102 122 153
178 209 255
178 209 255
178 209 255
178 209 255
178 209 255
178 209 255
178 209 255
178 209 255
178 209 255
178 209 255
178 209 255
178 209 255
178 209 255
178 209 255
178 209 255
178 209 255
179 209 255
179 209 255
179 209 255
179 209 255
179 209 255
179 209 255
179 210 255
179 210 255
179 210 255
179 210 255
179 210 255
179 210 255
179 210 255
179 210 255
179 210 255
179 210 255
179 210 255
179 210 255
179 210 255
180 210 255
180 210 255
180 210 255
180 210 255
180 210 255
180 210 255
180 210 255
180 210 255
180 210 255
180 210 255
180 210 255
180 210 255
180 210 255
180 210 255
180 210 255
180 210 255
180 210 255
180 210 255
180 210 255
180 210 255
180 210 255
181 211 255
181 211 255
181 211 255
181 211 255
181 211 255
181 211 255
181 211 255
181 211 255
181 211 255
181 211 255
181 211 255
181 211 255
181 211 255
181 211 255
181 211 255
181 211 255
181 211 255
181 211 255
181 211 255
181 211 255
181 211 255
181 211 255
182 211 255
182 211 255
182 211 255
182 211 255
182 211 255
182 211 255
182 211 255
182 211 255
182 211 255
182 211 255
182 211 255
182 211 255
182 211 255
182 211 255
182 211 255
182 211 255
182 212 255
182 212 255
182 212 255
182 212 255
182 212 255
182 212 255
182 212 255
182 212 255
182 212 255
183 212 255
183 212 255
183 212 255
183 212 255
183 212 255
183 212 255
183 212 255
183 212 255
183 212 255
183 212 255
183 212 255
183 212 255
183 212 255
183 212 255
183 212 255
183 212 255
183 212 255
183 212 255
183 212 255
183 212 255
183 212 255
183 212 255
183 212 255
183 212 255
183 212 255
183 212 255
183 212 255
183 212 255
183 212 255
183 212 255
184 212 255
184 212 255
184 212 255
184 212 255
184 212 255
184 212 255
184 212 255
184 212 255
184 213 255
184 213 255
184 213 255
184 213 255
184 213 255
184 213 255
184 212 255
184 212 255
184 212 255
184 212 255
184 212 255
184 212 255
184 212 255
184 212 255
184 212 255
184 212 255
184 212 255
184 212 255
183 212 255
183 212 255
183 212 255
183 212 255
183 212 255
183 212 255
183 212 255
183 212 255
183 212 255
183 212 255
183 212 255
183 212 255
183 212 255
183 212 255
183 212 255
183 212 255
183 212 255
183 212 255
183 212 255
183 212 255
183 212 255
183 212 255
183 212 255
183 212 255
183 212 255
183 212 255
183 212 255
182 212 255
183 212 255
182 212 255
182 212 255
182 212 255
182 212 255
182 212 255
182 212 255
182 212 255
182 212 255
182 211 255
182 211 255
182 211 255
182 211 255
182 211 255
182 211 255
182 211 255
182 211 255
182 211 255
182 211 255
182 211 255
182 211 255
182 211 255
182 211 255
182 211 255
182 211 255
182 211 255
181 211 255
181 211 255
181 211 255
181 211 255
181 211 255
181 211 255
181 211 255
181 211 255
181 211 255
181 211 255
181 211 255
181 211 255
181 211 255
181 211 255
181 211 255
181 211 255
181 211 255
181 211 255
181 211 255
181 211 255
181 211 255
180 210 255
180 210 255
180 210 255
180 210 255
180 210 255
180 210 255
180 210 255
180 210 255
180 210 255
180 210 255
180 210 255
180 210 255
180 210 255
180 210 255
180 210 255
180 210 255
180 210 255
180 210 255
180 210 255
180 210 255
180 210 255
180 210 255
179 210 255
179 210 255
179 210 255
179 210 255
179 210 255
179 210 255
179 210 255
179 210 255
179 210 255
179 210 255
179 210 255
179 210 255
179 209 255
179 210 255
179 209 255
179 209 255
179 209 255
179 209 255
179 209 255
179 209 255
178 209 255
178 209 255
178 209 255
178 209 255
178 209 255
164 193 236
97 117 147
46 61 83
67 84 108
61 75 95
67 81 102
62 81 108
66 80 102
80 96 121
58 70 89
70 88 115
67 84 110
70 88 115
66 80 102
63 76 95
71 86 108
66 83 108
62 76 97
71 88 115
65 80 103
75 93 121
75 91 115
60 74 95
65 83 108
60 75 99
55 69 91
66 86 115
61 78 102
49 61 78
54 68 89
62 75 95
61 77 102
65 82 108
60 75 96
66 83 108
72 89 115
69 85 108
77 92 115
59 74 95
64 76 95
69 87 115
61 75 95
64 79 102
60 74 95
70 88 115
49 60 76
69 85 108
70 88 115
60 74 95
65 80 102
55 66 83
79 96 121
74 90 115
64 82 108
60 71 87
75 93 121
80 96 121
62 78 102
49 64 86
71 88 115
69 85 108
71 84 103
53 68 91
61 75 95
66 78 95
67 81 102
61 75 95
77 92 115
58 73 95
68 84 108
57 73 97
74 90 115
64 79 102
56 72 95
71 86 108
61 77 102
64 79 102
69 87 115
77 95 121
67 83 108
60 74 95
60 72 91
60 77 102
73 90 115
62 78 102
55 68 87
64 79 102
62 76 97
67 86 115
61 77 102
55 67 86
66 83 108
65 80 102
62 78 102
55 66 83
66 80 102
62 78 102
61 75 97
64 79 102
55 68 86
62 79 105
66 80 102
63 78 102
56 69 89
58 73 95
61 76 99
54 66 84
68 84 108
77 95 121
68 84 108
77 92 115
68 84 108
63 78 102
66 80 102
73 93 121
62 78 102
54 71 95
73 90 115
60 77 103
178 209 255
178 209 255
178 209 255
178 209 255
178 209 255
178 209 255
178 209 255
179 209 255
179 209 255
179 209 255
179 209 255
179 209 255
179 209 255
179 210 255
179 210 255
179 210 255
179 210 255
179 210 255
179 210 255
179 210 255
179 210 255
179 210 255
179 210 255
179 210 255
179 210 255
179 210 255
179 210 255
180 210 255
180 210 255
180 210 255
180 210 255
180 210 255
180 210 255
180 210 255
180 210 255
180 210 255
180 210 255
180 210 255
180 210 255
180 210 255
180 210 255
180 210 255
180 210 255
180 210 255
180 210 255
180 210 255
180 210 255
181 211 255
181 211 255
181 211 255
181 211 255
181 211 255
181 211 255
181 211 255
181 211 255
181 211 255
181 211 255
181 211 255
181 211 255
181 211 255
181 211 255
181 211 255
181 211 255
181 211 255
181 211 255
181 211 255
181 211 255
181 211 255
182 211 255
182 211 255
182 211 255
182 211 255
182 211 255
182 211 255
182 211 255
182 211 255
182 211 255
182 211 255
182 211 255
182 211 255
182 211 255
182 211 255
182 211 255
182 211 255
182 211 255
182 211 255
182 212 255
182 212 255
182 212 255
182 212 255
182 212 255
182 212 255
182 212 255
182 212 255
183 212 255
182 212 255
183 212 255
183 212 255
183 212 255
183 212 255
183 212 255
183 212 255
183 212 255
183 212 255
183 212 255
183 212 255
183 212 255
183 212 255
183 212 255
183 212 255
183 212 255
183 212 255
183 212 255
183 212 255
183 212 255
183 212 255
183 212 255
183 212 255
183 212 255
183 212 255
183 212 255
184 212 255
184 212 255
184 212 255
184 212 255
184 212 255
184 212 255
184 212 255
184 212 255
184 212 255
184 212 255
184 212 255
184 212 255
184 213 255
184 213 255
184 213 255
184 213 255
184 213 255
184 213 255
184 213 255
184 213 255
184 213 255
184 213 255
184 213 255
184 213 255
184 213 255
184 213 255
184 213 255
184 213 255
184 213 255
184 213 255
184 213 255
184 213 255
184 213 255
184 213 255
184 213 255
184 213 255
184 212 255
184 212 255
184 212 255
184 212 255
184 212 255
184 212 255
184 212 255
184 212 255
184 212 255
184 212 255
184 212 255
183 212 255
183 212 255
183 212 255
183 212 255
183 212 255
183 212 255
183 212 255
183 212 255
183 212 255
183 212 255
183 212 255
183 212 255
183 212 255
183 212 255
183 212 255
183 212 255
183 212 255
183 212 255
183 212 255
183 212 255
183 212 255
183 212 255
183 212 255
183 212 255
183 212 255
183 212 255
183 212 255
183 212 255
183 212 255
183 212 255
182 212 255
182 212 255
182 212 255
182 212 255
182 212 255
182 212 255
182 212 255
182 211 255
182 211 255
182 211 255
182 211 255
182 211 255
182 211 255
182 211 255
182 211 255
182 211 255
182 211 255
182 211 255
182 211 255
182 211 255
182 211 255
182 211 255
182 211 255
181 211 255
181 211 255
181 211 255
181 211 255
181 211 255
181 211 255
181 211 255
181 211 255
181 211 255
181 211 255
181 211 255
181 211 255
181 211 255
181 211 255
181 211 255
181 211 255
181 211 255
181 211 255
181 211 255
181 211 255
181 211 255
181 211 255
180 210 255
181 211 255
180 210 255
180 210 255
180 210 255
180 210 255
180 210 255
180 210 255
180 210 255
180 210 255
180 210 255
180 210 255
180 210 255
180 210 255
180 210 255
180 210 255
180 210 255
180 210 255
180 210 255
180 210 255
180 210 255
180 210 255
179 210 255
179 210 255
179 210 255
179 210 255
179 210 255
179 210 255
179 210 255
179 210 255
179 210 255
179 210 255
179 210 255
179 210 255
179 209 255
179 209 255
179 209 255
179 209 255
114 137 172
67 82 105
54 68 89
73 89 115
73 87 108
65 82 108
70 85 108
62 81 109
66 82 105
62 75 95
68 84 108
51 64 83
56 72 95
73 90 115
78 95 121
66 83 108
79 96 121
49 61 79
60 74 95
63 78 102
62 78 103
56 70 91
70 88 115
64 79 102
70 84 105
66 83 108
67 81 102
69 85 108
71 86 108
61 79 105
64 79 102
68 87 115
63 78 102
67 83 108
63 80 105
54 68 89
65 80 102
49 63 83
57 72 95
61 78 102
67 84 108
80 99 127
64 79 102
58 73 95
65 80 102
72 91 121
59 76 102
58 71 91
71 89 115
68 84 108
70 86 111
68 84 108
72 89 115
65 80 102
67 84 108
55 68 89
69 87 115
65 80 103
72 89 115
71 83 102
61 77 102
71 86 108
63 81 108
60 74 95
64 79 102
65 82 108
66 80 102
60 77 102
62 76 97
70 86 108
62 78 102
44 56 73
49 61 79
70 87 111
60 76 99
73 92 121
73 92 121
65 80 102
60 75 97
75 91 115
61 80 108
65 81 105
55 70 92
77 95 121
60 75 97
58 76 102
69 80 97
72 89 115
59 73 95
66 83 108
55 69 91
72 86 108
72 89 115
66 86 115
69 87 115
61 75 95
62 76 97
60 77 102
64 79 102
74 90 115
72 86 108
61 77 102
59 74 95
75 94 121
64 81 108
53 68 89
66 80 102
75 94 121
72 89 115
67 84 108
62 77 99
69 85 108
69 84 108
73 89 115
68 84 108
65 85 115
54 68 89
66 78 97
66 83 108
91 111 140
179 209 255
179 209 255
179 209 255
179 210 255
179 210 255
179 210 255
179 210 255
179 210 255
179 210 255
179 210 255
179 210 255
179 210 255
179 210 255
179 210 255
179 210 255
179 210 255
180 210 255
180 210 255
180 210 255
180 210 255
180 210 255
180 210 255
180 210 255
180 210 255
180 210 255
180 210 255
180 210 255
180 210 255
180 210 255
180 210 255
180 210 255
180 210 255
180 210 255
180 210 255
180 210 255
180 210 255
180 210 255
180 210 255
180 210 255
181 211 255
181 211 255
181 211 255
181 211 255
181 211 255
181 211 255
181 211 255
181 211 255
181 211 255
181 211 255
181 211 255
181 211 255
181 211 255
181 211 255
181 211 255
181 211 255
181 211 255
181 211 255
181 211 255
181 211 255
181 211 255
182 211 255
182 211 255
182 211 255
182 211 255
182 211 255
182 211 255
182 211 255
182 211 255
182 211 255
182 211 255
182 211 255
182 211 255
182 211 255
182 211 255
182 211 255
182 211 255
182 212 255
182 212 255
182 212 255
182 212 255
182 212 255
182 212 255
182 212 255
182 212 255
183 212 255
183 212 255
183 212 255
183 212 255
183 212 255
183 212 255
183 212 255
183 212 255
183 212 255
183 212 255
183 212 255
183 212 255
183 212 255
183 212 255
183 212 255
183 212 255
183 212 255
183 212 255
183 212 255
183 212 255
183 212 255
183 212 255
183 212 255
183 212 255
183 212 255
183 212 255
183 212 255
183 212 255
183 212 255
184 212 255
183 212 255
184 212 255
184 212 255
184 212 255
184 212 255
184 212 255
184 212 255
184 212 255
184 212 255
184 212 255
184 212 255
184 212 255
184 213 255
184 213 255
184 213 255
184 213 255
184 213 255
184 213 255
184 213 255
184 213 255
184 213 255
184 213 255
184 213 255
184 213 255
184 213 255
184 213 255
185 213 255
184 213 255
185 213 255
184 213 255
184 213 255
184 213 255
184 213 255
184 213 255
184 213 255
184 213 255
184 213 255
184 213 255
184 213 255
184 213 255
184 213 255
184 213 255
184 213 255
184 213 255
184 213 255
184 213 255
184 213 255
184 213 255
184 213 255
184 213 255
184 213 255
184 213 255
184 212 255
184 212 255
184 212 255
184 212 255
184 212 255
184 212 255
184 212 255
184 212 255
184 212 255
184 212 255
184 212 255
183 212 255
183 212 255
183 212 255
183 212 255
183 212 255
183 212 255
183 212 255
183 212 255
183 212 255
183 212 255
183 212 255
183 212 255
183 212 255
183 212 255
183 212 255
183 212 255
183 212 255
183 212 255
183 212 255
183 212 255
183 212 255
183 212 255
183 212 255
183 212 255
183 212 255
183 212 255
183 212 255
182 212 255
182 212 255
182 212 255
182 212 255
182 212 255
182 212 255
182 212 255
182 212 255
182 212 255
182 211 255
182 211 255
182 211 255
182 211 255
182 211 255
182 211 255
182 211 255
182 211 255
182 211 255
182 211 255
182 211 255
182 211 255
182 211 255
182 211 255
182 211 255
181 211 255
182 211 255
181 211 255
181 211 255
181 211 255
181 211 255
181 211 255
181 211 255
181 211 255
181 211 255
181 211 255
181 211 255
181 211 255
181 211 255
181 211 255
181 211 255
181 211 255
181 211 255
181 211 255
181 211 255
181 211 255
181 211 255
180 210 255
181 211 255
181 211 255
180 210 255
180 210 255
180 210 255
180 210 255
180 210 255
180 210 255
180 210 255
180 210 255
180 210 255
180 210 255
180 210 255
180 210 255
180 210 255
180 210 255
180 210 255
180 210 255
180 210 255
180 210 255
179 210 255
180 210 255
179 210 255
179 210 255
179 210 255
179 210 255
179 210 255
179 210 255
169 198 243
71 86 108
67 81 102
62 78 102
61 77 102
63 79 102
60 74 95
76 94 121
54 68 89
68 87 115
67 84 108
63 81 108
71 89 115
64 79 102
72 87 110
61 78 102
58 73 95
57 72 95
57 72 95
75 91 115
61 77 102
63 78 102
67 86 115
70 88 115
67 83 108
64 79 102
65 80 102
45 55 70
70 85 108
54 71 95
63 76 95
62 78 102
72 87 108
77 94 121
69 85 108
68 84 108
57 70 89
76 97 127
69 87 115
72 89 115
66 85 115
64 78 99
62 75 96
60 74 95
59 74 95
61 78 102
62 78 102
69 87 115
57 70 89
78 96 121
65 82 108
77 92 115
55 71 95
64 79 102
61 75 95
72 87 108
61 75 95
56 68 86
70 86 111
74 91 115
59 72 92
64 79 102
56 72 95
62 78 102
63 79 102
70 88 115
71 86 108
70 86 110
61 75 95
62 77 99
68 87 115
62 75 95
63 76 95
57 73 95
73 89 115
73 87 108
65 80 102
59 74 95
67 84 108
63 77 99
64 79 102
64 82 108
55 74 102
53 67 89
60 72 89
66 83 108
64 82 108
75 91 115
70 88 115
61 75 95
70 86 108
67 83 108
60 75 97
60 72 91
65 82 108
70 83 102
53 68 91
70 86 111
59 73 95
63 78 102
64 77 97
64 80 103
64 78 99
66 83 108
66 80 102
71 88 115
66 83 108
76 92 115
64 79 102
65 80 102
67 84 108
64 79 102
61 76 97
68 84 108
57 70 91
66 80 102
65 83 108
71 86 108
71 89 115
55 68 89
70 88 115
179 210 255
179 210 255
179 210 255
179 210 255
179 210 255
179 210 255
179 210 255
180 210 255
180 210 255
180 210 255
180 210 255
180 210 255
180 210 255
180 210 255
180 210 255
180 210 255
180 210 255
180 210 255
180 210 255
180 210 255
180 210 255
180 210 255
180 210 255
180 210 255
180 210 255
180 210 255
180 210 255
181 211 255
180 210 255
181 211 255
181 211 255
181 211 255
181 211 255
181 211 255
181 211 255
181 211 255
181 211 255
181 211 255
181 211 255
181 211 255
181 211 255
181 211 255
181 211 255
181 211 255
181 211 255
181 211 255
181 211 255
181 211 255
181 211 255
181 211 255
181 211 255
182 211 255
182 211 255
182 211 255
182 211 255
182 211 255
182 211 255
182 211 255
182 211 255
182 211 255
182 211 255
182 211 255
182 211 255
182 211 255
182 211 255
182 211 255
182 212 255
182 212 255
182 212 255
182 212 255
182 212 255
182 212 255
182 212 255
182 212 255
182 212 255
183 212 255
182 212 255
183 212 255
183 212 255
183 212 255
183 212 255
183 212 255
183 212 255
183 212 255
183 212 255
183 212 255
183 212 255
183 212 255
183 212 255
183 212 255
183 212 255
183 212 255
183 212 255
183 212 255
183 212 255
183 212 255
183 212 255
183 212 255
183 212 255
183 212 255
183 212 255
183 212 255
183 212 255
184 212 255
184 212 255
184 212 255
184 212 255
184 212 255
184 212 255
184 212 255
184 212 255
184 212 255
184 212 255
184 213 255
184 213 255
184 213 255
184 213 255
184 213 255
184 213 255
184 213 255
184 213 255
184 213 255
184 213 255
184 213 255
184 213 255
184 213 255
184 213 255
184 213 255
184 213 255
184 213 255
184 213 255
184 213 255
184 213 255
184 213 255
184 213 255
184 213 255
184 213 255
185 213 255
185 213 255
185 213 255
185 213 255
185 213 255
185 213 255
185 213 255
185 213 255
185 213 255
185 213 255
185 213 255
185 213 255
185 213 255
185 213 255
185 213 255
185 213 255
184 213 255
184 213 255
184 213 255
184 213 255
184 213 255
184 213 255
184 213 255
184 213 255
184 213 255
184 213 255
184 213 255
184 213 255
184 213 255
184 213 255
184 213 255
184 213 255
184 213 255
184 213 255
184 213 255
184 213 255
184 213 255
184 213 255
184 213 255
184 213 255
184 212 255
184 212 255
184 212 255
184 212 255
184 212 255
184 212 255
184 212 255
184 212 255
184 212 255
183 212 255
183 212 255
183 212 255
183 212 255
183 212 255
183 212 255
183 212 255
183 212 255
183 212 255
183 212 255
183 212 255
183 212 255
183 212 255
183 212 255
183 212 255
183 212 255
183 212 255
183 212 255
183 212 255
183 212 255
183 212 255
183 212 255
183 212 255
183 212 255
183 212 255
183 212 255
183 212 255
183 212 255
182 212 255
182 212 255
182 212 255
182 212 255
182 212 255
182 212 255
182 212 255
182 212 255
182 211 255
182 211 255
182 211 255
182 211 255
182 211 255
182 211 255
182 211 255
182 211 255
182 211 255
182 211 255
182 211 255
182 211 255
182 211 255
182 211 255
182 211 255
182 211 255
182 211 255
182 211 255
181 211 255
181 211 255
181 211 255
181 211 255
181 211 255
181 211 255
181 211 255
181 211 255
181 211 255
181 211 255
181 211 255
181 211 255
181 211 255
181 211 255
181 211 255
181 211 255
181 211 255
181 211 255
181 211 255
181 211 255
181 211 255
180 210 255
180 210 255
180 210 255
180 210 255
180 210 255
180 210 255
180 210 255
180 210 255
180 210 255
180 210 255
180 210 255
180 210 255
180 210 255
180 210 255
180 210 255
180 210 255
180 210 255
180 210 255
133 156 191
59 72 92
65 77 95
71 89 115
73 90 115
51 64 84
63 79 102
65 80 102
64 76 95
66 83 108
66 81 103
77 92 115
61 77 102
68 82 103
63 79 102
69 87 115
69 84 108
60 77 102
73 90 115
59 72 91
70 85 108
73 87 108
49 62 83
56 74 102
70 85 108
56 67 84
73 87 108
57 72 95
71 86 108
55 70 92
66 81 103
69 85 108
59 75 97
70 88 115
63 76 95
80 95 118
77 95 121
71 88 115
57 70 89
71 89 115
72 87 108
71 86 108
59 72 91
61 77 102
63 78 102
69 82 102
60 74 95
71 91 121
68 84 108
72 87 108
69 82 102
63 79 103
55 73 99
65 81 105
68 84 108
53 65 83
72 89 115
50 62 79
72 89 115
68 84 108
56 69 87
68 84 108
50 65 86
60 74 95
64 77 95
60 74 95
63 79 103
57 71 92
70 88 115
61 75 95
68 82 103
64 79 102
61 78 102
64 78 99
58 73 95
56 69 89
69 84 108
57 70 89
57 70 90
64 80 105
73 90 116
64 79 102
62 80 108
71 86 108
56 69 89
59 76 102
59 78 105
65 80 102
63 81 108
61 75 95
75 91 115
70 85 108
67 84 108
70 85 108
51 66 89
59 74 95
67 84 108
63 81 108
66 79 99
64 77 95
62 75 95
60 74 95
51 67 91
72 87 108
58 76 102
64 82 108
68 84 108
65 82 108
68 84 108
73 90 115
64 82 108
68 87 115
67 83 108
48 62 83
57 69 87
67 85 111
65 80 102
70 87 111
71 86 108
61 75 95
73 90 115
123 148 185
180 210 255
180 210 255
180 210 255
180 210 255
180 210 255
180 210 255
180 210 255
180 210 255
180 210 255
180 210 255
180 210 255
180 210 255
180 210 255
180 210 255
180 210 255
180 210 255
180 210 255
180 210 255
181 211 255
180 210 255
181 211 255
181 211 255
181 211 255
181 211 255
181 211 255
181 211 255
181 211 255
181 211 255
181 211 255
181 211 255
181 211 255
181 211 255
181 211 255
181 211 255
181 211 255
181 211 255
181 211 255
181 211 255
181 211 255
181 211 255
181 211 255
182 211 255
182 211 255
182 211 255
182 211 255
182 211 255
182 211 255
182 211 255
182 211 255
182 211 255
182 211 255
182 211 255
182 211 255
182 211 255
182 211 255
182 211 255
182 211 255
182 212 255
182 212 255
182 212 255
182 212 255
182 212 255
182 212 255
182 212 255
182 212 255
182 212 255
183 212 255
183 212 255
183 212 255
183 212 255
183 212 255
183 212 255
183 212 255
183 212 255
183 212 255
183 212 255
183 212 255
183 212 255
183 212 255
183 212 255
183 212 255
183 212 255
183 212 255
183 212 255
183 212 255
183 212 255
183 212 255
183 212 255
183 212 255
183 212 255
183 212 255
183 212 255
184 212 255
184 212 255
184 212 255
184 212 255
184 212 255
184 212 255
184 212 255
184 212 255
184 212 255
184 212 255
184 213 255
184 213 255
184 213 255
184 213 255
184 213 255
184 213 255
184 213 255
184 213 255
184 213 255
184 213 255
184 213 255
184 213 255
184 213 255
184 213 255
184 213 255
184 213 255
184 213 255
184 213 255
184 213 255
184 213 255
184 213 255
184 213 255
184 213 255
184 213 255
184 213 255
185 213 255
185 213 255
185 213 255
185 213 255
185 213 255
185 213 255
185 213 255
185 213 255
185 213 255
185 213 255
185 213 255
185 213 255
185 213 255
185 213 255
185 213 255
185 213 255
185 213 255
185 213 255
185 213 255
185 213 255
185 213 255
185 213 255
185 213 255
185 213 255
185 213 255
185 213 255
185 213 255
185 213 255
185 213 255
185 213 255
185 213 255
185 213 255
185 213 255
185 213 255
185 213 255
184 213 255
184 213 255
184 213 255
184 213 255
184 213 255
184 213 255
184 213 255
184 213 255
184 213 255
184 213 255
184 213 255
184 213 255
184 213 255
184 213 255
184 213 255
184 213 255
184 213 255
184 213 255
184 213 255
184 213 255
184 213 255
184 213 255
184 213 255
184 212 255
184 212 255
184 212 255
184 212 255
184 212 255
184 212 255
184 212 255
184 212 255
184 212 255
184 212 255
183 212 255
183 212 255
183 212 255
183 212 255
183 212 255
183 212 255
183 212 255
183 212 255
183 212 255
183 212 255
183 212 255
183 212 255
183 212 255
183 212 255
183 212 255
183 212 255
183 212 255
183 212 255
183 212 255
183 212 255
183 212 255
183 212 255
183 212 255
183 212 255
183 212 255
183 212 255
183 212 255
182 212 255
182 212 255
183 212 255
182 212 255
182 212 255
182 212 255
182 212 255
182 212 255
182 212 255
182 212 255
182 211 255
182 211 255
182 211 255
182 211 255
182 211 255
182 211 255
182 211 255
182 211 255
182 211 255
182 211 255
182 211 255
182 211 255
182 211 255
182 211 255
181 211 255
182 211 255
182 211 255
181 211 255
181 211 255
181 211 255
181 211 255
181 211 255
181 211 255
181 211 255
181 211 255
181 211 255
181 211 255
181 211 255
181 211 255
181 211 255
181 211 255
181 211 255
181 211 255
181 211 255
181 211 255
181 211 255
181 211 255
181 211 255
180 210 255
181 211 255
180 210 255
180 210 255
180 210 255
180 210 255
180 210 255
180 210 255
132 156 191
56 72 95
63 81 108
43 54 70
65 80 102
56 70 91
75 93 121
71 89 115
64 79 102
58 73 95
59 76 102
59 76 102
74 93 121
65 80 102
53 68 89
65 82 108
70 85 108
71 88 115
73 89 115
56 69 89
64 79 102
65 78 99
69 84 105
46 58 76
54 69 91
61 75 95
66 83 108
75 91 115
67 84 108
80 97 121
66 80 102
64 81 108
50 63 83
78 95 121
66 82 105
73 90 115
74 88 110
73 87 108
48 60 78
65 77 95
68 84 108
59 76 102
73 90 115
61 77 102
63 77 97
65 79 102
57 73 97
62 76 97
65 82 108
50 64 86
66 80 102
74 90 115
68 85 110
57 68 83
59 74 97
58 73 95
54 71 95
54 64 78
72 89 115
67 83 108
64 79 102
64 78 99
73 87 108
71 89 115
65 80 103
50 63 83
57 71 92
57 71 91
72 85 105
68 87 115
61 75 95
76 92 115
57 70 89
74 88 110
64 77 97
52 64 83
66 80 102
56 72 95
57 72 95
60 74 95
69 82 102
67 84 108
47 59 76
58 70 89
56 73 97
66 80 102
63 78 102
60 74 95
73 87 108
69 85 108
69 85 108
78 93 115
58 73 95
69 85 108
69 85 108
66 78 95
71 91 121
62 73 89
68 82 103
58 73 96
64 77 97
44 55 71
67 86 115
68 87 115
58 74 97
66 80 102
67 82 105
75 93 121
49 64 86
64 79 102
64 80 103
59 74 95
54 66 83
74 93 121
55 69 89
72 86 108
54 71 95
61 77 102
74 90 115
58 73 95
68 80 99
80 97 121
180 210 255
180 210 255
180 210 255
180 210 255
180 210 255
180 210 255
180 210 255
180 210 255
181 211 255
181 211 255
181 211 255
181 211 255
181 211 255
181 211 255
181 211 255
181 211 255
181 211 255
181 211 255
181 211 255
181 211 255
181 211 255
181 211 255
181 211 255
181 211 255
181 211 255
181 211 255
181 211 255
181 211 255
181 211 255
181 211 255
182 211 255
181 211 255
181 211 255
182 211 255
182 211 255
182 211 255
182 211 255
182 211 255
182 211 255
182 211 255
182 211 255
182 211 255
182 211 255
182 211 255
182 211 255
182 211 255
182 212 255
182 212 255
182 212 255
182 212 255
182 212 255
182 212 255
182 212 255
182 212 255
182 212 255
183 212 255
182 212 255
183 212 255
183 212 255
183 212 255
183 212 255
183 212 255
183 212 255
183 212 255
183 212 255
183 212 255
183 212 255
183 212 255
183 212 255
183 212 255
183 212 255
183 212 255
183 212 255
183 212 255
183 212 255
183 212 255
183 212 255
183 212 255
183 212 255
183 212 255
183 212 255
183 212 255
184 212 255
184 212 255
184 212 255
184 212 255
184 212 255
184 212 255
184 212 255
184 212 255
184 212 255
184 212 255
184 213 255
184 213 255
184 213 255
184 213 255
184 213 255
184 213 255
184 213 255
184 213 255
184 213 255
184 213 255
184 213 255
184 213 255
184 213 255
184 213 255
184 213 255
184 213 255
184 213 255
184 213 255
184 213 255
184 213 255
184 213 255
184 213 255
184 213 255
185 213 255
185 213 255
185 213 255
185 213 255
185 213 255
185 213 255
185 213 255
185 213 255
185 213 255
185 213 255
185 213 255
185 213 255
185 213 255
185 213 255
185 213 255
185 213 255
185 213 255
185 213 255
185 213 255
185 213 255
185 213 255
185 213 255
185 213 255
185 213 255
185 213 255
185 213 255
185 213 255
185 213 255
185 213 255
185 213 255
185 213 255
185 213 255
185 213 255
185 213 255
185 213 255
185 213 255
185 213 255
185 213 255
185 213 255
185 213 255
185 213 255
185 213 255
185 213 255
185 213 255
185 213 255
185 213 255
185 213 255
185 213 255
185 213 255
185 213 255
185 213 255
185 213 255
185 213 255
185 213 255
185 213 255
185 213 255
185 213 255
185 213 255
184 213 255
184 213 255
184 213 255
184 213 255
184 213 255
184 213 255
184 213 255
184 213 255
184 213 255
184 213 255
184 213 255
184 213 255
184 213 255
184 213 255
184 213 255
184 213 255
184 213 255
184 213 255
184 213 255
184 213 255
184 213 255
184 213 255
184 213 255
184 212 255
184 212 255
184 212 255
184 212 255
184 212 255
184 212 255
184 212 255
184 212 255
184 212 255
183 212 255
184 212 255
183 212 255
183 212 255
183 212 255
183 212 255
183 212 255
183 212 255
183 212 255
183 212 255
183 212 255
183 212 255
183 212 255
183 212 255
183 212 255
183 212 255
183 212 255
183 212 255
183 212 255
183 212 255
183 212 255
183 212 255
183 212 255
183 212 255
183 212 255
183 212 255
183 212 255
182 212 255
182 212 255
182 212 255
182 212 255
182 212 255
182 212 255
182 212 255
182 212 255
182 212 255
182 212 255
182 211 255
182 211 255
182 211 255
182 211 255
182 211 255
182 211 255
182 211 255
182 211 255
182 211 255
182 211 255
182 211 255
182 211 255
182 211 255
182 211 255
182 211 255
181 211 255
181 211 255
181 211 255
181 211 255
181 211 255
181 211 255
181 211 255
181 211 255
181 211 255
181 211 255
181 211 255
181 211 255
181 211 255
181 211 255
181 211 255
181 211 255
181 211 255
181 211 255
181 211 255
181 211 255
151 178 217
70 85 108
81 97 121
65 82 108
59 71 89
57 73 97
79 96 121
57 72 95
74 90 115
68 84 108
55 69 89
57 70 89
71 89 115
68 81 102
70 85 108
62 78 102
63 78 102
61 73 91
54 66 84
59 75 99
70 85 108
72 89 115
60 74 95
65 85 115
60 72 89
63 76 96
70 88 115
65 81 105
66 80 102
55 68 87
70 85 108
57 70 89
64 78 99
55 73 99
66 80 102
69 87 115
60 77 102
56 69 89
65 80 103
64 79 102
68 82 103
70 86 108
65 80 102
64 79 102
66 78 95
72 89 115
52 63 79
68 84 108
55 66 83
65 80 102
61 75 95
65 82 108
75 88 108
56 69 89
66 80 102
62 79 105
63 76 95
69 85 110
53 67 89
60 76 102
65 80 103
55 73 99
65 77 95
65 80 103
74 95 127
67 86 115
62 79 103
56 70 89
46 59 79
72 91 121
64 80 103
65 80 102
63 81 108
63 79 102
52 67 89
62 75 95
61 75 97
80 94 115
72 89 115
70 88 115
63 78 99
72 86 108
67 83 108
54 68 89
70 83 102
66 80 102
63 79 102
69 84 108
64 79 102
48 60 78
55 69 89
61 75 95
70 87 111
68 84 108
70 88 115
58 70 89
59 71 89
66 83 108
59 74 97
65 83 108
62 76 95
69 87 115
68 85 111
61 75 97
68 87 115
66 83 108
62 76 99
73 92 121
55 70 91
60 74 95
69 85 110
60 76 99
59 73 95
65 82 108
64 79 102
62 78 102
50 62 79
65 80 102
65 80 102
45 57 75
74 93 121
72 89 115
69 85 108
166 194 236
181 211 255
181 211 255
181 211 255
181 211 255
181 211 255
181 211 255
181 211 255
181 211 255
181 211 255
181 211 255
181 211 255
181 211 255
181 211 255
181 211 255
181 211 255
181 211 255
181 211 255
181 211 255
181 211 255
182 211 255
181 211 255
182 211 255
182 211 255
182 211 255
182 211 255
182 211 255
182 211 255
182 211 255
182 211 255
182 211 255
182 211 255
182 211 255
182 211 255
182 211 255
182 211 255
182 211 255
182 212 255
182 212 255
182 212 255
182 212 255
182 212 255
182 212 255
182 212 255
182 212 255
183 212 255
183 212 255
183 212 255
183 212 255
183 212 255
183 212 255
183 212 255
183 212 255
183 212 255
183 212 255
183 212 255
183 212 255
183 212 255
183 212 255
183 212 255
183 212 255
183 212 255
183 212 255
183 212 255
183 212 255
183 212 255
183 212 255
183 212 255
183 212 255
183 212 255
183 212 255
183 212 255
184 212 255
184 212 255
184 212 255
184 212 255
184 212 255
184 212 255
184 212 255
184 212 255
184 212 255
184 212 255
184 213 255
184 212 255
184 213 255
184 213 255
184 213 255
184 213 255
184 213 255
184 213 255
184 213 255
184 213 255
184 213 255
184 213 255
184 213 255
184 213 255
184 213 255
184 213 255
184 213 255
184 213 255
184 213 255
184 213 255
184 213 255
184 213 255
184 213 255
185 213 255
185 213 255
185 213 255
185 213 255
185 213 255
185 213 255
185 213 255
185 213 255
185 213 255
185 213 255
185 213 255
185 213 255
185 213 255
185 213 255
185 213 255
185 213 255
185 213 255
185 213 255
185 213 255
185 213 255
185 213 255
185 213 255
185 213 255
185 213 255
185 213 255
185 213 255
185 213 255
185 213 255
185 213 255
185 213 255
185 213 255
185 213 255
185 213 255
185 213 255
186 214 255
186 214 255
186 214 255
186 214 255
186 214 255
186 214 255
185 213 255
186 214 255
185 213 255
185 213 255
185 213 255
185 213 255
185 213 255
185 213 255
185 213 255
185 213 255
185 213 255
185 213 255
185 213 255
185 213 255
185 213 255
185 213 255
185 213 255
185 213 255
185 213 255
185 213 255
185 213 255
185 213 255
185 213 255
185 213 255
185 213 255
185 213 255
185 213 255
185 213 255
185 213 255
185 213 255
185 213 255
185 213 255
185 213 255
185 213 255
185 213 255
185 213 255
185 213 255
185 213 255
185 213 255
185 213 255
184 213 255
184 213 255
184 213 255
184 213 255
184 213 255
184 213 255
184 213 255
184 213 255
184 213 255
184 213 255
184 213 255
184 213 255
184 213 255
184 213 255
184 213 255
184 213 255
184 213 255
184 213 255
184 213 255
184 213 255
184 213 255
184 212 255
184 212 255
184 212 255
184 212 255
184 212 255
184 212 255
184 212 255
183 212 255
184 212 255
183 212 255
184 212 255
183 212 255
183 212 255
183 212 255
183 212 255
183 212 255
183 212 255
183 212 255
183 212 255
183 212 255
183 212 255
183 212 255
183 212 255
183 212 255
183 212 255
183 212 255
183 212 255
183 212 255
183 212 255
183 212 255
183 212 255
183 212 255
183 212 255
183 212 255
183 212 255
183 212 255
183 212 255
182 212 255
182 212 255
182 212 255
182 212 255
182 212 255
182 212 255
182 212 255
182 212 255
182 211 255
182 211 255
182 211 255
182 211 255
182 211 255
182 211 255
182 211 255
182 211 255
182 211 255
182 211 255
182 211 255
182 211 255
182 211 255
182 211 255
182 211 255
182 211 255
182 211 255
181 211 255
181 211 255
181 211 255
181 211 255
181 211 255
181 211 255
181 211 255
181 211 255
181 211 255
92 111 140
63 79 102
61 80 108
57 70 89
59 74 95
50 61 78
56 72 95
73 87 108
64 80 103
64 76 95
52 65 83
69 87 115
73 90 115
60 71 89
58 70 89
71 86 108
55 67 84
64 82 108
76 91 115
63 78 102
76 94 121
72 92 121
63 79 102
52 67 89
66 83 108
61 77 102
65 80 102
62 76 97
69 85 108
67 84 108
52 64 83
45 55 71
76 94 121
73 90 115
67 84 108
72 89 115
67 84 108
56 69 89
65 80 102
65 82 108
61 75 95
71 86 108
74 95 127
76 93 118
62 75 95
64 81 108
73 92 121
55 69 89
65 80 102
62 78 102
54 66 85
63 76 97
61 75 95
63 79 102
48 60 77
73 90 115
65 80 102
55 69 91
70 88 115
71 91 121
64 79 102
59 76 102
53 68 89
60 77 102
75 92 118
70 85 108
58 71 89
58 74 97
67 83 108
71 85 105
66 80 102
55 71 95
68 84 108
75 94 121
57 73 95
63 76 95
57 72 95
63 81 108
68 84 108
63 79 102
62 78 102
69 85 108
83 98 121
56 69 89
73 92 121
76 91 115
73 89 115
69 85 108
56 69 89
52 65 84
61 78 102
62 75 95
80 99 127
69 85 110
68 84 108
56 72 95
69 85 108
65 80 103
63 79 102
69 85 108
59 71 89
50 64 84
44 57 76
55 71 95
68 83 105
60 74 95
75 93 121
57 70 91
70 85 108
68 82 103
77 95 121
62 77 99
54 68 91
67 81 102
71 89 115
68 89 121
82 97 121
78 95 121
70 85 108
62 78 102
68 80 99
66 83 108
56 72 95
150 174 211
181 211 255
181 211 255
181 211 255
181 211 255
181 211 255
181 211 255
181 211 255
181 211 255
181 211 255
182 211 255
182 211 255
182 211 255
182 211 255
182 211 255
182 211 255
182 211 255
182 211 255
182 211 255
182 211 255
182 211 255
182 211 255
182 211 255
182 211 255
182 211 255
182 211 255
182 211 255
182 212 255
182 212 255
182 212 255
182 212 255
182 212 255
182 212 255
182 212 255
182 212 255
183 212 255
183 212 255
183 212 255
183 212 255
183 212 255
183 212 255
183 212 255
183 212 255
183 212 255
183 212 255
183 212 255
183 212 255
183 212 255
183 212 255
183 212 255
183 212 255
183 212 255
183 212 255
183 212 255
183 212 255
183 212 255
183 212 255
183 212 255
183 212 255
183 212 255
183 212 255
184 212 255
184 212 255
184 212 255
184 212 255
184 212 255
184 212 255
184 212 255
184 212 255
184 212 255
184 212 255
184 212 255
184 213 255
184 213 255
184 213 255
184 213 255
184 213 255
184 213 255
184 213 255
184 213 255
184 213 255
184 213 255
184 213 255
184 213 255
184 213 255
184 213 255
184 213 255
184 213 255
184 213 255
184 213 255
184 213 255
184 213 255
184 213 255
185 213 255
185 213 255
185 213 255
185 213 255
185 213 255
185 213 255
185 213 255
185 213 255
185 213 255
185 213 255
185 213 255
185 213 255
185 213 255
185 213 255
185 213 255
185 213 255
185 213 255
185 213 255
185 213 255
185 213 255
185 213 255
185 213 255
185 213 255
185 213 255
185 213 255
185 213 255
185 213 255
185 213 255
185 213 255
185 213 255
185 213 255
185 213 255
185 213 255
185 213 255
185 213 255
185 213 255
185 213 255
186 214 255
185 213 255
186 214 255
186 214 255
186 214 255
186 214 255
186 214 255
186 214 255
186 214 255
186 214 255
186 214 255
186 214 255
186 214 255
186 214 255
186 214 255
186 214 255
186 214 255
186 214 255
186 214 255
186 214 255
186 214 255
186 214 255
186 214 255
186 214 255
186 214 255
186 214 255
186 214 255
186 214 255
185 213 255
185 213 255
185 213 255
185 213 255
185 213 255
185 213 255
185 213 255
185 213 255
185 213 255
185 213 255
185 213 255
185 213 255
185 213 255
185 213 255
185 213 255
185 213 255
185 213 255
185 213 255
185 213 255
185 213 255
185 213 255
185 213 255
185 213 255
185 213 255
185 213 255
185 213 255
185 213 255
185 213 255
185 213 255
185 213 255
185 213 255
185 213 255
185 213 255
185 213 255
185 213 255
185 213 255
185 213 255
184 213 255
184 213 255
184 213 255
184 213 255
184 213 255
184 213 255
184 213 255
184 213 255
184 213 255
184 213 255
184 213 255
184 213 255
184 213 255
184 213 255
184 213 255
184 213 255
184 213 255
184 213 255
184 213 255
184 213 255
184 213 255
184 213 255
184 212 255
184 212 255
184 212 255
184 212 255
184 212 255
184 212 255
184 212 255
184 212 255
184 212 255
184 212 255
183 212 255
183 212 255
183 212 255
183 212 255
183 212 255
183 212 255
183 212 255
183 212 255
183 212 255
183 212 255
183 212 255
183 212 255
183 212 255
183 212 255
183 212 255
183 212 255
183 212 255
183 212 255
183 212 255
183 212 255
183 212 255
183 212 255
183 212 255
183 212 255
183 212 255
183 212 255
183 212 255
183 212 255
182 212 255
182 212 255
182 212 255
182 212 255
182 212 255
182 212 255
182 212 255
182 211 255
182 211 255
182 211 255
182 211 255
182 211 255
182 211 255
182 211 255
182 211 255
182 211 255
182 211 255
182 211 255
182 211 255
182 211 255
182 211 255
182 211 255
97 115 142
55 69 89
69 85 108
70 83 102
66 83 108
68 81 102
56 69 89
64 79 102
67 83 108
57 70 91
69 85 108
78 95 121
65 77 95
59 76 102
74 91 115
62 78 102
57 70 89
62 78 102
67 83 108
68 81 102
67 84 108
59 75 99
70 88 115
71 86 108
70 85 108
65 80 102
71 87 111
63 76 95
75 91 115
43 57 78
60 74 95
67 79 97
76 91 115
59 74 95
53 67 89
61 80 108
61 75 95
66 80 102
69 85 108
53 66 84
62 81 108
60 71 89
74 93 121
74 90 115
77 95 121
60 75 97
67 86 115
68 84 108
60 72 89
62 78 102
67 84 108
71 88 115
60 77 102
59 74 97
73 90 115
55 72 97
56 73 97
55 69 89
56 72 95
64 81 108
70 88 115
81 97 121
71 89 115
60 75 97
59 76 102
62 78 102
57 67 83
65 80 102
67 86 115
57 70 89
56 72 95
66 80 102
66 83 108
66 80 102
59 72 91
64 79 102
72 89 115
71 89 115
60 75 99
70 88 115
69 85 108
68 84 108
61 77 102
63 79 102
61 75 95
64 79 102
61 75 96
59 74 95
68 84 108
65 79 102
56 67 83
69 88 115
75 91 115
62 78 102
73 92 121
67 86 115
71 89 115
66 83 108
63 76 95
60 74 95
70 88 115
71 88 115
63 79 102
68 84 108
62 78 102
63 78 102
74 93 121
67 81 102
57 73 95
71 86 108
69 87 115
66 78 97
54 68 90
67 83 108
64 79 102
66 83 108
67 86 115
58 73 96
63 78 102
66 81 102
68 82 102
50 66 89
48 63 86
120 143 179
182 211 255
182 211 255
182 211 255
182 211 255
182 211 255
182 211 255
182 211 255
182 211 255
182 211 255
182 211 255
182 211 255
182 211 255
182 211 255
182 212 255
182 211 255
182 212 255
182 212 255
182 212 255
182 212 255
182 212 255
182 212 255
182 212 255
182 212 255
183 212 255
183 212 255
183 212 255
183 212 255
183 212 255
183 212 255
183 212 255
183 212 255
183 212 255
183 212 255
183 212 255
183 212 255
183 212 255
183 212 255
183 212 255
183 212 255
183 212 255
183 212 255
183 212 255
183 212 255
183 212 255
183 212 255
183 212 255
183 212 255
183 212 255
183 212 255
183 212 255
184 212 255
184 212 255
184 212 255
184 212 255
184 212 255
184 212 255
184 212 255
184 212 255
184 212 255
184 212 255
184 213 255
184 213 255
184 213 255
184 213 255
184 213 255
184 213 255
184 213 255
184 213 255
184 213 255
184 213 255
184 213 255
184 213 255
184 213 255
184 213 255
184 213 255
184 213 255
184 213 255
184 213 255
184 213 255
184 213 255
185 213 255
185 213 255
185 213 255
185 213 255
185 213 255
185 213 255
185 213 255
185 213 255
185 213 255
185 213 255
185 213 255
185 213 255
185 213 255
185 213 255
185 213 255
185 213 255
185 213 255
185 213 255
185 213 255
185 213 255
185 213 255
185 213 255
185 213 255
185 213 255
185 213 255
185 213 255
185 213 255
185 213 255
185 213 255
185 213 255
185 213 255
185 213 255
185 213 255
185 213 255
185 213 255
185 213 255
185 213 255
185 213 255
186 214 255
185 213 255
186 214 255
186 214 255
186 214 255
186 214 255
186 214 255
186 214 255
186 214 255
186 214 255
186 214 255
186 214 255
186 214 255
186 214 255
186 214 255
186 214 255
186 214 255
186 214 255
186 214 255
186 214 255
186 214 255
186 214 255
186 214 255
186 214 255
186 214 255
186 214 255
186 214 255
186 214 255
186 214 255
186 214 255
186 214 255
186 214 255
186 214 255
186 214 255
186 214 255
186 214 255
186 214 255
186 214 255
186 214 255
186 214 255
186 214 255
186 214 255
186 214 255
186 214 255
186 214 255
186 214 255
186 214 255
186 214 255
186 214 255
186 214 255
186 214 255
186 214 255
185 213 255
185 213 255
185 213 255
185 213 255
185 213 255
185 213 255
185 213 255
185 213 255
185 213 255
185 213 255
185 213 255
185 213 255
185 213 255
185 213 255
185 213 255
185 213 255
185 213 255
185 213 255
185 213 255
185 213 255
185 213 255
185 213 255
185 213 255
185 213 255
185 213 255
185 213 255
185 213 255
185 213 255
185 213 255
185 213 255
185 213 255
185 213 255
185 213 255
185 213 255
185 213 255
185 213 255
185 213 255
185 213 255
185 213 255
184 213 255
184 213 255
184 213 255
184 213 255
184 213 255
184 213 255
184 213 255
184 213 255
184 213 255
184 213 255
184 213 255
184 213 255
184 213 255
184 213 255
184 213 255
184 213 255
184 213 255
184 213 255
184 213 255
184 212 255
184 212 255
184 212 255
184 212 255
184 212 255
184 212 255
184 212 255
184 212 255
183 212 255
183 212 255
183 212 255
183 212 255
183 212 255
183 212 255
183 212 255
183 212 255
183 212 255
183 212 255
183 212 255
183 212 255
183 212 255
183 212 255
183 212 255
183 212 255
183 212 255
183 212 255
183 212 255
183 212 255
183 212 255
183 212 255
183 212 255
183 212 255
183 212 255
183 212 255
183 212 255
183 212 255
183 212 255
183 212 255
182 212 255
182 212 255
182 212 255
182 212 255
182 212 255
182 212 255
182 212 255
182 212 255
182 212 255
162 189 230
57 70 89
75 91 115
66 81 102
58 72 92
66 79 97
66 80 102
73 90 115
48 61 79
60 74 95
68 80 99
60 74 95
59 74 97
64 82 108
53 70 95
78 93 115
61 77 102
66 83 108
61 75 95
58 73 95
62 75 95
67 81 102
76 97 127
66 83 108
62 78 102
56 71 92
55 69 89
54 68 89
72 89 115
57 71 91
58 73 95
69 82 102
64 79 102
57 70 89
71 86 108
58 73 95
59 74 95
59 71 89
59 71 89
71 88 115
71 85 105
74 90 115
63 76 95
64 79 102
63 78 102
66 83 108
66 80 102
58 71 91
63 76 95
54 67 86
52 64 83
72 92 121
54 67 86
55 69 89
58 76 102
64 83 111
52 67 89
54 68 89
64 79 102
73 90 115
57 72 95
59 74 95
58 73 95
76 92 115
62 78 102
73 90 115
54 67 87
81 95 115
55 69 89
71 86 108
62 81 108
61 75 95
54 71 95
68 81 102
52 65 84
70 88 115
74 93 121
65 83 108
64 79 102
49 60 76
77 95 121
67 85 111
67 81 102
62 74 94
76 92 115
77 95 121
66 80 102
67 81 102
82 98 121
64 79 102
62 75 95
78 95 121
77 92 115
64 79 102
78 95 121
64 77 95
65 82 108
59 76 102
65 84 111
65 82 108
60 79 108
63 76 97
58 70 89
50 63 83
70 88 115
79 99 127
72 89 115
60 76 102
58 73 96
72 86 108
64 82 108
70 84 105
78 95 121
59 72 92
68 84 108
61 78 102
68 84 108
48 58 73
70 88 115
73 87 108
73 92 121
63 79 102
61 78 102
58 69 84
65 82 107
182 211 255
182 211 255
182 212 255
182 212 255
182 212 255
182 212 255
182 212 255
182 212 255
182 212 255
182 212 255
182 212 255
183 212 255
183 212 255
183 212 255
183 212 255
183 212 255
183 212 255
183 212 255
183 212 255
183 212 255
183 212 255
183 212 255
183 212 255
183 212 255
183 212 255
183 212 255
183 212 255
183 212 255
183 212 255
183 212 255
183 212 255
183 212 255
183 212 255
183 212 255
183 212 255
183 212 255
183 212 255
183 212 255
184 212 255
184 212 255
184 212 255
184 212 255
184 212 255
184 212 255
184 212 255
184 212 255
184 212 255
184 213 255
184 212 255
184 213 255
184 213 255
184 213 255
184 213 255
184 213 255
184 213 255
184 213 255
184 213 255
184 213 255
184 213 255
184 213 255
184 213 255
184 213 255
184 213 255
184 213 255
184 213 255
184 213 255
184 213 255
184 213 255
185 213 255
184 213 255
185 213 255
185 213 255
185 213 255
185 213 255
185 213 255
185 213 255
185 213 255
185 213 255
185 213 255
185 213 255
185 213 255
185 213 255
185 213 255
185 213 255
185 213 255
185 213 255
185 213 255
185 213 255
185 213 255
185 213 255
185 213 255
185 213 255
185 213 255
185 213 255
185 213 255
185 213 255
185 213 255
185 213 255
185 213 255
185 213 255
185 213 255
185 213 255
185 213 255
185 213 255
185 213 255
186 214 255
186 214 255
186 214 255
186 214 255
186 214 255
186 214 255
186 214 255
186 214 255
186 214 255
186 214 255
186 214 255
186 214 255
186 214 255
186 214 255
186 214 255
186 214 255
186 214 255
186 214 255
186 214 255
186 214 255
186 214 255
186 214 255
186 214 255
186 214 255
186 214 255
186 214 255
186 214 255
186 214 255
186 214 255
186 214 255
186 214 255
186 214 255
186 214 255
187 214 255
186 214 255
186 214 255
186 214 255
186 214 255
186 214 255
186 214 255
186 214 255
186 214 255
186 214 255
186 214 255
186 214 255
186 214 255
186 214 255
186 214 255
186 214 255
186 214 255
186 214 255
186 214 255
186 214 255
186 214 255
186 214 255
186 214 255
186 214 255
186 214 255
186 214 255
186 214 255
186 214 255
186 214 255
186 214 255
186 214 255
186 214 255
186 214 255
186 214 255
186 214 255
186 214 255
186 214 255
186 214 255
186 214 255
186 214 255
186 214 255
186 214 255
186 214 255
185 213 255
185 213 255
186 214 255
185 213 255
185 213 255
185 213 255
185 213 255
185 213 255
185 213 255
185 213 255
185 213 255
185 213 255
185 213 255
185 213 255
185 213 255
185 213 255
185 213 255
185 213 255
185 213 255
185 213 255
185 213 255
185 213 255
185 213 255
185 213 255
185 213 255
185 213 255
185 213 255
185 213 255
185 213 255
185 213 255
185 213 255
185 213 255
185 213 255
185 213 255
185 213 255
185 213 255
185 213 255
185 213 255
184 213 255
185 213 255
184 213 255
184 213 255
184 213 255
184 213 255
184 213 255
184 213 255
184 213 255
184 213 255
184 213 255
184 213 255
184 213 255
184 213 255
184 213 255
184 213 255
184 213 255
184 213 255
184 213 255
184 213 255
184 213 255
184 212 255
184 212 255
184 212 255
184 212 255
184 212 255
184 212 255
184 212 255
184 212 255
184 212 255
183 212 255
184 212 255
183 212 255
183 212 255
183 212 255
183 212 255
183 212 255
183 212 255
183 212 255
183 212 255
183 212 255
183 212 255
183 212 255
183 212 255
183 212 255
183 212 255
183 212 255
183 212 255
183 212 255
183 212 255
183 212 255
183 212 255
183 212 255
183 212 255
183 212 255
183 212 255
136 161 198
64 79 102
73 90 115
68 84 108
52 66 86
72 89 115
63 79 102
59 74 95
63 81 108
63 77 97
76 91 115
56 72 95
60 74 95
71 87 111
72 86 108
64 79 102
66 83 108
65 77 95
68 82 102
74 96 127
57 74 99
65 80 102
66 83 108
66 83 108
59 76 102
66 82 105
71 88 115
67 81 102
76 92 115
74 90 115
60 73 92
65 80 102
57 70 89
66 80 102
65 82 108
57 72 95
57 70 89
71 87 111
68 81 102
63 81 108
64 79 102
60 75 97
70 85 108
62 78 102
47 57 71
71 86 108
69 83 105
64 80 105
69 84 105
69 85 110
73 92 121
58 70 89
68 87 115
66 80 102
59 74 97
74 90 115
66 80 102
62 78 102
64 79 102
51 67 91
66 79 97
65 81 105
68 85 110
68 85 111
46 59 78
53 69 92
60 74 95
71 89 115
59 76 102
76 91 115
56 71 92
68 83 105
62 77 99
65 83 108
53 65 83
57 70 89
54 68 89
42 52 67
62 78 102
63 79 103
53 65 83
67 79 95
65 80 102
77 95 121
61 77 102
74 90 115
67 81 102
75 93 121
64 82 108
57 71 92
53 65 83
85 102 127
62 78 102
63 78 102
63 81 108
80 96 121
62 78 102
68 82 103
48 59 76
68 84 108
60 77 102
73 90 115
68 84 108
74 88 108
74 93 121
64 79 102
66 83 108
50 61 78
61 77 102
72 87 108
58 71 90
68 84 108
60 77 102
71 87 111
50 63 83
62 75 95
55 69 89
59 73 95
66 81 103
57 72 95
67 84 108
64 80 105
60 77 102
54 68 89
63 79 102
120 141 172
183 212 255
183 212 255
183 212 255
183 212 255
183 212 255
183 212 255
183 212 255
183 212 255
183 212 255
183 212 255
183 212 255
183 212 255
183 212 255
183 212 255
183 212 255
183 212 255
183 212 255
183 212 255
183 212 255
183 212 255
183 212 255
183 212 255
183 212 255
183 212 255
184 212 255
184 212 255
184 212 255
184 212 255
184 212 255
184 212 255
184 212 255
184 212 255
184 212 255
184 212 255
184 212 255
184 212 255
184 213 255
184 213 255
184 213 255
184 213 255
184 213 255
184 213 255
184 213 255
184 213 255
184 213 255
184 213 255
184 213 255
184 213 255
184 213 255
184 213 255
184 213 255
184 213 255
184 213 255
184 213 255
184 213 255
185 213 255
185 213 255
185 213 255
185 213 255
185 213 255
185 213 255
185 213 255
185 213 255
185 213 255
185 213 255
185 213 255
185 213 255
185 213 255
185 213 255
185 213 255
185 213 255
185 213 255
185 213 255
185 213 255
185 213 255
185 213 255
185 213 255
185 213 255
185 213 255
185 213 255
185 213 255
185 213 255
185 213 255
185 213 255
185 213 255
185 213 255
185 213 255
185 213 255
185 213 255
185 213 255
185 213 255
186 214 255
186 214 255
186 214 255
186 214 255
186 214 255
186 214 255
186 214 255
186 214 255
186 214 255
186 214 255
186 214 255
186 214 255
186 214 255
186 214 255
186 214 255
186 214 255
186 214 255
186 214 255
186 214 255
186 214 255
186 214 255
186 214 255
186 214 255
186 214 255
186 214 255
186 214 255
186 214 255
186 214 255
186 214 255
186 214 255
186 214 255
186 214 255
186 214 255
186 214 255
186 214 255
186 214 255
186 214 255
186 214 255
186 214 255
186 214 255
186 214 255
186 214 255
186 214 255
186 214 255
186 214 255
186 214 255
187 214 255
187 214 255
187 214 255
187 214 255
187 214 255
187 214 255
187 214 255
187 214 255
187 214 255
187 214 255
187 214 255
187 214 255
187 214 255
187 214 255
186 214 255
186 214 255
186 214 255
186 214 255
186 214 255
186 214 255
186 214 255
186 214 255
186 214 255
186 214 255
186 214 255
186 214 255
186 214 255
186 214 255
186 214 255
186 214 255
186 214 255
186 214 255
186 214 255
186 214 255
186 214 255
186 214 255
186 214 255
186 214 255
186 214 255
186 214 255
186 214 255
186 214 255
186 214 255
186 214 255
186 214 255
186 214 255
186 214 255
186 214 255
186 214 255
186 214 255
186 214 255
186 214 255
186 214 255
186 214 255
186 214 255
186 214 255
186 214 255
186 214 255
186 214 255
185 213 255
185 213 255
185 213 255
185 213 255
185 213 255
185 213 255
185 213 255
185 213 255
185 213 255
185 213 255
185 213 255
185 213 255
185 213 255
185 213 255
185 213 255
185 213 255
185 213 255
185 213 255
185 213 255
185 213 255
185 213 255
185 213 255
185 213 255
185 213 255
185 213 255
185 213 255
185 213 255
185 213 255
185 213 255
185 213 255
185 213 255
185 213 255
185 213 255
185 213 255
184 213 255
184 213 255
184 213 255
184 213 255
184 213 255
184 213 255
184 213 255
184 213 255
184 213 255
184 213 255
184 213 255
184 213 255
184 213 255
184 213 255
184 213 255
184 213 255
184 213 255
184 213 255
184 213 255
184 213 255
184 212 255
184 213 255
184 213 255
184 212 255
184 212 255
184 212 255
184 212 255
184 212 255
184 212 255
184 212 255
184 212 255
184 212 255
184 212 255
183 212 255
183 212 255
183 212 255
183 212 255
183 212 255
183 212 255
183 212 255
183 212 255
183 212 255
183 212 255
183 212 255
124 144 175
57 70 89
57 75 102
73 89 115
67 89 121
66 86 115
69 87 115
62 76 95
54 68 89
60 79 108
64 79 102
72 86 108
60 76 102
52 65 86
55 68 87
71 88 115
73 92 121
59 72 91
62 76 97
60 74 95
55 67 84
70 83 102
70 86 108
61 77 102
59 74 95
50 65 87
57 70 89
51 63 83
55 66 83
75 96 127
64 82 108
56 72 95
67 81 102
78 92 115
70 86 108
52 64 83
55 69 89
67 81 103
74 93 121
68 84 108
80 97 121
70 86 110
58 74 97
65 80 102
56 70 92
74 89 111
60 75 97
51 64 83
59 72 91
62 75 95
61 78 102
63 81 108
61 73 91
61 77 102
71 86 108
59 76 102
66 83 108
66 81 103
44 53 68
61 77 102
65 80 102
55 70 92
71 88 115
63 76 95
61 77 102
69 85 108
63 76 95
69 85 108
61 77 102
63 76 95
66 80 102
73 87 108
51 63 79
71 86 108
64 79 102
57 75 102
61 75 95
65 78 99
58 76 102
62 78 102
59 74 95
68 84 108
74 88 108
66 83 108
79 96 121
68 81 102
58 73 95
74 90 115
49 61 79
55 72 97
74 90 115
69 86 111
76 94 121
60 74 95
73 87 108
54 66 86
57 70 91
68 84 108
53 64 79
65 82 108
66 83 108
71 89 115
31 40 54
67 81 102
75 93 121
64 77 95
52 65 83
58 71 89
53 67 89
51 64 84
60 72 89
65 78 97
70 85 108
59 74 95
53 65 84
64 82 108
60 77 102
64 79 102
69 84 105
56 69 89
70 85 108
55 69 91
73 87 108
65 80 102
67 84 108
128 151 185
183 212 255
183 212 255
183 212 255
183 212 255
183 212 255
183 212 255
183 212 255
183 212 255
183 212 255
183 212 255
183 212 255
184 212 255
183 212 255
184 212 255
184 212 255
184 212 255
184 212 255
184 212 255
184 212 255
184 212 255
184 212 255
184 212 255
184 213 255
184 213 255
184 212 255
184 213 255
184 213 255
184 213 255
184 213 255
184 213 255
184 213 255
184 213 255
184 213 255
184 213 255
184 213 255
184 213 255
184 213 255
184 213 255
184 213 255
184 213 255
184 213 255
184 213 255
184 213 255
185 213 255
185 213 255
185 213 255
185 213 255
185 213 255
185 213 255
185 213 255
185 213 255
185 213 255
185 213 255
185 213 255
185 213 255
185 213 255
185 213 255
185 213 255
185 213 255
185 213 255
185 213 255
185 213 255
185 213 255
185 213 255
185 213 255
185 213 255
185 213 255
185 213 255
185 213 255
185 213 255
185 213 255
185 213 255
185 213 255
185 213 255
185 213 255
185 213 255
185 213 255
186 214 255
185 213 255
186 214 255
186 214 255
186 214 255
186 214 255
186 214 255
186 214 255
186 214 255
186 214 255
186 214 255
186 214 255
186 214 255
186 214 255
186 214 255
186 214 255
186 214 255
186 214 255
186 214 255
186 214 255
186 214 255
186 214 255
186 214 255
186 214 255
186 214 255
186 214 255
186 214 255
186 214 255
186 214 255
186 214 255
186 214 255
186 214 255
186 214 255
186 214 255
186 214 255
186 214 255
186 214 255
186 214 255
186 214 255
186 214 255
186 214 255
186 214 255
186 214 255
186 214 255
187 214 255
186 214 255
187 214 255
187 214 255
187 214 255
187 214 255
187 214 255
187 214 255
187 214 255
187 214 255
187 214 255
187 214 255
187 214 255
187 214 255
187 214 255
187 214 255
187 214 255
187 214 255
187 214 255
187 214 255
187 214 255
187 214 255
187 214 255
187 214 255
187 214 255
187 214 255
187 214 255
187 214 255
187 214 255
187 214 255
187 214 255
187 214 255
187 214 255
187 214 255
187 214 255
187 214 255
187 214 255
187 214 255
187 214 255
187 214 255
187 214 255
187 214 255
187 214 255
187 214 255
187 214 255
186 214 255
186 214 255
186 214 255
186 214 255
186 214 255
186 214 255
186 214 255
186 214 255
186 214 255
186 214 255
186 214 255
186 214 255
186 214 255
186 214 255
186 214 255
186 214 255
186 214 255
186 214 255
186 214 255
186 214 255
186 214 255
186 214 255
186 214 255
186 214 255
186 214 255
186 214 255
186 214 255
186 214 255
186 214 255
186 214 255
186 214 255
186 214 255
186 214 255
186 214 255
186 214 255
186 214 255
186 214 255
186 214 255
186 214 255
186 214 255
186 214 255
186 214 255
186 214 255
185 213 255
186 214 255
186 214 255
185 213 255
185 213 255
185 213 255
185 213 255
185 213 255
185 213 255
185 213 255
185 213 255
185 213 255
185 213 255
185 213 255
185 213 255
185 213 255
185 213 255
185 213 255
185 213 255
185 213 255
185 213 255
185 213 255
185 213 255
185 213 255
185 213 255
185 213 255
185 213 255
185 213 255
185 213 255
185 213 255
185 213 255
185 213 255
185 213 255
185 213 255
184 213 255
185 213 255
184 213 255
184 213 255
184 213 255
184 213 255
184 213 255
184 213 255
184 213 255
184 213 255
184 213 255
184 213 255
184 213 255
184 213 255
184 213 255
184 213 255
184 213 255
184 213 255
184 213 255
184 213 255
184 213 255
184 213 255
184 213 255
184 212 255
184 212 255
184 212 255
184 212 255
184 212 255
184 212 255
184 212 255
184 212 255
64 77 97
53 68 89
56 71 92
70 86 108
62 76 97
70 85 108
63 79 103
53 64 81
60 77 102
59 71 89
62 78 102
69 85 108
54 66 84
68 82 102
60 75 97
49 63 83
55 68 86
51 63 83
60 74 95
52 67 89
46 58 76
51 69 95
69 82 102
70 88 115
64 78 99
60 74 95
62 78 102
63 81 108
71 88 115
62 78 102
57 73 95
57 72 95
64 76 95
49 61 78
62 78 102
60 74 95
56 69 89
76 91 115
60 77 102
58 74 99
63 78 102
54 66 84
65 79 102
78 95 121
64 77 97
47 62 83
59 73 95
71 91 121
65 82 108
72 89 115
69 85 108
74 90 115
71 86 108
65 80 102
79 96 121
63 78 102
54 68 89
55 70 92
71 89 115
54 68 89
58 73 95
59 74 97
65 82 108
60 74 95
59 74 95
82 98 121
57 68 86
74 90 115
59 74 95
74 90 115
67 84 108
67 84 108
58 71 91
64 77 95
59 76 102
47 59 76
70 88 115
69 85 108
65 80 102
72 89 115
52 64 83
66 81 102
53 65 84
68 84 108
62 78 102
57 72 95
69 85 108
59 76 102
67 83 108
60 75 97
65 80 102
68 84 108
44 55 73
70 85 108
69 85 108
66 85 115
57 72 95
69 84 108
69 88 115
44 54 70
63 76 95
69 85 108
59 76 102
50 61 78
64 79 102
59 73 95
69 85 108
53 66 86
75 91 115
45 55 70
57 70 89
67 83 108
72 89 115
74 93 121
79 96 121
54 67 86
62 80 108
73 90 115
77 92 115
67 83 108
70 86 110
68 84 108
68 84 108
59 71 89
77 95 121
64 77 95
184 212 255
184 212 255
184 212 255
184 212 255
184 212 255
184 212 255
184 212 255
184 212 255
184 213 255
184 213 255
184 213 255
184 213 255
184 213 255
184 213 255
184 213 255
184 213 255
184 213 255
184 213 255
184 213 255
184 213 255
184 213 255
184 213 255
184 213 255
184 213 255
184 213 255
184 213 255
184 213 255
184 213 255
184 213 255
185 213 255
185 213 255
185 213 255
185 213 255
185 213 255
185 213 255
185 213 255
185 213 255
185 213 255
185 213 255
185 213 255
185 213 255
185 213 255
185 213 255
185 213 255
185 213 255
185 213 255
185 213 255
185 213 255
185 213 255
185 213 255
185 213 255
185 213 255
185 213 255
185 213 255
185 213 255
185 213 255
185 213 255
185 213 255
185 213 255
185 213 255
185 213 255
185 213 255
185 213 255
185 213 255
186 214 255
186 214 255
186 214 255
186 214 255
186 214 255
186 214 255
186 214 255
186 214 255
186 214 255
186 214 255
186 214 255
186 214 255
186 214 255
186 214 255
186 214 255
186 214 255
186 214 255
186 214 255
186 214 255
186 214 255
186 214 255
186 214 255
186 214 255
186 214 255
186 214 255
186 214 255
186 214 255
186 214 255
186 214 255
186 214 255
186 214 255
186 214 255
186 214 255
186 214 255
186 214 255
186 214 255
186 214 255
186 214 255
186 214 255
186 214 255
186 214 255
186 214 255
186 214 255
187 214 255
187 214 255
187 214 255
187 214 255
187 214 255
187 214 255
187 214 255
187 214 255
187 214 255
187 214 255
187 214 255
187 214 255
187 214 255
187 214 255
187 214 255
187 214 255
187 214 255
187 214 255
187 214 255
187 214 255
187 214 255
187 214 255
187 214 255
187 214 255
187 214 255
187 214 255
187 214 255
187 214 255
187 214 255
187 214 255
187 215 255
187 215 255
187 215 255
187 215 255
187 215 255
187 215 255
187 215 255
187 215 255
187 214 255
187 214 255
187 214 255
187 214 255
187 214 255
187 214 255
187 214 255
187 214 255
187 214 255
187 214 255
187 214 255
187 214 255
187 214 255
187 214 255
187 214 255
187 214 255
187 214 255
187 214 255
187 214 255
187 214 255
187 214 255
187 214 255
187 214 255
187 214 255
187 214 255
187 214 255
187 214 255
187 214 255
187 214 255
187 214 255
187 214 255
187 214 255
187 214 255
187 214 255
187 214 255
187 214 255
186 214 255
186 214 255
186 214 255
186 214 255
186 214 255
186 214 255
186 214 255
186 214 255
186 214 255
186 214 255
186 214 255
186 214 255
186 214 255
186 214 255
186 214 255
186 214 255
186 214 255
186 214 255
186 214 255
186 214 255
186 214 255
186 214 255
186 214 255
186 214 255
186 214 255
186 214 255
186 214 255
186 214 255
186 214 255
186 214 255
186 214 255
186 214 255
186 214 255
186 214 255
186 214 255
186 214 255
186 214 255
186 214 255
186 214 255
186 214 255
186 214 255
185 213 255
186 214 255
185 213 255
185 213 255
185 213 255
185 213 255
185 213 255
185 213 255
185 213 255
185 213 255
185 213 255
185 213 255
185 213 255
185 213 255
185 213 255
185 213 255
185 213 255
185 213 255
185 213 255
185 213 255
185 213 255
185 213 255
185 213 255
185 213 255
185 213 255
185 213 255
185 213 255
185 213 255
185 213 255
185 213 255
185 213 255
185 213 255
185 213 255
185 213 255
185 213 255
185 213 255
184 213 255
185 213 255
184 213 255
185 213 255
184 213 255
184 213 255
184 213 255
184 213 255
184 213 255
184 213 255
184 213 255
184 213 255
184 213 255
184 213 255
184 213 255
154 179 217
75 91 115
62 74 92
62 78 102
55 72 97
63 79 102
71 86 108
64 82 108
75 91 115
56 68 86
53 66 86
78 98 127
54 69 91
63 76 95
66 80 102
55 67 84
67 84 108
67 81 102
66 78 95
64 84 115
71 86 108
64 82 108
48 60 78
70 85 108
62 83 115
58 73 95
63 78 102
66 83 108
60 73 92
67 84 108
56 70 89
71 86 110
73 87 108
68 84 108
74 90 115
56 69 89
61 75 95
74 88 108
63 75 92
62 78 102
59 72 92
67 81 102
59 73 95
54 69 91
78 95 121
61 77 102
78 93 115
67 83 108
63 79 102
54 68 89
58 76 102
57 71 93
53 66 86
61 80 108
59 73 95
61 77 102
60 74 95
70 85 109
69 87 115
74 93 121
66 83 108
61 78 102
60 72 91
73 90 115
66 83 108
64 79 102
69 85 108
65 77 95
78 95 121
61 78 102
49 60 76
62 78 102
56 72 95
55 70 91
59 74 96
49 60 76
61 75 95
70 88 115
58 71 91
55 69 91
69 87 115
69 85 108
62 77 99
63 78 102
56 70 92
73 90 115
51 62 79
67 83 108
64 79 102
66 81 102
56 69 89
69 85 108
64 81 108
48 62 83
68 84 108
65 77 95
82 100 127
61 77 102
60 74 95
48 61 79
52 64 83
66 83 108
60 77 102
74 93 121
65 82 108
70 86 108
66 81 102
51 63 81
77 94 121
60 74 95
64 80 103
71 86 108
68 84 108
67 83 108
58 70 87
68 81 102
62 76 97
62 76 96
61 75 96
71 88 115
63 76 95
67 81 102
68 84 108
61 75 95
61 75 97
72 89 115
59 74 97
156 180 217
184 213 255
184 213 255
184 213 255
184 213 255
184 213 255
184 213 255
184 213 255
184 213 255
184 213 255
184 213 255
184 213 255
185 213 255
184 213 255
185 213 255
184 213 255
185 213 255
185 213 255
185 213 255
185 213 255
185 213 255
185 213 255
185 213 255
185 213 255
185 213 255
185 213 255
185 213 255
185 213 255
185 213 255
185 213 255
185 213 255
185 213 255
185 213 255
185 213 255
185 213 255
185 213 255
185 213 255
185 213 255
185 213 255
185 213 255
185 213 255
185 213 255
185 213 255
185 213 255
185 213 255
185 213 255
185 213 255
185 213 255
186 213 255
186 214 255
186 214 255
186 214 255
186 214 255
186 214 255
186 214 255
186 214 255
186 214 255
186 214 255
186 214 255
186 214 255
186 214 255
186 214 255
186 214 255
186 214 255
186 214 255
186 214 255
186 214 255
186 214 255
186 214 255
186 214 255
186 214 255
186 214 255
186 214 255
186 214 255
186 214 255
186 214 255
186 214 255
186 214 255
186 214 255
186 214 255
186 214 255
186 214 255
186 214 255
186 214 255
186 214 255
186 214 255
186 214 255
186 214 255
186 214 255
187 214 255
186 214 255
186 214 255
187 214 255
187 214 255
187 214 255
187 214 255
187 214 255
187 214 255
187 214 255
187 214 255
187 214 255
187 214 255
187 214 255
187 214 255
187 214 255
187 214 255
187 214 255
187 214 255
187 214 255
187 214 255
187 214 255
187 214 255
187 214 255
187 214 255
187 214 255
187 214 255
187 214 255
187 214 255
187 214 255
187 214 255
187 214 255
187 214 255
187 214 255
187 214 255
187 214 255
187 215 255
187 214 255
187 215 255
187 215 255
187 215 255
187 215 255
187 215 255
187 215 255
187 215 255
187 215 255
187 215 255
187 215 255
188 215 255
188 215 255
188 215 255
188 215 255
188 215 255
188 215 255
187 215 255
187 215 255
187 215 255
187 215 255
187 215 255
187 215 255
187 215 255
187 215 255
187 215 255
187 215 255
187 215 255
187 215 255
187 215 255
187 215 255
187 215 255
187 215 255
187 215 255
187 215 255
187 215 255
187 215 255
187 215 255
187 214 255
187 215 255
187 214 255
187 214 255
187 214 255
187 214 255
187 214 255
187 214 255
187 214 255
187 214 255
187 214 255
187 214 255
187 214 255
187 214 255
187 214 255
187 214 255
187 214 255
187 214 255
187 214 255
187 214 255
187 214 255
187 214 255
187 214 255
187 214 255
187 214 255
187 214 255
187 214 255
187 214 255
187 214 255
187 214 255
187 214 255
187 214 255
187 214 255
187 214 255
186 214 255
186 214 255
186 214 255
186 214 255
186 214 255
186 214 255
186 214 255
186 214 255
186 214 255
186 214 255
186 214 255
186 214 255
186 214 255
186 214 255
186 214 255
186 214 255
186 214 255
186 214 255
186 214 255
186 214 255
186 214 255
186 214 255
186 214 255
186 214 255
186 214 255
186 214 255
186 214 255
186 214 255
186 214 255
186 214 255
186 214 255
186 214 255
186 214 255
186 214 255
186 214 255
186 214 255
186 214 255
186 214 255
186 214 255
186 214 255
185 213 255
186 214 255
185 213 255
185 213 255
186 214 255
185 213 255
185 213 255
185 213 255
185 213 255
185 213 255
185 213 255
185 213 255
185 213 255
185 213 255
185 213 255
185 213 255
185 213 255
185 213 255
185 213 255
185 213 255
185 213 255
185 213 255
185 213 255
185 213 255
185 213 255
185 213 255
185 213 255
185 213 255
185 213 255
185 213 255
185 213 255
185 213 255
185 213 255
185 213 255
185 213 255
115 135 166
50 63 83
65 80 102
62 76 97
65 80 102
69 85 108
54 68 89
62 78 102
76 94 121
55 69 89
77 92 115
74 91 115
60 74 95
53 65 83
57 72 95
64 82 108
69 82 102
57 70 89
76 90 111
66 83 108
70 86 108
63 78 102
63 76 95
72 89 115
64 80 103
59 73 94
57 71 92
68 84 108
56 72 95
59 74 97
54 67 86
63 79 102
62 75 95
63 77 97
77 92 115
73 89 115
59 71 91
67 84 108
64 82 108
56 69 89
60 74 95
67 84 108
64 79 102
64 79 102
72 89 115
55 69 89
51 63 79
61 77 102
58 73 95
65 80 102
53 65 83
66 79 99
58 73 95
62 78 102
69 85 108
63 79 102
57 72 95
55 69 91
70 88 115
63 76 95
49 63 83
63 79 102
72 89 115
60 77 102
50 64 83
61 75 95
66 81 103
73 89 115
49 60 77
64 79 102
58 73 95
65 78 97
70 85 108
66 79 97
77 94 121
58 70 89
70 88 115
68 84 108
64 78 99
65 80 102
61 75 95
60 71 87
64 77 95
72 89 115
70 88 115
71 86 108
62 75 95
56 70 91
68 84 108
58 73 95
56 69 89
65 80 102
68 86 115
44 54 68
70 85 108
56 70 91
72 91 121
44 55 72
69 83 103
65 82 108
68 82 102
53 68 89
62 77 99
66 81 102
64 79 102
63 76 95
65 77 95
53 70 95
64 76 95
57 70 89
66 83 108
60 74 95
62 78 102
63 79 102
72 89 115
65 82 108
61 75 95
54 69 91
75 91 115
68 87 115
76 94 121
52 67 89
74 93 121
76 92 115
68 84 108
63 81 108
58 71 91
141 164 198
185 213 255
185 213 255
185 213 255
185 213 255
185 213 255
185 213 255
185 213 255
185 213 255
185 213 255
185 213 255
185 213 255
185 213 255
185 213 255
185 213 255
185 213 255
185 213 255
185 213 255
185 213 255
185 213 255
185 213 255
185 213 255
185 213 255
185 213 255
185 213 255
185 213 255
185 213 255
185 213 255
185 213 255
185 213 255
185 213 255
185 213 255
185 213 255
186 214 255
185 213 255
186 214 255
186 214 255
186 214 255
186 214 255
186 214 255
186 214 255
186 214 255
186 214 255
186 214 255
186 214 255
186 214 255
186 214 255
186 214 255
186 214 255
186 214 255
186 214 255
186 214 255
186 214 255
186 214 255
186 214 255
186 214 255
186 214 255
186 214 255
186 214 255
186 214 255
186 214 255
186 214 255
186 214 255
186 214 255
186 214 255
186 214 255
186 214 255
186 214 255
186 214 255
186 214 255
186 214 255
186 214 255
186 214 255
186 214 255
186 214 255
186 214 255
187 214 255
187 214 255
187 214 255
187 214 255
187 214 255
187 214 255
187 214 255
187 214 255
187 214 255
187 214 255
187 214 255
187 214 255
187 214 255
187 214 255
187 214 255
187 214 255
187 214 255
187 214 255
187 214 255
187 214 255
187 214 255
187 214 255
187 214 255
187 214 255
187 214 255
187 214 255
187 214 255
187 214 255
187 214 255
187 214 255
187 214 255
187 214 255
187 214 255
187 214 255
187 214 255
187 214 255
187 215 255
187 215 255
187 215 255
187 215 255
187 215 255
187 215 255
187 215 255
187 215 255
187 215 255
187 215 255
187 215 255
187 215 255
187 215 255
187 215 255
187 215 255
187 215 255
187 215 255
187 215 255
188 215 255
188 215 255
187 215 255
188 215 255
188 215 255
188 215 255
188 215 255
188 215 255
188 215 255
188 215 255
188 215 255
188 215 255
188 215 255
188 215 255
188 215 255
188 215 255
188 215 255
188 215 255
188 215 255
188 215 255
188 215 255
188 215 255
188 215 255
188 215 255
188 215 255
188 215 255
188 215 255
188 215 255
188 215 255
188 215 255
188 215 255
187 215 255
188 215 255
187 215 255
187 215 255
187 215 255
187 215 255
187 215 255
187 215 255
187 215 255
187 215 255
187 215 255
187 215 255
187 215 255
187 215 255
187 215 255
187 215 255
187 215 255
187 215 255
187 215 255
187 215 255
187 214 255
187 214 255
187 214 255
187 214 255
187 214 255
187 214 255
187 214 255
187 214 255
187 214 255
187 214 255
187 214 255
187 214 255
187 214 255
187 214 255
187 214 255
187 214 255
187 214 255
187 214 255
187 214 255
187 214 255
187 214 255
187 214 255
187 214 255
187 214 255
187 214 255
187 214 255
187 214 255
187 214 255
187 214 255
187 214 255
187 214 255
187 214 255
187 214 255
187 214 255
186 214 255
186 214 255
186 214 255
186 214 255
186 214 255
186 214 255
186 214 255
186 214 255
186 214 255
186 214 255
186 214 255
186 214 255
186 214 255
186 214 255
186 214 255
186 214 255
186 214 255
186 214 255
186 214 255
186 214 255
186 214 255
186 214 255
186 214 255
186 214 255
186 214 255
186 214 255
186 214 255
186 214 255
186 214 255
186 214 255
186 214 255
186 214 255
186 214 255
186 214 255
186 214 255
186 214 255
186 214 255
186 214 255
186 214 255
186 214 255
186 214 255
186 214 255
186 214 255
185 213 255
185 213 255
185 213 255
185 213 255
185 213 255
185 213 255
185 213 255
185 213 255
185 213 255
185 213 255
185 213 255
185 213 255
185 213 255
185 213 255
185 213 255
128 151 185
56 70 89
70 86 108
68 82 102
70 88 115
41 51 65
60 73 92
57 70 89
63 76 95
69 90 121
62 78 102
62 78 102
64 79 102
73 90 115
64 79 102
66 80 102
64 79 102
60 77 102
53 67 87
72 89 115
66 80 102
61 77 102
66 82 105
73 87 108
75 93 121
69 85 108
61 76 99
62 76 96
74 87 108
56 72 95
55 69 89
73 89 115
67 84 108
55 67 86
51 64 83
66 81 103
62 75 95
69 85 108
73 87 109
67 81 102
57 69 87
51 65 86
70 88 115
57 72 95
56 70 92
74 91 115
60 72 89
67 84 110
64 79 102
67 86 115
63 79 102
50 63 83
65 79 102
77 92 115
55 69 89
54 66 84
58 70 89
66 83 108
61 77 102
62 78 102
68 84 108
70 85 108
63 76 95
63 81 108
69 84 108
65 82 108
60 74 95
52 65 83
53 63 78
79 93 115
63 78 102
78 95 121
58 71 89
67 83 108
61 75 95
54 68 89
60 74 95
57 73 97
65 80 102
65 80 102
69 85 108
67 79 97
56 69 89
46 61 83
55 68 89
75 91 115
72 89 115
54 69 91
64 77 97
76 94 121
61 72 89
67 83 108
49 63 83
65 77 95
55 67 84
72 89 115
64 79 102
68 84 108
72 89 115
69 82 102
68 82 102
55 69 89
79 96 121
51 64 84
64 79 102
49 60 77
78 95 121
60 73 92
57 70 89
59 74 95
60 77 102
72 89 115
55 70 91
60 74 95
67 86 115
57 71 91
61 79 105
67 81 102
70 90 121
61 77 102
65 81 103
69 87 115
62 78 102
70 88 115
59 72 92
52 64 83
62 75 95
132 153 185
185 213 255
185 213 255
185 213 255
185 213 255
185 213 255
185 213 255
185 213 255
185 213 255
185 213 255
185 213 255
185 213 255
185 213 255
185 213 255
185 213 255
185 213 255
185 213 255
186 214 255
185 213 255
186 214 255
186 214 255
186 214 255
186 214 255
186 214 255
186 214 255
186 214 255
186 214 255
186 214 255
186 214 255
186 214 255
186 214 255
186 214 255
186 214 255
186 214 255
186 214 255
186 214 255
186 214 255
186 214 255
186 214 255
186 214 255
186 214 255
186 214 255
186 214 255
186 214 255
186 214 255
186 214 255
186 214 255
186 214 255
186 214 255
186 214 255
186 214 255
186 214 255
186 214 255
186 214 255
186 214 255
186 214 255
187 214 255
186 214 255
186 214 255
187 214 255
187 214 255
187 214 255
187 214 255
187 214 255
187 214 255
187 214 255
187 214 255
187 214 255
187 214 255
187 214 255
187 214 255
187 214 255
187 214 255
187 214 255
187 214 255
187 214 255
187 214 255
187 214 255
187 214 255
187 214 255
187 214 255
187 214 255
187 214 255
187 214 255
187 214 255
187 214 255
187 214 255
187 214 255
187 214 255
187 214 255
187 214 255
187 214 255
187 215 255
187 215 255
187 215 255
187 215 255
187 215 255
187 215 255
187 215 255
187 215 255
187 215 255
187 215 255
187 215 255
187 215 255
187 215 255
187 215 255
187 215 255
187 215 255
187 215 255
187 215 255
187 215 255
187 215 255
188 215 255
188 215 255
188 215 255
188 215 255
188 215 255
188 215 255
188 215 255
188 215 255
188 215 255
188 215 255
188 215 255
188 215 255
188 215 255
188 215 255
188 215 255
188 215 255
188 215 255
188 215 255
188 215 255
188 215 255
188 215 255
188 215 255
188 215 255
188 215 255
188 215 255
188 215 255
188 215 255
188 215 255
188 215 255
188 215 255
188 215 255
188 215 255
188 215 255
188 215 255
188 215 255
188 215 255
188 215 255
188 215 255
188 215 255
188 215 255
188 215 255
188 215 255
188 215 255
188 215 255
188 215 255
188 215 255
188 215 255
188 215 255
188 215 255
188 215 255
188 215 255
188 215 255
188 215 255
188 215 255
188 215 255
188 215 255
188 215 255
188 215 255
188 215 255
188 215 255
188 215 255
188 215 255
188 215 255
188 215 255
188 215 255
188 215 255
188 215 255
188 215 255
188 215 255
187 215 255
188 215 255
188 215 255
187 215 255
187 215 255
187 215 255
187 215 255
187 215 255
187 215 255
187 215 255
187 215 255
187 215 255
187 215 255
187 215 255
187 215 255
187 215 255
187 215 255
187 215 255
187 215 255
187 215 255
187 214 255
187 214 255
187 214 255
187 214 255
187 214 255
187 214 255
187 214 255
187 214 255
187 214 255
187 214 255
187 214 255
187 214 255
187 214 255
187 214 255
187 214 255
187 214 255
187 214 255
187 214 255
187 214 255
187 214 255
187 214 255
187 214 255
187 214 255
187 214 255
187 214 255
187 214 255
187 214 255
187 214 255
187 214 255
187 214 255
187 214 255
186 214 255
187 214 255
186 214 255
186 214 255
186 214 255
186 214 255
186 214 255
186 214 255
186 214 255
186 214 255
186 214 255
186 214 255
186 214 255
186 214 255
186 214 255
186 214 255
186 214 255
186 214 255
186 214 255
186 214 255
186 214 255
186 214 255
186 214 255
186 214 255
186 214 255
186 214 255
186 214 255
186 214 255
186 214 255
186 214 255
186 214 255
186 214 255
186 214 255
186 214 255
186 214 255
186 214 255
186 214 255
186 214 255
186 214 255
186 214 255
186 214 255
70 86 110
67 82 105
68 84 108
70 88 115
71 89 115
64 79 102
73 88 110
67 84 108
54 69 91
75 93 121
61 72 89
69 82 102
66 83 108
66 83 108
69 87 115
55 68 86
65 76 94
51 66 89
59 71 89
69 87 115
72 89 115
45 58 78
65 80 102
72 89 115
64 79 102
66 80 102
62 75 95
57 72 95
56 72 95
65 82 108
69 82 102
68 84 108
53 68 91
66 80 102
65 77 95
44 55 70
64 79 102
50 63 83
64 77 95
56 71 92
61 75 95
57 72 95
64 79 102
47 57 73
65 79 99
71 86 109
67 83 108
66 80 102
61 73 91
61 72 89
58 76 102
73 90 115
68 87 115
55 70 92
61 77 102
68 84 108
60 77 102
59 71 89
66 80 103
70 88 115
71 83 102
69 83 105
64 80 103
60 72 91
68 84 108
63 75 92
60 74 95
49 61 79
67 84 108
62 76 95
65 82 108
56 71 92
73 90 115
77 92 116
62 73 89
66 80 102
65 80 102
51 64 83
62 78 100
66 81 102
78 95 121
60 73 91
70 83 102
69 84 108
45 56 71
60 75 97
65 80 102
67 81 102
63 80 105
60 73 92
76 93 118
56 69 89
72 86 108
47 58 73
61 77 102
55 69 89
62 78 102
65 80 102
60 75 99
55 67 86
78 95 121
64 79 102
63 78 102
73 87 108
62 78 102
58 71 89
75 89 111
61 80 108
65 79 99
64 79 102
70 85 108
53 66 86
69 85 108
69 85 108
52 66 86
68 84 108
65 79 102
61 80 108
67 84 108
67 83 108
61 76 99
67 84 108
64 79 102
56 72 95
62 78 102
52 67 89
69 90 121
89 107 134
186 214 255
186 214 255
186 214 255
186 214 255
186 214 255
186 214 255
186 214 255
186 214 255
186 214 255
186 214 255
186 214 255
186 214 255
186 214 255
186 214 255
186 214 255
186 214 255
186 214 255
186 214 255
186 214 255
186 214 255
186 214 255
186 214 255
186 214 255
186 214 255
186 214 255
186 214 255
186 214 255
186 214 255
186 214 255
186 214 255
186 214 255
186 214 255
186 214 255
186 214 255
186 214 255
186 214 255
186 214 255
186 214 255
186 214 255
186 214 255
187 214 255
187 214 255
187 214 255
187 214 255
187 214 255
187 214 255
187 214 255
187 214 255
187 214 255
187 214 255
187 214 255
187 214 255
187 214 255
187 214 255
187 214 255
187 214 255
187 214 255
187 214 255
187 214 255
187 214 255
187 214 255
187 214 255
187 214 255
187 214 255
187 214 255
187 214 255
187 214 255
187 214 255
187 214 255
187 214 255
187 214 255
187 214 255
187 214 255
187 215 255
187 215 255
187 215 255
187 215 255
187 215 255
187 215 255
187 215 255
187 215 255
187 215 255
187 215 255
187 215 255
187 215 255
187 215 255
187 215 255
187 215 255
187 215 255
187 215 255
188 215 255
188 215 255
188 215 255
188 215 255
188 215 255
188 215 255
188 215 255
188 215 255
188 215 255
188 215 255
188 215 255
188 215 255
188 215 255
188 215 255
188 215 255
188 215 255
188 215 255
188 215 255
188 215 255
188 215 255
188 215 255
188 215 255
188 215 255
188 215 255
188 215 255
188 215 255
188 215 255
188 215 255
188 215 255
188 215 255
188 215 255
188 215 255
188 215 255
188 215 255
188 215 255
188 215 255
188 215 255
188 215 255
188 215 255
188 215 255
188 215 255
188 215 255
188 215 255
188 215 255
188 215 255
188 215 255
188 215 255
188 215 255
188 215 255
188 215 255
188 215 255
188 215 255
188 215 255
188 215 255
188 215 255
188 215 255
188 215 255
188 215 255
188 215 255
188 215 255
188 215 255
188 215 255
188 215 255
188 215 255
188 215 255
188 215 255
188 215 255
188 215 255
188 215 255
188 215 255
188 215 255
188 215 255
188 215 255
188 215 255
188 215 255
188 215 255
188 215 255
188 215 255
188 215 255
188 215 255
188 215 255
188 215 255
188 215 255
188 215 255
188 215 255
188 215 255
188 215 255
188 215 255
188 215 255
188 215 255
188 215 255
188 215 255
188 215 255
188 215 255
188 215 255
188 215 255
188 215 255
188 215 255
188 215 255
188 215 255
188 215 255
188 215 255
188 215 255
188 215 255
188 215 255
188 215 255
188 215 255
188 215 255
188 215 255
188 215 255
187 215 255
188 215 255
187 215 255
187 215 255
187 215 255
187 215 255
187 215 255
187 215 255
187 215 255
187 215 255
187 215 255
187 215 255
187 215 255
187 215 255
187 215 255
187 215 255
187 215 255
187 215 255
187 215 255
187 215 255
187 214 255
187 214 255
187 214 255
187 214 255
187 214 255
187 214 255
187 214 255
187 214 255
187 214 255
187 214 255
187 214 255
187 214 255
187 214 255
187 214 255
187 214 255
187 214 255
187 214 255
187 214 255
187 214 255
187 214 255
187 214 255
187 214 255
187 214 255
187 214 255
187 214 255
187 214 255
187 214 255
187 214 255
187 214 255
186 214 255
186 214 255
187 214 255
187 214 255
186 214 255
186 214 255
186 214 255
186 214 255
186 214 255
186 214 255
186 214 255
186 214 255
186 214 255
186 214 255
186 214 255
186 214 255
186 214 255
186 214 255
186 214 255
186 214 255
186 214 255
186 214 255
186 214 255
75 94 121
64 79 102
63 78 102
70 83 102
60 73 92
49 62 83
59 74 95
69 82 102
59 74 95
52 65 84
59 71 89
65 79 102
55 67 84
61 77 102
61 75 96
67 81 102
58 70 89
61 75 97
72 89 115
63 79 102
59 76 102
57 70 89
62 78 102
67 81 102
65 77 95
60 76 99
63 76 95
49 63 83
80 96 121
65 80 102
68 84 108
80 96 121
62 78 102
71 89 115
66 80 102
55 69 89
53 66 86
56 71 92
75 93 121
64 79 102
69 84 108
62 75 96
55 70 92
62 78 102
72 86 108
63 76 95
71 86 108
70 83 102
56 69 89
61 77 102
53 66 84
69 85 108
75 91 115
63 76 95
57 70 89
49 63 83
67 84 108
54 71 97
68 82 102
71 86 108
66 80 102
56 72 95
64 79 102
65 82 108
62 75 95
61 75 95
68 84 108
66 80 102
76 91 115
59 71 89
59 74 95
56 70 92
68 84 108
57 73 95
58 73 95
67 83 108
72 89 115
52 66 86
68 81 102
59 73 95
60 74 95
62 78 102
74 91 115
62 74 92
64 79 102
71 86 108
58 73 95
58 73 95
62 78 102
63 79 102
50 64 86
76 94 121
72 87 110
47 57 73
55 69 89
52 65 83
70 88 115
69 85 108
58 76 102
62 74 92
50 63 83
70 88 115
63 76 95
75 91 115
70 85 108
68 82 103
75 91 115
57 70 89
74 90 115
72 86 108
63 81 108
59 74 95
49 61 79
67 81 102
53 66 84
60 74 95
48 63 84
59 71 89
67 86 115
60 74 95
56 74 102
49 59 73
63 78 102
66 84 111
74 93 121
57 70 89
76 94 121
51 64 84
171 197 236
186 214 255
186 214 255
186 214 255
186 214 255
186 214 255
186 214 255
186 214 255
186 214 255
186 214 255
186 214 255
186 214 255
186 214 255
186 214 255
186 214 255
186 214 255
186 214 255
187 214 255
186 214 255
187 214 255
187 214 255
187 214 255
187 214 255
186 214 255
187 214 255
187 214 255
187 214 255
187 214 255
187 214 255
187 214 255
187 214 255
187 214 255
187 214 255
187 214 255
187 214 255
187 214 255
187 214 255
187 214 255
187 214 255
187 214 255
187 214 255
187 214 255
187 214 255
187 214 255
187 214 255
187 214 255
187 214 255
187 214 255
187 214 255
187 214 255
187 214 255
187 214 255
187 214 255
187 215 255
187 215 255
187 215 255
187 215 255
187 215 255
187 215 255
187 215 255
187 215 255
187 215 255
187 215 255
187 215 255
187 215 255
187 215 255
187 215 255
187 215 255
187 215 255
187 215 255
187 215 255
188 215 255
187 215 255
188 215 255
188 215 255
188 215 255
188 215 255
188 215 255
188 215 255
188 215 255
188 215 255
188 215 255
188 215 255
188 215 255
188 215 255
188 215 255
188 215 255
188 215 255
188 215 255
188 215 255
188 215 255
188 215 255
188 215 255
188 215 255
188 215 255
188 215 255
188 215 255
188 215 255
188 215 255
188 215 255
188 215 255
188 215 255
188 215 255
188 215 255
188 215 255
188 215 255
188 215 255
188 215 255
188 215 255
188 215 255
188 215 255
188 215 255
188 215 255
188 215 255
188 215 255
188 215 255
188 215 255
188 215 255
188 215 255
188 215 255
188 215 255
188 215 255
188 215 255
188 215 255
188 215 255
188 215 255
188 215 255
188 215 255
188 215 255
188 215 255
188 215 255
188 215 255
188 215 255
188 215 255
188 215 255
188 215 255
189 215 255
189 215 255
189 215 255
189 215 255
189 215 255
189 215 255
189 215 255
189 215 255
189 215 255
189 215 255
189 215 255
189 215 255
189 215 255
189 215 255
189 215 255
189 215 255
189 215 255
189 215 255
189 215 255
189 215 255
188 215 255
188 215 255
188 215 255
188 215 255
188 215 255
188 215 255
188 215 255
188 215 255
188 215 255
188 215 255
188 215 255
188 215 255
188 215 255
188 215 255
188 215 255
188 215 255
188 215 255
188 215 255
188 215 255
188 215 255
188 215 255
188 215 255
188 215 255
188 215 255
188 215 255
188 215 255
188 215 255
188 215 255
188 215 255
188 215 255
188 215 255
188 215 255
188 215 255
188 215 255
188 215 255
188 215 255
188 215 255
188 215 255
188 215 255
188 215 255
188 215 255
188 215 255
188 215 255
188 215 255
188 215 255
188 215 255
188 215 255
188 215 255
188 215 255
188 215 255
188 215 255
188 215 255
188 215 255
188 215 255
188 215 255
188 215 255
188 215 255
188 215 255
188 215 255
188 215 255
188 215 255
188 215 255
188 215 255
188 215 255
188 215 255
187 215 255
188 215 255
188 215 255
187 215 255
187 215 255
187 215 255
187 215 255
187 215 255
187 215 255
187 215 255
187 215 255
187 215 255
187 215 255
187 215 255
187 215 255
187 215 255
187 215 255
187 215 255
187 215 255
187 215 255
187 214 255
187 214 255
187 214 255
187 214 255
187 214 255
187 214 255
187 214 255
187 214 255
187 214 255
187 214 255
187 214 255
187 214 255
187 214 255
187 214 255
187 214 255
187 214 255
187 214 255
187 214 255
187 214 255
187 214 255
187 214 255
187 214 255
187 214 255
187 214 255
187 214 255
187 214 255
187 214 255
187 214 255
187 214 255
187 214 255
150 174 211
60 74 95
75 91 115
59 71 89
75 91 115
66 80 102
62 78 102
61 75 95
66 81 103
56 69 89
73 90 115
64 76 95
65 80 102
69 85 108
61 75 96
67 81 102
64 80 105
52 64 83
67 81 102
58 73 95
60 74 95
57 72 95
63 77 99
59 75 99
46 59 78
66 81 102
68 84 108
77 92 115
67 84 108
67 82 105
67 81 102
53 70 95
66 78 97
56 71 92
75 91 115
59 72 91
60 79 108
57 70 89
61 75 95
65 81 105
68 84 108
74 90 115
56 69 89
69 85 108
69 84 105
68 81 102
70 91 121
71 86 108
61 75 95
61 75 97
67 82 103
73 90 115
65 80 102
69 85 108
64 80 105
57 68 84
72 89 115
65 78 99
51 65 86
42 53 70
71 86 108
53 67 89
61 73 92
54 68 89
60 74 95
65 77 95
59 74 95
73 89 115
54 65 83
56 72 95
66 81 102
67 81 102
52 64 83
59 76 102
58 74 99
76 94 121
54 68 87
70 85 108
64 79 102
73 87 108
62 78 102
66 80 102
52 67 89
66 80 102
60 78 105
62 79 105
50 62 80
55 70 91
74 93 121
63 76 97
58 71 92
61 75 95
50 63 83
62 75 95
65 80 102
55 66 83
59 75 99
72 86 108
61 75 95
66 80 102
54 68 89
58 71 91
75 88 108
66 80 102
62 78 102
57 70 89
67 82 105
68 82 103
67 81 102
57 72 95
63 76 95
60 75 97
69 84 108
80 97 121
57 70 89
73 89 115
68 82 103
44 54 70
65 80 102
69 85 108
58 73 95
60 74 95
68 87 115
63 77 97
65 82 108
61 79 105
62 78 102
66 81 102
79 93 115
174 202 243
187 214 255
187 214 255
187 214 255
187 214 255
187 214 255
187 214 255
187 214 255
187 214 255
187 214 255
187 214 255
187 214 255
187 214 255
187 214 255
187 214 255
187 214 255
187 214 255
187 214 255
187 214 255
187 214 255
187 214 255
187 214 255
187 214 255
187 214 255
187 214 255
187 214 255
187 214 255
187 214 255
187 214 255
187 214 255
187 215 255
187 214 255
187 214 255
187 215 255
187 215 255
187 215 255
187 215 255
187 215 255
187 215 255
187 215 255
187 215 255
187 215 255
187 215 255
187 215 255
187 215 255
187 215 255
187 215 255
188 215 255
187 215 255
187 215 255
187 215 255
188 215 255
188 215 255
188 215 255
188 215 255
188 215 255
188 215 255
188 215 255
188 215 255
188 215 255
188 215 255
188 215 255
188 215 255
188 215 255
188 215 255
188 215 255
188 215 255
188 215 255
188 215 255
188 215 255
188 215 255
188 215 255
188 215 255
188 215 255
188 215 255
188 215 255
188 215 255
188 215 255
188 215 255
188 215 255
188 215 255
188 215 255
188 215 255
188 215 255
188 215 255
188 215 255
188 215 255
188 215 255
188 215 255
188 215 255
188 215 255
188 215 255
188 215 255
188 215 255
188 215 255
188 215 255
188 215 255
188 215 255
188 215 255
188 215 255
188 215 255
188 215 255
188 215 255
188 215 255
188 215 255
188 215 255
188 215 255
188 215 255
188 215 255
188 215 255
188 215 255
188 215 255
188 215 255
188 215 255
188 215 255
189 215 255
188 215 255
189 215 255
188 215 255
188 215 255
189 215 255
189 215 255
189 215 255
189 215 255
189 215 255
189 215 255
189 215 255
189 215 255
189 215 255
189 215 255
189 215 255
189 215 255
189 215 255
189 215 255
189 215 255
189 215 255
189 216 255
189 216 255
189 216 255
189 216 255
189 216 255
189 216 255
189 216 255
189 216 255
189 216 255
189 216 255
189 216 255
189 215 255
189 216 255
189 216 255
189 216 255
189 215 255
189 215 255
189 215 255
189 215 255
189 215 255
189 215 255
189 215 255
189 215 255
189 215 255
189 215 255
189 215 255
189 215 255
189 215 255
189 215 255
189 215 255
189 215 255
189 215 255
189 215 255
189 215 255
189 215 255
189 215 255
189 215 255
189 215 255
189 215 255
189 215 255
189 215 255
189 215 255
188 215 255
189 215 255
188 215 255
188 215 255
188 215 255
188 215 255
188 215 255
188 215 255
188 215 255
188 215 255
188 215 255
188 215 255
188 215 255
188 215 255
188 215 255
188 215 255
188 215 255
188 215 255
188 215 255
188 215 255
188 215 255
188 215 255
188 215 255
188 215 255
188 215 255
188 215 255
188 215 255
188 215 255
188 215 255
188 215 255
188 215 255
188 215 255
188 215 255
188 215 255
188 215 255
188 215 255
188 215 255
188 215 255
188 215 255
188 215 255
188 215 255
188 215 255
188 215 255
188 215 255
188 215 255
188 215 255
188 215 255
188 215 255
188 215 255
188 215 255
188 215 255
188 215 255
188 215 255
188 215 255
188 215 255
188 215 255
188 215 255
188 215 255
188 215 255
188 215 255
188 215 255
188 215 255
188 215 255
188 215 255
188 215 255
188 215 255
187 215 255
188 215 255
188 215 255
187 215 255
188 215 255
187 215 255
187 215 255
187 215 255
187 215 255
187 215 255
187 215 255
187 215 255
187 215 255
187 215 255
187 215 255
187 215 255
187 215 255
187 215 255
187 215 255
187 214 255
187 215 255
187 215 255
187 215 255
187 214 255
187 214 255
187 214 255
187 214 255
129 154 191
46 59 78
59 76 102
57 69 87
55 68 89
59 74 95
67 84 110
71 88 115
64 79 102
62 78 102
48 58 73
61 76 97
63 76 95
55 69 91
60 74 95
62 73 89
63 79 102
68 81 102
56 68 86
54 69 91
57 71 91
52 62 78
68 84 108
67 84 108
52 67 89
60 77 102
74 90 115
52 66 86
65 80 102
64 84 115
63 76 95
81 97 121
61 75 95
65 80 102
47 59 78
59 72 90
60 74 95
53 67 89
73 90 115
67 84 108
64 79 102
62 75 95
57 69 86
57 71 92
67 84 108
56 69 89
78 95 121
56 73 97
64 79 102
70 86 108
64 79 102
47 60 78
63 76 95
55 67 86
56 69 89
58 73 95
61 80 108
67 81 103
63 76 95
63 77 99
54 66 86
65 80 102
63 79 102
55 69 91
65 80 102
69 82 102
63 79 102
57 70 89
56 70 91
61 75 95
66 80 102
52 65 83
48 60 78
62 81 108
70 88 115
73 90 115
67 81 102
57 72 95
54 68 89
61 75 95
51 66 89
72 84 103
60 74 95
63 77 97
59 73 94
56 69 89
70 88 115
62 76 97
65 82 108
57 73 95
53 65 83
59 73 95
66 80 102
65 78 97
51 64 83
70 83 102
60 74 95
65 78 99
75 94 121
68 84 108
72 91 121
72 87 108
65 82 108
60 74 95
57 71 92
65 80 102
49 60 76
66 80 102
66 78 95
60 74 95
53 65 83
67 81 102
59 74 96
62 75 95
60 77 102
71 89 115
72 87 110
67 83 108
48 60 78
53 69 92
63 75 92
61 77 102
62 78 102
56 69 89
57 72 95
72 89 115
63 76 95
57 70 91
51 62 78
148 171 206
187 214 255
187 214 255
187 214 255
187 214 255
187 215 255
187 214 255
187 215 255
187 215 255
187 215 255
187 215 255
187 215 255
187 215 255
187 215 255
187 215 255
187 215 255
187 215 255
187 215 255
187 215 255
187 215 255
187 215 255
187 215 255
187 215 255
188 215 255
187 215 255
188 215 255
187 215 255
188 215 255
188 215 255
188 215 255
188 215 255
188 215 255
188 215 255
188 215 255
188 215 255
188 215 255
188 215 255
188 215 255
188 215 255
188 215 255
188 215 255
188 215 255
188 215 255
188 215 255
188 215 255
188 215 255
188 215 255
188 215 255
188 215 255
188 215 255
188 215 255
188 215 255
188 215 255
188 215 255
188 215 255
188 215 255
188 215 255
188 215 255
188 215 255
188 215 255
188 215 255
188 215 255
188 215 255
188 215 255
188 215 255
188 215 255
188 215 255
188 215 255
188 215 255
188 215 255
188 215 255
188 215 255
188 215 255
188 215 255
188 215 255
188 215 255
188 215 255
188 215 255
188 215 255
188 215 255
188 215 255
188 215 255
188 215 255
188 215 255
188 215 255
188 215 255
188 215 255
188 215 255
188 215 255
189 215 255
188 215 255
189 215 255
188 215 255
189 215 255
189 215 255
189 215 255
189 215 255
189 215 255
189 215 255
189 215 255
189 215 255
189 215 255
189 215 255
189 215 255
189 215 255
189 215 255
189 215 255
189 215 255
189 215 255
189 215 255
189 215 255
189 215 255
189 215 255
189 215 255
189 215 255
189 215 255
189 215 255
189 215 255
189 215 255
189 215 255
189 216 255
189 216 255
189 216 255
189 216 255
189 216 255
189 216 255
189 216 255
189 216 255
189 216 255
189 216 255
189 216 255
189 216 255
189 216 255
189 216 255
189 216 255
189 216 255
189 216 255
189 216 255
189 216 255
189 216 255
189 216 255
189 216 255
189 216 255
189 216 255
189 216 255
189 216 255
189 216 255
189 216 255
189 216 255
189 216 255
189 216 255
189 216 255
189 216 255
189 216 255
189 216 255
189 216 255
189 216 255
189 216 255
189 216 255
189 216 255
189 216 255
189 216 255
189 216 255
189 216 255
189 216 255
189 216 255
189 216 255
189 216 255
189 216 255
189 216 255
189 216 255
189 216 255
189 216 255
189 216 255
189 216 255
189 216 255
189 216 255
189 216 255
189 216 255
189 216 255
189 215 255
189 215 255
189 216 255
189 215 255
189 215 255
189 215 255
189 215 255
189 215 255
189 215 255
189 215 255
189 215 255
189 215 255
189 215 255
189 215 255
189 215 255
189 215 255
189 215 255
189 215 255
189 215 255
189 215 255
189 215 255
189 215 255
189 215 255
188 215 255
188 215 255
189 215 255
189 215 255
189 215 255
189 215 255
188 215 255
188 215 255
188 215 255
188 215 255
188 215 255
188 215 255
188 215 255
188 215 255
188 215 255
188 215 255
188 215 255
188 215 255
188 215 255
188 215 255
188 215 255
188 215 255
188 215 255
188 215 255
188 215 255
188 215 255
188 215 255
188 215 255
188 215 255
188 215 255
188 215 255
188 215 255
188 215 255
188 215 255
188 215 255
188 215 255
188 215 255
188 215 255
188 215 255
188 215 255
188 215 255
188 215 255
188 215 255
188 215 255
188 215 255
188 215 255
188 215 255
188 215 255
188 215 255
188 215 255
188 215 255
188 215 255
188 215 255
188 215 255
188 215 255
188 215 255
188 215 255
188 215 255
188 215 255
188 215 255
188 215 255
188 215 255
188 215 255
188 215 255
188 215 255
188 215 255
188 215 255
188 215 255
126 145 174
67 81 102
50 62 79
59 71 89
54 71 95
59 73 92
63 78 102
63 78 102
75 88 108
64 79 102
65 78 97
57 71 92
75 91 115
58 71 89
65 80 102
51 65 86
45 56 73
56 67 84
63 78 102
66 83 108
67 83 108
73 92 121
45 56 73
66 83 108
51 64 83
75 91 115
68 84 108
68 84 108
67 81 102
58 73 95
54 69 92
71 91 121
52 67 89
54 68 89
58 76 102
56 70 91
74 90 115
68 84 108
53 68 91
69 88 115
70 88 115
55 67 86
66 80 102
61 74 94
56 69 87
54 65 83
64 79 102
53 63 78
61 75 95
66 83 108
57 70 89
60 77 102
68 83 105
67 83 108
59 72 91
67 81 102
67 83 108
49 63 83
69 85 108
61 80 108
62 74 91
68 81 102
60 74 95
50 62 79
58 71 91
68 84 108
85 102 127
57 73 97
69 87 115
72 89 115
56 71 92
55 70 91
67 79 97
64 77 95
68 85 110
63 76 96
53 65 83
60 72 91
53 66 84
59 72 91
63 79 102
65 80 102
69 85 108
39 50 67
60 79 108
58 73 95
60 74 95
51 64 83
70 88 115
62 78 102
61 75 95
60 73 92
72 89 115
73 87 108
68 84 108
59 71 89
67 81 102
57 68 86
55 67 86
76 94 121
77 93 116
67 83 108
62 75 95
51 64 83
59 74 97
53 62 76
58 70 89
62 78 102
78 92 115
68 82 102
55 67 86
73 87 108
49 61 79
65 80 102
68 84 108
60 77 102
64 79 102
59 71 89
59 71 89
73 87 108
59 73 95
70 88 115
60 75 97
73 90 115
69 85 108
51 65 86
52 65 84
60 74 95
67 84 108
144 166 198
188 215 255
188 215 255
188 215 255
188 215 255
188 215 255
188 215 255
188 215 255
188 215 255
188 215 255
188 215 255
188 215 255
188 215 255
188 215 255
188 215 255
188 215 255
188 215 255
188 215 255
188 215 255
188 215 255
188 215 255
188 215 255
188 215 255
188 215 255
188 215 255
188 215 255
188 215 255
188 215 255
188 215 255
188 215 255
188 215 255
188 215 255
188 215 255
188 215 255
188 215 255
188 215 255
188 215 255
188 215 255
188 215 255
188 215 255
188 215 255
188 215 255
188 215 255
188 215 255
188 215 255
188 215 255
188 215 255
188 215 255
188 215 255
188 215 255
188 215 255
188 215 255
188 215 255
188 215 255
188 215 255
188 215 255
188 215 255
188 215 255
188 215 255
188 215 255
188 215 255
188 215 255
189 215 255
189 215 255
189 215 255
188 215 255
189 215 255
189 215 255
189 215 255
189 215 255
189 215 255
189 215 255
189 215 255
189 215 255
189 215 255
189 215 255
189 215 255
189 215 255
189 215 255
189 215 255
189 215 255
189 215 255
189 215 255
189 215 255
189 215 255
189 215 255
189 215 255
189 215 255
189 215 255
189 215 255
189 216 255
189 216 255
189 216 255
189 216 255
189 216 255
189 216 255
189 216 255
189 216 255
189 216 255
189 216 255
189 216 255
189 216 255
189 216 255
189 216 255
189 216 255
189 216 255
189 216 255
189 216 255
189 216 255
189 216 255
189 216 255
189 216 255
189 216 255
189 216 255
189 216 255
189 216 255
189 216 255
189 216 255
189 216 255
189 216 255
189 216 255
189 216 255
189 216 255
189 216 255
189 216 255
189 216 255
189 216 255
189 216 255
189 216 255
189 216 255
189 216 255
189 216 255
189 216 255
189 216 255
189 216 255
189 216 255
190 216 255
190 216 255
190 216 255
190 216 255
190 216 255
189 216 255
189 216 255
190 216 255
189 216 255
189 216 255
190 216 255
189 216 255
189 216 255
189 216 255
189 216 255
189 216 255
189 216 255
189 216 255
189 216 255
189 216 255
189 216 255
189 216 255
189 216 255
189 216 255
189 216 255
189 216 255
189 216 255
189 216 255
189 216 255
189 216 255
189 216 255
189 216 255
189 216 255
189 216 255
189 216 255
189 216 255
189 216 255
189 216 255
189 216 255
189 216 255
189 216 255
189 216 255
189 216 255
189 216 255
189 216 255
189 216 255
189 216 255
189 216 255
189 216 255
189 216 255
189 216 255
189 216 255
189 216 255
189 216 255
189 216 255
189 216 255
189 216 255
189 216 255
189 216 255
189 216 255
189 216 255
189 216 255
189 216 255
189 216 255
189 216 255
189 216 255
189 216 255
189 216 255
189 216 255
189 216 255
189 216 255
189 216 255
189 216 255
189 216 255
189 216 255
189 216 255
189 215 255
189 215 255
189 216 255
189 215 255
189 215 255
189 215 255
189 215 255
189 215 255
189 215 255
189 215 255
189 215 255
189 215 255
189 215 255
189 215 255
189 215 255
189 215 255
189 215 255
189 215 255
189 215 255
189 215 255
189 215 255
189 215 255
189 215 255
189 215 255
189 215 255
188 215 255
188 215 255
188 215 255
188 215 255
188 215 255
188 215 255
188 215 255
188 215 255
188 215 255
188 215 255
188 215 255
188 215 255
188 215 255
188 215 255
188 215 255
188 215 255
188 215 255
188 215 255
188 215 255
188 215 255
188 215 255
188 215 255
188 215 255
188 215 255
188 215 255
188 215 255
188 215 255
188 215 255
188 215 255
188 215 255
188 215 255
188 215 255
188 215 255
188 215 255
138 159 191
67 86 115
52 62 76
69 87 115
65 80 102
60 74 95
59 74 97
70 83 102
73 86 105
61 75 95
55 68 87
65 79 99
56 69 89
66 83 108
70 85 108
49 61 79
56 71 92
58 73 95
60 72 89
55 71 95
66 83 108
51 63 83
65 77 95
46 59 78
69 87 115
72 87 108
63 79 102
71 86 108
53 64 80
52 67 89
68 84 108
65 82 108
54 68 89
63 76 95
73 91 118
70 85 108
62 75 95
59 74 95
50 63 83
64 79 102
68 81 102
51 66 89
67 81 102
68 84 108
49 63 84
61 78 102
72 87 110
56 72 95
64 82 108
59 73 95
52 65 84
64 79 102
57 70 89
67 81 102
60 79 108
51 63 79
61 73 91
48 61 79
50 60 76
55 67 84
52 64 83
61 76 99
65 80 102
62 73 91
72 89 115
59 72 91
62 76 95
78 93 115
66 83 109
56 72 95
69 85 108
73 90 115
57 73 97
47 60 78
74 90 115
56 70 92
71 86 108
68 82 102
69 87 115
69 84 108
73 88 111
65 80 103
59 74 95
64 82 108
63 79 103
67 81 102
75 91 115
65 82 108
63 79 102
49 61 78
72 86 108
77 95 121
79 96 121
50 62 79
63 81 108
65 79 102
68 84 108
55 66 83
61 75 97
57 68 84
56 69 89
60 75 97
64 79 102
59 74 95
75 91 115
68 82 102
55 68 89
56 72 95
62 76 97
70 86 108
54 69 91
74 93 121
60 74 95
52 62 77
56 69 89
65 82 108
58 73 96
54 68 89
65 82 108
57 70 89
61 75 96
62 78 102
64 80 105
64 76 95
68 84 108
61 75 96
50 61 78
67 86 115
64 78 99
122 142 172
188 215 255
188 215 255
188 215 255
188 215 255
188 215 255
188 215 255
188 215 255
188 215 255
188 215 255
188 215 255
188 215 255
188 215 255
188 215 255
188 215 255
188 215 255
188 215 255
188 215 255
188 215 255
188 215 255
188 215 255
188 215 255
188 215 255
188 215 255
188 215 255
188 215 255
188 215 255
188 215 255
188 215 255
188 215 255
188 215 255
188 215 255
189 215 255
188 215 255
189 215 255
189 215 255
189 215 255
189 215 255
189 215 255
189 215 255
189 215 255
189 215 255
189 215 255
189 215 255
189 215 255
189 215 255
189 215 255
189 215 255
189 215 255
189 215 255
189 215 255
189 215 255
189 215 255
189 215 255
189 215 255
189 215 255
189 215 255
189 215 255
189 215 255
189 216 255
189 216 255
189 215 255
189 216 255
189 216 255
189 216 255
189 216 255
189 216 255
189 216 255
189 216 255
189 216 255
189 216 255
189 216 255
189 216 255
189 216 255
189 216 255
189 216 255
189 216 255
189 216 255
189 216 255
189 216 255
189 216 255
189 216 255
189 216 255
189 216 255
189 216 255
189 216 255
189 216 255
189 216 255
189 216 255
189 216 255
189 216 255
189 216 255
189 216 255
189 216 255
189 216 255
189 216 255
189 216 255
189 216 255
189 216 255
189 216 255
189 216 255
189 216 255
189 216 255
189 216 255
189 216 255
189 216 255
189 216 255
189 216 255
189 216 255
189 216 255
189 216 255
189 216 255
189 216 255
189 216 255
189 216 255
189 216 255
189 216 255
189 216 255
189 216 255
189 216 255
189 216 255
189 216 255
189 216 255
189 216 255
189 216 255
189 216 255
189 216 255
189 216 255
189 216 255
190 216 255
190 216 255
190 216 255
190 216 255
190 216 255
190 216 255
190 216 255
190 216 255
190 216 255
190 216 255
190 216 255
190 216 255
190 216 255
190 216 255
190 216 255
190 216 255
190 216 255
190 216 255
190 216 255
190 216 255
190 216 255
190 216 255
190 216 255
190 216 255
190 216 255
190 216 255
190 216 255
190 216 255
190 216 255
190 216 255
190 216 255
190 216 255
190 216 255
190 216 255
190 216 255
190 216 255
190 216 255
190 216 255
190 216 255
190 216 255
190 216 255
190 216 255
190 216 255
190 216 255
190 216 255
190 216 255
189 216 255
190 216 255
190 216 255
190 216 255
189 216 255
190 216 255
190 216 255
189 216 255
189 216 255
189 216 255
190 216 255
189 216 255
189 216 255
189 216 255
189 216 255
189 216 255
189 216 255
189 216 255
189 216 255
189 216 255
189 216 255
189 216 255
189 216 255
189 216 255
189 216 255
189 216 255
189 216 255
189 216 255
189 216 255
189 216 255
189 216 255
189 216 255
189 216 255
189 216 255
189 216 255
189 216 255
189 216 255
189 216 255
189 216 255
189 216 255
189 216 255
189 216 255
189 216 255
189 216 255
189 216 255
189 216 255
189 216 255
189 216 255
189 216 255
189 216 255
189 216 255
189 216 255
189 216 255
189 216 255
189 216 255
189 216 255
189 216 255
189 216 255
189 216 255
189 216 255
189 216 255
189 216 255
189 216 255
189 216 255
189 216 255
189 216 255
189 216 255
189 216 255
189 216 255
189 215 255
189 216 255
189 215 255
189 215 255
189 215 255
189 215 255
189 215 255
189 215 255
189 215 255
189 215 255
189 215 255
189 215 255
189 215 255
189 215 255
189 215 255
189 215 255
189 215 255
189 215 255
189 215 255
189 215 255
189 215 255
189 215 255
189 215 255
189 215 255
189 215 255
189 215 255
189 215 255
97 114 140
56 69 89
59 72 91
64 79 102
49 61 79
58 71 89
63 81 108
45 55 71
62 75 95
60 71 89
73 90 115
59 73 95
61 76 99
79 96 121
76 92 115
81 97 121
66 80 102
78 93 115
73 87 108
54 66 83
50 66 89
68 84 108
49 60 76
61 75 95
70 88 115
66 77 94
59 71 89
67 83 108
68 81 102
64 79 102
67 83 108
73 90 115
62 76 95
71 86 108
65 78 99
46 57 73
63 77 97
64 76 95
58 73 95
69 82 102
67 84 108
49 61 79
63 79 102
60 74 95
65 77 95
64 80 103
58 73 95
62 73 91
68 84 108
63 78 102
57 71 91
78 98 127
61 73 92
71 86 108
62 78 102
67 81 102
60 72 91
53 69 92
61 78 102
54 66 83
50 61 78
69 85 108
56 70 91
69 85 108
56 68 86
66 83 108
51 67 91
59 74 95
51 64 84
55 68 87
58 69 86
58 70 89
61 75 95
62 73 91
64 79 102
58 73 95
50 64 86
66 80 102
61 75 96
60 76 99
60 74 95
70 88 115
47 58 73
52 64 83
59 73 95
65 78 97
61 76 99
61 75 95
75 88 108
79 96 121
65 81 105
64 79 102
49 65 89
71 87 110
62 73 90
68 87 115
56 69 89
64 79 102
64 77 95
60 74 95
57 70 89
69 88 115
69 85 108
61 75 95
61 78 103
75 94 121
57 71 92
63 76 97
71 86 108
60 74 95
75 91 115
62 76 99
66 83 108
58 71 91
61 75 95
47 61 81
61 71 86
55 71 95
64 78 99
54 68 89
53 67 89
65 80 103
56 69 89
52 62 78
56 71 95
56 70 91
61 75 95
48 59 76
54 68 89
94 112 137
189 215 255
189 215 255
189 215 255
189 215 255
189 215 255
189 215 255
189 215 255
189 215 255
189 215 255
189 215 255
189 215 255
189 215 255
189 215 255
189 215 255
189 215 255
189 215 255
189 215 255
189 215 255
189 215 255
189 215 255
189 215 255
189 215 255
189 215 255
189 216 255
189 216 255
189 216 255
189 216 255
189 216 255
189 216 255
189 216 255
189 216 255
189 216 255
189 216 255
189 216 255
189 216 255
189 216 255
189 216 255
189 216 255
189 216 255
189 216 255
189 216 255
189 216 255
189 216 255
189 216 255
189 216 255
189 216 255
189 216 255
189 216 255
189 216 255
189 216 255
189 216 255
189 216 255
189 216 255
189 216 255
189 216 255
189 216 255
189 216 255
189 216 255
189 216 255
189 216 255
189 216 255
189 216 255
189 216 255
189 216 255
189 216 255
189 216 255
189 216 255
189 216 255
189 216 255
189 216 255
189 216 255
189 216 255
189 216 255
189 216 255
189 216 255
189 216 255
189 216 255
189 216 255
189 216 255
189 216 255
189 216 255
189 216 255
189 216 255
189 216 255
189 216 255
190 216 255
190 216 255
189 216 255
189 216 255
190 216 255
190 216 255
190 216 255
189 216 255
190 216 255
190 216 255
190 216 255
190 216 255
190 216 255
190 216 255
190 216 255
190 216 255
190 216 255
190 216 255
190 216 255
190 216 255
190 216 255
190 216 255
190 216 255
190 216 255
190 216 255
190 216 255
190 216 255
190 216 255
190 216 255
190 216 255
190 216 255
190 216 255
190 216 255
190 216 255
190 216 255
190 216 255
190 216 255
190 216 255
190 216 255
190 216 255
190 216 255
190 216 255
190 216 255
190 216 255
190 216 255
190 216 255
190 216 255
190 216 255
190 216 255
190 216 255
190 216 255
190 216 255
190 216 255
190 216 255
190 216 255
190 216 255
190 216 255
190 216 255
190 216 255
190 216 255
190 216 255
190 216 255
190 216 255
190 216 255
190 216 255
190 216 255
190 216 255
190 216 255
190 216 255
190 216 255
190 216 255
190 216 255
190 216 255
190 216 255
190 216 255
190 216 255
190 216 255
190 216 255
190 216 255
190 216 255
190 216 255
190 216 255
190 216 255
190 216 255
190 216 255
190 216 255
190 216 255
190 216 255
190 216 255
190 216 255
190 216 255
190 216 255
190 216 255
190 216 255
190 216 255
190 216 255
190 216 255
190 216 255
190 216 255
190 216 255
190 216 255
190 216 255
190 216 255
190 216 255
190 216 255
190 216 255
190 216 255
190 216 255
190 216 255
190 216 255
190 216 255
190 216 255
190 216 255
190 216 255
190 216 255
190 216 255
190 216 255
190 216 255
190 216 255
190 216 255
190 216 255
190 216 255
190 216 255
190 216 255
190 216 255
190 216 255
190 216 255
190 216 255
190 216 255
190 216 255
190 216 255
189 216 255
190 216 255
189 216 255
190 216 255
189 216 255
189 216 255
189 216 255
189 216 255
189 216 255
190 216 255
189 216 255
189 216 255
189 216 255
189 216 255
189 216 255
189 216 255
189 216 255
189 216 255
189 216 255
189 216 255
189 216 255
189 216 255
189 216 255
189 216 255
189 216 255
189 216 255
189 216 255
189 216 255
189 216 255
189 216 255
189 216 255
189 216 255
189 216 255
189 216 255
189 216 255
189 216 255
189 216 255
189 216 255
189 216 255
189 216 255
189 216 255
189 216 255
189 216 255
189 216 255
189 216 255
189 216 255
189 216 255
189 216 255
189 216 255
189 216 255
189 216 255
189 216 255
189 216 255
189 216 255
109 129 159
57 70 89
60 77 102
46 57 73
57 70 91
50 63 83
61 72 89
62 78 102
58 71 91
65 79 102
62 75 95
64 79 102
58 70 89
58 72 92
64 79 102
60 75 99
70 88 115
65 80 102
66 83 108
67 84 108
60 74 94
51 66 89
54 69 92
67 81 103
51 64 83
63 79 102
70 88 115
54 67 86
62 75 94
55 71 95
62 78 102
68 83 105
57 70 89
56 70 91
57 73 97
63 76 95
64 82 108
60 72 91
68 84 108
76 94 121
70 85 108
58 72 92
44 56 73
81 97 121
60 74 95
73 87 108
64 76 95
60 74 95
67 83 108
62 76 97
62 75 95
69 85 108
72 87 108
59 74 95
72 92 121
69 82 102
68 84 108
53 66 86
63 80 105
64 79 102
58 73 95
69 85 108
68 85 110
77 92 115
57 69 87
69 87 115
61 77 102
47 59 77
68 84 108
67 81 102
74 88 108
46 59 79
60 74 95
63 76 95
55 68 89
74 90 115
62 75 95
67 81 102
60 74 95
56 70 91
61 78 102
65 82 108
59 71 91
51 64 84
60 77 102
62 75 95
60 74 94
64 82 108
59 72 92
50 64 84
66 80 102
61 75 95
62 76 95
62 76 95
63 76 95
60 77 102
64 79 102
67 79 95
53 66 84
53 68 89
52 64 83
58 71 89
55 70 93
69 85 108
65 79 102
58 73 95
63 79 102
72 87 110
63 79 102
65 80 102
68 84 108
64 79 102
67 83 108
64 79 102
55 71 95
56 72 95
68 84 108
64 79 102
50 61 78
60 74 95
62 75 95
67 82 103
63 81 108
66 80 102
63 77 99
67 78 95
69 87 115
61 75 97
67 81 102
95 112 137
189 216 255
189 216 255
189 216 255
189 216 255
189 216 255
189 216 255
189 216 255
189 216 255
189 216 255
189 216 255
189 216 255
189 216 255
189 216 255
189 216 255
189 216 255
189 216 255
189 216 255
189 216 255
189 216 255
189 216 255
189 216 255
189 216 255
189 216 255
189 216 255
189 216 255
189 216 255
189 216 255
189 216 255
189 216 255
189 216 255
189 216 255
189 216 255
189 216 255
189 216 255
189 216 255
189 216 255
189 216 255
189 216 255
189 216 255
189 216 255
189 216 255
189 216 255
189 216 255
189 216 255
189 216 255
190 216 255
190 216 255
189 216 255
189 216 255
190 216 255
190 216 255
189 216 255
190 216 255
189 216 255
190 216 255
190 216 255
190 216 255
190 216 255
190 216 255
190 216 255
190 216 255
190 216 255
190 216 255
190 216 255
190 216 255
190 216 255
190 216 255
190 216 255
190 216 255
190 216 255
190 216 255
190 216 255
190 216 255
190 216 255
190 216 255
190 216 255
190 216 255
190 216 255
190 216 255
190 216 255
190 216 255
190 216 255
190 216 255
190 216 255
190 216 255
190 216 255
190 216 255
190 216 255
190 216 255
190 216 255
190 216 255
190 216 255
190 216 255
190 216 255
190 216 255
190 216 255
190 216 255
190 216 255
190 216 255
190 216 255
190 216 255
190 216 255
190 216 255
190 216 255
190 216 255
190 216 255
190 216 255
190 216 255
190 216 255
190 216 255
190 216 255
190 216 255
190 216 255
190 216 255
190 216 255
190 216 255
190 216 255
190 216 255
190 216 255
190 216 255
190 216 255
190 216 255
190 216 255
190 216 255
190 216 255
190 216 255
190 216 255
190 216 255
190 216 255
190 216 255
190 216 255
190 216 255
190 216 255
190 216 255
190 216 255
190 216 255
190 216 255
190 216 255
190 216 255
190 216 255
190 216 255
190 216 255
190 216 255
190 216 255
190 216 255
190 216 255
190 216 255
190 216 255
190 216 255
190 216 255
190 216 255
190 216 255
190 216 255
190 216 255
190 216 255
190 216 255
190 216 255
190 216 255
190 216 255
190 216 255
190 216 255
190 216 255
190 216 255
190 216 255
190 216 255
190 216 255
190 216 255
190 216 255
190 216 255
190 216 255
190 216 255
190 216 255
190 216 255
190 216 255
190 216 255
190 216 255
190 216 255
190 216 255
190 216 255
190 216 255
190 216 255
190 216 255
190 216 255
190 216 255
190 216 255
190 216 255
190 216 255
190 216 255
190 216 255
190 216 255
190 216 255
190 216 255
190 216 255
190 216 255
190 216 255
190 216 255
190 216 255
190 216 255
190 216 255
190 216 255
190 216 255
190 216 255
190 216 255
190 216 255
190 216 255
190 216 255
190 216 255
190 216 255
190 216 255
190 216 255
190 216 255
190 216 255
190 216 255
190 216 255
190 216 255
190 216 255
190 216 255
190 216 255
190 216 255
190 216 255
190 216 255
190 216 255
190 216 255
190 216 255
190 216 255
190 216 255
190 216 255
190 216 255
190 216 255
190 216 255
190 216 255
190 216 255
190 216 255
190 216 255
190 216 255
190 216 255
190 216 255
190 216 255
190 216 255
190 216 255
190 216 255
190 216 255
190 216 255
190 216 255
190 216 255
190 216 255
190 216 255
190 216 255
190 216 255
190 216 255
190 216 255
190 216 255
190 216 255
190 216 255
190 216 255
190 216 255
190 216 255
190 216 255
190 216 255
190 216 255
190 216 255
190 216 255
190 216 255
190 216 255
190 216 255
190 216 255
190 216 255
190 216 255
190 216 255
189 216 255
121 142 172
54 67 86
62 78 102
67 84 108
47 59 76
53 67 89
53 67 89
63 78 102
46 58 76
52 67 89
56 70 91
60 74 95
58 70 89
59 72 91
47 59 78
61 76 99
54 68 89
50 63 83
60 77 102
53 65 83
64 78 99
52 64 83
63 77 97
64 80 103
61 75 95
58 73 95
72 86 108
60 74 95
73 87 108
62 78 102
71 86 108
59 74 95
66 81 102
57 73 95
54 68 89
66 80 102
52 64 81
66 83 108
52 64 83
63 77 99
61 75 97
58 73 95
46 57 73
52 66 87
71 86 108
53 67 89
66 80 102
67 84 110
59 74 95
58 73 95
71 89 115
59 72 91
52 64 83
66 83 108
61 75 97
67 84 108
63 78 102
62 76 95
66 80 102
49 62 83
63 76 97
59 72 92
63 78 102
58 72 94
66 80 102
64 79 102
70 88 115
49 61 78
64 79 102
60 73 92
59 73 95
72 86 108
75 91 115
61 75 95
72 89 115
67 81 102
58 75 102
65 77 95
65 81 105
70 85 108
58 73 95
61 75 95
77 92 115
64 79 102
50 63 83
50 65 87
49 61 79
60 74 95
55 69 91
77 92 115
71 86 108
66 81 102
52 63 81
73 89 115
58 71 91
66 81 102
62 78 102
70 86 108
55 66 83
69 85 108
71 86 108
63 79 102
71 83 102
59 73 94
54 65 83
52 66 86
56 69 89
75 91 115
57 73 95
58 73 96
63 77 97
69 82 102
59 72 90
68 84 108
56 69 89
53 67 89
59 76 102
69 85 108
72 86 108
61 80 108
71 86 108
66 81 102
61 75 96
59 76 102
54 68 89
67 86 115
47 56 68
64 79 102
64 82 108
87 103 127
190 216 255
190 216 255
190 216 255
190 216 255
190 216 255
190 216 255
190 216 255
190 216 255
190 216 255
190 216 255
190 216 255
190 216 255
190 216 255
190 216 255
190 216 255
190 216 255
190 216 255
190 216 255
190 216 255
190 216 255
190 216 255
190 216 255
190 216 255
190 216 255
190 216 255
190 216 255
190 216 255
190 216 255
190 216 255
190 216 255
190 216 255
190 216 255
190 216 255
190 216 255
190 216 255
190 216 255
190 216 255
190 216 255
190 216 255
190 216 255
190 216 255
190 216 255
190 216 255
190 216 255
190 216 255
190 216 255
190 216 255
190 216 255
190 216 255
190 216 255
190 216 255
190 216 255
190 216 255
190 216 255
190 216 255
190 216 255
190 216 255
190 216 255
190 216 255
190 216 255
190 216 255
190 216 255
190 216 255
190 216 255
190 216 255
190 216 255
190 216 255
190 216 255
190 216 255
190 216 255
190 216 255
190 216 255
190 216 255
190 216 255
190 216 255
190 216 255
190 216 255
190 216 255
190 216 255
190 216 255
190 216 255
190 216 255
190 216 255
190 216 255
190 216 255
190 216 255
190 216 255
190 216 255
190 216 255
190 216 255
190 216 255
190 216 255
190 216 255
190 216 255
190 216 255
190 216 255
190 216 255
190 216 255
190 216 255
190 216 255
190 216 255
190 216 255
190 216 255
190 216 255
190 216 255
190 216 255
190 216 255
190 216 255
190 216 255
190 216 255
190 216 255
190 216 255
190 216 255
190 216 255
190 216 255
190 216 255
190 216 255
190 216 255
190 216 255
190 216 255
190 216 255
190 216 255
190 216 255
190 216 255
190 216 255
190 216 255
190 216 255
190 216 255
190 216 255
190 216 255
190 216 255
190 216 255
190 216 255
190 216 255
190 216 255
191 217 255
191 217 255
191 217 255
191 217 255
191 217 255
191 217 255
191 217 255
191 217 255
191 217 255
191 217 255
191 217 255
191 217 255
191 217 255
191 217 255
191 217 255
191 217 255
191 217 255
191 217 255
191 217 255
191 217 255
191 217 255
191 217 255
191 217 255
191 217 255
191 217 255
191 217 255
191 217 255
191 217 255
191 217 255
191 217 255
191 217 255
191 217 255
191 217 255
191 217 255
191 217 255
191 217 255
191 217 255
191 217 255
191 217 255
191 217 255
191 217 255
191 217 255
191 217 255
191 217 255
190 216 255
190 216 255
190 216 255
190 216 255
190 216 255
191 217 255
190 216 255
190 216 255
190 216 255
190 216 255
190 216 255
190 216 255
190 216 255
190 216 255
190 216 255
190 216 255
190 216 255
190 216 255
190 216 255
190 216 255
190 216 255
190 216 255
190 216 255
190 216 255
190 216 255
190 216 255
190 216 255
190 216 255
190 216 255
190 216 255
190 216 255
190 216 255
190 216 255
190 216 255
190 216 255
190 216 255
190 216 255
190 216 255
190 216 255
190 216 255
190 216 255
190 216 255
190 216 255
190 216 255
190 216 255
190 216 255
190 216 255
190 216 255
190 216 255
190 216 255
190 216 255
190 216 255
190 216 255
190 216 255
190 216 255
190 216 255
190 216 255
190 216 255
190 216 255
190 216 255
190 216 255
190 216 255
190 216 255
190 216 255
190 216 255
190 216 255
190 216 255
190 216 255
190 216 255
190 216 255
190 216 255
190 216 255
190 216 255
190 216 255
190 216 255
190 216 255
190 216 255
190 216 255
190 216 255
190 216 255
190 216 255
190 216 255
190 216 255
190 216 255
190 216 255
190 216 255
190 216 255
190 216 255
190 216 255
190 216 255
190 216 255
69 84 105
57 71 92
53 63 78
61 72 89
56 71 92
73 90 115
54 68 89
57 70 89
64 79 102
71 91 121
62 78 102
74 88 108
78 93 115
68 84 108
69 85 108
69 85 108
65 81 103
58 71 89
59 74 95
59 73 95
79 96 121
56 73 99
44 55 71
66 81 102
56 69 89
57 70 91
74 88 108
65 81 105
56 68 86
62 75 95
54 68 89
65 80 102
68 81 102
65 80 102
57 72 95
59 73 95
63 77 99
73 90 115
71 83 102
60 77 102
75 91 115
50 63 83
57 72 95
66 83 108
60 77 102
80 97 121
56 72 95
65 80 102
62 78 102
62 75 95
57 70 91
71 86 108
60 74 96
53 67 87
60 74 95
64 82 108
67 81 102
73 90 115
81 99 127
71 88 115
67 82 105
61 74 92
71 86 108
62 78 102
55 68 89
71 86 108
72 86 108
51 63 79
51 65 85
68 81 102
50 63 83
66 80 102
72 86 108
64 76 95
72 87 108
67 84 108
61 75 95
65 80 102
58 71 89
62 78 102
48 59 77
60 72 89
64 79 102
61 73 92
59 71 89
74 88 108
54 68 89
72 89 115
57 70 89
72 86 108
70 87 111
57 73 96
66 80 102
77 95 121
63 76 97
61 78 103
46 59 80
54 68 89
66 81 102
64 78 99
57 68 84
63 79 102
63 76 95
65 80 102
56 70 92
67 81 102
70 85 108
58 70 89
69 84 108
45 55 71
65 80 103
56 67 84
76 92 115
69 87 115
71 86 108
53 67 89
56 70 91
56 69 89
63 77 97
68 82 102
61 75 97
58 71 89
68 87 115
53 66 84
66 80 102
59 74 95
61 78 103
75 91 115
72 89 115
66 78 97
190 216 255
190 216 255
190 216 255
190 216 255
190 216 255
190 216 255
190 216 255
190 216 255
190 216 255
190 216 255
190 216 255
190 216 255
190 216 255
190 216 255
190 216 255
190 216 255
190 216 255
190 216 255
190 216 255
190 216 255
190 216 255
190 216 255
190 216 255
190 216 255
190 216 255
190 216 255
190 216 255
190 216 255
190 216 255
190 216 255
190 216 255
190 216 255
190 216 255
190 216 255
190 216 255
190 216 255
190 216 255
190 216 255
190 216 255
190 216 255
190 216 255
190 216 255
190 216 255
190 216 255
190 216 255
190 216 255
190 216 255
190 216 255
190 216 255
190 216 255
190 216 255
190 216 255
190 216 255
190 216 255
190 216 255
190 216 255
190 216 255
190 216 255
190 216 255
190 216 255
190 216 255
190 216 255
190 216 255
190 216 255
190 216 255
190 216 255
190 216 255
190 216 255
190 216 255
190 216 255
190 216 255
190 216 255
190 216 255
190 216 255
190 216 255
190 216 255
190 216 255
190 216 255
190 216 255
190 216 255
191 217 255
190 216 255
190 216 255
190 216 255
190 216 255
190 216 255
190 216 255
190 216 255
191 217 255
190 216 255
190 216 255
190 216 255
190 216 255
191 217 255
191 217 255
191 217 255
191 217 255
191 217 255
191 217 255
191 217 255
191 217 255
191 217 255
191 217 255
190 216 255
191 217 255
191 217 255
191 217 255
191 217 255
191 217 255
191 217 255
191 217 255
191 217 255
191 217 255
191 217 255
191 217 255
191 217 255
191 217 255
191 217 255
191 217 255
191 217 255
191 217 255
191 217 255
191 217 255
191 217 255
191 217 255
191 217 255
191 217 255
191 217 255
191 217 255
191 217 255
191 217 255
191 217 255
191 217 255
191 217 255
191 217 255
191 217 255
191 217 255
191 217 255
191 217 255
191 217 255
191 217 255
191 217 255
191 217 255
191 217 255
191 217 255
191 217 255
191 217 255
191 217 255
191 217 255
191 217 255
191 217 255
191 217 255
191 217 255
191 217 255
191 217 255
191 217 255
191 217 255
191 217 255
191 217 255
191 217 255
191 217 255
191 217 255
191 217 255
191 217 255
191 217 255
191 217 255
191 217 255
191 217 255
191 217 255
191 217 255
191 217 255
191 217 255
191 217 255
191 217 255
191 217 255
191 217 255
191 217 255
191 217 255
191 217 255
191 217 255
191 217 255
191 217 255
191 217 255
191 217 255
191 217 255
191 217 255
191 217 255
191 217 255
191 217 255
191 217 255
191 217 255
191 217 255
191 217 255
191 217 255
191 217 255
191 217 255
191 217 255
191 217 255
191 217 255
191 217 255
191 217 255
191 217 255
191 217 255
191 217 255
191 217 255
191 217 255
191 217 255
191 217 255
191 217 255
191 217 255
191 217 255
191 217 255
191 217 255
191 217 255
191 217 255
191 217 255
191 217 255
191 217 255
191 217 255
191 217 255
191 217 255
191 217 255
191 217 255
191 217 255
191 217 255
191 217 255
191 217 255
191 217 255
191 217 255
191 217 255
191 217 255
191 217 255
191 217 255
191 217 255
191 217 255
191 217 255
191 217 255
191 217 255
191 217 255
191 217 255
191 217 255
191 217 255
191 217 255
191 217 255
191 217 255
191 217 255
191 217 255
191 217 255
191 217 255
191 217 255
191 217 255
191 217 255
191 217 255
191 217 255
191 217 255
191 217 255
191 217 255
191 217 255
191 217 255
191 217 255
191 217 255
191 217 255
191 217 255
191 217 255
190 216 255
191 217 255
191 217 255
191 217 255
190 216 255
190 216 255
77 99 131
67 84 108
57 70 89
55 69 89
66 81 102
65 80 102
56 67 84
59 71 91
51 63 83
66 79 97
61 72 89
55 69 89
57 70 89
58 70 89
60 74 95
60 74 95
60 77 102
54 66 85
59 74 95
67 81 102
52 66 86
71 86 108
56 69 89
55 69 91
63 76 95
54 68 89
73 87 108
73 90 115
63 76 96
65 80 102
49 63 84
51 61 76
54 68 89
56 67 84
53 66 84
54 68 89
47 58 76
67 84 108
63 77 99
65 80 102
52 66 86
50 61 77
62 75 95
54 67 87
61 76 99
53 65 84
61 75 95
78 93 115
57 73 95
59 72 92
70 85 108
58 76 102
63 76 96
74 90 115
72 87 108
57 70 89
58 73 95
66 82 105
66 81 105
50 63 83
40 52 69
64 79 102
64 82 108
60 74 95
61 75 95
58 70 89
51 64 83
66 80 102
44 57 77
61 75 95
55 69 89
60 73 92
66 80 102
59 69 84
57 70 91
58 73 97
68 84 108
50 62 79
71 85 105
49 64 86
60 73 92
63 76 95
58 72 92
60 76 99
55 69 89
70 88 115
71 84 103
76 92 115
66 80 100
70 88 115
70 87 111
55 71 95
61 75 95
51 63 79
62 75 94
64 79 102
77 95 121
64 79 102
72 89 115
63 76 96
64 79 102
53 63 78
74 87 108
71 86 108
64 77 97
66 81 102
54 69 91
56 70 91
63 77 97
75 91 115
67 81 102
66 80 102
57 73 97
66 79 99
65 82 108
63 79 103
63 76 95
55 68 89
53 65 83
67 84 108
66 81 105
60 75 97
85 99 121
53 65 83
57 70 89
61 75 95
65 80 102
60 73 91
54 68 89
55 69 89
190 216 255
191 217 255
191 217 255
191 217 255
191 217 255
191 217 255
191 217 255
191 217 255
190 216 255
191 217 255
190 216 255
191 217 255
191 217 255
191 217 255
191 217 255
191 217 255
191 217 255
191 217 255
191 217 255
191 217 255
191 217 255
191 217 255
191 217 255
191 217 255
191 217 255
191 217 255
191 217 255
191 217 255
191 217 255
191 217 255
191 217 255
191 217 255
191 217 255
191 217 255
191 217 255
191 217 255
191 217 255
191 217 255
191 217 255
191 217 255
191 217 255
191 217 255
191 217 255
191 217 255
191 217 255
191 217 255
191 217 255
191 217 255
191 217 255
191 217 255
191 217 255
191 217 255
191 217 255
191 217 255
191 217 255
191 217 255
191 217 255
191 217 255
191 217 255
191 217 255
191 217 255
191 217 255
191 217 255
191 217 255
191 217 255
191 217 255
191 217 255
191 217 255
191 217 255
191 217 255
191 217 255
191 217 255
191 217 255
191 217 255
191 217 255
191 217 255
191 217 255
191 217 255
191 217 255
191 217 255
191 217 255
191 217 255
191 217 255
191 217 255
191 217 255
191 217 255
191 217 255
191 217 255
191 217 255
191 217 255
191 217 255
191 217 255
191 217 255
191 217 255
191 217 255
191 217 255
191 217 255
191 217 255
191 217 255
191 217 255
191 217 255
191 217 255
191 217 255
191 217 255
191 217 255
191 217 255
191 217 255
191 217 255
191 217 255
191 217 255
191 217 255
191 217 255
191 217 255
191 217 255
191 217 255
191 217 255
191 217 255
191 217 255
191 217 255
191 217 255
191 217 255
191 217 255
191 217 255
191 217 255
191 217 255
191 217 255
191 217 255
191 217 255
191 217 255
191 217 255
191 217 255
191 217 255
191 217 255
191 217 255
191 217 255
191 217 255
191 217 255
191 217 255
191 217 255
191 217 255
191 217 255
191 217 255
191 217 255
191 217 255
191 217 255
191 217 255
191 217 255
191 217 255
191 217 255
191 217 255
191 217 255
191 217 255
191 217 255
191 217 255
191 217 255
191 217 255
191 217 255
191 217 255
191 217 255
191 217 255
191 217 255
191 217 255
191 217 255
191 217 255
191 217 255
191 217 255
191 217 255
191 217 255
191 217 255
191 217 255
191 217 255
191 217 255
191 217 255
191 217 255
191 217 255
191 217 255
191 217 255
191 217 255
191 217 255
191 217 255
191 217 255
191 217 255
191 217 255
191 217 255
191 217 255
191 217 255
191 217 255
191 217 255
191 217 255
191 217 255
191 217 255
191 217 255
191 217 255
191 217 255
191 217 255
191 217 255
191 217 255
191 217 255
191 217 255
191 217 255
191 217 255
191 217 255
191 217 255
191 217 255
191 217 255
191 217 255
191 217 255
191 217 255
191 217 255
191 217 255
191 217 255
191 217 255
191 217 255
191 217 255
191 217 255
191 217 255
191 217 255
191 217 255
191 217 255
191 217 255
191 217 255
191 217 255
191 217 255
191 217 255
191 217 255
191 217 255
191 217 255
191 217 255
191 217 255
191 217 255
191 217 255
191 217 255
191 217 255
191 217 255
191 217 255
191 217 255
191 217 255
191 217 255
191 217 255
191 217 255
191 217 255
191 217 255
191 217 255
191 217 255
191 217 255
191 217 255
191 217 255
191 217 255
191 217 255
191 217 255
191 217 255
191 217 255
191 217 255
191 217 255
191 217 255
191 217 255
191 217 255
191 217 255
191 217 255
191 217 255
191 217 255
191 217 255
191 217 255
191 217 255
191 217 255
191 217 255
191 217 255
191 217 255
191 217 255
191 217 255
75 91 115
62 77 99
59 72 92
64 79 102
69 85 108
56 70 91
67 81 102
57 70 89
72 89 115
55 67 86
50 62 79
64 77 97
51 63 83
53 65 84
65 80 102
70 85 108
80 99 127
42 54 71
65 77 95
77 95 121
48 59 76
71 86 108
60 74 95
75 91 115
60 74 95
71 86 108
64 79 102
74 88 108
67 81 102
64 79 102
60 74 95
65 82 108
59 76 102
49 60 76
68 87 115
63 76 95
47 57 72
61 73 91
47 59 78
54 66 84
65 80 102
63 81 108
49 63 84
53 65 83
57 73 97
64 80 103
75 91 115
52 67 91
63 79 102
69 85 108
60 74 95
63 76 95
77 95 121
53 66 86
62 73 91
57 70 89
57 72 95
66 82 105
50 63 83
61 75 95
69 82 102
44 54 68
72 86 108
68 87 115
59 72 91
64 79 102
62 76 95
46 59 79
55 69 89
64 79 102
53 65 83
55 69 89
57 70 89
58 73 96
64 78 99
64 79 102
75 93 121
64 80 103
70 88 115
70 85 108
62 77 99
68 82 102
48 59 76
75 91 115
68 84 108
59 74 95
67 84 108
68 84 108
72 89 115
60 74 95
57 73 97
59 72 91
63 78 102
48 62 83
68 84 108
52 65 84
62 75 95
61 75 95
65 80 102
60 74 95
55 70 92
75 91 115
54 68 89
71 84 103
62 77 99
60 74 95
69 85 108
66 83 108
62 78 102
60 73 92
75 94 121
61 73 92
45 55 70
63 77 99
63 76 95
67 79 97
69 85 108
75 91 115
56 69 89
62 76 97
56 71 92
60 74 95
56 72 95
56 72 95
64 78 99
68 82 103
58 73 95
79 93 115
55 69 89
78 95 121
191 217 255
191 217 255
191 217 255
191 217 255
191 217 255
191 217 255
191 217 255
191 217 255
191 217 255
191 217 255
191 217 255
191 217 255
191 217 255
191 217 255
191 217 255
191 217 255
191 217 255
191 217 255
191 217 255
191 217 255
191 217 255
191 217 255
191 217 255
191 217 255
191 217 255
191 217 255
191 217 255
191 217 255
191 217 255
191 217 255
191 217 255
191 217 255
191 217 255
191 217 255
191 217 255
191 217 255
191 217 255
191 217 255
191 217 255
191 217 255
191 217 255
191 217 255
191 217 255
191 217 255
191 217 255
191 217 255
191 217 255
191 217 255
191 217 255
191 217 255
191 217 255
191 217 255
191 217 255
191 217 255
191 217 255
191 217 255
191 217 255
191 217 255
191 217 255
191 217 255
191 217 255
191 217 255
191 217 255
191 217 255
191 217 255
191 217 255
191 217 255
191 217 255
191 217 255
191 217 255
191 217 255
191 217 255
191 217 255
191 217 255
191 217 255
191 217 255
191 217 255
191 217 255
191 217 255
191 217 255
191 217 255
191 217 255
191 217 255
191 217 255
191 217 255
191 217 255
191 217 255
191 217 255
191 217 255
191 217 255
191 217 255
191 217 255
191 217 255
191 217 255
191 217 255
191 217 255
191 217 255
191 217 255
191 217 255
191 217 255
191 217 255
191 217 255
191 217 255
191 217 255
191 217 255
191 217 255
191 217 255
191 217 255
191 217 255
191 217 255
191 217 255
191 217 255
191 217 255
191 217 255
191 217 255
191 217 255
191 217 255
191 217 255
191 217 255
191 217 255
191 217 255
191 217 255
191 217 255
191 217 255
191 217 255
191 217 255
191 217 255
191 217 255
191 217 255
191 217 255
191 217 255
191 217 255
191 217 255
191 217 255
191 217 255
192 217 255
191 217 255
192 217 255
192 217 255
192 217 255
191 217 255
191 217 255
191 217 255
191 217 255
192 217 255
192 217 255
191 217 255
191 217 255
191 217 255
192 217 255
191 217 255
192 217 255
192 217 255
191 217 255
192 217 255
191 217 255
191 217 255
192 217 255
192 217 255
192 217 255
192 217 255
191 217 255
192 217 255
191 217 255
192 217 255
191 217 255
192 217 255
191 217 255
191 217 255
192 217 255
192 217 255
192 217 255
191 217 255
191 217 255
192 217 255
192 217 255
191 217 255
191 217 255
192 217 255
191 217 255
191 217 255
191 217 255
192 217 255
191 217 255
192 217 255
191 217 255
191 217 255
191 217 255
192 217 255
191 217 255
192 217 255
192 217 255
191 217 255
192 217 255
191 217 255
192 217 255
191 217 255
191 217 255
191 217 255
191 217 255
192 217 255
191 217 255
191 217 255
191 217 255
192 217 255
191 217 255
192 217 255
191 217 255
192 217 255
192 217 255
191 217 255
192 217 255
191 217 255
192 217 255
192 217 255
192 217 255
191 217 255
192 217 255
192 217 255
191 217 255
191 217 255
192 217 255
191 217 255
192 217 255
192 217 255
192 217 255
191 217 255
192 217 255
191 217 255
191 217 255
191 217 255
191 217 255
191 217 255
191 217 255
192 217 255
192 217 255
192 217 255
191 217 255
192 217 255
192 217 255
192 217 255
191 217 255
192 217 255
192 217 255
192 217 255
192 217 255
191 217 255
191 217 255
192 217 255
191 217 255
192 217 255
192 217 255
192 217 255
191 217 255
192 217 255
191 217 255
192 217 255
191 217 255
192 217 255
192 217 255
191 217 255
192 217 255
191 217 255
191 217 255
191 217 255
192 217 255
191 217 255
191 217 255
192 217 255
192 217 255
62 76 97
51 63 83
60 74 95
60 75 97
50 64 86
59 74 95
52 65 84
63 79 102
59 72 92
70 85 108
53 68 89
76 92 115
55 71 95
68 84 108
47 59 76
58 74 97
64 79 100
55 69 89
64 79 102
64 80 103
51 64 83
59 71 89
65 82 108
75 91 115
56 67 84
68 84 108
50 61 78
67 84 108
73 90 115
67 83 108
58 71 91
68 82 102
51 64 84
72 87 108
64 78 99
53 66 86
60 72 91
65 82 108
54 65 81
52 62 76
52 64 83
60 77 102
57 71 92
62 75 95
76 91 115
50 64 84
54 67 86
60 74 96
65 79 99
55 69 89
58 73 95
61 75 95
63 79 102
76 92 115
63 78 102
55 66 83
63 76 95
70 85 108
64 79 102
65 77 95
48 60 78
64 79 102
59 74 95
64 77 97
63 76 97
58 70 89
57 70 89
65 82 108
62 78 102
74 87 108
70 86 108
68 83 105
65 80 102
58 73 95
65 80 102
52 67 89
59 76 102
55 66 83
54 66 83
56 68 87
58 73 95
58 71 89
73 89 115
53 66 86
65 80 102
63 76 95
63 77 99
56 68 87
54 66 83
56 70 90
74 90 115
62 76 97
59 76 102
59 74 95
62 76 96
54 63 78
51 61 76
67 81 102
57 70 89
70 88 115
49 61 79
64 79 102
60 72 91
58 74 99
61 78 102
54 69 91
59 74 95
60 74 95
69 82 102
46 56 72
58 72 92
67 84 110
58 73 95
59 71 89
71 86 108
64 79 102
70 83 102
68 84 108
59 73 95
77 95 121
63 78 102
61 75 95
51 64 83
67 83 108
64 79 102
53 65 84
59 72 91
73 87 108
60 75 97
64 79 102
192 217 255
192 217 255
191 217 255
191 217 255
192 217 255
192 217 255
192 217 255
191 217 255
191 217 255
191 217 255
192 217 255
191 217 255
192 217 255
191 217 255
191 217 255
191 217 255
192 217 255
191 217 255
192 217 255
192 217 255
191 217 255
192 217 255
191 217 255
191 217 255
191 217 255
191 217 255
191 217 255
191 217 255
192 217 255
192 217 255
192 217 255
191 217 255
192 217 255
191 217 255
191 217 255
192 217 255
192 217 255
192 217 255
191 217 255
191 217 255
192 217 255
192 217 255
192 217 255
191 217 255
191 217 255
191 217 255
192 217 255
192 217 255
192 217 255
191 217 255
192 217 255
191 217 255
192 217 255
191 217 255
191 217 255
191 217 255
191 217 255
192 217 255
191 217 255
191 217 255
192 217 255
191 217 255
192 217 255
191 217 255
192 217 255
192 217 255
191 217 255
191 217 255
192 217 255
191 217 255
191 217 255
192 217 255
192 217 255
191 217 255
191 217 255
191 217 255
192 217 255
192 217 255
192 217 255
191 217 255
191 217 255
192 217 255
191 217 255
192 217 255
192 217 255
192 217 255
191 217 255
192 217 255
191 217 255
192 217 255
192 217 255
192 217 255
192 217 255
192 217 255
191 217 255
191 217 255
192 217 255
192 217 255
192 217 255
191 217 255
191 217 255
191 217 255
192 217 255
192 217 255
191 217 255
192 217 255
192 217 255
192 217 255
191 217 255
191 217 255
191 217 255
192 217 255
191 217 255
191 217 255
192 217 255
192 217 255
191 217 255
191 217 255
192 217 255
192 217 255
192 217 255
191 217 255
191 217 255
192 217 255
191 217 255
191 217 255
192 217 255
192 217 255
191 217 255
191 217 255
191 217 255
192 217 255
191 217 255
192 217 255
192 217 255
192 217 255
192 217 255
192 217 255
192 217 255
192 217 255
192 217 255
192 217 255
192 217 255
192 217 255
192 217 255
192 217 255
192 217 255
192 217 255
192 217 255
192 217 255
192 217 255
192 217 255
192 217 255
192 217 255
192 217 255
192 217 255
192 217 255
192 217 255
192 217 255
192 217 255
192 217 255
192 217 255
192 217 255
192 217 255
192 217 255
192 217 255
192 217 255
192 217 255
192 217 255
192 217 255
192 217 255
192 217 255
192 217 255
192 217 255
192 217 255
192 217 255
192 217 255
192 217 255
192 217 255
192 217 255
192 217 255
192 217 255
192 217 255
192 217 255
192 217 255
192 217 255
192 217 255
192 217 255
192 217 255
192 217 255
192 217 255
192 217 255
192 217 255
192 217 255
192 217 255
192 217 255
192 217 255
192 217 255
192 217 255
192 217 255
192 217 255
192 217 255
192 217 255
192 217 255
192 217 255
192 217 255
192 217 255
192 217 255
192 217 255
192 217 255
192 217 255
192 217 255
192 217 255
192 217 255
192 217 255
192 217 255
192 217 255
192 217 255
192 217 255
192 217 255
192 217 255
192 217 255
192 217 255
192 217 255
192 217 255
192 217 255
192 217 255
192 217 255
192 217 255
192 217 255
192 217 255
192 217 255
192 217 255
192 217 255
192 217 255
192 217 255
192 217 255
192 217 255
192 217 255
192 217 255
192 217 255
192 217 255
192 217 255
192 217 255
192 217 255
192 217 255
192 217 255
192 217 255
192 217 255
192 217 255
192 217 255
192 217 255
192 217 255
192 217 255
192 217 255
192 217 255
192 217 255
192 217 255
192 217 255
192 217 255
192 217 255
192 217 255
192 217 255
192 217 255
192 217 255
192 217 255
192 217 255
192 217 255
192 217 255
192 217 255
62 75 95
45 56 71
64 77 96
67 84 108
59 74 96
56 70 91
63 79 102
74 87 108
66 81 102
68 82 102
59 71 89
65 81 105
63 78 102
72 89 115
59 71 89
58 71 89
66 80 102
58 73 94
65 78 99
56 69 89
60 77 102
67 80 99
62 78 102
72 89 115
49 63 84
47 58 76
58 74 99
64 77 96
72 92 121
66 82 105
63 76 95
57 70 89
63 76 95
57 70 89
53 67 89
65 82 108
68 84 108
67 84 108
56 69 89
59 74 95
54 66 83
59 74 95
76 94 121
57 68 86
77 94 121
64 79 102
64 79 102
60 72 91
77 92 115
61 75 97
60 74 95
47 60 79
57 68 86
57 71 92
57 70 89
59 74 95
60 73 92
62 76 95
52 65 84
68 84 108
67 81 102
53 68 89
69 85 108
61 75 95
52 65 86
64 78 99
83 98 121
64 77 95
59 71 91
57 70 89
55 69 91
69 85 108
58 71 91
64 78 99
70 85 108
68 84 108
52 64 83
55 66 83
63 76 95
57 70 89
54 64 78
60 74 96
62 75 95
68 84 108
60 75 97
57 70 91
75 91 115
50 63 83
61 75 95
69 85 108
48 62 83
47 59 77
65 82 108
73 87 108
64 79 102
45 57 75
61 73 92
51 62 78
67 79 97
59 73 95
68 84 108
69 88 115
65 80 102
74 90 115
58 72 92
65 80 102
65 82 108
61 76 97
68 84 108
76 91 115
57 70 91
35 43 56
66 80 102
56 69 89
61 77 102
69 85 108
64 79 102
72 87 108
55 67 84
67 81 102
72 89 115
54 68 89
73 90 116
58 71 91
52 64 83
57 70 89
62 77 99
66 80 102
57 73 97
67 83 108
192 217 255
192 217 255
192 217 255
192 217 255
192 217 255
192 217 255
192 217 255
192 217 255
192 217 255
192 217 255
192 217 255
192 217 255
192 217 255
192 217 255
192 217 255
192 217 255
192 217 255
192 217 255
192 217 255
192 217 255
192 217 255
192 217 255
192 217 255
192 217 255
192 217 255
192 217 255
192 217 255
192 217 255
192 217 255
192 217 255
192 217 255
192 217 255
192 217 255
192 217 255
192 217 255
192 217 255
192 217 255
192 217 255
192 217 255
192 217 255
192 217 255
192 217 255
192 217 255
192 217 255
192 217 255
192 217 255
192 217 255
192 217 255
192 217 255
192 217 255
192 217 255
192 217 255
192 217 255
192 217 255
192 217 255
192 217 255
192 217 255
192 217 255
192 217 255
192 217 255
192 217 255
192 217 255
192 217 255
192 217 255
192 217 255
192 217 255
192 217 255
192 217 255
192 217 255
192 217 255
192 217 255
192 217 255
192 217 255
192 217 255
192 217 255
192 217 255
192 217 255
192 217 255
192 217 255
192 217 255
192 217 255
192 217 255
192 217 255
192 217 255
192 217 255
192 217 255
192 217 255
192 217 255
192 217 255
192 217 255
192 217 255
192 217 255
192 217 255
192 217 255
192 217 255
192 217 255
192 217 255
192 217 255
192 217 255
192 217 255
192 217 255
192 217 255
192 217 255
192 217 255
192 217 255
192 217 255
192 217 255
192 217 255
192 217 255
192 217 255
192 217 255
192 217 255
192 217 255
192 217 255
192 217 255
192 217 255
192 217 255
192 217 255
192 217 255
192 217 255
192 217 255
192 217 255
192 217 255
192 217 255
192 217 255
192 217 255
192 217 255
192 217 255
192 217 255
192 217 255
192 217 255
192 217 255
192 217 255
192 217 255
192 217 255
192 217 255
192 217 255
192 217 255
192 217 255
192 217 255
192 217 255
192 217 255
192 217 255
192 217 255
192 217 255
192 217 255
192 217 255
192 217 255
192 217 255
192 217 255
192 217 255
192 217 255
192 217 255
192 217 255
192 217 255
192 217 255
192 217 255
192 217 255
192 217 255
192 217 255
192 217 255
192 218 255
192 217 255
192 217 255
192 217 255
192 217 255
192 217 255
192 218 255
192 217 255
192 217 255
192 217 255
192 217 255
192 217 255
192 217 255
192 218 255
192 217 255
192 217 255
192 217 255
192 218 255
192 218 255
192 218 255
192 218 255
192 218 255
192 218 255
192 218 255
192 218 255
192 217 255
192 217 255
192 217 255
192 218 255
192 218 255
192 218 255
192 217 255
192 218 255
192 218 255
192 218 255
192 218 255
192 218 255
192 218 255
192 218 255
192 218 255
192 218 255
192 218 255
192 218 255
192 218 255
192 218 255
192 218 255
192 218 255
192 218 255
192 218 255
192 218 255
192 218 255
192 218 255
192 218 255
192 218 255
192 218 255
192 218 255
192 218 255
192 218 255
192 218 255
192 218 255
192 218 255
192 218 255
192 218 255
192 218 255
192 218 255
192 218 255
192 218 255
192 218 255
192 218 255
192 218 255
192 218 255
192 218 255
192 218 255
192 218 255
192 218 255
192 218 255
192 218 255
192 218 255
192 218 255
192 218 255
192 218 255
192 218 255
192 218 255
192 218 255
192 218 255
192 218 255
192 218 255
192 218 255
192 218 255
192 218 255
192 218 255
192 218 255
192 218 255
192 218 255
192 218 255
192 218 255
192 218 255
192 218 255
192 218 255
192 218 255
192 218 255
192 218 255
192 218 255
193 218 255
192 218 255
192 218 255
192 218 255
192 218 255
193 218 255
79 93 115
67 86 115
59 71 89
59 72 91
59 72 91
60 73 92
58 73 95
47 61 83
54 68 89
66 80 102
66 81 102
57 73 95
61 73 91
61 76 97
50 63 81
69 82 102
69 82 102
56 69 89
56 69 89
49 59 73
59 72 92
56 69 89
62 78 102
72 89 115
62 79 105
65 78 99
63 81 108
56 72 95
46 57 73
51 64 83
53 67 89
63 78 102
51 67 91
61 75 97
73 90 115
58 70 89
64 79 102
52 63 79
65 77 95
61 77 102
58 71 91
57 70 89
59 74 95
74 88 108
53 65 83
66 80 102
53 68 89
62 75 95
67 81 102
54 69 91
71 86 108
73 87 108
58 76 102
59 72 91
50 63 83
64 77 95
50 62 79
62 74 92
53 63 78
58 71 89
68 84 108
67 84 110
54 66 83
70 85 108
57 71 91
54 66 83
58 70 89
54 68 89
59 71 89
69 82 102
70 84 105
65 77 95
68 84 108
61 73 92
63 76 95
57 70 91
53 68 89
53 65 84
67 81 102
61 75 96
61 77 102
68 84 108
71 86 108
54 66 83
67 84 108
64 79 102
61 75 95
60 75 97
64 76 95
57 70 89
55 69 91
60 75 97
64 78 99
70 85 108
68 81 102
59 72 92
67 84 110
69 82 102
61 78 103
65 78 97
67 81 103
69 85 108
63 78 102
59 74 95
65 80 102
60 74 96
63 78 100
66 83 108
47 58 75
65 78 99
67 81 102
57 71 92
72 87 108
59 74 95
66 80 102
54 68 89
74 88 110
62 78 102
67 83 108
61 77 102
56 70 91
67 86 115
58 71 91
72 87 108
57 71 92
57 70 91
70 86 108
48 60 78
61 75 95
69 84 108
192 218 255
192 218 255
193 218 255
192 218 255
192 218 255
192 218 255
192 218 255
193 218 255
192 218 255
192 218 255
192 218 255
192 218 255
192 218 255
192 218 255
192 218 255
192 218 255
192 218 255
192 218 255
192 218 255
192 218 255
192 218 255
192 218 255
192 218 255
192 218 255
192 218 255
192 218 255
192 218 255
192 218 255
192 218 255
192 218 255
192 218 255
192 218 255
192 218 255
192 218 255
192 218 255
192 218 255
192 218 255
192 218 255
192 218 255
192 218 255
192 218 255
192 218 255
192 218 255
192 218 255
192 218 255
192 218 255
192 218 255
192 218 255
192 218 255
192 218 255
192 218 255
192 218 255
192 218 255
192 218 255
192 218 255
192 218 255
192 218 255
192 218 255
192 218 255
192 218 255
192 218 255
192 218 255
192 218 255
192 218 255
192 218 255
192 218 255
192 218 255
192 218 255
192 218 255
192 218 255
192 218 255
192 218 255
192 218 255
192 218 255
192 218 255
192 218 255
192 218 255
192 218 255
192 218 255
192 218 255
192 218 255
192 217 255
192 218 255
192 218 255
192 218 255
192 218 255
192 217 255
192 218 255
192 217 255
192 218 255
192 218 255
192 217 255
192 217 255
192 218 255
192 217 255
192 217 255
192 217 255
192 217 255
192 217 255
192 217 255
192 217 255
192 217 255
192 217 255
192 217 255
192 217 255
192 217 255
192 217 255
192 217 255
192 217 255
192 217 255
192 217 255
192 217 255
192 217 255
192 217 255
192 217 255
192 217 255
192 217 255
192 217 255
192 217 255
192 217 255
192 217 255
192 217 255
192 217 255
192 217 255
192 217 255
192 217 255
192 217 255
192 217 255
192 217 255
192 217 255
192 217 255
192 217 255
192 217 255
192 217 255
192 217 255
192 218 255
192 218 255
192 218 255
192 218 255
192 218 255
192 218 255
192 218 255
192 218 255
192 218 255
192 218 255
192 218 255
192 218 255
192 218 255
192 218 255
192 218 255
192 218 255
192 218 255
192 218 255
192 218 255
192 218 255
192 218 255
192 218 255
192 218 255
192 218 255
192 218 255
192 218 255
192 218 255
192 218 255
192 218 255
192 218 255
192 218 255
192 218 255
192 218 255
192 218 255
192 218 255
192 218 255
192 218 255
192 218 255
192 218 255
192 218 255
192 218 255
192 218 255
193 218 255
192 218 255
193 218 255
193 218 255
193 218 255
193 218 255
193 218 255
192 218 255
193 218 255
192 218 255
192 218 255
193 218 255
193 218 255
193 218 255
193 218 255
193 218 255
193 218 255
193 218 255
193 218 255
193 218 255
193 218 255
193 218 255
193 218 255
193 218 255
193 218 255
193 218 255
193 218 255
193 218 255
193 218 255
193 218 255
193 218 255
193 218 255
193 218 255
193 218 255
193 218 255
193 218 255
193 218 255
193 218 255
193 218 255
193 218 255
193 218 255
193 218 255
193 218 255
193 218 255
193 218 255
193 218 255
193 218 255
193 218 255
193 218 255
193 218 255
193 218 255
193 218 255
193 218 255
193 218 255
193 218 255
193 218 255
193 218 255
193 218 255
193 218 255
193 218 255
193 218 255
193 218 255
193 218 255
193 218 255
193 218 255
193 218 255
193 218 255
193 218 255
193 218 255
193 218 255
193 218 255
193 218 255
193 218 255
193 218 255
193 218 255
193 218 255
193 218 255
193 218 255
193 218 255
193 218 255
193 218 255
193 218 255
193 218 255
193 218 255
193 218 255
193 218 255
193 218 255
193 218 255
193 218 255
193 218 255
193 218 255
193 218 255
193 218 255
58 70 89
64 79 102
54 68 89
64 77 97
68 84 108
60 74 94
60 74 95
65 77 95
61 75 95
63 77 99
63 77 97
60 74 95
62 78 102
81 97 121
60 74 95
53 67 89
63 78 102
69 82 102
69 85 108
57 71 91
68 82 103
71 86 108
53 64 81
74 90 115
67 82 105
67 81 102
59 71 89
62 76 97
69 84 108
70 83 103
59 74 96
54 67 86
56 72 95
69 85 108
65 80 102
63 76 95
62 73 91
58 77 105
66 81 105
54 67 86
66 81 102
65 82 108
67 82 103
65 80 102
68 81 102
62 78 102
40 51 67
58 71 89
58 72 92
66 78 95
65 80 102
49 59 75
58 74 99
61 75 95
59 71 89
66 83 108
65 81 103
73 90 115
56 69 89
63 76 95
56 69 89
66 80 102
54 67 86
65 80 102
53 67 89
59 74 95
73 87 108
78 92 115
68 84 108
68 84 108
68 84 108
56 69 89
77 95 121
58 76 102
59 71 89
56 69 89
51 62 79
71 86 108
69 82 102
64 79 102
58 71 89
55 69 89
64 82 108
53 66 85
72 86 108
55 69 89
47 59 76
62 75 95
58 72 92
66 81 102
64 79 102
51 62 79
71 86 108
64 78 100
60 75 97
35 45 60
59 73 95
57 71 91
71 86 108
73 90 115
53 65 83
67 82 103
53 70 95
65 80 102
52 65 84
53 66 84
64 79 102
63 78 102
58 73 95
64 78 99
65 82 108
74 93 121
63 79 102
63 79 102
56 69 89
52 67 89
68 84 108
66 80 102
55 69 89
56 70 92
62 76 95
48 61 79
47 60 79
60 75 97
67 82 103
58 70 89
66 83 108
49 60 78
60 74 95
69 85 108
193 218 255
193 218 255
193 218 255
193 218 255
193 218 255
193 218 255
193 218 255
193 218 255
193 218 255
193 218 255
193 218 255
193 218 255
193 218 255
193 218 255
193 218 255
193 218 255
193 218 255
193 218 255
193 218 255
193 218 255
193 218 255
193 218 255
193 218 255
193 218 255
193 218 255
193 218 255
193 218 255
193 218 255
193 218 255
193 218 255
193 218 255
193 218 255
193 218 255
193 218 255
193 218 255
193 218 255
193 218 255
193 218 255
193 218 255
193 218 255
193 218 255
193 218 255
193 218 255
193 218 255
193 218 255
193 218 255
193 218 255
193 218 255
193 218 255
193 218 255
193 218 255
193 218 255
193 218 255
193 218 255
193 218 255
193 218 255
193 218 255
193 218 255
193 218 255
193 218 255
193 218 255
193 218 255
193 218 255
193 218 255
193 218 255
193 218 255
193 218 255
193 218 255
193 218 255
193 218 255
193 218 255
193 218 255
193 218 255
193 218 255
193 218 255
193 218 255
193 218 255
193 218 255
193 218 255
193 218 255
193 218 255
193 218 255
193 218 255
193 218 255
193 218 255
193 218 255
192 218 255
193 218 255
192 218 255
193 218 255
192 218 255
192 218 255
192 218 255
193 218 255
193 218 255
192 218 255
192 218 255
192 218 255
192 218 255
192 218 255
192 218 255
192 218 255
192 218 255
192 218 255
192 218 255
192 218 255
192 218 255
192 218 255
192 218 255
192 218 255
192 218 255
192 218 255
192 218 255
192 218 255
192 218 255
192 218 255
192 218 255
192 218 255
192 218 255
192 218 255
192 218 255
192 218 255
192 218 255
192 218 255
192 218 255
192 218 255
192 218 255
192 218 255
192 218 255
192 218 255
192 218 255
192 218 255
192 218 255
192 218 255
192 218 255
193 218 255
193 218 255
193 218 255
193 218 255
193 218 255
193 218 255
193 218 255
193 218 255
193 218 255
193 218 255
193 218 255
193 218 255
193 218 255
193 218 255
193 218 255
193 218 255
193 218 255
193 218 255
193 218 255
193 218 255
193 218 255
193 218 255
193 218 255
193 218 255
193 218 255
193 218 255
193 218 255
193 218 255
193 218 255
193 218 255
193 218 255
193 218 255
193 218 255
193 218 255
193 218 255
193 218 255
193 218 255
193 218 255
193 218 255
193 218 255
193 218 255
193 218 255
193 218 255
193 218 255
193 218 255
193 218 255
193 218 255
193 218 255
193 218 255
193 218 255
193 218 255
193 218 255
193 218 255
193 218 255
193 218 255
193 218 255
193 218 255
193 218 255
193 218 255
193 218 255
193 218 255
193 218 255
193 218 255
193 218 255
193 218 255
193 218 255
193 218 255
193 218 255
193 218 255
193 218 255
193 218 255
193 218 255
193 218 255
193 218 255
193 218 255
193 218 255
193 218 255
193 218 255
193 218 255
193 218 255
193 218 255
193 218 255
193 218 255
193 218 255
193 218 255
193 218 255
193 218 255
193 218 255
193 218 255
193 218 255
193 218 255
193 218 255
193 218 255
193 218 255
193 218 255
193 218 255
193 218 255
193 218 255
193 218 255
193 218 255
193 218 255
193 218 255
193 218 255
193 218 255
193 218 255
193 218 255
193 218 255
193 218 255
193 218 255
193 218 255
193 218 255
193 218 255
193 218 255
193 218 255
193 218 255
193 218 255
193 218 255
193 218 255
193 218 255
193 218 255
193 218 255
193 218 255
193 218 255
193 218 255
193 218 255
193 218 255
193 218 255
193 218 255
193 218 255
193 218 255
193 218 255
193 218 255
193 218 255
193 218 255
194 218 255
87 103 127
59 72 92
55 67 84
64 77 97
53 64 82
63 76 95
60 74 95
55 67 84
59 74 95
55 68 89
71 86 108
62 75 95
61 77 102
58 70 89
60 75 97
70 85 108
68 84 108
56 67 83
56 69 89
48 60 78
57 72 95
56 69 89
61 77 102
69 85 108
63 76 95
64 79 102
75 91 115
66 78 97
56 72 95
68 82 103
73 87 108
71 86 108
60 77 102
54 65 81
61 75 95
56 69 89
56 69 89
64 76 95
58 71 91
61 73 92
64 78 99
59 74 95
53 66 86
68 82 102
59 74 95
67 81 102
47 59 76
66 83 108
65 80 102
58 73 95
56 70 91
63 79 102
63 78 99
47 59 76
52 64 83
57 70 89
60 74 95
62 79 103
42 53 70
64 79 102
64 77 95
60 77 102
64 75 91
74 90 115
71 86 108
56 72 95
57 70 89
67 82 105
64 78 99
61 75 95
53 65 83
59 71 89
49 62 81
62 77 99
47 59 78
63 76 95
60 73 92
57 70 89
67 84 108
67 82 105
51 66 89
45 57 76
69 82 102
69 85 108
67 81 102
57 70 91
56 68 86
59 74 95
60 73 92
50 63 83
60 74 95
65 80 102
58 73 95
59 74 95
62 75 95
60 75 99
66 83 108
55 69 90
66 81 102
60 74 95
58 73 95
68 82 103
71 86 108
59 74 95
65 81 105
65 83 108
63 76 95
65 82 108
57 72 95
48 59 76
52 66 86
64 76 95
55 69 89
59 73 95
57 69 86
60 74 95
66 80 102
66 79 99
55 66 83
66 83 108
68 84 108
50 62 79
56 65 79
49 61 79
57 72 95
61 75 95
55 67 84
69 88 115
51 62 78
111 130 159
194 218 255
194 218 255
193 218 255
193 218 255
193 218 255
193 218 255
193 218 255
193 218 255
193 218 255
193 218 255
193 218 255
193 218 255
193 218 255
193 218 255
193 218 255
193 218 255
193 218 255
193 218 255
193 218 255
193 218 255
193 218 255
193 218 255
193 218 255
193 218 255
193 218 255
193 218 255
193 218 255
193 218 255
193 218 255
193 218 255
193 218 255
193 218 255
193 218 255
193 218 255
193 218 255
193 218 255
193 218 255
193 218 255
193 218 255
193 218 255
193 218 255
193 218 255
193 218 255
193 218 255
193 218 255
193 218 255
193 218 255
193 218 255
193 218 255
193 218 255
193 218 255
193 218 255
193 218 255
193 218 255
193 218 255
193 218 255
193 218 255
193 218 255
193 218 255
193 218 255
193 218 255
193 218 255
193 218 255
193 218 255
193 218 255
193 218 255
193 218 255
193 218 255
193 218 255
193 218 255
193 218 255
193 218 255
193 218 255
193 218 255
193 218 255
193 218 255
193 218 255
193 218 255
193 218 255
193 218 255
193 218 255
193 218 255
193 218 255
193 218 255
193 218 255
193 218 255
193 218 255
193 218 255
193 218 255
193 218 255
193 218 255
193 218 255
193 218 255
193 218 255
193 218 255
193 218 255
193 218 255
193 218 255
193 218 255
193 218 255
193 218 255
193 218 255
193 218 255
193 218 255
193 218 255
193 218 255
193 218 255
193 218 255
193 218 255
193 218 255
193 218 255
193 218 255
193 218 255
193 218 255
193 218 255
193 218 255
193 218 255
193 218 255
193 218 255
193 218 255
193 218 255
193 218 255
193 218 255
193 218 255
193 218 255
193 218 255
193 218 255
193 218 255
193 218 255
193 218 255
193 218 255
193 218 255
193 218 255
193 218 255
193 218 255
193 218 255
193 218 255
193 218 255
193 218 255
193 218 255
193 218 255
193 218 255
193 218 255
193 218 255
193 218 255
193 218 255
193 218 255
193 218 255
193 218 255
193 218 255
193 218 255
193 218 255
193 218 255
193 218 255
193 218 255
193 218 255
193 218 255
193 218 255
193 218 255
193 218 255
193 218 255
193 218 255
193 218 255
193 218 255
193 218 255
193 218 255
193 218 255
193 218 255
193 218 255
193 218 255
193 218 255
193 218 255
193 218 255
193 218 255
193 218 255
193 218 255
193 218 255
193 218 255
193 218 255
193 218 255
193 218 255
193 218 255
193 218 255
193 218 255
193 218 255
193 218 255
193 218 255
193 218 255
193 218 255
193 218 255
193 218 255
193 218 255
193 218 255
193 218 255
193 218 255
193 218 255
193 218 255
193 218 255
193 218 255
193 218 255
193 218 255
193 218 255
193 218 255
193 218 255
193 218 255
193 218 255
193 218 255
193 218 255
193 218 255
193 218 255
193 218 255
193 218 255
193 218 255
193 218 255
193 218 255
193 218 255
193 218 255
193 218 255
193 218 255
194 218 255
193 218 255
193 218 255
193 218 255
194 218 255
194 218 255
194 218 255
194 218 255
193 218 255
194 218 255
194 218 255
194 218 255
194 218 255
194 218 255
194 218 255
194 218 255
194 218 255
194 218 255
194 218 255
194 218 255
194 218 255
194 218 255
194 218 255
194 218 255
194 218 255
194 218 255
194 218 255
194 218 255
194 218 255
194 218 255
194 218 255
194 218 255
194 218 255
194 218 255
194 218 255
194 219 255
194 218 255
194 218 255
194 218 255
194 218 255
194 218 255
194 219 255
194 218 255
194 219 255
194 218 255
194 219 255
194 219 255
194 219 255
194 219 255
194 219 255
194 219 255
88 103 124
54 68 89
62 75 95
56 69 89
61 75 95
62 78 102
46 57 73
47 60 79
75 91 115
64 78 99
63 79 102
64 79 102
53 64 81
58 73 95
57 70 89
59 72 92
64 79 102
46 57 73
69 84 108
62 75 95
41 51 67
64 77 97
78 95 121
58 73 95
54 68 89
64 79 102
65 80 102
59 73 95
70 88 115
64 77 95
72 86 108
64 76 95
61 78 102
47 57 71
59 71 89
67 81 102
63 76 95
71 83 102
52 62 78
42 52 67
57 68 84
49 60 76
59 74 95
61 73 92
64 79 102
63 79 102
60 74 95
64 77 95
52 65 84
43 53 68
60 71 89
65 81 103
73 90 115
68 84 108
48 60 79
61 75 95
66 81 103
55 69 91
70 85 108
62 76 95
49 61 79
66 81 102
64 77 97
59 71 89
69 85 108
67 84 108
51 62 78
66 80 102
55 69 91
68 84 108
73 90 115
65 80 102
70 86 109
55 69 89
52 61 75
51 64 83
60 74 95
48 61 79
62 76 97
65 80 103
63 83 111
54 68 89
68 87 115
67 83 108
72 86 108
66 83 108
49 60 78
63 77 97
60 74 95
53 65 83
68 84 108
65 80 102
73 90 115
55 68 87
64 80 103
50 61 76
60 74 95
72 87 108
62 78 102
68 81 102
52 65 84
63 79 103
67 82 105
48 60 79
47 59 76
59 72 92
56 70 91
53 67 89
56 70 91
79 93 115
56 70 91
55 69 91
55 69 89
65 80 103
54 71 95
64 82 108
60 77 102
62 78 102
74 89 111
51 62 79
69 83 103
65 82 108
61 74 94
53 65 84
57 70 89
61 75 97
55 66 83
60 74 95
61 75 95
115 133 159
194 219 255
194 219 255
194 219 255
194 219 255
194 219 255
194 219 255
194 219 255
194 218 255
194 219 255
194 219 255
194 218 255
194 219 255
194 219 255
194 218 255
194 218 255
194 218 255
194 218 255
194 218 255
194 218 255
194 218 255
194 218 255
194 218 255
194 218 255
194 218 255
194 218 255
194 218 255
194 218 255
194 218 255
194 218 255
194 218 255
194 218 255
194 218 255
194 218 255
194 218 255
194 218 255
194 218 255
194 218 255
194 218 255
194 218 255
194 218 255
194 218 255
194 218 255
194 218 255
194 218 255
194 218 255
193 218 255
194 218 255
194 218 255
193 218 255
193 218 255
193 218 255
194 218 255
193 218 255
194 218 255
193 218 255
193 218 255
193 218 255
193 218 255
193 218 255
193 218 255
193 218 255
193 218 255
193 218 255
193 218 255
193 218 255
193 218 255
193 218 255
193 218 255
193 218 255
193 218 255
193 218 255
193 218 255
193 218 255
193 218 255
193 218 255
193 218 255
193 218 255
193 218 255
193 218 255
193 218 255
193 218 255
193 218 255
193 218 255
193 218 255
193 218 255
193 218 255
193 218 255
193 218 255
193 218 255
193 218 255
193 218 255
193 218 255
193 218 255
193 218 255
193 218 255
193 218 255
193 218 255
193 218 255
193 218 255
193 218 255
193 218 255
193 218 255
193 218 255
193 218 255
193 218 255
193 218 255
193 218 255
193 218 255
193 218 255
193 218 255
193 218 255
193 218 255
193 218 255
193 218 255
193 218 255
193 218 255
193 218 255
193 218 255
193 218 255
193 218 255
193 218 255
193 218 255
193 218 255
193 218 255
193 218 255
193 218 255
193 218 255
193 218 255
193 218 255
193 218 255
193 218 255
193 218 255
193 218 255
193 218 255
193 218 255
193 218 255
193 218 255
193 218 255
193 218 255
193 218 255
193 218 255
193 218 255
193 218 255
193 218 255
193 218 255
193 218 255
193 218 255
193 218 255
193 218 255
193 218 255
193 218 255
193 218 255
193 218 255
193 218 255
193 218 255
193 218 255
193 218 255
193 218 255
193 218 255
193 218 255
193 218 255
193 218 255
193 218 255
193 218 255
193 218 255
193 218 255
193 218 255
193 218 255
193 218 255
193 218 255
193 218 255
193 218 255
193 218 255
193 218 255
193 218 255
193 218 255
194 218 255
193 218 255
194 218 255
194 218 255
193 218 255
194 218 255
194 218 255
194 218 255
194 218 255
194 218 255
194 218 255
194 218 255
194 218 255
194 218 255
194 218 255
194 218 255
194 218 255
194 218 255
194 218 255
194 218 255
194 218 255
194 218 255
194 218 255
194 218 255
194 218 255
194 218 255
194 218 255
194 218 255
194 218 255
194 218 255
194 218 255
194 218 255
194 218 255
194 218 255
194 218 255
194 218 255
194 218 255
194 218 255
194 218 255
194 219 255
194 219 255
194 219 255
194 219 255
194 219 255
194 218 255
194 219 255
194 219 255
194 219 255
194 219 255
194 219 255
194 219 255
194 219 255
194 219 255
194 219 255
194 219 255
194 219 255
194 219 255
194 219 255
194 219 255
194 219 255
194 219 255
194 219 255
194 219 255
194 219 255
194 219 255
194 219 255
194 219 255
194 219 255
194 219 255
194 219 255
194 219 255
194 219 255
194 219 255
194 219 255
194 219 255
194 219 255
194 219 255
194 219 255
194 219 255
194 219 255
194 219 255
194 219 255
194 219 255
194 219 255
194 219 255
194 219 255
194 219 255
194 219 255
194 219 255
194 219 255
194 219 255
194 219 255
194 219 255
194 219 255
63 76 95
63 78 102
69 85 108
55 66 83
64 79 102
45 58 78
63 76 95
64 79 102
67 81 102
63 77 99
75 91 115
63 77 97
60 73 92
74 93 121
61 75 95
77 95 121
71 86 108
74 90 115
62 73 89
52 67 89
57 70 89
64 76 94
67 81 102
52 65 84
77 91 111
63 76 95
71 88 115
70 83 102
62 75 95
67 81 102
62 76 95
63 76 95
51 64 83
48 62 83
52 64 83
63 77 97
56 69 89
50 58 71
69 85 108
68 81 102
49 60 76
62 81 108
64 76 95
56 69 89
52 65 83
74 90 115
62 75 95
55 69 89
70 83 103
66 78 96
64 79 102
60 73 92
56 69 89
51 64 83
73 88 111
75 91 115
53 65 83
53 65 83
59 71 89
64 78 99
58 73 95
72 87 108
61 73 90
63 77 97
54 68 89
64 79 102
47 60 78
74 90 115
59 74 95
68 82 103
49 60 76
63 79 102
59 72 92
65 82 108
49 61 79
60 72 89
75 91 115
57 70 89
61 75 95
59 74 95
67 81 102
63 79 103
63 79 102
69 82 102
58 73 95
69 85 108
46 61 83
79 93 115
58 73 95
71 84 103
53 66 84
61 77 102
48 60 78
73 90 115
72 87 108
59 74 95
64 75 92
62 78 102
57 72 95
58 70 89
61 77 102
54 68 89
53 67 89
56 68 86
60 72 89
67 81 102
50 62 79
73 87 108
68 82 102
64 77 97
65 80 102
57 70 89
67 81 102
55 69 89
61 77 102
59 74 95
55 69 89
65 78 97
64 77 97
68 84 108
64 78 99
58 70 89
65 80 102
73 90 115
57 71 91
75 91 115
63 76 96
45 58 76
59 74 95
142 162 191
194 219 255
194 219 255
194 219 255
194 219 255
194 219 255
194 219 255
194 219 255
194 219 255
194 219 255
194 219 255
194 219 255
194 219 255
194 219 255
194 219 255
194 219 255
194 219 255
194 219 255
194 219 255
194 219 255
194 219 255
194 219 255
194 219 255
194 219 255
194 219 255
194 219 255
194 219 255
194 219 255
194 219 255
194 219 255
194 219 255
194 219 255
194 219 255
194 219 255
194 219 255
194 219 255
194 219 255
194 219 255
194 219 255
194 219 255
194 219 255
194 219 255
194 219 255
194 219 255
194 219 255
194 219 255
194 219 255
194 219 255
194 219 255
194 219 255
194 219 255
194 219 255
194 219 255
194 219 255
194 219 255
194 218 255
194 218 255
194 218 255
194 219 255
194 218 255
194 218 255
194 218 255
194 218 255
194 218 255
194 218 255
194 218 255
194 218 255
194 218 255
194 218 255
194 218 255
194 218 255
194 218 255
194 218 255
194 218 255
194 218 255
194 218 255
194 218 255
194 218 255
194 218 255
194 218 255
194 218 255
194 218 255
194 218 255
194 218 255
194 218 255
194 218 255
194 218 255
194 218 255
194 218 255
194 218 255
194 218 255
194 218 255
194 218 255
193 218 255
194 218 255
193 218 255
193 218 255
193 218 255
193 218 255
193 218 255
193 218 255
193 218 255
193 218 255
193 218 255
193 218 255
193 218 255
193 218 255
193 218 255
193 218 255
193 218 255
193 218 255
193 218 255
193 218 255
193 218 255
193 218 255
193 218 255
193 218 255
193 218 255
193 218 255
193 218 255
193 218 255
193 218 255
193 218 255
193 218 255
193 218 255
193 218 255
193 218 255
193 218 255
193 218 255
193 218 255
193 218 255
193 218 255
193 218 255
193 218 255
193 218 255
193 218 255
193 218 255
193 218 255
193 218 255
193 218 255
193 218 255
193 218 255
193 218 255
193 218 255
194 218 255
194 218 255
193 218 255
194 218 255
194 218 255
194 218 255
194 218 255
194 218 255
194 218 255
194 218 255
194 218 255
194 218 255
194 218 255
194 218 255
194 218 255
194 218 255
194 218 255
194 218 255
194 218 255
194 218 255
194 218 255
194 218 255
194 218 255
194 218 255
194 218 255
194 218 255
194 218 255
194 218 255
194 218 255
194 218 255
194 218 255
194 218 255
194 218 255
194 218 255
194 218 255
194 219 255
194 219 255
194 218 255
194 218 255
194 219 255
194 219 255
194 219 255
194 219 255
194 219 255
194 219 255
194 219 255
194 219 255
194 219 255
194 219 255
194 219 255
194 219 255
194 219 255
194 219 255
194 219 255
194 219 255
194 219 255
194 219 255
194 219 255
194 219 255
194 219 255
194 219 255
194 219 255
194 219 255
194 219 255
194 219 255
194 219 255
194 219 255
194 219 255
194 219 255
194 219 255
194 219 255
194 219 255
194 219 255
194 219 255
194 219 255
194 219 255
194 219 255
194 219 255
194 219 255
194 219 255
194 219 255
194 219 255
194 219 255
194 219 255
194 219 255
194 219 255
194 219 255
194 219 255
194 219 255
194 219 255
194 219 255
194 219 255
194 219 255
194 219 255
194 219 255
195 219 255
195 219 255
195 219 255
195 219 255
195 219 255
195 219 255
195 219 255
195 219 255
195 219 255
195 219 255
195 219 255
195 219 255
195 219 255
195 219 255
195 219 255
195 219 255
195 219 255
195 219 255
195 219 255
195 219 255
195 219 255
195 219 255
195 219 255
195 219 255
195 219 255
195 219 255
195 219 255
195 219 255
195 219 255
195 219 255
195 219 255
195 219 255
168 190 223
54 65 81
68 84 108
59 74 95
55 66 83
49 60 78
48 59 77
53 66 84
69 83 103
50 63 81
53 63 78
60 74 95
76 91 115
66 83 108
63 79 102
63 77 97
48 58 75
68 87 115
65 81 105
58 73 95
54 71 95
46 58 76
67 82 105
58 71 89
57 71 92
68 80 97
58 73 95
49 61 79
68 82 102
70 88 115
66 81 102
38 48 63
65 83 108
72 86 108
67 81 102
61 77 102
74 88 108
60 72 89
70 85 108
56 69 89
51 64 84
69 85 108
66 83 108
54 67 86
38 47 62
47 58 75
61 76 99
67 82 103
54 66 84
62 78 102
61 75 95
52 65 83
46 56 71
60 74 95
66 80 102
56 67 83
68 81 102
66 80 102
72 89 115
69 83 105
59 71 89
65 78 96
62 75 95
63 77 99
59 74 95
46 59 78
52 64 83
74 88 108
47 60 79
68 82 102
66 83 108
67 81 102
67 84 108
52 64 83
68 84 108
59 72 91
51 64 83
65 80 102
54 68 89
48 60 78
60 72 91
60 72 89
54 66 84
50 63 83
56 68 86
49 59 74
70 88 115
65 80 102
52 64 83
55 69 89
66 83 108
57 72 95
46 58 76
59 71 89
71 86 108
71 86 108
43 54 72
64 79 102
54 69 91
69 84 108
57 72 95
64 79 102
59 74 95
69 85 108
62 78 102
56 71 92
64 76 95
60 74 95
61 75 95
77 92 115
60 71 89
65 78 99
69 85 108
61 77 102
54 66 84
73 87 108
71 86 108
63 78 102
55 69 89
60 74 95
59 71 89
67 81 102
59 74 95
63 77 97
66 83 108
56 72 95
64 76 95
60 77 102
75 91 115
144 163 191
195 219 255
195 219 255
195 219 255
195 219 255
195 219 255
195 219 255
195 219 255
195 219 255
195 219 255
195 219 255
195 219 255
195 219 255
195 219 255
195 219 255
195 219 255
195 219 255
195 219 255
195 219 255
195 219 255
195 219 255
195 219 255
195 219 255
195 219 255
195 219 255
195 219 255
195 219 255
195 219 255
195 219 255
195 219 255
195 219 255
195 219 255
195 219 255
195 219 255
194 219 255
194 219 255
194 219 255
194 219 255
194 219 255
194 219 255
194 219 255
194 219 255
194 219 255
194 219 255
194 219 255
194 219 255
194 219 255
194 219 255
194 219 255
194 219 255
194 219 255
194 219 255
194 219 255
194 219 255
194 219 255
194 219 255
194 219 255
194 219 255
194 219 255
194 219 255
194 219 255
194 219 255
194 219 255
194 219 255
194 219 255
194 219 255
194 219 255
194 219 255
194 219 255
194 219 255
194 219 255
194 219 255
194 219 255
194 219 255
194 219 255
194 219 255
194 219 255
194 219 255
194 219 255
194 219 255
194 219 255
194 219 255
194 219 255
194 219 255
194 219 255
194 218 255
194 219 255
194 219 255
194 219 255
194 218 255
194 219 255
194 219 255
194 218 255
194 218 255
194 218 255
194 218 255
194 218 255
194 218 255
194 218 255
194 218 255
194 218 255
194 218 255
194 218 255
194 218 255
194 218 255
194 218 255
194 218 255
194 218 255
194 218 255
194 218 255
194 218 255
194 218 255
194 218 255
194 218 255
194 218 255
194 218 255
194 218 255
194 218 255
194 218 255
194 218 255
194 218 255
194 218 255
194 218 255
194 218 255
194 218 255
194 218 255
193 218 255
194 218 255
194 218 255
194 218 255
193 218 255
194 218 255
193 218 255
193 218 255
193 218 255
193 218 255
194 218 255
194 218 255
194 218 255
194 218 255
194 218 255
194 218 255
194 218 255
194 218 255
194 218 255
194 218 255
194 218 255
194 219 255
194 218 255
194 219 255
194 219 255
194 219 255
194 219 255
194 219 255
194 219 255
194 219 255
194 219 255
194 219 255
194 219 255
194 219 255
194 219 255
194 219 255
194 219 255
194 219 255
194 219 255
194 219 255
194 219 255
194 219 255
194 219 255
194 219 255
194 219 255
194 219 255
194 219 255
194 219 255
194 219 255
194 219 255
194 219 255
194 219 255
194 219 255
194 219 255
194 219 255
194 219 255
194 219 255
194 219 255
194 219 255
194 219 255
194 219 255
194 219 255
194 219 255
194 219 255
194 219 255
194 219 255
194 219 255
194 219 255
194 219 255
194 219 255
194 219 255
194 219 255
194 219 255
194 219 255
194 219 255
194 219 255
194 219 255
194 219 255
194 219 255
194 219 255
194 219 255
194 219 255
195 219 255
195 219 255
195 219 255
194 219 255
195 219 255
195 219 255
195 219 255
195 219 255
195 219 255
195 219 255
195 219 255
195 219 255
195 219 255
195 219 255
195 219 255
195 219 255
195 219 255
195 219 255
195 219 255
195 219 255
195 219 255
195 219 255
195 219 255
195 219 255
195 219 255
195 219 255
195 219 255
195 219 255
195 219 255
195 219 255
195 219 255
195 219 255
195 219 255
195 219 255
195 219 255
195 219 255
195 219 255
195 219 255
195 219 255
195 219 255
195 219 255
195 219 255
195 219 255
195 219 255
195 219 255
195 219 255
195 219 255
195 219 255
195 219 255
195 219 255
195 219 255
195 219 255
195 219 255
195 219 255
195 219 255
195 219 255
195 219 255
195 219 255
195 219 255
195 219 255
195 219 255
195 219 255
195 219 255
129 149 179
55 65 79
56 68 86
45 57 75
66 81 102
69 85 108
61 73 92
57 70 89
60 73 92
71 87 110
68 84 108
63 76 97
68 84 108
65 82 108
51 63 83
56 68 87
63 79 102
68 84 108
61 75 95
68 85 111
49 63 84
66 80 102
69 82 102
55 69 89
52 64 83
70 85 108
67 81 103
50 63 83
60 73 92
53 66 84
46 58 76
63 78 102
44 55 72
59 74 95
65 77 95
53 68 89
50 62 80
56 69 87
53 68 89
55 69 89
58 73 95
60 73 92
65 82 108
60 74 95
69 86 111
55 69 89
64 79 102
58 71 89
60 75 97
64 80 105
53 63 78
50 63 81
66 81 102
63 78 102
42 51 65
59 74 95
55 69 89
67 84 108
54 66 84
59 74 95
66 82 105
51 62 78
68 82 102
55 68 89
53 66 85
61 75 95
61 72 89
60 74 95
61 73 91
51 62 78
55 69 91
64 76 95
64 75 92
65 80 102
49 63 84
64 82 108
54 67 86
57 73 95
71 86 108
68 82 102
50 63 83
55 67 86
59 72 91
48 60 78
59 72 91
68 82 103
47 59 76
56 72 95
66 80 102
67 81 102
69 83 103
59 71 89
49 62 83
55 66 83
57 70 89
53 65 83
65 80 102
56 67 84
59 72 92
67 82 103
66 83 109
60 72 91
71 89 115
76 94 121
50 63 83
52 64 83
51 64 83
64 77 97
73 87 108
66 83 108
59 74 97
56 67 84
66 80 102
52 64 83
62 76 95
63 76 95
64 78 99
50 61 76
53 65 83
61 74 92
41 51 67
65 80 102
67 84 108
70 85 108
49 62 83
62 75 95
57 70 91
58 73 95
60 75 97
163 185 217
195 219 255
195 219 255
195 219 255
195 219 255
195 219 255
195 219 255
195 219 255
195 219 255
195 219 255
195 219 255
195 219 255
195 219 255
195 219 255
195 219 255
195 219 255
195 219 255
195 219 255
195 219 255
195 219 255
195 219 255
195 219 255
195 219 255
195 219 255
195 219 255
195 219 255
195 219 255
195 219 255
195 219 255
195 219 255
195 219 255
195 219 255
195 219 255
195 219 255
195 219 255
195 219 255
195 219 255
195 219 255
195 219 255
195 219 255
195 219 255
195 219 255
195 219 255
195 219 255
195 219 255
195 219 255
195 219 255
195 219 255
195 219 255
195 219 255
195 219 255
195 219 255
195 219 255
195 219 255
195 219 255
195 219 255
195 219 255
195 219 255
195 219 255
195 219 255
195 219 255
195 219 255
195 219 255
194 219 255
194 219 255
195 219 255
195 219 255
194 219 255
194 219 255
194 219 255
194 219 255
194 219 255
194 219 255
194 219 255
194 219 255
194 219 255
194 219 255
194 219 255
194 219 255
194 219 255
194 219 255
194 219 255
194 219 255
194 219 255
194 219 255
194 219 255
194 219 255
194 219 255
194 219 255
194 219 255
194 219 255
194 219 255
194 219 255
194 219 255
194 219 255
194 219 255
194 219 255
194 219 255
194 219 255
194 219 255
194 219 255
194 219 255
194 219 255
194 219 255
194 219 255
194 219 255
194 219 255
194 219 255
194 219 255
194 219 255
194 219 255
194 219 255
194 219 255
194 219 255
194 219 255
194 219 255
194 219 255
194 219 255
194 219 255
194 218 255
194 219 255
194 219 255
194 219 255
194 218 255
194 218 255
194 218 255
194 218 255
194 218 255
194 218 255
194 218 255
194 218 255
194 218 255
194 218 255
194 218 255
194 218 255
194 218 255
194 219 255
194 219 255
194 219 255
194 219 255
194 219 255
194 219 255
194 219 255
194 219 255
194 219 255
194 219 255
194 219 255
194 219 255
194 219 255
194 219 255
194 219 255
194 219 255
194 219 255
194 219 255
194 219 255
194 219 255
194 219 255
194 219 255
194 219 255
194 219 255
194 219 255
194 219 255
194 219 255
194 219 255
194 219 255
194 219 255
194 219 255
194 219 255
194 219 255
194 219 255
194 219 255
194 219 255
194 219 255
194 219 255
194 219 255
194 219 255
195 219 255
194 219 255
194 219 255
194 219 255
194 219 255
195 219 255
195 219 255
195 219 255
195 219 255
195 219 255
195 219 255
195 219 255
195 219 255
195 219 255
195 219 255
195 219 255
195 219 255
195 219 255
195 219 255
195 219 255
195 219 255
195 219 255
195 219 255
195 219 255
195 219 255
195 219 255
195 219 255
195 219 255
195 219 255
195 219 255
195 219 255
195 219 255
195 219 255
195 219 255
195 219 255
195 219 255
195 219 255
195 219 255
195 219 255
195 219 255
195 219 255
195 219 255
195 219 255
195 219 255
195 219 255
195 219 255
195 219 255
195 219 255
195 219 255
195 219 255
195 219 255
195 219 255
195 219 255
195 219 255
195 219 255
195 219 255
195 219 255
195 219 255
195 219 255
195 219 255
195 219 255
195 219 255
195 219 255
195 219 255
195 219 255
195 219 255
195 219 255
195 219 255
195 219 255
196 220 255
196 220 255
195 219 255
195 219 255
196 220 255
196 220 255
196 220 255
196 220 255
196 220 255
196 220 255
196 220 255
196 220 255
196 220 255
196 220 255
196 220 255
196 220 255
196 220 255
196 220 255
196 220 255
196 220 255
196 220 255
196 220 255
196 220 255
196 220 255
196 220 255
196 220 255
122 139 166
58 70 89
61 75 97
68 82 102
55 68 86
70 85 108
59 74 95
68 79 96
55 67 86
60 71 89
68 83 105
55 65 81
57 71 92
59 74 95
46 57 72
56 70 92
76 92 115
62 78 102
70 85 108
64 82 108
64 82 108
41 53 71
61 73 92
68 80 97
69 85 108
71 88 115
56 69 89
43 53 68
48 62 85
68 82 102
67 81 102
37 46 60
78 96 121
62 78 102
62 78 102
75 91 115
62 75 95
51 65 84
69 82 102
40 50 65
56 70 91
54 64 79
60 74 95
70 85 108
54 67 86
53 66 86
62 75 95
65 82 108
66 81 102
54 65 83
50 63 83
52 64 83
57 72 95
63 76 95
69 82 102
70 84 105
65 80 102
51 62 79
66 80 102
46 56 71
54 65 83
47 59 77
49 61 79
62 75 95
56 69 89
61 75 95
49 61 79
68 81 102
59 76 102
43 56 74
49 62 83
68 85 110
58 70 89
65 80 102
74 88 110
62 76 97
67 84 108
66 80 102
70 85 108
55 66 83
63 79 102
63 79 102
72 87 108
56 67 84
48 60 78
65 80 103
65 82 108
69 83 103
70 84 103
62 77 99
48 60 78
67 79 97
56 66 83
56 69 89
81 97 121
56 70 91
66 81 102
52 65 83
66 83 108
61 76 99
61 72 89
69 84 108
60 70 86
51 63 81
57 68 84
55 67 86
63 76 95
67 82 103
62 75 95
49 63 83
67 84 108
59 73 95
65 80 102
56 71 92
50 61 78
50 60 76
52 64 83
62 74 92
59 74 95
61 75 95
53 66 86
63 79 102
69 82 102
56 69 89
42 51 63
54 67 87
71 86 108
40 49 62
44 54 68
153 173 204
196 220 255
196 220 255
196 220 255
196 220 255
196 220 255
196 220 255
196 220 255
196 220 255
196 220 255
196 220 255
196 220 255
196 220 255
196 220 255
196 220 255
196 220 255
196 220 255
196 220 255
196 220 255
196 220 255
196 220 255
196 220 255
196 220 255
195 219 255
195 219 255
195 219 255
195 219 255
195 219 255
195 219 255
195 219 255
195 219 255
195 219 255
195 219 255
195 219 255
195 219 255
195 219 255
195 219 255
195 219 255
195 219 255
195 219 255
195 219 255
195 219 255
195 219 255
195 219 255
195 219 255
195 219 255
195 219 255
195 219 255
195 219 255
195 219 255
195 219 255
195 219 255
195 219 255
195 219 255
195 219 255
195 219 255
195 219 255
195 219 255
195 219 255
195 219 255
195 219 255
195 219 255
195 219 255
195 219 255
195 219 255
195 219 255
195 219 255
195 219 255
195 219 255
195 219 255
195 219 255
195 219 255
195 219 255
195 219 255
195 219 255
195 219 255
195 219 255
195 219 255
195 219 255
195 219 255
195 219 255
195 219 255
195 219 255
195 219 255
195 219 255
195 219 255
195 219 255
195 219 255
195 219 255
195 219 255
194 219 255
194 219 255
194 219 255
194 219 255
194 219 255
194 219 255
194 219 255
194 219 255
194 219 255
194 219 255
194 219 255
194 219 255
194 219 255
194 219 255
194 219 255
194 219 255
194 219 255
194 219 255
194 219 255
194 219 255
194 219 255
194 219 255
194 219 255
194 219 255
194 219 255
194 219 255
194 219 255
194 219 255
194 219 255
194 219 255
194 219 255
194 219 255
194 219 255
194 219 255
194 219 255
194 219 255
194 219 255
194 219 255
194 219 255
194 219 255
194 219 255
194 219 255
194 219 255
194 219 255
194 219 255
194 219 255
194 219 255
194 219 255
194 219 255
194 219 255
194 219 255
194 219 255
194 219 255
194 219 255
194 219 255
194 219 255
194 219 255
194 219 255
194 219 255
194 219 255
194 219 255
194 219 255
194 219 255
195 219 255
195 219 255
194 219 255
194 219 255
195 219 255
195 219 255
195 219 255
195 219 255
195 219 255
195 219 255
195 219 255
195 219 255
195 219 255
195 219 255
195 219 255
195 219 255
195 219 255
195 219 255
195 219 255
195 219 255
195 219 255
195 219 255
195 219 255
195 219 255
195 219 255
195 219 255
195 219 255
195 219 255
195 219 255
195 219 255
195 219 255
195 219 255
195 219 255
195 219 255
195 219 255
195 219 255
195 219 255
195 219 255
195 219 255
195 219 255
195 219 255
195 219 255
195 219 255
195 219 255
195 219 255
195 219 255
195 219 255
195 219 255
195 219 255
195 219 255
195 219 255
195 219 255
195 219 255
195 219 255
195 219 255
195 219 255
195 219 255
195 219 255
195 219 255
195 219 255
195 219 255
195 219 255
195 219 255
195 219 255
195 219 255
195 219 255
195 219 255
195 219 255
195 219 255
195 219 255
196 220 255
196 220 255
196 220 255
196 220 255
196 220 255
196 220 255
196 220 255
196 220 255
196 220 255
196 220 255
196 220 255
196 220 255
196 220 255
196 220 255
196 220 255
196 220 255
196 220 255
196 220 255
196 220 255
196 220 255
196 220 255
196 220 255
196 220 255
196 220 255
196 220 255
196 220 255
196 220 255
196 220 255
196 220 255
196 220 255
196 220 255
196 220 255
196 220 255
196 220 255
196 220 255
196 220 255
196 220 255
196 220 255
196 220 255
196 220 255
196 220 255
196 220 255
196 220 255
196 220 255
196 220 255
196 220 255
196 220 255
196 220 255
196 220 255
53 67 87
85 99 121
52 64 83
53 65 83
44 56 73
61 75 95
57 70 89
59 76 102
56 70 91
71 83 102
61 73 92
64 80 105
69 87 115
48 58 73
59 71 89
49 59 75
59 72 91
62 76 97
44 55 71
57 72 95
71 88 115
80 96 121
68 85 110
60 74 95
65 80 103
54 65 81
62 78 102
67 86 115
57 71 91
57 70 91
59 71 89
59 71 89
58 71 89
50 61 77
61 78 102
68 84 108
54 67 86
51 66 89
56 69 89
58 74 97
53 66 84
73 90 115
52 68 91
61 72 89
56 69 89
72 86 108
58 73 95
63 77 99
53 65 84
63 78 102
53 66 86
57 70 89
64 79 102
69 87 115
56 72 95
59 73 95
67 79 97
58 74 99
56 72 95
57 72 95
62 76 97
51 66 89
61 75 95
53 65 83
55 69 91
72 89 115
66 80 102
61 74 92
59 71 89
64 77 95
54 68 89
62 75 95
64 79 102
65 80 102
72 88 111
57 70 89
69 85 108
60 74 95
58 73 95
51 64 84
69 82 102
45 58 78
49 63 83
47 57 73
69 85 108
72 86 108
62 76 95
56 67 83
67 83 108
58 71 89
62 74 91
61 72 89
58 71 89
60 71 89
65 80 102
63 78 99
60 77 102
60 74 95
80 94 115
59 72 91
59 71 89
65 79 102
70 85 108
61 75 96
66 81 102
69 85 108
50 64 83
66 78 97
62 78 102
43 54 70
65 80 102
51 64 83
68 84 108
44 57 78
60 74 95
71 86 108
56 69 89
63 76 95
63 76 95
50 61 78
56 67 84
51 61 76
52 63 79
49 64 86
57 70 89
59 71 89
55 69 89
73 87 108
170 194 230
196 220 255
196 220 255
196 220 255
196 220 255
196 220 255
196 220 255
196 220 255
196 220 255
196 220 255
196 220 255
196 220 255
196 220 255
196 220 255
196 220 255
196 220 255
196 220 255
196 220 255
196 220 255
196 220 255
196 220 255
196 220 255
196 220 255
196 220 255
196 220 255
196 220 255
196 220 255
196 220 255
196 220 255
196 220 255
196 220 255
196 220 255
196 220 255
196 220 255
196 220 255
196 220 255
196 220 255
196 220 255
196 220 255
196 220 255
196 220 255
196 220 255
196 220 255
196 220 255
196 220 255
196 220 255
196 220 255
196 220 255
195 219 255
195 219 255
195 219 255
196 220 255
195 219 255
195 219 255
195 219 255
195 219 255
195 219 255
195 219 255
195 219 255
195 219 255
195 219 255
195 219 255
195 219 255
195 219 255
195 219 255
195 219 255
195 219 255
195 219 255
195 219 255
195 219 255
195 219 255
195 219 255
195 219 255
195 219 255
195 219 255
195 219 255
195 219 255
195 219 255
195 219 255
195 219 255
195 219 255
195 219 255
195 219 255
195 219 255
195 219 255
195 219 255
195 219 255
195 219 255
195 219 255
195 219 255
195 219 255
195 219 255
195 219 255
195 219 255
195 219 255
195 219 255
195 219 255
195 219 255
195 219 255
195 219 255
195 219 255
195 219 255
195 219 255
195 219 255
195 219 255
195 219 255
195 219 255
195 219 255
195 219 255
195 219 255
195 219 255
195 219 255
195 219 255
194 219 255
195 219 255
195 219 255
194 219 255
194 219 255
195 219 255
195 219 255
194 219 255
194 219 255
194 219 255
194 219 255
194 219 255
194 219 255
194 219 255
194 219 255
194 219 255
194 219 255
194 219 255
194 219 255
194 219 255
194 219 255
194 219 255
194 219 255
195 219 255
195 219 255
195 219 255
195 219 255
195 219 255
195 219 255
195 219 255
195 219 255
195 219 255
195 219 255
195 219 255
195 219 255
195 219 255
195 219 255
195 219 255
195 219 255
195 219 255
195 219 255
195 219 255
195 219 255
195 219 255
195 219 255
195 219 255
195 219 255
195 219 255
195 219 255
195 219 255
195 219 255
195 219 255
195 219 255
195 219 255
195 219 255
195 219 255
195 219 255
195 219 255
195 219 255
195 219 255
195 219 255
195 219 255
195 219 255
195 219 255
195 219 255
195 219 255
195 219 255
195 219 255
195 219 255
195 219 255
195 219 255
195 219 255
195 219 255
195 219 255
195 219 255
195 219 255
195 219 255
195 219 255
195 219 255
195 219 255
195 219 255
195 219 255
195 219 255
195 219 255
195 219 255
195 219 255
196 220 255
196 220 255
195 219 255
195 219 255
196 220 255
196 220 255
196 220 255
196 220 255
196 220 255
196 220 255
196 220 255
196 220 255
196 220 255
196 220 255
196 220 255
196 220 255
196 220 255
196 220 255
196 220 255
196 220 255
196 220 255
196 220 255
196 220 255
196 220 255
196 220 255
196 220 255
196 220 255
196 220 255
196 220 255
196 220 255
196 220 255
196 220 255
196 220 255
196 220 255
196 220 255
196 220 255
196 220 255
196 220 255
196 220 255
196 220 255
196 220 255
196 220 255
196 220 255
196 220 255
196 220 255
196 220 255
196 220 255
196 220 255
196 220 255
196 220 255
196 220 255
196 220 255
196 220 255
197 220 255
197 220 255
197 220 255
197 220 255
197 220 255
197 220 255
197 220 255
197 220 255
197 220 255
197 220 255
197 220 255
197 220 255
197 220 255
197 220 255
197 220 255
197 220 255
197 220 255
197 220 255
197 220 255
197 220 255
56 72 95
48 59 76
61 73 91
60 75 97
48 61 79
46 57 73
59 69 84
70 85 108
54 66 83
59 71 89
50 61 78
56 67 83
56 72 95
72 87 108
60 76 99
65 82 108
51 64 84
56 69 89
39 49 65
65 80 102
63 79 102
64 79 102
60 75 97
65 77 96
66 81 102
59 74 95
55 70 92
54 68 89
61 76 99
64 79 102
53 65 83
53 65 83
65 82 108
60 72 89
70 85 108
61 75 95
56 72 95
72 89 115
56 70 91
64 77 95
66 81 102
69 85 108
51 61 78
54 65 83
71 86 108
58 71 90
68 80 97
74 90 115
61 77 102
67 83 108
60 75 99
61 76 99
59 72 91
63 76 95
62 76 95
60 76 99
75 91 115
67 83 108
69 82 102
60 73 93
63 79 102
54 65 83
51 64 83
60 74 95
61 72 89
61 75 95
52 64 83
66 80 102
55 67 84
72 89 115
79 93 115
70 83 102
64 79 102
56 72 95
42 56 76
59 71 89
56 69 89
71 89 115
54 69 92
58 71 91
59 74 95
59 74 95
60 74 95
58 71 92
60 73 92
70 88 115
62 75 94
54 68 91
60 74 95
59 71 90
45 58 76
66 78 96
82 100 127
63 74 91
56 68 85
59 72 92
67 78 95
64 79 102
45 57 75
62 76 97
71 86 108
60 73 92
70 85 108
69 85 108
57 70 89
63 79 102
46 56 72
46 58 76
63 76 95
55 68 89
63 79 102
64 79 102
69 85 108
55 69 89
54 68 89
63 76 95
63 76 95
57 69 87
63 77 99
59 74 95
56 69 89
55 69 89
61 73 92
68 84 108
62 78 102
45 56 72
63 79 102
73 89 115
197 220 255
197 220 255
197 220 255
197 220 255
197 220 255
197 220 255
197 220 255
197 220 255
197 220 255
197 220 255
197 220 255
197 220 255
197 220 255
197 220 255
197 220 255
197 220 255
197 220 255
197 220 255
197 220 255
197 220 255
197 220 255
197 220 255
196 220 255
196 220 255
196 220 255
196 220 255
196 220 255
196 220 255
196 220 255
196 220 255
196 220 255
196 220 255
196 220 255
196 220 255
196 220 255
196 220 255
196 220 255
196 220 255
196 220 255
196 220 255
196 220 255
196 220 255
196 220 255
196 220 255
196 220 255
196 220 255
196 220 255
196 220 255
196 220 255
196 220 255
196 220 255
196 220 255
196 220 255
196 220 255
196 220 255
196 220 255
196 220 255
196 220 255
196 220 255
196 220 255
196 220 255
196 220 255
196 220 255
196 220 255
196 220 255
196 220 255
196 220 255
196 220 255
196 220 255
196 220 255
196 220 255
195 219 255
196 220 255
195 219 255
195 219 255
195 219 255
195 219 255
195 219 255
195 219 255
195 219 255
195 219 255
195 219 255
195 219 255
195 219 255
195 219 255
195 219 255
195 219 255
195 219 255
195 219 255
195 219 255
195 219 255
195 219 255
195 219 255
195 219 255
195 219 255
195 219 255
195 219 255
195 219 255
195 219 255
195 219 255
195 219 255
195 219 255
195 219 255
195 219 255
195 219 255
195 219 255
195 219 255
195 219 255
195 219 255
195 219 255
195 219 255
195 219 255
195 219 255
195 219 255
195 219 255
195 219 255
195 219 255
195 219 255
195 219 255
195 219 255
195 219 255
195 219 255
195 219 255
195 219 255
195 219 255
195 219 255
195 219 255
195 219 255
195 219 255
195 219 255
195 219 255
195 219 255
195 219 255
195 219 255
195 219 255
195 219 255
195 219 255
195 219 255
195 219 255
195 219 255
195 219 255
195 219 255
195 219 255
195 219 255
195 219 255
195 219 255
195 219 255
195 219 255
195 219 255
195 219 255
195 219 255
195 219 255
195 219 255
195 219 255
195 219 255
195 219 255
195 219 255
195 219 255
195 219 255
195 219 255
195 219 255
195 219 255
195 219 255
195 219 255
195 219 255
195 219 255
195 219 255
195 219 255
195 219 255
195 219 255
195 219 255
195 219 255
195 219 255
195 219 255
195 219 255
195 219 255
195 219 255
195 219 255
195 219 255
196 220 255
195 219 255
195 219 255
195 219 255
196 220 255
196 220 255
196 220 255
196 220 255
196 220 255
196 220 255
196 220 255
196 220 255
196 220 255
196 220 255
196 220 255
196 220 255
196 220 255
196 220 255
196 220 255
196 220 255
196 220 255
196 220 255
196 220 255
196 220 255
196 220 255
196 220 255
196 220 255
196 220 255
196 220 255
196 220 255
196 220 255
196 220 255
196 220 255
196 220 255
196 220 255
196 220 255
196 220 255
196 220 255
196 220 255
196 220 255
196 220 255
196 220 255
196 220 255
196 220 255
196 220 255
196 220 255
196 220 255
196 220 255
196 220 255
196 220 255
196 220 255
196 220 255
196 220 255
197 220 255
197 220 255
197 220 255
197 220 255
197 220 255
197 220 255
197 220 255
197 220 255
197 220 255
197 220 255
197 220 255
197 220 255
197 220 255
197 220 255
197 220 255
197 220 255
197 220 255
197 220 255
197 220 255
197 220 255
197 220 255
197 220 255
197 220 255
197 220 255
197 220 255
197 220 255
197 220 255
197 220 255
197 220 255
197 221 255
173 196 230
173 196 230
186 209 243
148 171 204
173 196 230
163 185 217
130 149 179
160 183 217
113 134 166
136 158 191
66 81 102
58 73 95
42 54 71
53 68 91
58 73 95
58 71 89
41 48 59
68 81 102
44 55 72
57 69 86
66 80 102
52 64 83
57 72 95
51 64 83
69 82 102
52 65 84
68 83 105
66 80 102
54 68 91
65 82 108
67 79 97
64 77 95
63 81 108
71 88 115
58 71 91
49 61 79
65 81 103
58 71 91
51 64 83
52 65 84
76 92 115
61 76 97
58 70 89
58 75 102
58 73 95
43 54 72
56 69 89
58 71 89
51 64 83
59 72 91
65 83 108
62 74 91
66 81 102
70 83 102
57 70 91
51 65 84
58 71 89
62 75 95
47 59 77
61 75 95
59 72 91
79 96 121
61 75 95
55 70 91
66 80 102
60 72 91
62 81 108
60 74 95
54 69 91
54 68 89
66 83 108
53 68 89
62 75 95
53 65 83
67 83 108
64 79 102
52 67 89
47 59 76
61 71 86
74 88 108
51 63 79
54 68 89
63 79 103
75 93 121
50 63 83
45 56 72
65 78 99
59 70 86
65 83 110
57 70 89
53 65 84
56 68 86
56 69 89
65 80 102
67 82 105
48 58 74
57 70 91
55 70 92
63 75 92
60 75 97
53 66 84
72 88 111
71 86 108
57 70 89
54 68 89
61 75 95
55 69 91
63 74 91
70 89 116
62 78 102
50 61 78
64 80 103
58 71 91
63 77 97
58 76 102
72 87 108
53 65 84
53 65 83
49 64 86
47 57 73
66 79 97
62 78 102
61 72 89
75 93 121
70 88 115
50 64 84
57 70 89
66 80 102
61 72 89
67 81 102
58 69 86
59 71 89
59 74 97
58 70 89
56 69 89
58 71 89
57 70 89
63 79 102
138 159 191
116 136 166
138 159 191
128 149 179
150 172 204
138 159 191
161 183 217
148 171 204
184 208 243
197 220 255
197 220 255
197 220 255
197 220 255
197 220 255
197 220 255
197 220 255
197 220 255
197 220 255
197 220 255
197 220 255
197 220 255
197 220 255
197 220 255
197 220 255
197 220 255
197 220 255
197 220 255
197 220 255
197 220 255
197 220 255
197 220 255
197 220 255
197 220 255
197 220 255
197 220 255
197 220 255
197 220 255
197 220 255
196 220 255
197 220 255
197 220 255
196 220 255
196 220 255
196 220 255
196 220 255
196 220 255
196 220 255
196 220 255
196 220 255
196 220 255
196 220 255
196 220 255
196 220 255
196 220 255
196 220 255
196 220 255
196 220 255
196 220 255
196 220 255
196 220 255
196 220 255
196 220 255
196 220 255
196 220 255
196 220 255
196 220 255
196 220 255
196 220 255
196 220 255
196 220 255
196 220 255
196 220 255
196 220 255
196 220 255
196 220 255
196 220 255
196 220 255
196 220 255
196 220 255
196 220 255
196 220 255
196 220 255
196 220 255
196 220 255
196 220 255
196 220 255
196 220 255
196 220 255
196 220 255
196 220 255
196 220 255
195 219 255
195 219 255
195 219 255
195 219 255
195 219 255
195 219 255
195 219 255
195 219 255
195 219 255
195 219 255
195 219 255
195 219 255
195 219 255
195 219 255
195 219 255
195 219 255
195 219 255
195 219 255
195 219 255
195 219 255
195 219 255
195 219 255
195 219 255
195 219 255
195 219 255
195 219 255
195 219 255
195 219 255
195 219 255
195 219 255
195 219 255
195 219 255
195 219 255
195 219 255
195 219 255
195 219 255
195 219 255
195 219 255
195 219 255
195 219 255
195 219 255
195 219 255
195 219 255
195 219 255
195 219 255
195 219 255
195 219 255
195 219 255
195 219 255
195 219 255
195 219 255
195 219 255
195 219 255
195 219 255
195 219 255
195 219 255
195 219 255
195 219 255
195 219 255
195 219 255
195 219 255
195 219 255
195 219 255
195 219 255
195 219 255
195 219 255
195 219 255
195 219 255
195 219 255
195 219 255
195 219 255
196 220 255
196 220 255
196 220 255
196 220 255
196 220 255
196 220 255
196 220 255
196 220 255
196 220 255
196 220 255
196 220 255
196 220 255
196 220 255
196 220 255
196 220 255
196 220 255
196 220 255
196 220 255
196 220 255
196 220 255
196 220 255
196 220 255
196 220 255
196 220 255
196 220 255
196 220 255
196 220 255
196 220 255
196 220 255
196 220 255
196 220 255
196 220 255
196 220 255
196 220 255
196 220 255
196 220 255
196 220 255
196 220 255
196 220 255
196 220 255
196 220 255
196 220 255
196 220 255
196 220 255
196 220 255
196 220 255
196 220 255
196 220 255
196 220 255
196 220 255
196 220 255
196 220 255
196 220 255
197 220 255
197 220 255
197 220 255
197 220 255
197 220 255
197 220 255
197 220 255
197 220 255
197 220 255
197 220 255
197 220 255
197 220 255
197 220 255
197 220 255
197 220 255
197 220 255
197 220 255
197 220 255
197 220 255
197 220 255
197 220 255
197 220 255
197 220 255
197 220 255
197 220 255
197 220 255
197 220 255
197 220 255
197 221 255
197 221 255
172 195 230
197 221 255
174 197 230
173 196 230
148 171 204
152 173 204
123 145 179
120 141 172
122 145 179
98 120 153
102 122 153
101 122 153
118 137 166
75 96 127
89 110 140
81 100 127
82 100 127
81 100 127
82 100 127
86 102 127
73 92 121
82 100 127
77 97 127
77 97 127
81 100 127
78 98 127
78 98 127
75 88 108
56 67 84
67 81 102
62 76 95
62 76 97
48 60 78
63 79 102
48 59 75
60 74 95
59 75 99
56 69 89
62 74 91
55 65 81
53 66 86
67 84 108
59 73 94
69 85 108
58 71 91
63 79 102
54 65 83
55 71 95
49 61 80
72 87 108
53 65 83
49 60 77
62 76 95
61 74 92
61 78 102
64 79 102
56 69 89
58 73 95
68 82 102
53 65 83
52 65 84
64 80 103
60 73 92
50 62 79
55 67 86
52 63 79
59 71 89
60 75 97
56 68 84
67 84 108
61 77 102
57 70 89
62 74 92
50 63 83
53 70 95
68 84 108
70 85 108
54 66 83
58 73 95
57 70 89
51 62 79
50 60 74
71 86 108
69 82 102
49 64 86
60 74 95
57 70 91
71 88 115
55 71 95
50 63 83
63 73 89
61 78 102
61 73 92
53 65 83
44 55 72
64 79 102
65 80 102
59 74 97
49 59 73
55 64 78
59 71 89
64 79 102
51 64 83
55 69 89
67 81 102
60 73 92
49 60 77
60 74 95
59 75 99
70 85 108
66 83 108
72 83 100
55 70 91
66 83 108
62 76 95
54 65 83
53 68 89
61 75 96
50 61 78
63 77 97
51 62 79
76 92 115
58 71 91
52 65 86
60 74 95
57 70 89
62 77 99
61 73 91
58 73 96
52 64 83
56 66 81
56 68 86
60 74 95
49 60 78
54 68 89
67 79 97
58 69 86
53 65 83
64 77 97
71 84 103
65 80 102
61 75 95
62 76 95
61 75 95
56 69 89
54 66 83
51 64 83
66 80 102
51 63 81
62 78 102
61 73 92
74 90 115
47 60 79
66 81 102
55 71 95
83 101 127
75 96 127
83 101 127
79 99 127
82 100 127
82 100 127
75 96 127
77 97 127
80 99 127
81 100 127
79 99 127
81 100 127
79 99 127
78 98 127
86 108 140
108 126 153
82 103 134
100 121 153
160 183 217
145 169 204
128 148 179
151 172 204
173 196 230
174 196 230
172 195 230
197 221 255
175 197 230
187 209 243
197 221 255
197 221 255
197 220 255
197 220 255
197 220 255
197 220 255
197 220 255
197 220 255
197 220 255
197 220 255
197 220 255
197 220 255
197 220 255
197 220 255
197 220 255
197 220 255
197 220 255
197 220 255
197 220 255
197 220 255
197 220 255
197 220 255
197 220 255
197 220 255
197 220 255
197 220 255
197 220 255
197 220 255
197 220 255
196 220 255
196 220 255
196 220 255
196 220 255
196 220 255
196 220 255
196 220 255
196 220 255
196 220 255
196 220 255
196 220 255
196 220 255
196 220 255
196 220 255
196 220 255
196 220 255
196 220 255
196 220 255
196 220 255
196 220 255
196 220 255
196 220 255
196 220 255
196 220 255
196 220 255
196 220 255
196 220 255
196 220 255
196 220 255
196 220 255
196 220 255
196 220 255
196 220 255
196 220 255
196 220 255
196 220 255
196 220 255
196 220 255
196 220 255
196 220 255
196 220 255
196 220 255
196 220 255
196 220 255
196 220 255
196 220 255
196 220 255
196 220 255
196 220 255
196 220 255
196 220 255
196 220 255
195 219 255
195 219 255
196 220 255
195 219 255
195 219 255
195 219 255
195 219 255
195 219 255
195 219 255
195 219 255
195 219 255
195 219 255
195 219 255
195 219 255
195 219 255
195 219 255
195 219 255
195 219 255
195 219 255
195 219 255
195 219 255
195 219 255
195 219 255
195 219 255
195 219 255
195 219 255
195 219 255
195 219 255
195 219 255
195 219 255
195 219 255
195 219 255
195 219 255
196 220 255
195 219 255
196 220 255
196 220 255
196 220 255
196 220 255
196 220 255
196 220 255
196 220 255
196 220 255
196 220 255
196 220 255
196 220 255
196 220 255
196 220 255
196 220 255
196 220 255
196 220 255
196 220 255
196 220 255
196 220 255
196 220 255
196 220 255
196 220 255
196 220 255
196 220 255
196 220 255
196 220 255
196 220 255
196 220 255
196 220 255
196 220 255
196 220 255
196 220 255
196 220 255
196 220 255
196 220 255
196 220 255
196 220 255
196 220 255
196 220 255
196 220 255
196 220 255
196 220 255
196 220 255
196 220 255
196 220 255
196 220 255
196 220 255
196 220 255
196 220 255
196 220 255
196 220 255
196 220 255
196 220 255
196 220 255
197 220 255
197 220 255
197 220 255
197 220 255
197 220 255
197 220 255
197 220 255
197 220 255
197 220 255
197 220 255
197 220 255
197 220 255
197 220 255
197 220 255
197 220 255
197 220 255
197 220 255
197 220 255
197 220 255
197 220 255
197 220 255
197 220 255
197 220 255
197 220 255
197 220 255
197 220 255
197 220 255
197 220 255
197 221 255
197 221 255
197 221 255
197 221 255
197 221 255
197 221 255
187 209 243
176 197 230
187 209 243
163 185 217
175 197 230
104 124 153
113 134 166
90 110 140
108 126 153
138 159 191
87 108 140
91 111 140
77 97 127
78 98 127
80 99 127
75 96 127
79 99 127
78 98 127
80 99 127
77 97 127
79 99 127
82 100 127
82 100 127
77 97 127
82 100 127
82 100 127
76 96 127
82 100 127
81 99 127
83 101 127
82 100 127
84 101 127
74 95 127
78 98 127
82 100 127
81 100 127
77 97 127
79 98 127
81 100 127
82 100 127
73 87 108
40 51 67
43 54 70
74 88 108
59 74 95
75 91 115
67 82 103
60 71 89
63 78 102
56 69 89
65 80 102
64 78 99
55 66 83
51 63 79
51 63 83
62 76 97
60 74 95
57 70 89
74 90 115
59 72 91
62 76 97
64 79 102
54 68 89
54 66 84
67 84 108
54 65 83
57 70 89
74 90 115
62 81 108
52 62 78
54 68 89
46 60 79
50 62 79
58 71 89
51 62 78
66 81 102
54 68 89
60 74 95
75 91 115
40 50 65
55 67 84
71 91 121
49 61 78
45 56 73
71 86 108
60 74 95
51 64 83
56 70 91
71 86 108
51 64 83
58 71 91
74 90 115
64 77 95
58 73 97
65 80 102
59 74 95
56 72 95
46 57 73
59 71 89
78 95 121
63 78 102
61 78 102
49 58 73
67 81 102
55 69 91
64 76 95
64 79 102
50 63 83
48 61 81
62 76 95
62 73 89
62 76 95
58 71 89
50 62 79
64 79 102
51 63 79
56 69 89
56 69 89
75 91 115
61 77 102
60 72 91
73 90 115
81 94 115
64 79 102
69 82 102
56 71 92
65 80 102
67 83 108
65 77 95
80 97 121
57 72 95
56 67 83
66 82 105
52 66 86
57 70 89
56 72 95
59 74 95
49 60 76
54 67 86
76 92 115
51 65 84
63 78 102
52 63 79
53 63 78
61 75 96
65 82 108
60 73 92
65 82 108
59 72 92
61 75 95
54 66 84
56 70 91
67 84 109
76 92 115
60 74 95
63 77 99
69 82 102
58 72 92
67 84 108
75 91 115
62 76 97
48 63 84
54 66 84
57 68 86
69 82 102
74 88 108
49 61 78
68 87 115
83 101 127
80 99 127
77 97 127
78 98 127
80 99 127
80 99 127
79 99 127
85 102 127
77 97 127
75 96 127
80 99 127
77 97 127
78 98 127
80 99 127
78 98 127
84 102 127
84 101 127
77 97 127
80 99 127
84 101 127
74 93 121
84 101 127
82 100 127
75 96 127
76 97 127
80 99 127
79 98 127
81 100 127
76 97 127
82 100 127
104 124 153
95 113 140
125 146 179
104 124 153
112 133 166
161 184 217
134 157 191
184 208 243
163 185 217
163 184 217
150 172 204
187 209 243
187 209 243
197 221 255
197 221 255
197 220 255
197 220 255
197 220 255
197 220 255
197 220 255
197 220 255
197 220 255
197 220 255
197 220 255
197 220 255
197 220 255
197 220 255
197 220 255
197 220 255
197 220 255
197 220 255
197 220 255
197 220 255
197 220 255
197 220 255
197 220 255
197 220 255
197 220 255
197 220 255
197 220 255
197 220 255
197 220 255
197 220 255
197 220 255
196 220 255
196 220 255
196 220 255
196 220 255
196 220 255
196 220 255
196 220 255
196 220 255
196 220 255
196 220 255
196 220 255
196 220 255
196 220 255
196 220 255
196 220 255
196 220 255
196 220 255
196 220 255
196 220 255
196 220 255
196 220 255
196 220 255
196 220 255
196 220 255
196 220 255
196 220 255
196 220 255
196 220 255
196 220 255
196 220 255
196 220 255
196 220 255
196 220 255
196 220 255
196 220 255
196 220 255
196 220 255
196 220 255
196 220 255
196 220 255
196 220 255
196 220 255
196 220 255
196 220 255
196 220 255
196 220 255
196 220 255
196 220 255
196 220 255
196 220 255
196 220 255
196 220 255
196 220 255
196 220 255
196 220 255
196 220 255
195 219 255
195 219 255
195 219 255
195 219 255
195 219 255
195 219 255
196 220 255
196 220 255
196 220 255
196 220 255
196 220 255
196 220 255
196 220 255
196 220 255
196 220 255
196 220 255
196 220 255
196 220 255
196 220 255
196 220 255
196 220 255
196 220 255
196 220 255
196 220 255
196 220 255
196 220 255
196 220 255
196 220 255
196 220 255
196 220 255
196 220 255
196 220 255
196 220 255
196 220 255
196 220 255
196 220 255
196 220 255
196 220 255
196 220 255
196 220 255
196 220 255
196 220 255
196 220 255
196 220 255
196 220 255
196 220 255
196 220 255
196 220 255
196 220 255
196 220 255
196 220 255
197 220 255
197 220 255
197 220 255
197 220 255
197 220 255
197 220 255
197 220 255
197 220 255
197 220 255
197 220 255
197 220 255
197 220 255
197 220 255
197 220 255
197 220 255
197 220 255
197 220 255
197 220 255
197 220 255
197 220 255
197 220 255
197 220 255
197 220 255
197 220 255
197 220 255
197 220 255
197 220 255
197 220 255
197 220 255
197 220 255
197 221 255
197 221 255
197 221 255
197 221 255
197 221 255
197 221 255
150 172 204
136 158 191
164 185 217
114 135 166
151 172 204
140 161 191
118 137 166
126 147 179
98 120 153
98 115 140
90 110 140
79 99 127
82 100 127
76 97 127
79 98 127
76 97 127
79 98 127
76 97 127
82 100 127
88 104 127
79 98 127
77 97 127
81 100 127
83 101 127
83 101 127
76 96 127
79 98 127
75 96 127
77 97 127
75 96 127
81 100 127
76 97 127
81 100 127
80 99 127
78 98 127
85 102 127
80 99 127
82 100 127
76 94 121
85 102 127
86 103 127
80 99 127
82 100 127
73 92 121
75 96 127
82 100 127
78 98 127
80 99 127
84 101 127
77 97 127
78 98 127
77 97 127
76 96 127
80 99 127
80 99 127
78 98 127
58 73 96
45 58 78
49 60 76
51 65 84
50 61 77
47 57 71
49 63 83
50 60 75
56 69 89
54 68 89
54 68 89
53 66 84
67 84 108
58 71 91
53 68 91
55 67 84
41 50 63
56 70 91
53 63 78
55 69 89
56 72 96
44 55 71
48 57 71
62 76 97
52 64 83
62 78 102
47 59 76
62 78 102
58 73 95
60 74 95
68 82 102
65 80 102
64 79 102
67 83 108
61 75 96
59 71 89
63 76 95
58 73 95
55 67 86
71 87 111
63 76 95
57 69 86
63 76 95
69 81 99
58 70 89
73 87 108
50 62 79
64 79 102
64 77 95
77 92 115
65 77 95
55 69 89
53 65 84
52 65 84
55 68 89
66 80 102
58 71 91
68 81 102
74 90 115
61 73 91
62 78 102
62 78 102
49 64 86
62 78 103
55 67 84
55 70 92
58 71 91
61 77 102
52 64 81
64 79 102
75 91 115
45 56 71
62 74 92
63 79 103
57 68 84
62 78 102
65 80 102
57 71 92
74 90 115
59 73 92
57 70 89
59 71 89
59 74 96
66 81 103
54 71 95
53 65 83
51 63 81
46 58 76
55 68 87
60 75 96
78 95 121
63 81 108
57 70 89
60 74 95
62 78 102
62 75 95
71 88 115
63 76 95
42 51 65
52 65 83
47 58 75
61 78 102
54 65 81
53 68 91
59 74 95
65 80 102
71 85 105
44 53 67
56 67 84
63 79 102
46 56 71
67 81 102
52 66 86
57 73 95
60 74 95
60 73 92
68 82 102
51 64 83
64 76 95
62 76 97
71 86 108
48 60 78
58 71 91
53 65 83
58 70 89
49 59 75
75 94 121
82 100 127
78 98 127
83 101 127
81 100 127
80 99 127
78 98 127
78 98 127
72 90 118
81 100 127
83 101 127
78 98 127
82 100 127
78 98 127
83 101 127
80 99 127
80 99 127
81 100 127
73 91 118
77 97 127
82 100 127
78 98 127
82 100 127
77 97 127
79 98 127
78 98 127
80 99 127
83 101 127
77 97 127
80 99 127
79 98 127
77 97 127
73 95 127
83 101 127
79 99 127
77 97 127
84 101 127
79 99 127
81 100 127
74 95 127
74 93 121
78 98 127
80 99 127
82 100 127
78 98 127
79 98 127
104 124 153
115 135 166
100 121 153
102 123 153
116 136 166
148 171 204
123 145 179
148 170 204
150 172 204
173 196 230
197 221 255
197 221 255
197 221 255
197 221 255
197 221 255
197 221 255
197 220 255
197 220 255
197 220 255
197 220 255
197 220 255
197 220 255
197 220 255
197 220 255
197 220 255
197 220 255
197 220 255
197 220 255
197 220 255
197 220 255
197 220 255
197 220 255
197 220 255
197 220 255
197 220 255
197 220 255
197 220 255
197 220 255
197 220 255
197 220 255
197 220 255
197 220 255
197 220 255
197 220 255
197 220 255
197 220 255
196 220 255
197 220 255
196 220 255
196 220 255
196 220 255
196 220 255
196 220 255
196 220 255
196 220 255
196 220 255
196 220 255
196 220 255
196 220 255
196 220 255
196 220 255
196 220 255
196 220 255
196 220 255
196 220 255
196 220 255
196 220 255
196 220 255
196 220 255
196 220 255
196 220 255
196 220 255
196 220 255
196 220 255
196 220 255
196 220 255
196 220 255
196 220 255
196 220 255
196 220 255
196 220 255
196 220 255
196 220 255
196 220 255
196 220 255
196 220 255
196 220 255
196 220 255
196 220 255
196 220 255
196 220 255
196 220 255
196 220 255
196 220 255
196 220 255
196 220 255
196 220 255
196 220 255
196 220 255
196 220 255
196 220 255
196 220 255
196 220 255
196 220 255
196 220 255
196 220 255
196 220 255
196 220 255
196 220 255
196 220 255
196 220 255
196 220 255
196 220 255
196 220 255
196 220 255
196 220 255
196 220 255
196 220 255
196 220 255
196 220 255
197 220 255
197 220 255
197 220 255
197 220 255
197 220 255
197 220 255
197 220 255
197 220 255
197 220 255
197 220 255
197 220 255
197 220 255
197 220 255
197 220 255
197 220 255
197 220 255
197 220 255
197 220 255
197 220 255
197 220 255
197 220 255
197 220 255
197 220 255
197 220 255
197 220 255
197 220 255
197 220 255
197 220 255
197 220 255
197 220 255
197 221 255
197 221 255
197 221 255
197 221 255
197 221 255
197 221 255
197 221 255
197 221 255
173 196 230
154 174 204
165 186 217
151 172 204
138 159 191
127 148 179
110 132 166
140 160 191
102 123 153
115 135 166
105 124 153
81 100 127
78 98 127
85 102 127
79 98 127
77 97 127
82 100 127
79 98 127
78 98 127
82 100 127
81 100 127
79 98 127
82 100 127
78 98 127
76 97 127
82 100 127
82 100 127
82 100 127
77 95 121
80 99 127
75 96 127
67 86 115
78 98 127
79 98 127
78 98 127
82 100 127
76 97 127
84 102 127
76 97 127
80 99 127
77 97 127
79 98 127
82 100 127
79 98 127
72 94 127
74 96 127
79 98 127
75 96 127
82 100 127
78 98 127
74 95 127
85 102 127
75 96 127
81 100 127
81 100 127
80 99 127
75 93 121
80 99 127
80 99 127
80 99 127
84 101 127
81 100 127
76 97 127
79 99 127
75 96 127
78 98 127
75 96 127
77 97 127
81 99 127
77 93 118
65 80 102
65 78 99
58 73 95
55 69 91
53 65 83
47 59 76
65 80 102
55 66 83
50 63 81
56 68 86
58 73 95
62 75 95
67 81 102
64 77 97
65 80 102
61 75 95
59 72 91
49 60 77
53 65 83
58 70 89
55 67 86
50 63 83
36 45 58
58 71 91
54 66 85
57 68 84
58 73 95
49 61 80
58 70 89
51 64 83
73 89 115
55 69 89
66 80 102
51 63 80
63 75 92
50 62 79
56 69 87
62 78 102
62 78 102
48 60 78
57 71 91
63 76 95
52 66 86
66 79 99
49 60 76
64 75 93
51 64 83
41 51 65
53 65 84
68 84 108
64 77 97
72 86 108
58 73 95
54 67 86
58 70 89
64 79 102
64 82 110
73 87 108
57 71 93
69 85 108
59 71 89
69 85 109
58 71 89
61 76 97
70 88 115
66 80 102
57 70 89
63 76 95
71 89 115
56 69 87
47 59 76
58 73 95
68 84 108
55 65 79
67 81 102
53 66 84
53 65 83
56 69 89
54 67 86
67 81 102
67 84 108
55 68 87
45 55 71
68 84 108
60 74 95
65 77 95
58 70 89
59 72 91
57 70 89
57 70 89
57 69 86
72 87 110
58 73 95
58 73 95
52 66 86
55 67 86
55 64 78
72 87 108
61 73 91
62 75 95
57 70 89
63 78 102
57 70 89
44 58 78
79 94 115
57 72 94
62 76 99
51 65 86
67 84 108
70 88 115
42 54 71
65 82 108
60 76 99
57 70 89
64 78 99
62 76 95
52 64 83
60 72 90
69 83 103
59 74 95
59 71 91
67 82 105
45 55 71
57 72 96
69 82 102
56 70 92
77 97 127
77 97 127
79 98 127
78 98 127
83 101 127
81 99 127
79 99 127
81 100 127
76 96 127
75 92 118
78 98 127
79 96 121
78 98 127
77 97 127
78 98 127
82 100 127
79 99 127
78 98 127
82 100 127
77 97 127
85 102 127
73 95 127
81 99 127
80 99 127
74 95 127
77 95 121
84 101 127
78 98 127
82 100 127
74 95 127
81 99 127
76 97 127
76 97 127
88 104 127
80 99 127
82 100 127
78 98 127
79 98 127
80 99 127
76 96 127
84 101 127
78 98 127
80 99 127
83 101 127
77 97 127
85 102 127
81 100 127
84 101 127
79 98 127
80 99 127
82 100 127
81 100 127
80 99 127
80 99 127
78 98 127
80 99 127
85 102 127
88 104 127
82 100 127
140 161 191
107 125 153
125 146 179
77 97 127
140 161 191
137 159 191
139 160 191
136 158 191
150 172 204
162 184 217
172 195 230
197 221 255
197 221 255
197 221 255
197 221 255
197 221 255
197 220 255
197 220 255
197 220 255
197 220 255
197 220 255
197 220 255
197 220 255
197 220 255
197 220 255
197 220 255
197 220 255
197 220 255
197 220 255
197 220 255
197 220 255
197 220 255
197 220 255
197 220 255
197 220 255
197 220 255
197 220 255
197 220 255
197 220 255
197 220 255
197 220 255
197 220 255
197 220 255
197 220 255
197 220 255
197 220 255
197 220 255
197 220 255
196 220 255
197 220 255
196 220 255
196 220 255
196 220 255
196 220 255
196 220 255
196 220 255
196 220 255
196 220 255
196 220 255
196 220 255
196 220 255
196 220 255
196 220 255
196 220 255
196 220 255
196 220 255
196 220 255
196 220 255
196 220 255
196 220 255
196 220 255
196 220 255
196 220 255
196 220 255
196 220 255
196 220 255
196 220 255
196 220 255
196 220 255
196 220 255
196 220 255
196 220 255
196 220 255
196 220 255
196 220 255
196 220 255
196 220 255
196 220 255
196 220 255
196 220 255
196 220 255
197 220 255
197 220 255
197 220 255
197 220 255
197 220 255
197 220 255
197 220 255
197 220 255
197 220 255
197 220 255
197 220 255
197 220 255
197 220 255
197 220 255
197 220 255
197 220 255
197 220 255
197 220 255
197 220 255
197 220 255
197 220 255
197 220 255
197 220 255
197 220 255
197 220 255
197 220 255
197 220 255
197 220 255
197 220 255
197 220 255
197 220 255
197 221 255
197 220 255
197 220 255
197 221 255
197 221 255
197 221 255
197 221 255
197 221 255
197 221 255
184 208 243
171 195 230
174 196 230
161 184 217
137 159 191
138 159 191
150 172 204
135 157 191
139 160 191
99 121 153
140 161 191
89 110 140
81 100 127
78 98 127
80 99 127
85 102 127
81 100 127
79 98 127
82 100 127
80 99 127
80 99 127
77 97 127
82 100 127
78 98 127
80 99 127
75 92 118
78 98 127
83 101 127
80 99 127
77 97 127
79 98 127
78 98 127
81 100 127
83 101 127
78 98 127
77 97 127
78 98 127
80 99 127
75 96 127
77 97 127
82 100 127
78 98 127
77 97 127
78 98 127
81 99 127
77 97 127
79 99 127
76 97 127
83 101 127
81 99 127
81 100 127
79 99 127
81 100 127
76 97 127
75 96 127
76 94 121
83 101 127
78 98 127
79 99 127
83 101 127
79 99 127
76 97 127
76 97 127
81 99 127
77 97 127
76 97 127
80 99 127
79 99 127
79 98 127
83 101 127
82 100 127
82 100 127
82 100 127
81 100 127
74 96 127
80 99 127
76 97 127
82 100 127
80 99 127
79 98 127
78 98 127
78 98 127
79 98 127
81 100 127
63 81 108
57 68 84
62 74 92
67 81 102
58 70 89
49 61 78
59 71 89
46 58 78
61 74 94
62 74 92
56 72 95
70 83 102
69 82 102
46 59 78
69 85 108
44 56 73
73 89 111
82 98 121
55 65 79
56 69 89
57 70 89
73 87 108
62 75 95
50 61 78
59 74 95
55 69 91
54 66 84
69 82 102
46 55 68
50 61 78
59 70 86
49 60 76
68 84 108
62 75 95
57 70 89
58 69 86
57 70 89
64 80 103
56 70 91
47 57 73
49 60 77
39 48 60
51 64 83
58 73 95
58 73 95
62 78 102
62 76 95
57 70 89
50 63 84
61 73 91
63 79 102
61 75 95
75 91 115
53 67 89
55 69 91
68 83 105
65 81 103
49 60 78
52 65 84
55 69 89
50 62 79
75 93 121
50 62 79
36 44 55
65 80 102
49 61 79
76 91 115
62 78 102
51 62 78
51 64 83
63 79 102
49 60 76
53 67 89
60 74 95
48 59 75
70 85 108
58 74 97
60 72 89
46 57 75
62 76 95
55 67 85
65 80 102
57 69 86
61 75 95
54 67 86
51 65 86
54 67 86
54 66 84
56 68 86
62 75 95
63 78 102
76 91 115
53 66 86
60 74 95
45 57 75
51 62 78
62 76 95
73 88 110
58 71 91
67 81 102
52 62 78
63 77 99
51 64 83
64 76 95
53 66 86
66 80 102
55 70 92
51 64 83
61 75 96
61 73 91
67 82 105
50 61 78
40 49 64
56 69 89
65 78 97
55 69 89
68 81 102
48 63 84
66 81 103
63 79 102
50 61 76
57 70 89
59 74 95
53 67 89
57 72 95
69 85 108
80 99 127
79 99 127
80 99 127
75 96 127
75 96 127
83 101 127
79 98 127
77 97 127
86 103 127
83 101 127
85 102 127
83 101 127
79 98 127
77 97 127
79 98 127
82 98 121
79 99 127
78 98 127
83 101 127
80 99 127
78 98 127
78 98 127
75 96 127
79 98 127
81 100 127
81 100 127
79 98 127
80 99 127
84 101 127
74 95 127
76 97 127
80 99 127
82 100 127
76 97 127
83 101 127
78 98 127
79 98 127
78 98 127
78 98 127
85 102 127
83 101 127
77 97 127
83 101 127
81 100 127
80 99 127
81 99 127
79 98 127
75 96 127
83 101 127
83 101 127
77 97 127
81 100 127
85 102 127
75 96 127
77 97 127
84 101 127
75 96 127
80 99 127
79 99 127
81 100 127
82 100 127
80 99 127
78 98 127
80 99 127
79 99 127
79 98 127
73 95 127
77 97 127
83 101 127
77 97 127
82 100 127
76 96 127
81 100 127
80 99 127
80 99 127
113 134 166
128 148 179
161 184 217
165 186 217
128 148 179
141 161 191
165 186 217
185 208 243
185 208 243
197 221 255
197 221 255
197 221 255
197 221 255
197 221 255
197 221 255
197 221 255
197 220 255
197 220 255
197 220 255
197 221 255
197 220 255
197 220 255
197 220 255
197 220 255
197 220 255
197 220 255
197 220 255
197 220 255
197 220 255
197 220 255
197 220 255
197 220 255
197 220 255
197 220 255
197 220 255
197 220 255
197 220 255
197 220 255
197 220 255
197 220 255
197 220 255
197 220 255
197 220 255
197 220 255
197 220 255
197 220 255
196 220 255
196 220 255
197 220 255
196 220 255
196 220 255
196 220 255
196 220 255
196 220 255
196 220 255
196 220 255
196 220 255
196 220 255
196 220 255
196 220 255
196 220 255
196 220 255
197 220 255
197 220 255
197 220 255
197 220 255
197 220 255
197 220 255
197 220 255
197 220 255
197 220 255
197 220 255
197 220 255
197 220 255
197 220 255
197 220 255
197 220 255
197 220 255
197 220 255
197 220 255
197 220 255
197 220 255
197 220 255
197 220 255
197 220 255
197 220 255
197 220 255
197 220 255
197 220 255
197 220 255
197 220 255
197 220 255
197 220 255
197 221 255
197 221 255
197 221 255
197 221 255
197 221 255
197 221 255
197 221 255
197 221 255
197 221 255
197 221 255
197 221 255
174 196 230
184 208 243
128 148 179
135 158 191
113 134 166
141 161 191
123 145 179
126 147 179
95 113 140
117 137 166
96 114 140
79 98 127
73 91 118
84 101 127
81 100 127
85 102 127
77 97 127
83 101 127
85 102 127
81 99 127
83 101 127
84 101 127
78 98 127
78 98 127
74 95 127
78 98 127
77 97 127
82 100 127
83 101 127
78 98 127
78 98 127
81 100 127
83 101 127
80 99 127
82 100 127
79 98 127
79 99 127
78 98 127
74 93 121
83 101 127
77 97 127
80 99 127
81 100 127
82 100 127
78 98 127
75 96 127
80 99 127
84 101 127
83 101 127
84 101 127
78 98 127
79 98 127
76 94 121
76 96 127
80 99 127
77 97 127
75 96 127
81 100 127
74 95 127
70 89 118
82 100 127
79 99 127
85 102 127
81 100 127
79 98 127
82 100 127
78 98 127
75 92 118
75 94 121
82 100 127
81 99 127
86 103 127
79 99 127
78 98 127
78 98 127
80 99 127
80 99 127
78 95 121
83 101 127
82 100 127
82 100 127
73 95 127
76 97 127
74 95 127
79 96 121
79 98 127
77 95 121
74 95 127
88 104 127
78 98 127
71 89 115
76 94 121
76 97 127
83 101 127
79 99 127
70 88 115
58 73 95
55 65 81
71 86 108
59 74 95
55 68 89
64 79 102
45 55 71
74 88 108
67 84 108
54 66 84
59 73 95
60 72 89
58 71 89
59 74 95
55 67 85
59 72 91
64 76 95
57 70 91
52 62 78
55 69 91
58 71 90
49 61 79
56 69 89
64 79 102
75 91 115
49 60 76
49 63 83
68 83 105
63 77 99
62 75 95
49 63 83
67 84 108
66 80 102
48 60 78
64 81 105
51 62 78
65 82 108
56 70 92
53 65 83
60 74 95
64 77 97
48 60 78
55 67 84
47 58 76
50 62 79
49 63 84
67 81 102
67 81 102
63 77 97
55 70 92
62 78 102
65 78 99
60 74 95
59 72 91
65 78 97
56 68 86
57 71 91
61 75 95
48 60 78
54 66 83
63 76 95
61 75 95
67 82 105
55 67 84
49 58 71
62 75 95
66 80 102
54 66 83
70 84 105
58 73 95
54 69 91
57 68 86
61 74 92
28 35 45
62 75 95
67 78 95
58 72 92
49 60 76
50 60 76
64 77 97
47 57 73
52 67 89
54 67 86
49 60 76
60 73 92
55 69 89
54 68 89
57 71 92
60 74 95
54 65 83
52 65 84
62 75 95
55 65 81
58 73 95
63 78 102
65 77 95
73 89 115
46 59 78
68 81 102
46 58 76
56 67 84
47 59 78
60 74 95
59 76 102
47 59 76
50 63 83
43 54 70
68 81 102
63 77 99
52 65 83
62 75 94
55 67 84
63 76 95
53 65 83
58 70 89
58 71 91
67 81 102
56 72 95
43 55 73
61 75 95
72 85 105
57 70 89
63 76 95
55 67 86
71 91 121
78 95 121
78 98 127
77 97 127
78 98 127
77 95 121
77 97 127
81 100 127
80 99 127
84 101 127
82 100 127
75 96 127
79 99 127
82 100 127
85 102 127
82 100 127
76 94 121
82 100 127
72 94 127
79 99 127
77 97 127
80 99 127
80 99 127
81 99 127
79 99 127
82 100 127
74 96 127
75 96 127
78 98 127
68 87 116
80 99 127
79 98 127
77 93 118
81 100 127
78 98 127
74 96 127
78 98 127
80 99 127
81 99 127
78 98 127
73 95 127
82 100 127
82 100 127
82 100 127
78 98 127
77 97 127
76 97 127
79 99 127
78 98 127
77 97 127
78 98 127
81 100 127
89 104 127
83 101 127
79 98 127
78 98 127
78 98 127
80 99 127
80 99 127
85 102 127
82 100 127
84 101 127
77 97 127
75 96 127
75 96 127
78 98 127
78 98 127
75 96 127
79 99 127
75 96 127
76 97 127
76 97 127
77 97 127
80 99 127
77 97 127
77 97 127
78 98 127
80 99 127
82 100 127
76 97 127
82 100 127
73 95 127
78 98 127
79 99 127
73 95 127
77 97 127
102 123 153
91 111 140
138 160 191
101 122 153
129 149 179
161 183 217
139 160 191
162 184 217
185 208 243
175 197 230
186 209 243
197 221 255
197 221 255
197 221 255
197 221 255
197 221 255
197 221 255
197 221 255
197 221 255
197 220 255
197 220 255
197 220 255
197 220 255
197 221 255
197 220 255
197 220 255
197 220 255
197 220 255
197 220 255
197 220 255
197 220 255
197 220 255
197 220 255
197 220 255
197 220 255
197 220 255
197 220 255
197 220 255
197 220 255
197 220 255
197 220 255
197 220 255
197 220 255
197 220 255
197 220 255
197 220 255
197 220 255
197 220 255
197 220 255
197 220 255
197 220 255
196 220 255
197 220 255
197 220 255
197 220 255
197 220 255
197 220 255
197 220 255
197 220 255
197 220 255
197 220 255
197 220 255
197 220 255
197 220 255
197 220 255
197 220 255
197 220 255
197 220 255
197 220 255
197 220 255
197 221 255
197 221 255
197 221 255
197 221 255
197 221 255
197 221 255
197 221 255
197 221 255
197 221 255
197 221 255
197 221 255
197 221 255
162 184 217
184 208 243
149 171 204
127 148 179
146 170 204
125 147 179
127 148 179
77 97 127
76 96 127
99 121 153
78 98 127
75 93 121
78 98 127
86 102 127
80 99 127
81 99 127
80 99 127
75 96 127
77 97 127
81 100 127
82 100 127
76 97 127
78 98 127
79 98 127
81 100 127
78 98 127
78 98 127
80 99 127
79 99 127
83 101 127
80 99 127
78 98 127
77 95 121
84 101 127
89 104 127
80 99 127
88 104 127
75 96 127
79 99 127
74 93 121
78 98 127
80 99 127
83 101 127
79 99 127
79 98 127
78 98 127
80 99 127
76 97 127
74 95 127
85 102 127
77 97 127
76 97 127
71 91 121
80 99 127
81 100 127
80 99 127
82 100 127
81 100 127
80 99 127
78 98 127
83 101 127
81 99 127
73 95 127
77 97 127
85 102 127
84 101 127
75 96 127
87 103 127
76 96 127
77 97 127
78 98 127
76 97 127
77 95 121
75 96 127
84 101 127
80 99 127
75 96 127
78 98 127
80 99 127
78 98 127
80 99 127
81 100 127
81 100 127
74 96 127
74 92 118
78 98 127
79 98 127
75 96 127
79 98 127
82 100 127
75 96 127
78 98 127
82 100 127
81 100 127
80 99 127
80 99 127
76 97 127
76 97 127
79 99 127
76 93 118
74 93 121
73 95 127
74 92 118
77 97 127
85 102 127
80 99 127
87 103 127
72 94 127
59 70 86
70 85 108
56 67 84
63 76 95
56 70 91
63 76 95
62 75 95
62 75 95
59 71 89
68 84 108
54 66 84
57 71 92
65 77 95
55 70 92
54 66 84
56 70 92
61 77 102
48 60 78
69 82 102
58 71 91
68 82 102
53 65 83
51 63 83
55 69 91
46 61 83
66 80 102
54 64 79
58 73 95
58 71 90
57 70 89
47 57 73
64 77 95
61 75 95
49 62 83
61 77 102
70 85 108
58 73 95
49 63 83
55 69 91
57 70 89
65 80 102
81 97 121
54 65 83
46 58 76
61 75 97
60 74 95
57 70 89
50 62 80
63 76 96
62 76 97
62 76 95
47 59 78
49 61 79
66 81 103
63 76 95
65 82 108
65 80 102
75 91 115
62 75 95
59 71 89
57 70 91
64 78 99
67 84 108
67 83 108
58 72 92
60 74 95
47 60 79
60 72 91
60 74 95
61 75 96
63 76 96
69 82 102
55 69 89
57 69 86
48 60 78
62 75 95
52 63 79
62 75 95
54 68 89
57 70 89
66 83 108
65 77 95
52 64 83
61 75 95
72 87 108
55 68 86
68 84 108
56 69 89
59 71 89
52 64 83
65 80 102
46 58 76
58 71 91
66 80 102
77 92 115
56 69 89
47 57 73
58 72 92
45 55 71
61 75 97
45 56 72
54 67 87
46 57 72
63 75 94
66 81 102
58 71 89
63 76 95
56 70 92
61 73 91
60 72 91
65 80 102
54 68 89
58 73 95
50 66 91
78 93 115
74 91 115
60 74 95
49 60 76
31 39 51
50 62 79
56 68 86
51 64 83
63 78 100
57 70 91
83 98 121
80 99 127
86 102 127
74 93 121
74 96 127
73 95 127
74 92 118
81 100 127
74 93 121
78 95 121
83 101 127
78 98 127
78 98 127
78 98 127
81 100 127
81 99 127
76 94 121
83 101 127
78 95 121
84 102 127
77 97 127
80 99 127
78 94 118
78 98 127
85 102 127
76 94 121
81 99 127
82 100 127
72 91 118
76 97 127
75 96 127
78 98 127
73 91 118
75 96 127
78 98 127
79 99 127
79 98 127
80 99 127
82 100 127
80 99 127
83 101 127
82 100 127
80 99 127
80 99 127
79 98 127
77 97 127
79 98 127
75 96 127
82 100 127
70 90 121
81 100 127
74 93 121
80 99 127
83 101 127
73 95 127
79 99 127
84 102 127
76 97 127
80 99 127
82 100 127
81 100 127
78 98 127
81 100 127
79 98 127
79 98 127
77 97 127
77 97 127
77 97 127
69 89 118
78 98 127
82 100 127
80 99 127
80 99 127
72 94 127
81 100 127
81 100 127
85 102 127
83 101 127
81 99 127
76 97 127
85 102 127
83 101 127
75 96 127
74 90 115
78 98 127
80 99 127
83 101 127
78 98 127
75 96 127
79 99 127
82 100 127
82 100 127
82 100 127
81 100 127
82 100 127
78 98 127
80 99 127
78 98 127
81 99 127
107 125 153
114 135 166
83 101 127
123 145 179
112 134 166
141 161 191
140 160 191
151 172 204
175 197 230
197 221 255
197 221 255
197 221 255
197 221 255
197 221 255
197 221 255
197 221 255
197 221 255
197 221 255
197 221 255
197 221 255
197 221 255
197 220 255
197 221 255
197 220 255
197 220 255
197 220 255
197 220 255
197 220 255
197 220 255
197 220 255
197 220 255
197 220 255
197 220 255
197 220 255
197 220 255
197 220 255
197 220 255
197 220 255
197 220 255
197 220 255
197 220 255
197 220 255
197 220 255
197 220 255
197 220 255
197 221 255
197 221 255
197 221 255
197 221 255
197 221 255
197 221 255
197 221 255
197 221 255
197 221 255
197 221 255
197 221 255
187 209 243
185 208 243
184 208 243
139 160 191
174 197 230
126 147 179
127 148 179
127 147 179
140 161 191
101 122 153
106 125 153
84 102 127
83 101 127
77 97 127
81 99 127
83 101 127
75 96 127
78 98 127
88 104 127
75 96 127
80 99 127
80 99 127
84 101 127
80 99 127
77 97 127
78 98 127
80 99 127
83 101 127
80 99 127
83 101 127
80 99 127
77 97 127
84 101 127
84 101 127
78 98 127
73 91 118
80 99 127
81 100 127
80 99 127
80 99 127
79 99 127
80 99 127
77 97 127
83 101 127
81 100 127
82 100 127
76 97 127
80 99 127
76 97 127
82 100 127
82 100 127
77 97 127
77 97 127
77 95 121
81 99 127
81 99 127
86 103 127
75 92 118
80 99 127
78 98 127
75 96 127
81 100 127
76 97 127
80 99 127
82 100 127
81 100 127
80 99 127
78 95 121
82 100 127
82 100 127
77 97 127
78 98 127
77 97 127
74 95 127
77 97 127
82 100 127
81 99 127
79 98 127
78 98 127
77 97 127
85 102 127
81 100 127
80 99 127
70 89 118
79 98 127
76 97 127
77 97 127
75 96 127
75 96 127
82 100 127
82 100 127
79 98 127
80 99 127
83 101 127
75 96 127
80 99 127
84 102 127
78 98 127
79 98 127
84 101 127
76 96 127
76 96 127
81 100 127
79 98 127
81 99 127
81 99 127
69 89 118
68 86 115
76 96 127
80 99 127
77 94 118
77 97 127
79 98 127
80 99 127
75 96 127
75 96 127
79 98 127
83 101 127
83 101 127
78 95 121
81 100 127
64 80 103
53 66 84
51 64 83
49 60 76
55 69 89
52 64 83
47 61 83
59 72 92
59 73 95
59 74 95
51 65 86
64 76 95
46 57 73
66 80 102
56 70 91
59 71 89
67 79 97
59 71 89
47 57 73
56 69 89
59 72 91
42 51 63
57 68 86
71 86 108
54 68 89
62 76 97
50 62 79
73 87 108
61 77 102
54 66 85
57 70 89
58 71 91
64 82 108
59 74 95
55 69 89
59 72 92
67 84 108
63 76 95
66 83 108
68 84 108
55 66 83
56 68 85
57 70 89
47 57 72
53 67 89
65 77 95
70 85 108
61 75 95
61 73 91
63 76 95
59 74 97
56 70 91
61 75 95
61 75 95
65 78 97
58 71 89
55 66 83
44 53 66
59 74 95
71 86 108
75 89 110
65 78 97
58 72 92
66 80 102
60 72 91
66 81 102
57 69 87
59 74 95
65 80 102
55 66 83
68 81 102
59 71 89
65 80 102
64 80 105
57 70 89
63 77 99
54 68 89
56 70 91
64 79 102
64 79 102
51 64 84
56 69 89
72 87 108
63 76 95
67 81 102
72 90 116
61 75 95
63 76 96
58 71 89
53 68 89
61 76 99
55 68 89
52 64 83
57 73 95
60 74 95
68 82 102
62 75 95
70 83 102
67 81 102
53 66 86
57 72 95
60 74 95
61 73 92
45 55 70
47 59 77
59 71 90
56 69 89
53 65 83
51 64 83
44 55 71
67 81 102
62 78 103
65 78 96
67 81 102
77 95 121
72 89 115
71 86 108
44 55 70
65 80 102
61 75 95
50 60 76
61 72 89
62 78 102
54 68 89
80 99 127
69 88 115
87 103 127
79 98 127
83 101 127
83 101 127
77 95 121
79 98 127
76 97 127
78 98 127
80 99 127
79 98 127
79 98 127
85 102 127
76 97 127
82 100 127
79 98 127
76 97 127
76 97 127
76 96 127
79 99 127
76 93 118
80 99 127
79 98 127
78 98 127
80 96 121
76 97 127
81 100 127
82 100 127
79 98 127
85 102 127
83 101 127
84 101 127
84 102 127
82 100 127
79 98 127
74 92 118
76 97 127
80 99 127
81 100 127
81 100 127
81 100 127
75 96 127
80 99 127
82 100 127
83 101 127
76 93 118
79 99 127
76 97 127
78 98 127
81 99 127
75 96 127
83 101 127
80 99 127
83 101 127
78 98 127
79 99 127
81 100 127
78 95 121
77 97 127
76 96 127
80 99 127
78 98 127
79 98 127
79 98 127
80 99 127
84 101 127
79 99 127
73 95 127
85 102 127
76 97 127
77 97 127
81 99 127
81 100 127
81 99 127
85 102 127
78 98 127
85 102 127
76 96 127
77 97 127
80 99 127
75 96 127
73 95 127
80 99 127
85 102 127
77 97 127
82 100 127
85 102 127
76 96 127
77 97 127
81 100 127
79 98 127
80 99 127
81 99 127
76 97 127
81 100 127
80 99 127
74 95 127
79 99 127
79 98 127
83 101 127
75 96 127
84 101 127
86 102 127
82 100 127
78 98 127
79 99 127
83 101 127
78 98 127
79 98 127
92 111 140
100 122 153
129 149 179
150 172 204
105 124 153
109 132 166
186 208 243
153 174 204
163 184 217
197 221 255
197 221 255
197 221 255
197 221 255
197 221 255
197 221 255
197 221 255
197 221 255
197 221 255
197 221 255
197 221 255
197 221 255
197 221 255
197 220 255
197 220 255
197 220 255
197 220 255
197 220 255
197 220 255
197 221 255
197 221 255
197 221 255
197 221 255
197 221 255
197 221 255
174 196 230
197 221 255
149 171 204
161 183 217
152 173 204
143 162 191
85 103 131
92 112 140
91 111 140
86 108 140
80 99 127
73 95 127
76 97 127
74 95 127
74 95 127
79 99 127
78 98 127
75 96 127
76 97 127
80 99 127
78 98 127
76 97 127
78 98 127
77 97 127
73 91 118
77 97 127
77 97 127
83 101 127
78 98 127
81 100 127
79 98 127
75 96 127
83 101 127
79 98 127
76 97 127
79 99 127
86 103 127
84 101 127
88 104 127
76 96 127
81 100 127
74 95 127
79 98 127
79 98 127
86 102 127
75 96 127
80 99 127
74 96 127
77 97 127
76 97 127
85 102 127
80 99 127
85 102 127
80 99 127
77 93 118
81 100 127
80 99 127
75 96 127
80 99 127
78 98 127
83 101 127
80 99 127
80 99 127
79 99 127
75 96 127
81 100 127
84 102 127
72 94 127
76 94 121
81 100 127
77 97 127
75 96 127
78 98 127
77 97 127
81 100 127
74 96 127
73 91 118
77 97 127
83 101 127
74 91 116
80 99 127
78 98 127
79 98 127
79 99 127
79 99 127
79 98 127
78 98 127
79 98 127
74 91 116
80 99 127
76 97 127
71 86 109
81 99 127
76 94 121
78 98 127
77 97 127
80 99 127
76 97 127
76 97 127
86 102 127
75 96 127
82 100 127
77 97 127
78 98 127
80 99 127
75 96 127
80 99 127
81 99 127
79 98 127
77 97 127
83 101 127
76 97 127
80 99 127
81 100 127
79 98 127
78 98 127
78 98 127
80 99 127
80 99 127
84 102 127
81 99 127
76 94 121
77 97 127
80 99 127
76 94 121
81 100 127
80 99 127
81 100 127
73 91 118
76 97 127
83 101 127
81 100 127
62 75 95
44 54 70
67 81 102
53 66 84
75 91 115
46 56 71
57 67 83
55 67 86
42 53 68
64 79 102
67 81 102
58 73 96
39 47 60
47 60 78
46 56 71
61 75 95
60 72 91
49 61 79
64 79 102
53 66 86
69 84 108
45 57 73
46 57 73
58 73 95
57 70 89
49 60 78
63 78 102
70 85 108
63 76 97
66 78 97
63 78 102
74 88 108
57 69 87
47 57 73
62 75 95
59 74 95
57 72 95
56 69 89
62 75 95
55 69 89
50 61 76
51 63 79
63 79 102
66 79 99
65 80 102
68 84 108
62 78 102
55 68 89
66 81 103
59 71 89
58 73 95
62 78 102
67 84 108
53 65 84
50 61 78
43 56 75
67 81 102
59 71 90
63 77 97
60 74 95
48 60 78
52 62 77
61 75 95
43 52 66
57 70 91
71 86 108
66 80 102
50 63 83
66 80 102
67 82 103
63 75 92
52 65 86
68 82 102
58 70 89
57 71 92
56 68 86
75 91 115
56 70 91
68 81 102
62 75 95
71 86 108
62 75 94
44 55 73
50 62 80
76 91 115
57 71 92
63 76 95
55 66 83
60 74 95
65 77 95
54 65 83
58 71 91
64 77 95
54 65 81
63 76 95
60 74 95
66 80 102
73 87 108
76 94 121
61 75 95
49 59 73
52 63 79
52 64 83
52 65 84
59 75 99
69 82 102
51 62 79
56 70 89
60 74 95
59 72 92
50 62 79
58 70 87
63 79 103
47 58 73
52 64 83
59 73 95
53 67 89
55 68 89
55 69 89
69 85 110
63 79 102
65 80 102
56 68 86
74 93 121
78 98 127
76 91 115
78 98 127
78 98 127
79 98 127
77 97 127
80 99 127
78 98 127
85 102 127
71 91 121
76 97 127
76 97 127
77 97 127
77 97 127
82 100 127
82 100 127
79 98 127
79 96 121
77 97 127
76 97 127
77 97 127
78 98 127
88 104 127
76 97 127
80 99 127
81 100 127
73 92 121
74 93 121
81 100 127
80 99 127
81 97 121
78 98 127
84 101 127
76 96 127
79 98 127
83 101 127
84 102 127
77 97 127
76 97 127
80 99 127
74 95 127
81 99 127
82 100 127
74 93 121
79 98 127
70 89 118
82 100 127
77 93 118
83 101 127
81 100 127
82 100 127
78 98 127
80 99 127
78 98 127
75 96 127
81 100 127
78 98 127
79 98 127
80 99 127
74 96 127
82 100 127
80 99 127
78 98 127
79 96 121
75 96 127
84 102 127
78 98 127
80 99 127
77 97 127
79 98 127
78 98 127
80 99 127
77 97 127
77 97 127
83 101 127
79 98 127
82 100 127
81 99 127
79 99 127
82 100 127
80 99 127
81 100 127
75 96 127
81 100 127
77 97 127
81 100 127
83 101 127
79 99 127
84 102 127
76 97 127
78 98 127
78 98 127
80 99 127
80 99 127
81 100 127
80 99 127
78 98 127
72 94 127
86 102 127
83 101 127
78 98 127
78 98 127
78 98 127
81 100 127
81 100 127
84 102 127
81 100 127
81 100 127
79 99 127
74 96 127
81 100 127
83 101 127
80 99 127
84 101 127
81 100 127
77 97 127
82 100 127
82 100 127
79 99 127
72 94 127
87 103 127
83 101 127
116 136 166
101 122 153
104 123 153
155 174 204
115 135 166
138 159 191
174 197 230
174 196 230
172 195 230
186 209 243
187 209 243
197 221 255
197 221 255
197 221 255
197 221 255
197 221 255
105 124 153
139 160 191
91 110 140
87 108 140
82 100 127
82 100 127
75 96 127
83 101 127
78 98 127
82 100 127
76 97 127
83 101 127
79 98 127
82 100 127
78 98 127
77 97 127
76 97 127
74 96 127
77 97 127
83 101 127
86 103 127
88 104 127
80 99 127
84 101 127
83 101 127
80 99 127
80 99 127
80 99 127
73 95 127
81 100 127
80 99 127
71 93 127
76 97 127
77 97 127
82 100 127
77 97 127
76 97 127
84 101 127
82 100 127
78 98 127
80 99 127
83 101 127
83 101 127
79 98 127
85 102 127
73 95 127
80 99 127
82 100 127
77 97 127
79 98 127
75 96 127
76 96 127
88 104 127
73 95 127
78 98 127
75 96 127
82 100 127
75 96 127
78 98 127
81 99 127
73 95 127
76 97 127
71 91 121
78 98 127
80 99 127
78 98 127
74 95 127
76 94 121
79 99 127
78 98 127
80 99 127
82 100 127
80 99 127
76 97 127
78 98 127
80 99 127
76 97 127
76 96 127
79 98 127
76 97 127
84 101 127
81 100 127
77 97 127
77 97 127
74 95 127
80 99 127
84 102 127
78 98 127
73 95 127
79 98 127
82 100 127
88 104 127
80 99 127
80 99 127
76 97 127
79 99 127
80 99 127
75 96 127
81 100 127
80 99 127
77 97 127
79 99 127
79 99 127
78 98 127
78 98 127
84 101 127
81 100 127
78 98 127
80 99 127
80 99 127
79 98 127
80 99 127
81 100 127
78 98 127
78 98 127
78 98 127
76 97 127
73 92 121
78 98 127
78 98 127
85 102 127
79 98 127
80 99 127
79 99 127
76 93 118
81 100 127
87 103 127
78 98 127
80 99 127
81 99 127
79 99 127
81 99 127
85 102 127
79 99 127
80 99 127
80 99 127
80 99 127
85 102 127
78 98 127
53 63 78
54 68 89
45 56 72
55 65 79
61 75 95
61 76 99
67 84 108
68 83 105
56 68 86
65 79 102
49 62 83
49 61 79
50 63 83
62 76 95
60 74 95
72 86 108
61 76 99
46 57 73
67 82 103
52 65 85
60 74 95
60 74 95
55 66 83
49 63 83
45 55 70
42 52 68
67 83 108
54 68 89
57 68 84
61 75 95
73 87 108
66 81 102
57 70 91
79 93 115
60 74 95
58 73 95
49 58 71
41 51 65
67 81 102
52 64 83
57 68 84
67 81 102
55 67 84
67 82 105
63 78 102
53 66 84
72 86 108
58 71 91
55 66 83
60 74 95
53 63 78
66 77 94
73 90 115
59 74 95
58 70 87
47 58 75
72 89 115
48 61 81
60 74 95
54 66 83
58 69 87
68 83 105
59 72 92
59 72 92
67 81 102
57 71 92
49 61 78
58 72 92
66 82 105
61 77 102
55 71 95
62 75 95
60 72 91
66 80 102
58 71 89
71 87 111
45 54 68
68 81 102
69 85 108
63 77 97
63 76 95
67 84 108
59 72 91
53 65 83
52 64 81
74 88 108
63 78 102
45 58 78
52 65 84
59 74 95
61 73 92
68 82 102
68 78 94
65 79 99
65 78 97
45 56 71
62 75 95
53 66 84
69 82 102
59 72 92
52 63 80
55 67 84
50 60 77
57 71 92
59 71 89
53 67 89
59 72 92
62 74 91
60 74 95
71 87 111
47 59 76
75 91 115
64 77 95
55 68 89
52 64 83
51 64 84
66 83 108
56 67 83
55 69 89
70 86 108
58 69 84
58 70 89
76 97 127
75 96 127
76 97 127
83 101 127
81 100 127
81 100 127
77 97 127
77 97 127
75 96 127
77 92 115
81 99 127
79 98 127
83 101 127
75 96 127
82 100 127
83 101 127
77 97 127
76 96 127
73 90 115
80 99 127
76 97 127
76 96 127
71 87 111
81 100 127
82 100 127
84 101 127
79 99 127
83 101 127
81 100 127
81 99 127
75 96 127
72 90 118
81 100 127
81 100 127
81 100 127
76 97 127
79 98 127
73 90 116
76 97 127
82 100 127
82 100 127
81 99 127
78 98 127
83 101 127
79 96 121
81 100 127
81 99 127
84 101 127
78 98 127
77 97 127
80 99 127
79 98 127
83 101 127
77 93 118
77 97 127
82 100 127
80 99 127
78 98 127
78 98 127
81 100 127
81 99 127
77 97 127
75 96 127
74 95 127
81 99 127
79 98 127
74 95 127
79 98 127
79 98 127
72 94 127
78 98 127
80 99 127
85 102 127
77 97 127
83 101 127
83 101 127
80 99 127
84 101 127
88 104 127
76 96 127
80 99 127
81 99 127
78 98 127
84 102 127
70 89 118
81 100 127
78 98 127
82 100 127
80 99 127
80 99 127
76 94 121
77 97 127
78 98 127
80 99 127
77 97 127
77 97 127
74 95 127
80 99 127
78 98 127
81 100 127
74 96 127
81 100 127
76 96 127
85 102 127
78 98 127
80 99 127
78 98 127
79 98 127
81 99 127
79 99 127
80 99 127
83 101 127
76 96 127
82 100 127
84 102 127
81 100 127
81 99 127
78 98 127
88 104 127
77 97 127
78 98 127
78 98 127
76 94 121
83 101 127
80 99 127
74 96 127
78 98 127
77 97 127
78 98 127
81 100 127
77 97 127
74 96 127
79 98 127
78 98 127
91 111 140
102 123 153
116 136 166
114 135 166
130 149 179
77 97 127
82 100 127
76 96 127
86 103 127
80 99 127
76 97 127
76 97 127
83 101 127
75 94 121
83 101 127
78 98 127
78 98 127
79 99 127
83 101 127
79 98 127
76 96 127
73 95 127
81 100 127
77 97 127
80 99 127
80 99 127
72 94 127
73 91 118
77 97 127
81 100 127
78 98 127
78 98 127
85 102 127
75 96 127
75 96 127
77 97 127
76 97 127
82 100 127
75 96 127
75 96 127
82 100 127
79 98 127
73 95 127
84 101 127
81 100 127
82 100 127
75 96 127
81 100 127
80 99 127
79 98 127
79 98 127
85 102 127
79 98 127
75 96 127
75 96 127
77 97 127
79 98 127
81 100 127
83 101 127
78 98 127
83 101 127
82 100 127
81 99 127
83 101 127
77 95 121
73 95 127
81 100 127
81 100 127
79 99 127
85 102 127
76 96 127
79 99 127
76 93 118
74 95 127
81 100 127
78 98 127
79 98 127
69 85 108
81 99 127
79 98 127
82 100 127
76 92 115
77 97 127
81 100 127
77 97 127
81 99 127
78 98 127
77 97 127
81 100 127
74 91 118
77 97 127
76 97 127
78 98 127
81 100 127
75 96 127
74 93 121
81 100 127
81 100 127
81 97 121
77 97 127
75 93 121
72 94 127
81 100 127
78 98 127
83 101 127
84 102 127
89 104 127
69 87 115
80 99 127
84 101 127
81 100 127
79 99 127
81 100 127
78 98 127
75 96 127
76 97 127
85 102 127
80 99 127
84 102 127
76 97 127
74 96 127
81 100 127
82 100 127
78 98 127
70 88 115
77 97 127
75 96 127
79 98 127
80 99 127
85 102 127
82 100 127
77 97 127
75 96 127
84 101 127
80 99 127
78 98 127
80 99 127
71 89 115
73 90 115
75 96 127
81 99 127
73 91 118
82 100 127
75 94 121
68 82 102
56 67 83
55 67 83
59 71 89
45 55 70
55 69 89
53 68 89
56 70 91
64 80 105
58 69 86
51 64 83
75 94 121
75 91 115
41 53 70
66 83 108
61 72 89
64 79 102
55 69 89
56 69 89
64 79 102
58 69 86
68 84 108
62 77 99
55 69 89
58 71 89
58 73 95
56 70 90
61 72 89
73 90 115
61 75 95
60 74 95
57 67 83
69 83 103
67 79 96
49 58 71
45 58 78
72 89 115
76 92 115
65 80 103
66 83 108
56 69 89
64 78 99
55 66 83
51 63 81
65 80 102
50 63 83
58 70 89
62 76 95
70 88 115
59 71 90
38 46 59
75 91 115
43 52 67
55 67 86
60 73 92
62 78 102
63 76 95
56 69 87
56 68 87
44 55 71
51 62 78
51 61 76
54 68 87
55 69 89
63 74 89
59 74 97
66 81 102
56 70 91
51 62 78
58 73 95
50 62 80
58 70 89
46 58 76
64 77 97
54 67 86
58 70 89
55 69 89
66 81 102
59 71 89
59 74 95
59 72 91
61 76 99
60 74 95
59 73 95
63 79 102
58 74 97
49 59 75
43 54 70
50 64 84
44 56 73
44 55 72
53 65 83
73 87 108
55 69 89
47 59 76
42 54 71
61 75 95
56 68 86
47 57 73
48 58 73
63 79 103
60 75 97
52 62 78
80 96 121
58 70 87
58 70 89
43 54 71
64 77 95
55 69 89
53 65 83
59 76 102
51 62 78
45 56 73
56 70 91
52 67 89
52 64 81
52 64 83
69 82 102
41 51 65
64 79 102
55 69 89
63 74 91
74 92 118
75 92 118
83 101 127
77 97 127
83 101 127
85 102 127
73 92 121
78 98 127
77 97 127
77 97 127
77 97 127
81 100 127
83 101 127
83 101 127
81 100 127
85 102 127
77 93 118
79 98 127
79 99 127
75 96 127
78 98 127
76 94 121
79 98 127
74 96 127
82 100 127
72 90 118
82 100 127
77 97 127
81 99 127
82 100 127
80 99 127
78 98 127
77 97 127
82 100 127
73 92 121
75 96 127
81 99 127
77 97 127
83 101 127
81 100 127
80 99 127
76 96 127
78 98 127
75 96 127
82 100 127
73 95 127
76 97 127
81 99 127
79 99 127
81 100 127
77 97 127
82 100 127
78 98 127
77 97 127
81 100 127
82 100 127
83 101 127
79 99 127
81 99 127
77 97 127
81 99 127
77 97 127
78 98 127
83 101 127
79 96 121
76 97 127
82 100 127
79 98 127
75 94 121
78 98 127
74 95 127
81 99 127
79 98 127
77 97 127
80 99 127
86 103 127
81 100 127
78 98 127
81 100 127
82 100 127
83 101 127
83 101 127
76 96 127
84 101 127
76 97 127
85 102 127
86 102 127
78 95 121
75 92 118
79 98 127
82 100 127
75 96 127
77 97 127
80 99 127
78 98 127
81 100 127
85 102 127
78 98 127
79 98 127
83 101 127
82 100 127
79 94 118
81 100 127
78 98 127
83 101 127
79 99 127
81 100 127
76 93 118
82 100 127
79 99 127
78 98 127
81 100 127
84 101 127
81 99 127
79 98 127
80 99 127
75 96 127
79 98 127
81 99 127
78 98 127
77 97 127
79 98 127
77 97 127
80 99 127
78 98 127
76 93 118
84 102 127
79 99 127
71 91 121
84 101 127
78 98 127
81 100 127
79 98 127
80 99 127
78 98 127
81 99 127
78 98 127
80 99 127
75 96 127
81 99 127
83 101 127
80 99 127
75 96 127
76 96 127
78 98 127
80 99 127
80 99 127
74 95 127
77 97 127
81 100 127
74 96 127
81 100 127
81 100 127
77 97 127
76 97 127
80 99 127
78 98 127
82 100 127
76 97 127
77 97 127
79 99 127
77 97 127
83 101 127
79 98 127
77 97 127
79 98 127
78 98 127
82 100 127
79 99 127
75 96 127
80 99 127
81 100 127
81 100 127
80 99 127
79 98 127
77 97 127
85 102 127
78 98 127
81 100 127
78 98 127
78 98 127
80 99 127
79 99 127
83 101 127
76 97 127
80 99 127
75 96 127
83 101 127
83 101 127
72 91 121
76 96 127
69 88 115
78 98 127
81 99 127
82 100 127
80 99 127
77 97 127
77 97 127
78 98 127
83 101 127
79 98 127
77 97 127
79 98 127
78 98 127
87 103 127
78 98 127
80 99 127
80 99 127
80 99 127
82 100 127
75 96 127
77 97 127
75 96 127
80 99 127
82 100 127
82 100 127
80 99 127
80 99 127
78 98 127
86 103 127
78 98 127
77 97 127
82 100 127
76 97 127
79 99 127
82 100 127
77 97 127
83 101 127
80 99 127
82 100 127
78 98 127
80 99 127
81 100 127
79 96 121
82 100 127
82 100 127
81 100 127
84 101 127
76 97 127
81 99 127
82 100 127
80 99 127
81 100 127
78 98 127
81 100 127
68 88 118
76 94 121
78 98 127
83 101 127
74 96 127
73 90 116
81 100 127
78 98 127
72 92 121
76 97 127
76 94 121
74 91 115
79 96 121
79 99 127
77 97 127
78 98 127
81 100 127
71 89 115
80 99 127
75 96 127
69 86 111
68 89 121
79 98 127
73 91 118
76 97 127
76 97 127
75 96 127
83 101 127
72 92 121
81 100 127
80 99 127
79 99 127
77 97 127
66 80 102
45 55 70
59 71 89
54 65 81
53 66 86
76 91 115
67 81 102
61 77 102
45 54 67
59 71 89
62 75 95
56 67 83
77 92 115
69 85 108
62 75 95
47 57 71
57 70 89
64 79 102
48 56 70
59 71 89
59 71 89
52 64 83
55 67 86
57 68 86
58 74 97
54 66 84
49 61 79
55 67 86
61 75 95
45 53 65
42 52 67
55 69 89
52 64 81
63 76 95
80 95 118
59 74 95
57 70 89
62 74 91
64 76 95
43 54 71
57 68 84
68 82 102
48 62 83
65 80 102
67 81 102
68 80 99
57 72 96
51 64 84
63 77 97
52 64 83
59 74 95
59 73 92
48 60 79
48 60 78
63 74 91
43 54 71
50 62 81
46 57 73
55 70 92
62 76 99
70 85 108
70 83 102
58 71 89
53 67 87
65 82 108
63 79 102
60 72 91
55 69 89
59 74 96
52 63 81
58 69 86
48 60 78
55 69 89
50 62 79
62 77 99
73 87 108
72 84 103
47 59 76
60 74 96
61 73 91
57 68 86
53 65 83
60 72 89
52 64 83
48 59 76
45 56 71
70 85 108
52 66 86
61 75 95
55 69 89
60 74 95
55 67 86
58 70 89
43 53 67
52 63 79
62 77 99
59 74 97
61 75 95
59 74 97
69 82 102
66 79 99
56 67 84
60 75 96
60 72 89
71 89 115
51 62 79
49 61 78
52 62 78
55 69 89
52 65 84
46 55 68
53 65 83
63 78 102
55 66 83
50 64 84
69 85 108
60 70 86
49 61 78
54 68 89
62 76 95
51 62 79
68 87 115
83 101 127
78 98 127
79 98 127
81 99 127
78 98 127
82 100 127
80 99 127
78 98 127
76 97 127
71 89 116
68 84 108
85 102 127
74 91 118
71 90 118
86 102 127
77 95 121
78 98 127
83 101 127
80 99 127
85 102 127
82 100 127
78 98 127
77 97 127
82 100 127
76 96 127
80 99 127
77 97 127
77 93 118
72 90 118
71 94 127
70 85 108
83 101 127
77 97 127
79 98 127
74 96 127
77 97 127
69 89 118
77 97 127
79 98 127
80 99 127
80 99 127
81 99 127
80 99 127
82 100 127
75 96 127
77 97 127
81 99 127
75 93 121
82 100 127
81 99 127
82 100 127
83 101 127
80 99 127
72 91 118
80 99 127
79 98 127
77 97 127
71 90 118
80 99 127
83 101 127
81 100 127
82 100 127
80 99 127
83 101 127
77 97 127
81 100 127
82 100 127
77 97 127
76 97 127
81 100 127
83 101 127
78 98 127
79 99 127
77 97 127
73 95 127
83 101 127
80 99 127
70 87 111
71 90 118
75 96 127
76 96 127
82 100 127
75 96 127
81 99 127
81 100 127
79 98 127
80 99 127
82 100 127
79 99 127
82 100 127
76 97 127
82 100 127
78 98 127
75 96 127
79 99 127
78 98 127
79 98 127
79 99 127
80 99 127
74 95 127
79 98 127
75 96 127
77 97 127
80 99 127
79 99 127
74 95 127
85 102 127
76 97 127
75 96 127
82 100 127
75 96 127
82 100 127
79 99 127
82 100 127
77 97 127
76 97 127
77 97 127
80 99 127
76 97 127
76 96 127
79 99 127
78 98 127
83 101 127
78 98 127
77 97 127
80 99 127
77 97 127
77 97 127
78 98 127
81 100 127
77 97 127
81 99 127
81 99 127
78 98 127
78 98 127
79 98 127
79 98 127
72 94 127
77 94 121
77 97 127
81 100 127
76 93 118
80 99 127
77 97 127
83 101 127
81 99 127
82 100 127
76 97 127
82 100 127
83 101 127
79 98 127
82 100 127
79 99 127
78 98 127
75 94 121
79 98 127
80 99 127
76 96 127
76 96 127
76 96 127
81 100 127
77 97 127
79 96 121
86 102 127
81 99 127
84 101 127
80 99 127
81 100 127
82 100 127
79 98 127
78 98 127
79 99 127
73 95 127
85 102 127
81 100 127
79 98 127
79 98 127
79 99 127
79 98 127
74 95 127
78 98 127
76 97 127
79 98 127
83 101 127
76 96 127
83 101 127
80 99 127
81 100 127
85 102 127
81 99 127
81 99 127
81 100 127
76 97 127
78 98 127
77 97 127
81 99 127
79 98 127
77 97 127
82 100 127
79 98 127
76 96 127
82 100 127
79 98 127
77 97 127
78 98 127
80 99 127
70 89 118
84 101 127
81 100 127
82 100 127
77 97 127
79 99 127
83 101 127
84 101 127
78 98 127
82 100 127
72 90 116
78 98 127
75 92 118
80 99 127
79 98 127
78 98 127
80 99 127
73 90 116
80 99 127
81 100 127
83 101 127
71 91 121
74 93 121
82 100 127
82 100 127
76 97 127
77 97 127
77 97 127
80 99 127
77 97 127
75 96 127
78 95 121
76 93 118
76 96 127
72 90 118
73 95 127
79 98 127
79 98 127
73 95 127
82 100 127
84 101 127
80 97 121
80 99 127
80 99 127
76 97 127
74 95 127
85 102 127
84 102 127
73 95 127
78 98 127
81 99 127
77 97 127
75 92 118
82 100 127
79 99 127
75 96 127
82 100 127
76 94 121
84 101 127
77 97 127
74 92 118
70 89 118
79 99 127
75 96 127
73 92 121
72 90 118
82 100 127
79 99 127
81 99 127
77 97 127
79 98 127
76 96 127
71 90 118
57 71 92
42 53 70
70 83 102
49 59 75
64 77 95
61 78 102
50 62 79
48 62 81
56 68 86
55 68 86
41 52 68
61 75 95
42 53 70
46 59 79
55 69 91
67 81 102
69 85 108
67 79 97
53 66 86
52 64 83
68 83 105
65 81 103
46 59 78
55 69 89
46 56 71
49 60 76
63 75 93
52 67 89
48 59 76
62 78 102
45 56 71
75 91 115
64 76 95
54 67 86
55 69 91
56 67 84
48 60 78
72 86 108
57 71 92
58 70 89
66 80 102
47 57 71
73 87 108
68 84 108
64 77 95
51 64 83
59 74 95
64 76 95
63 76 95
45 57 73
71 86 108
64 79 102
59 74 95
47 59 76
62 75 95
50 61 78
58 71 89
64 75 92
57 72 95
53 64 81
66 80 102
52 65 84
51 64 84
73 89 115
49 62 83
57 70 89
62 74 92
57 70 89
56 67 84
59 73 95
67 80 100
39 48 61
49 60 78
59 71 89
56 68 86
52 62 76
46 56 72
50 61 77
45 58 76
55 66 83
55 69 91
55 68 89
55 66 83
61 75 95
73 87 108
52 67 89
68 82 102
66 80 102
41 51 65
51 63 81
51 61 76
60 74 96
68 82 102
47 62 83
66 79 99
56 67 83
64 79 102
51 62 79
55 69 89
64 77 95
45 55 71
66 80 102
50 60 76
68 81 102
56 69 89
56 67 83
71 86 108
54 66 83
62 77 99
60 74 95
68 82 102
52 66 86
64 79 102
41 51 67
54 65 81
75 91 115
62 75 95
54 66 84
79 99 127
67 81 102
81 99 127
82 100 127
81 100 127
82 100 127
75 93 121
79 94 118
83 101 127
79 99 127
78 98 127
81 99 127
77 97 127
77 97 127
75 96 127
71 90 118
80 99 127
70 87 111
82 100 127
78 98 127
77 97 127
79 99 127
85 102 127
77 93 118
83 101 127
78 98 127
75 92 118
81 100 127
76 97 127
85 102 127
79 99 127
76 97 127
74 91 116
86 103 127
72 90 118
75 93 121
76 97 127
84 101 127
77 97 127
77 97 127
81 100 127
80 99 127
74 93 121
80 99 127
79 98 127
68 87 115
79 99 127
78 98 127
78 98 127
81 100 127
81 100 127
79 98 127
78 98 127
76 97 127
82 100 127
82 100 127
79 98 127
82 100 127
83 101 127
77 95 121
77 97 127
78 98 127
77 97 127
81 100 127
87 103 127
83 101 127
81 99 127
72 94 127
85 102 127
80 99 127
79 98 127
77 97 127
77 97 127
78 98 127
77 97 127
80 99 127
81 100 127
82 100 127
77 97 127
78 98 127
82 100 127
79 98 127
76 97 127
71 93 127
84 101 127
79 98 127
80 99 127
78 94 118
80 99 127
77 93 118
80 99 127
84 101 127
81 100 127
79 98 127
83 101 127
77 97 127
78 98 127
81 100 127
75 96 127
80 99 127
83 101 127
79 98 127
75 96 127
77 97 127
81 100 127
81 100 127
81 100 127
78 98 127
74 95 127
75 96 127
80 99 127
79 99 127
81 100 127
77 97 127
80 99 127
80 99 127
80 99 127
80 99 127
77 97 127
76 97 127
82 100 127
76 97 127
76 97 127
78 98 127
76 97 127
78 98 127
81 100 127
80 99 127
80 99 127
76 97 127
77 97 127
75 96 127
82 100 127
74 95 127
81 99 127
84 101 127
81 100 127
82 100 127
79 98 127
80 99 127
75 96 127
79 99 127
81 100 127
80 99 127
81 100 127
83 101 127
79 99 127
78 98 127
84 102 127
80 99 127
83 101 127
76 97 127
79 99 127
75 96 127
78 96 121
82 100 127
80 99 127
78 98 127
80 99 127
84 102 127
81 99 127
78 98 127
74 96 127
77 97 127
82 100 127
80 99 127
79 99 127
70 89 118
81 100 127
80 99 127
79 98 127
84 101 127
81 99 127
81 100 127
77 97 127
82 100 127
77 97 127
84 101 127
81 99 127
74 95 127
82 100 127
81 100 127
78 98 127
81 100 127
75 96 127
83 101 127
81 100 127
78 98 127
85 102 127
76 97 127
75 96 127
88 104 127
83 101 127
81 100 127
85 102 127
78 98 127
82 100 127
78 98 127
73 91 118
78 98 127
86 102 127
77 97 127
76 94 121
79 98 127
79 98 127
75 92 118
84 101 127
79 99 127
84 101 127
77 97 127
74 95 127
83 101 127
75 96 127
76 94 121
79 99 127
77 97 127
79 98 127
82 100 127
74 96 127
83 101 127
79 98 127
81 100 127
74 96 127
78 98 127
79 99 127
77 97 127
78 98 127
77 97 127
78 98 127
80 99 127
77 97 127
68 85 111
74 91 118
81 100 127
79 99 127
78 98 127
78 98 127
82 100 127
76 97 127
79 96 121
83 101 127
79 98 127
79 95 118
81 100 127
76 97 127
81 100 127
77 97 127
75 92 118
80 99 127
80 99 127
80 99 127
79 99 127
77 97 127
81 100 127
83 101 127
82 100 127
73 92 121
80 99 127
80 99 127
80 99 127
71 91 121
82 100 127
79 99 127
80 99 127
80 99 127
76 96 127
76 92 115
78 98 127
76 97 127
70 86 111
80 99 127
78 95 121
79 98 127
82 100 127
76 96 127
79 96 121
72 92 121
76 97 127
80 99 127
75 94 121
74 96 127
78 98 127
56 69 89
76 92 115
62 75 95
53 66 84
55 69 89
59 73 95
54 67 86
42 51 65
58 70 89
66 81 102
54 67 86
57 73 95
63 76 95
64 77 95
48 58 73
53 66 84
61 75 95
70 85 108
59 74 96
71 86 108
58 71 91
58 71 91
52 63 80
62 74 92
47 60 79
66 80 102
52 67 89
51 66 89
59 73 95
51 63 81
63 78 102
58 73 95
61 78 102
43 53 67
53 65 83
61 74 92
55 67 84
57 71 92
78 95 121
56 69 89
48 59 76
46 57 73
46 59 78
48 59 76
58 71 91
63 78 102
71 84 105
56 72 95
63 77 97
57 73 96
65 80 102
51 64 83
64 77 97
61 73 92
60 77 102
57 70 89
63 81 108
64 76 95
63 77 99
52 63 79
61 75 95
60 74 95
58 72 92
59 73 95
41 51 65
54 69 91
66 79 99
62 75 95
65 77 95
50 63 83
56 68 86
57 70 91
59 75 99
52 62 78
59 72 91
50 62 79
58 70 90
56 70 92
46 58 76
60 72 91
56 68 84
56 67 83
74 90 115
66 79 97
56 68 86
48 61 79
51 64 83
69 85 108
53 63 79
61 75 95
67 79 97
56 69 89
38 47 60
50 66 89
50 60 75
54 65 83
45 56 73
52 65 84
51 62 79
56 66 80
42 54 72
57 68 84
58 70 87
57 70 89
56 69 89
63 77 99
63 76 95
64 77 95
49 62 83
64 77 95
45 56 73
56 69 89
61 75 95
56 69 89
58 69 86
57 70 89
61 76 99
49 61 79
49 60 77
69 87 115
83 101 127
79 96 121
81 100 127
81 100 127
80 99 127
79 98 127
79 99 127
81 99 127
78 98 127
77 97 127
75 94 121
75 96 127
79 98 127
79 98 127
77 95 121
76 93 118
80 99 127
78 98 127
74 92 118
81 100 127
80 99 127
80 99 127
82 100 127
76 94 121
80 99 127
78 98 127
78 95 121
85 102 127
81 99 127
82 100 127
83 101 127
78 98 127
81 100 127
81 100 127
78 98 127
81 100 127
72 92 121
71 86 108
85 102 127
81 99 127
79 98 127
69 89 118
76 96 127
79 99 127
83 101 127
74 95 127
77 97 127
80 99 127
78 98 127
79 98 127
81 100 127
73 95 127
78 98 127
80 97 121
80 99 127
76 97 127
78 98 127
77 97 127
86 102 127
78 98 127
77 97 127
85 102 127
74 90 115
76 96 127
83 101 127
72 94 127
81 100 127
81 99 127
84 101 127
76 97 127
79 98 127
79 98 127
80 99 127
79 98 127
79 98 127
78 98 127
81 100 127
82 100 127
77 97 127
76 93 118
80 99 127
80 99 127
76 92 118
76 97 127
77 97 127
81 100 127
85 102 127
81 99 127
74 92 118
83 101 127
83 101 127
79 99 127
75 96 127
79 98 127
79 99 127
83 101 127
84 102 127
78 98 127
79 99 127
85 102 127
76 93 118
79 98 127
87 103 127
76 96 127
81 99 127
78 98 127
80 99 127
78 98 127
73 95 127
79 98 127
78 98 127
74 96 127
79 98 127
82 100 127
81 100 127
83 101 127
78 98 127
77 97 127
79 98 127
84 102 127
79 98 127
71 94 127
77 97 127
79 98 127
78 98 127
80 99 127
80 99 127
75 96 127
85 102 127
79 98 127
82 100 127
79 98 127
81 100 127
85 102 127
76 94 121
82 100 127
75 96 127
76 97 127
77 97 127
83 101 127
84 101 127
73 92 121
81 100 127
77 97 127
78 94 118
79 98 127
77 97 127
79 98 127
80 99 127
79 98 127
79 99 127
79 99 127
75 96 127
83 101 127
79 98 127
71 90 118
80 99 127
80 99 127
74 92 118
80 99 127
85 102 127
84 102 127
81 100 127
77 97 127
81 100 127
77 97 127
77 97 127
77 97 127
84 101 127
80 99 127
71 91 121
80 99 127
80 99 127
80 99 127
83 101 127
74 93 121
74 93 121
79 99 127
83 101 127
78 98 127
78 98 127
75 96 127
79 98 127
76 97 127
81 100 127
77 97 127
78 98 127
72 90 118
76 97 127
79 98 127
77 97 127
76 97 127
74 95 127
75 96 127
77 97 127
79 98 127
76 97 127
82 100 127
76 97 127
84 102 127
77 97 127
81 100 127
80 99 127
75 96 127
80 99 127
81 99 127
82 100 127
81 97 121
76 97 127
75 96 127
79 98 127
78 98 127
78 98 127
81 100 127
81 100 127
82 100 127
85 102 127
76 97 127
74 91 118
81 99 127
84 101 127
82 100 127
73 91 118
82 100 127
74 92 118
74 95 127
79 98 127
80 99 127
82 100 127
82 100 127
79 98 127
80 99 127
81 99 127
73 91 118
81 100 127
83 101 127
72 90 118
85 102 127
76 97 127
82 100 127
80 99 127
75 92 118
79 99 127
76 97 127
75 96 127
78 98 127
85 102 127
61 81 111
77 97 127
75 92 118
80 95 118
83 101 127
79 98 127
70 88 116
73 95 127
83 101 127
77 97 127
82 100 127
73 91 118
82 100 127
73 95 127
87 103 127
73 91 118
80 97 121
79 99 127
73 95 127
73 91 118
81 100 127
69 87 115
76 91 115
69 87 115
74 92 118
74 93 121
73 91 118
73 93 121
75 92 118
68 89 121
77 94 118
83 101 127
79 98 127
76 97 127
53 65 84
68 80 99
71 86 108
65 82 108
56 68 86
48 60 78
59 72 91
43 54 70
54 68 89
76 92 115
61 75 95
66 78 95
57 71 91
46 57 73
63 76 95
54 68 89
46 55 68
62 75 95
59 74 95
47 57 73
56 70 89
65 78 97
60 72 89
58 70 89
49 60 76
55 67 84
60 70 84
61 78 102
71 83 102
64 79 102
49 61 79
50 61 78
67 84 108
56 67 84
50 61 77
62 74 92
55 66 83
62 75 95
52 67 89
60 72 89
66 83 108
60 73 92
54 68 89
51 64 83
57 73 96
54 67 86
49 59 73
51 64 83
61 77 102
61 75 95
69 82 102
60 72 91
39 48 62
65 78 99
64 76 95
52 64 83
59 71 89
51 64 84
68 80 99
64 82 108
64 79 102
69 82 102
70 84 105
63 76 95
58 71 91
52 63 79
52 64 81
57 70 89
79 96 121
61 78 102
57 70 91
58 71 89
57 68 86
42 53 70
49 58 72
67 81 102
69 85 108
59 73 95
65 78 97
59 71 89
63 79 102
79 93 115
65 80 103
57 71 92
45 56 73
60 73 91
59 73 95
66 80 102
64 79 102
53 65 83
62 76 97
59 72 91
51 65 84
62 78 102
51 63 81
51 61 78
67 81 102
55 70 91
64 76 95
63 75 92
69 82 102
65 78 97
34 42 53
66 80 102
54 68 89
57 70 91
57 71 92
71 86 108
59 72 91
61 75 96
55 69 89
62 75 95
57 70 89
46 55 67
55 65 80
67 81 102
54 65 83
44 54 70
68 84 108
72 91 121
74 93 121
77 94 118
84 101 127
82 100 127
70 89 118
78 98 127
77 93 118
74 95 127
68 88 118
74 95 127
77 97 127
79 99 127
77 97 127
76 96 127
75 96 127
78 98 127
77 97 127
73 92 121
78 98 127
77 94 121
76 94 121
79 96 121
76 96 127
77 97 127
78 98 127
75 92 118
79 98 127
68 85 110
78 98 127
80 99 127
70 88 115
80 99 127
74 95 127
75 92 118
80 99 127
79 98 127
82 100 127
81 100 127
74 93 121
74 95 127
82 100 127
79 98 127
82 100 127
84 102 127
82 100 127
75 93 121
77 97 127
81 99 127
78 98 127
77 97 127
81 100 127
70 86 111
77 97 127
74 93 121
78 98 127
76 94 121
81 100 127
73 92 121
81 100 127
81 99 127
79 99 127
79 98 127
80 99 127
78 98 127
76 97 127
81 100 127
80 99 127
78 98 127
75 93 121
82 100 127
78 98 127
79 98 127
71 91 121
80 99 127
75 92 118
72 91 118
79 99 127
74 93 121
72 91 118
81 100 127
84 101 127
80 99 127
74 96 127
78 98 127
72 90 118
69 88 116
80 99 127
72 92 121
81 100 127
81 99 127
83 101 127
83 101 127
78 98 127
83 101 127
78 98 127
83 101 127
78 98 127
82 100 127
79 98 127
82 100 127
75 94 121
79 98 127
79 98 127
79 98 127
79 98 127
73 95 127
83 101 127
80 99 127
80 99 127
84 101 127
82 100 127
78 98 127
79 98 127
85 102 127
82 100 127
80 99 127
80 99 127
79 98 127
76 96 127
82 100 127
77 97 127
80 99 127
78 98 127
74 93 121
83 101 127
77 97 127
79 98 127
75 92 118
85 102 127
81 99 127
75 96 127
80 99 127
77 97 127
80 99 127
87 103 127
78 98 127
75 96 127
83 101 127
75 96 127
79 98 127
76 97 127
74 95 127
77 97 127
80 99 127
75 96 127
83 101 127
78 98 127
83 101 127
76 97 127
75 96 127
77 97 127
83 101 127
76 97 127
78 98 127
85 102 127
78 98 127
81 99 127
79 98 127
77 97 127
77 93 118
81 99 127
81 100 127
77 97 127
83 101 127
78 95 121
77 95 121
78 98 127
79 98 127
78 98 127
79 98 127
80 99 127
79 99 127
76 97 127
78 98 127
81 100 127
82 100 127
81 99 127
78 98 127
74 96 127
79 98 127
79 98 127
83 101 127
73 95 127
81 100 127
75 96 127
83 101 127
73 92 121
78 98 127
79 99 127
79 99 127
85 102 127
76 97 127
80 99 127
83 101 127
84 101 127
81 100 127
77 97 127
80 99 127
81 99 127
79 98 127
79 98 127
83 101 127
87 103 127
79 98 127
81 100 127
76 96 127
75 96 127
76 97 127
78 98 127
82 100 127
80 99 127
77 95 121
79 96 121
81 100 127
79 96 121
77 97 127
77 97 127
75 96 127
88 104 127
78 98 127
77 97 127
74 95 127
80 99 127
75 96 127
79 98 127
76 96 127
77 97 127
82 100 127
84 101 127
80 99 127
80 99 127
80 99 127
81 100 127
79 98 127
76 97 127
81 97 121
82 100 127
83 101 127
81 99 127
77 97 127
80 99 127
78 98 127
74 93 121
75 96 127
77 93 118
84 101 127
75 94 121
80 99 127
74 92 118
71 90 118
79 98 127
81 100 127
75 96 127
68 85 111
78 98 127
74 96 127
82 100 127
80 99 127
78 98 127
76 94 121
72 89 115
72 91 118
67 85 111
80 99 127
79 98 127
80 99 127
81 99 127
81 99 127
82 100 127
73 91 118
76 97 127
77 97 127
67 86 115
71 94 127
82 100 127
76 97 127
79 98 127
69 89 118
79 98 127
81 100 127
60 74 96
48 62 83
54 66 84
58 70 89
60 74 95
69 86 111
57 70 90
69 82 102
54 67 86
51 62 80
81 97 121
48 61 79
57 70 89
57 70 89
47 60 79
68 81 102
62 75 95
59 74 96
48 61 79
60 75 97
46 57 73
44 55 71
62 76 95
44 54 70
65 80 102
58 70 89
39 47 59
48 60 76
45 56 72
64 79 102
56 69 89
54 66 84
60 74 95
73 87 108
54 64 79
75 88 108
51 62 78
59 73 95
69 82 102
55 66 83
48 60 76
57 70 89
54 67 86
61 72 89
62 76 95
54 65 83
66 81 105
68 79 95
70 83 102
49 63 84
68 82 102
52 64 83
56 69 89
64 78 99
59 72 91
53 67 87
53 62 75
50 60 76
56 70 91
73 87 108
62 73 90
53 64 81
47 59 76
67 84 108
83 101 127
57 70 89
70 83 102
49 61 79
58 71 89
67 81 102
54 66 83
66 81 102
60 74 95
52 62 78
64 77 95
54 67 86
54 66 84
44 54 70
64 78 99
61 75 95
65 77 95
72 87 108
50 61 78
52 64 83
61 75 95
63 79 102
53 66 84
56 70 91
49 61 78
66 79 99
51 61 77
62 75 95
50 63 83
55 67 86
70 83 102
64 79 102
61 75 95
68 82 103
64 80 103
69 82 102
62 76 95
68 81 102
53 67 89
64 79 102
58 69 86
60 74 95
45 58 78
55 68 87
49 60 78
53 64 81
53 65 84
57 68 84
43 55 73
46 57 73
67 81 102
50 63 83
40 47 59
57 70 91
70 90 121
72 90 118
72 92 121
85 102 127
77 97 127
82 100 127
77 97 127
77 94 121
76 94 121
82 100 127
83 101 127
79 98 127
80 95 118
81 100 127
79 98 127
75 93 121
78 98 127
84 101 127
67 85 111
81 100 127
83 101 127
74 91 118
75 96 127
80 99 127
79 99 127
84 102 127
74 95 127
78 95 121
80 99 127
77 97 127
84 101 127
81 100 127
76 97 127
76 97 127
77 97 127
72 90 118
74 96 127
74 96 127
74 96 127
76 96 127
85 102 127
77 97 127
82 100 127
85 102 127
78 98 127
83 101 127
80 99 127
71 91 121
75 93 121
76 94 121
79 98 127
83 101 127
76 97 127
74 95 127
78 98 127
84 101 127
82 100 127
78 98 127
73 92 121
78 98 127
83 101 127
83 101 127
76 97 127
81 100 127
81 100 127
77 97 127
80 99 127
82 100 127
76 94 121
75 96 127
83 101 127
79 98 127
77 97 127
80 99 127
80 99 127
78 98 127
81 100 127
81 99 127
78 98 127
81 100 127
76 97 127
78 98 127
75 94 121
78 98 127
80 99 127
84 102 127
77 97 127
78 98 127
85 102 127
80 99 127
80 99 127
78 98 127
81 100 127
81 100 127
75 96 127
69 86 111
80 99 127
85 102 127
74 95 127
82 100 127
80 99 127
75 96 127
74 96 127
81 100 127
80 99 127
79 98 127
73 92 121
77 97 127
74 95 127
77 97 127
83 101 127
80 99 127
80 99 127
81 100 127
78 95 121
78 98 127
77 94 121
78 98 127
77 97 127
82 100 127
83 101 127
80 99 127
81 99 127
83 101 127
77 97 127
81 100 127
78 98 127
76 94 121
77 97 127
85 102 127
81 99 127
77 97 127
80 99 127
78 98 127
80 99 127
83 101 127
76 96 127
80 99 127
78 98 127
81 100 127
82 100 127
80 99 127
81 100 127
77 97 127
80 99 127
78 98 127
88 104 127
79 98 127
79 98 127
84 101 127
77 97 127
71 90 118
77 97 127
78 98 127
80 99 127
77 97 127
75 96 127
78 98 127
79 98 127
77 97 127
74 95 127
78 98 127
74 93 121
74 95 127
76 97 127
85 102 127
77 97 127
80 99 127
81 99 127
78 98 127
82 100 127
76 97 127
82 100 127
79 98 127
83 101 127
80 99 127
77 97 127
80 99 127
74 96 127
79 98 127
72 94 127
79 98 127
74 91 118
78 98 127
80 99 127
77 97 127
76 97 127
80 99 127
79 98 127
79 98 127
79 98 127
86 102 127
77 97 127
77 97 127
83 101 127
75 93 121
82 100 127
84 101 127
80 97 121
68 88 118
80 99 127
79 99 127
80 99 127
80 99 127
83 101 127
77 97 127
79 98 127
78 98 127
81 100 127
82 100 127
68 86 115
83 101 127
82 100 127
82 100 127
82 100 127
79 99 127
80 99 127
74 95 127
77 97 127
78 98 127
83 101 127
81 100 127
78 98 127
82 100 127
78 98 127
78 98 127
76 97 127
77 97 127
69 89 118
79 99 127
75 96 127
77 97 127
81 100 127
74 95 127
79 96 121
76 97 127
79 99 127
75 92 118
81 100 127
77 97 127
74 92 118
83 101 127
77 97 127
80 99 127
79 98 127
73 91 118
78 98 127
80 99 127
71 90 118
69 89 118
76 94 121
72 92 121
76 96 127
79 99 127
80 99 127
84 101 127
76 96 127
75 92 118
81 100 127
85 102 127
79 99 127
65 81 105
76 93 118
80 99 127
78 98 127
86 102 127
78 98 127
77 95 121
75 92 118
74 93 121
73 92 121
76 96 127
83 101 127
78 98 127
75 96 127
79 99 127
75 92 118
79 98 127
77 97 127
81 100 127
73 92 121
81 99 127
63 79 103
57 70 89
56 69 87
44 55 71
71 86 108
58 69 86
44 55 70
53 69 92
58 69 86
65 77 95
55 67 84
59 71 89
64 78 99
69 84 105
41 52 68
53 67 87
48 61 79
54 67 86
61 75 97
66 83 108
45 56 73
56 69 89
66 81 102
50 63 83
67 81 102
48 57 71
58 72 92
50 64 84
43 52 65
52 65 84
64 77 95
47 60 79
64 79 102
49 63 83
48 59 76
69 85 108
51 64 84
50 64 84
66 81 102
54 65 83
62 78 102
59 71 89
52 64 83
51 62 79
52 68 92
60 72 91
65 80 103
55 69 89
42 52 66
58 71 89
69 82 102
44 55 71
65 79 99
57 67 83
55 68 89
67 81 102
45 56 72
54 66 83
52 65 86
59 74 95
57 69 87
46 56 70
36 46 60
63 78 102
48 58 74
60 74 95
62 77 100
58 69 86
64 77 95
54 66 84
59 72 92
53 66 84
63 76 95
56 72 95
73 85 102
62 77 99
56 69 89
48 57 70
56 69 89
53 67 89
65 80 102
50 62 79
63 77 99
47 59 77
73 85 102
50 61 78
38 48 62
62 75 95
46 59 79
41 50 63
50 63 83
60 72 91
57 71 92
61 73 91
64 75 92
66 81 102
49 61 78
57 70 90
61 75 95
62 74 92
54 64 78
70 85 108
52 63 81
65 81 105
45 55 71
45 58 76
46 55 70
60 74 95
50 62 79
64 76 95
42 51 65
54 71 95
69 85 108
79 93 115
42 52 67
64 76 96
74 90 115
79 99 127
78 95 121
80 99 127
75 91 115
70 89 118
76 94 121
78 98 127
80 97 121
80 99 127
86 103 127
74 93 121
75 96 127
75 94 121
76 97 127
71 90 118
80 99 127
78 98 127
78 98 127
84 101 127
77 97 127
79 98 127
75 96 127
78 98 127
75 96 127
76 92 115
83 101 127
75 96 127
79 99 127
70 88 115
72 90 118
81 96 118
78 98 127
72 91 121
75 92 118
82 100 127
76 97 127
81 100 127
76 94 121
78 98 127
78 94 118
71 90 118
83 101 127
78 95 121
80 99 127
82 100 127
80 99 127
80 99 127
70 91 121
71 90 118
83 101 127
76 97 127
78 98 127
80 99 127
85 102 127
77 97 127
76 94 121
78 98 127
78 98 127
79 98 127
82 100 127
84 101 127
80 99 127
76 93 118
78 98 127
78 98 127
82 100 127
74 96 127
69 86 111
82 100 127
80 99 127
78 98 127
80 99 127
79 96 121
78 98 127
79 98 127
78 98 127
80 99 127
78 98 127
76 97 127
80 99 127
73 92 121
83 101 127
80 99 127
79 98 127
76 97 127
80 99 127
77 97 127
79 99 127
75 92 118
80 96 121
83 101 127
85 102 127
79 98 127
71 90 118
78 95 121
80 99 127
78 98 127
78 98 127
77 97 127
77 94 121
79 98 127
77 97 127
69 88 115
74 95 127
82 100 127
86 103 127
78 98 127
84 101 127
84 101 127
76 97 127
82 100 127
76 97 127
80 99 127
79 98 127
80 99 127
79 98 127
74 96 127
80 99 127
73 91 118
79 98 127
81 99 127
77 95 121
77 97 127
80 99 127
79 99 127
78 98 127
82 100 127
81 100 127
76 96 127
81 100 127
83 101 127
72 92 121
77 97 127
80 99 127
69 88 115
84 101 127
84 101 127
77 97 127
80 99 127
80 99 127
85 102 127
80 99 127
75 96 127
77 97 127
81 99 127
80 99 127
76 97 127
83 101 127
80 99 127
77 97 127
75 96 127
79 98 127
77 97 127
79 98 127
79 98 127
76 97 127
79 98 127
83 101 127
75 96 127
76 97 127
68 86 111
78 98 127
81 100 127
79 98 127
77 97 127
81 99 127
80 99 127
77 97 127
77 97 127
78 98 127
82 100 127
83 101 127
83 101 127
81 99 127
75 96 127
88 104 127
73 95 127
85 102 127
84 102 127
82 100 127
79 99 127
79 98 127
74 91 118
85 102 127
81 100 127
77 97 127
79 98 127
79 98 127
81 99 127
81 100 127
77 97 127
77 97 127
75 96 127
77 97 127
76 93 118
79 99 127
80 99 127
83 101 127
79 98 127
73 91 118
83 101 127
80 99 127
76 94 121
72 92 121
68 88 118
74 95 127
82 100 127
76 96 127
82 100 127
83 101 127
81 100 127
83 101 127
79 98 127
78 98 127
75 94 121
61 80 108
82 100 127
75 96 127
79 98 127
78 98 127
69 89 118
79 99 127
81 100 127
80 99 127
73 95 127
82 100 127
75 96 127
74 93 121
80 99 127
78 95 121
76 97 127
77 97 127
82 100 127
77 97 127
77 95 121
77 97 127
72 91 121
81 100 127
83 101 127
75 92 118
84 102 127
72 94 127
83 101 127
77 97 127
80 99 127
79 98 127
75 94 121
79 99 127
77 93 118
82 100 127
79 98 127
74 93 121
84 101 127
79 99 127
78 98 127
73 90 115
79 98 127
79 98 127
83 101 127
83 101 127
82 100 127
83 101 127
79 98 127
80 99 127
76 94 121
80 99 127
79 98 127
81 100 127
75 96 127
77 97 127
75 96 127
79 98 127
76 94 121
83 101 127
65 83 108
69 83 105
76 96 127
79 98 127
81 100 127
83 101 127
61 76 99
81 100 127
72 90 118
76 97 127
68 84 108
48 59 76
50 60 76
56 68 84
50 64 84
50 60 76
57 70 89
68 85 110
59 75 99
53 63 79
49 60 76
53 63 79
70 83 102
64 77 95
66 78 95
52 64 83
68 81 102
52 65 84
69 82 102
49 60 76
66 80 102
60 73 92
70 85 108
57 70 89
60 77 102
52 64 81
63 76 95
66 81 103
50 60 77
62 79 105
42 54 71
50 62 79
58 71 91
55 67 85
74 88 108
78 92 115
50 60 75
53 64 79
55 69 89
56 70 89
59 74 95
63 77 97
57 72 94
59 69 84
52 63 79
52 65 86
69 85 108
67 81 102
51 62 78
59 72 91
57 70 89
56 65 79
49 62 80
49 60 76
51 62 79
61 75 95
48 62 83
70 88 115
64 79 102
53 63 78
57 68 84
42 51 65
58 71 91
58 71 91
65 80 102
62 75 95
60 75 97
52 64 83
69 82 102
50 62 79
51 66 89
42 53 68
63 74 91
62 77 99
57 69 86
48 60 78
46 57 73
54 66 83
70 84 105
63 76 96
60 74 95
53 66 84
55 66 83
72 89 115
64 77 96
66 80 102
63 76 95
48 58 75
67 82 105
55 67 84
41 51 67
40 51 67
56 67 83
39 49 63
52 65 84
49 59 73
58 70 87
53 64 80
44 53 67
65 80 102
52 64 83
53 67 89
70 83 102
56 69 89
36 45 59
61 75 95
49 60 77
47 59 77
32 41 54
56 69 89
53 65 83
49 58 72
60 71 89
53 68 89
60 74 94
57 71 91
76 94 121
79 95 118
72 90 118
84 101 127
75 93 121
74 93 121
77 97 127
80 99 127
74 95 127
73 91 118
78 98 127
82 100 127
83 101 127
82 100 127
75 96 127
77 97 127
73 92 121
83 101 127
81 99 127
76 97 127
77 97 127
73 95 127
77 97 127
76 97 127
77 97 127
78 98 127
76 94 121
70 89 118
78 98 127
80 99 127
77 97 127
77 95 121
80 99 127
81 100 127
77 97 127
76 97 127
76 93 118
81 100 127
78 98 127
80 99 127
81 99 127
76 97 127
79 98 127
80 99 127
78 98 127
77 97 127
77 97 127
80 99 127
78 98 127
79 99 127
75 96 127
80 99 127
82 100 127
73 95 127
84 101 127
76 93 118
82 100 127
74 96 127
80 99 127
73 95 127
81 99 127
70 85 108
83 101 127
75 96 127
83 101 127
72 94 127
79 98 127
79 98 127
75 93 121
74 93 121
78 95 121
71 91 121
78 95 121
83 101 127
79 98 127
81 100 127
84 101 127
77 97 127
77 97 127
81 100 127
79 98 127
77 97 127
81 100 127
80 99 127
77 97 127
75 96 127
79 98 127
78 98 127
80 96 121
71 90 118
89 105 127
80 99 127
77 97 127
85 102 127
80 99 127
78 98 127
83 101 127
80 99 127
80 99 127
78 98 127
72 94 127
85 102 127
78 98 127
82 100 127
78 98 127
82 100 127
76 96 127
80 99 127
77 97 127
83 101 127
81 100 127
82 100 127
80 99 127
81 100 127
80 99 127
81 100 127
75 96 127
81 99 127
77 97 127
83 101 127
78 98 127
77 97 127
79 98 127
76 94 121
82 100 127
84 102 127
85 102 127
75 96 127
77 97 127
81 100 127
76 94 121
73 91 118
79 98 127
77 95 121
78 98 127
83 101 127
79 98 127
79 98 127
83 101 127
82 100 127
80 99 127
87 103 127
83 101 127
78 98 127
72 94 127
81 100 127
80 99 127
79 99 127
79 98 127
72 92 121
79 98 127
80 99 127
84 101 127
81 99 127
78 98 127
83 101 127
74 96 127
82 100 127
79 99 127
78 98 127
77 97 127
81 100 127
81 99 127
75 96 127
80 99 127
80 99 127
79 99 127
75 96 127
79 98 127
84 102 127
85 102 127
75 96 127
80 99 127
76 96 127
79 98 127
73 95 127
83 101 127
83 101 127
80 99 127
74 96 127
83 101 127
76 97 127
80 99 127
78 98 127
83 101 127
78 98 127
81 100 127
80 99 127
80 99 127
78 98 127
68 87 116
77 97 127
82 100 127
75 96 127
76 97 127
79 98 127
80 99 127
81 100 127
76 96 127
71 91 121
75 96 127
78 98 127
73 95 127
84 102 127
74 92 118
78 98 127
84 101 127
80 99 127
83 101 127
83 101 127
79 98 127
79 99 127
75 96 127
79 95 118
83 101 127
84 101 127
77 97 127
78 98 127
82 100 127
72 92 121
81 100 127
78 98 127
81 99 127
77 97 127
73 91 118
81 100 127
80 99 127
83 101 127
79 99 127
76 97 127
79 99 127
76 94 121
74 96 127
84 102 127
70 89 118
80 99 127
81 100 127
79 98 127
83 101 127
72 92 121
79 98 127
77 97 127
77 97 127
81 99 127
78 98 127
73 95 127
75 94 121
77 97 127
79 98 127
76 97 127
77 97 127
78 95 121
77 97 127
83 101 127
79 98 127
80 99 127
74 91 118
67 85 111
72 90 118
80 99 127
79 99 127
75 92 118
81 100 127
78 98 127
70 89 118
75 96 127
74 91 118
72 89 115
79 98 127
66 83 108
76 94 121
77 97 127
74 89 111
82 100 127
79 96 121
79 99 127
72 91 118
76 92 116
77 95 121
72 94 127
79 98 127
76 94 121
81 99 127
73 95 127
78 96 121
48 59 75
55 69 91
52 64 81
68 84 108
52 64 83
45 55 68
67 84 108
61 74 92
57 70 89
70 83 102
72 87 110
38 46 59
70 85 108
65 80 102
50 60 75
69 82 102
58 71 91
49 61 78
54 64 78
42 52 67
47 57 72
58 72 92
42 54 72
58 71 91
43 55 73
68 84 108
41 50 65
66 80 102
42 55 75
62 75 95
64 77 95
63 79 102
59 75 97
56 70 91
72 86 108
48 60 78
69 84 108
63 75 94
62 73 91
62 78 102
62 76 96
58 69 85
50 60 76
70 84 105
52 64 83
59 72 91
63 77 99
69 84 105
49 60 76
53 66 86
64 79 102
66 80 102
47 57 72
61 73 91
51 63 83
68 81 102
38 48 62
50 63 83
68 83 105
37 48 65
52 62 78
59 73 92
56 70 91
54 66 84
64 77 97
60 73 92
60 74 95
52 64 83
60 73 92
61 76 99
37 46 59
52 65 84
51 61 75
51 65 84
64 79 102
47 59 76
61 72 89
55 66 83
70 83 102
56 69 89
50 63 83
55 70 92
53 65 84
51 62 78
70 83 103
54 65 83
59 72 92
62 75 95
47 59 76
49 61 79
35 45 59
55 65 79
42 52 67
39 45 55
56 67 84
57 73 95
72 86 108
51 64 83
66 80 102
63 76 95
46 56 71
52 62 78
55 66 83
39 50 67
56 69 89
56 69 89
47 59 76
53 65 84
48 58 73
72 87 108
47 59 78
44 57 76
49 60 75
60 72 89
60 77 102
71 87 111
77 92 115
82 100 127
76 97 127
65 81 105
67 85 111
79 96 121
75 93 121
68 87 115
75 92 118
81 99 127
75 94 121
80 99 127
69 88 118
77 97 127
66 86 116
83 101 127
75 92 118
81 100 127
69 86 111
80 99 127
79 98 127
58 73 97
77 94 121
73 91 118
65 84 111
77 93 118
79 98 127
78 94 118
67 85 111
75 94 121
81 100 127
68 88 118
85 102 127
76 94 121
78 98 127
84 101 127
75 96 127
79 98 127
73 95 127
77 94 121
83 101 127
77 97 127
80 99 127
82 100 127
77 93 118
81 97 121
82 100 127
83 101 127
83 101 127
80 99 127
77 97 127
74 96 127
77 93 118
79 98 127
79 96 121
78 98 127
79 98 127
78 98 127
73 92 121
79 98 127
76 94 121
80 99 127
76 97 127
80 99 127
82 100 127
78 98 127
76 93 118
79 98 127
74 93 121
79 99 127
77 97 127
78 98 127
82 100 127
71 90 118
79 98 127
76 96 127
82 100 127
72 92 121
76 94 121
82 100 127
75 94 121
74 93 121
82 100 127
82 100 127
77 97 127
80 99 127
78 98 127
76 94 121
71 90 118
81 100 127
82 100 127
80 99 127
84 101 127
76 94 121
80 99 127
79 99 127
80 99 127
75 96 127
73 90 115
78 98 127
77 97 127
79 99 127
82 100 127
79 98 127
77 97 127
84 101 127
84 101 127
80 99 127
85 102 127
77 97 127
77 93 118
75 96 127
77 97 127
81 100 127
86 102 127
79 98 127
79 98 127
74 91 118
79 99 127
87 103 127
82 100 127
78 98 127
79 98 127
73 95 127
81 100 127
80 99 127
81 99 127
79 99 127
78 98 127
77 97 127
85 102 127
73 95 127
82 100 127
78 98 127
83 101 127
83 101 127
79 98 127
79 98 127
80 99 127
75 96 127
82 100 127
80 99 127
78 98 127
80 99 127
84 101 127
83 101 127
81 99 127
79 98 127
84 101 127
77 97 127
73 95 127
81 99 127
80 99 127
81 100 127
80 99 127
79 98 127
73 91 118
78 98 127
81 99 127
74 92 118
79 98 127
76 97 127
80 99 127
75 96 127
73 91 118
82 100 127
79 99 127
81 100 127
79 99 127
84 102 127
79 98 127
82 100 127
76 97 127
77 97 127
77 97 127
77 97 127
77 97 127
80 99 127
77 93 118
81 100 127
77 97 127
83 101 127
79 98 127
76 97 127
84 101 127
77 95 121
70 89 118
82 100 127
82 100 127
75 96 127
76 97 127
79 99 127
79 98 127
82 100 127
81 100 127
80 95 118
83 101 127
76 97 127
82 100 127
78 98 127
78 98 127
79 98 127
77 97 127
66 87 118
76 97 127
79 96 121
83 101 127
79 99 127
76 97 127
77 97 127
79 98 127
82 100 127
83 101 127
80 99 127
77 97 127
73 91 118
81 100 127
69 89 118
75 96 127
88 104 127
73 95 127
80 99 127
86 103 127
76 97 127
79 98 127
76 97 127
81 99 127
74 92 118
81 100 127
83 101 127
81 100 127
77 97 127
80 99 127
79 99 127
87 103 127
81 100 127
76 94 121
72 94 127
85 102 127
77 97 127
81 100 127
82 100 127
78 98 127
79 98 127
78 98 127
79 98 127
82 100 127
77 97 127
80 99 127
72 89 115
74 93 121
76 97 127
75 92 118
75 96 127
74 93 121
80 97 121
80 99 127
76 97 127
79 98 127
77 97 127
68 90 121
79 99 127
82 100 127
69 88 115
75 92 118
77 97 127
76 92 115
75 96 127
78 98 127
84 101 127
72 89 115
63 81 109
78 98 127
76 94 121
75 96 127
79 99 127
78 98 127
78 98 127
78 93 115
83 101 127
71 91 121
76 97 127
79 96 121
74 92 118
61 73 91
43 54 70
56 68 86
59 71 89
58 72 92
63 77 97
57 70 89
42 52 67
59 72 91
45 55 72
54 64 78
70 85 108
61 75 95
53 65 83
52 64 83
42 54 72
51 65 84
44 55 71
64 78 99
67 81 102
52 65 83
46 56 71
57 70 89
71 85 105
53 65 83
57 70 89
48 59 75
53 63 79
67 79 97
56 70 90
62 75 95
41 51 67
58 69 84
49 61 79
68 84 108
55 66 83
48 59 76
54 66 85
72 87 110
49 60 76
71 86 108
58 71 89
55 67 84
70 85 108
67 81 102
63 77 97
47 59 78
56 67 84
49 61 78
57 68 84
60 74 95
55 67 86
59 74 95
55 67 84
51 66 89
72 87 108
73 84 102
59 71 89
47 57 73
46 57 75
64 79 102
63 76 95
47 59 76
47 58 74
46 58 76
64 78 99
60 74 95
51 61 77
75 88 108
51 64 83
70 86 108
46 57 75
64 76 95
51 64 83
51 64 83
56 67 84
53 65 83
44 57 76
45 56 73
56 69 89
70 85 108
59 72 92
67 79 97
50 65 86
49 58 72
63 76 95
68 82 102
49 59 73
69 82 102
52 63 79
58 69 86
54 69 91
64 80 103
55 66 83
57 69 86
78 92 115
52 64 83
52 66 86
48 60 77
50 62 79
43 55 71
73 87 108
48 60 76
49 60 76
60 77 102
48 57 72
55 69 89
65 80 102
70 83 102
53 64 81
60 74 95
60 72 89
47 58 73
66 85 115
80 99 127
76 96 127
74 91 118
66 85 115
76 97 127
81 100 127
74 95 127
73 95 127
69 87 115
72 94 127
72 90 118
77 97 127
82 100 127
82 100 127
78 98 127
78 98 127
77 93 118
77 95 121
73 90 116
81 100 127
76 97 127
77 93 118
80 99 127
79 99 127
73 92 121
67 88 118
73 92 121
79 98 127
71 90 118
80 96 121
74 91 118
78 92 115
70 89 118
73 90 115
70 88 115
68 84 109
79 96 121
75 96 127
78 98 127
82 100 127
77 97 127
78 98 127
75 96 127
76 93 118
81 100 127
83 101 127
71 90 118
78 98 127
81 99 127
80 96 121
77 95 121
87 103 127
73 91 118
76 97 127
77 97 127
76 97 127
75 96 127
77 97 127
71 91 121
76 97 127
77 97 127
81 100 127
80 99 127
74 92 118
82 100 127
83 101 127
80 99 127
83 101 127
81 100 127
75 96 127
74 95 127
75 92 118
82 100 127
72 92 121
75 96 127
83 101 127
77 97 127
82 100 127
80 99 127
85 102 127
74 91 118
82 100 127
78 98 127
84 102 127
77 97 127
78 98 127
78 98 127
77 97 127
81 100 127
81 100 127
78 98 127
79 99 127
67 88 118
80 99 127
81 100 127
83 101 127
79 99 127
77 94 121
75 92 118
86 103 127
83 101 127
83 101 127
75 93 121
79 98 127
78 98 127
79 99 127
76 96 127
79 99 127
83 101 127
77 97 127
78 98 127
75 96 127
78 98 127
76 97 127
70 89 118
76 97 127
76 96 127
80 99 127
74 95 127
75 96 127
82 100 127
72 94 127
76 96 127
80 99 127
78 98 127
80 99 127
84 101 127
77 94 121
75 96 127
82 100 127
80 99 127
79 98 127
79 98 127
82 100 127
83 101 127
77 97 127
76 96 127
82 100 127
81 99 127
76 97 127
79 98 127
82 100 127
79 98 127
82 100 127
80 99 127
80 99 127
75 96 127
82 100 127
78 98 127
76 97 127
77 97 127
77 97 127
77 95 121
72 94 127
83 101 127
78 98 127
77 97 127
82 100 127
80 99 127
85 102 127
79 98 127
81 99 127
78 98 127
82 100 127
80 99 127
77 97 127
76 94 121
83 101 127
78 98 127
74 93 121
82 97 121
78 98 127
80 99 127
77 97 127
82 100 127
79 98 127
79 98 127
85 102 127
76 96 127
81 100 127
72 92 121
80 99 127
83 101 127
81 100 127
80 96 121
79 99 127
67 86 115
80 99 127
78 98 127
74 92 118
75 96 127
73 91 118
81 97 121
75 96 127
78 98 127
77 97 127
82 100 127
81 99 127
82 100 127
76 97 127
80 99 127
82 100 127
88 104 127
73 95 127
74 95 127
82 100 127
73 91 118
76 97 127
78 98 127
77 95 121
76 97 127
81 100 127
78 95 121
76 94 121
78 98 127
82 100 127
84 102 127
78 98 127
72 90 118
76 97 127
81 100 127
77 97 127
84 101 127
71 91 121
82 100 127
79 98 127
79 98 127
78 98 127
81 100 127
78 98 127
83 101 127
79 99 127
79 98 127
79 98 127
75 92 118
71 87 111
72 90 118
72 90 118
78 98 127
81 100 127
73 91 118
77 97 127
73 91 118
73 91 118
75 92 118
80 99 127
86 103 127
73 91 118
75 96 127
79 98 127
81 100 127
71 89 115
74 96 127
84 102 127
76 92 115
75 93 121
74 91 118
76 94 121
74 93 121
79 98 127
78 98 127
69 88 115
81 99 127
78 94 118
79 95 118
72 91 118
79 98 127
75 96 127
83 101 127
78 98 127
77 95 121
78 98 127
78 93 115
73 95 127
75 91 115
84 101 127
78 98 127
72 90 118
70 89 118
66 82 105
77 97 127
74 93 121
80 99 127
73 90 115
83 101 127
67 86 115
74 91 118
59 71 89
50 59 71
60 72 91
58 69 86
50 62 79
57 71 92
72 92 121
62 76 97
53 66 84
63 78 102
47 56 70
46 55 70
48 60 78
60 73 92
83 101 127
52 65 83
50 59 73
57 70 89
68 82 102
42 51 65
57 70 89
59 72 92
52 64 83
59 74 95
60 70 86
61 75 95
55 66 83
59 71 90
66 81 103
45 56 72
51 63 81
58 70 89
48 58 73
57 70 89
62 73 89
63 77 97
63 76 95
47 57 73
68 82 102
62 75 95
58 70 89
57 71 92
45 56 73
48 60 78
58 72 92
53 66 84
65 78 99
54 66 84
54 67 86
62 74 91
55 66 83
69 82 102
50 64 84
47 60 79
71 86 108
52 63 79
69 85 108
70 83 102
49 60 77
59 74 95
65 79 99
57 70 89
40 50 65
59 74 95
48 60 78
74 88 108
63 77 99
58 71 89
59 74 95
65 80 102
61 75 95
46 57 73
57 70 89
52 65 84
71 86 108
56 66 83
52 63 78
66 78 95
57 70 89
65 79 102
77 92 115
41 51 67
71 84 103
48 57 72
64 78 99
45 56 73
50 60 76
67 81 102
50 62 79
66 80 102
51 62 79
52 65 84
63 76 95
60 74 95
39 49 64
53 65 83
50 60 76
52 63 80
62 72 87
62 73 91
63 76 96
52 64 83
47 57 73
63 76 96
47 58 73
67 79 97
48 60 78
38 49 65
57 68 84
41 52 70
62 75 94
58 71 89
65 83 108
61 78 103
77 97 127
64 80 103
76 94 121
80 99 127
82 100 127
68 84 108
81 99 127
65 83 109
81 100 127
78 98 127
80 99 127
77 97 127
80 96 121
77 97 127
80 99 127
74 93 121
61 76 99
79 98 127
72 90 118
83 101 127
75 92 118
82 100 127
78 96 121
80 96 121
73 91 118
72 88 111
77 97 127
80 99 127
79 96 121
78 98 127
80 99 127
78 98 127
74 90 115
68 87 115
79 98 127
68 88 118
79 96 121
82 100 127
79 99 127
79 98 127
78 98 127
82 100 127
80 99 127
76 94 121
74 92 118
78 98 127
81 99 127
79 98 127
81 99 127
81 100 127
84 101 127
80 99 127
79 99 127
80 99 127
76 97 127
63 77 99
80 99 127
81 99 127
82 100 127
84 101 127
76 94 121
70 93 127
77 97 127
74 93 121
83 101 127
80 99 127
79 99 127
79 98 127
78 98 127
77 97 127
70 88 115
76 96 127
78 98 127
79 98 127
81 100 127
77 93 118
86 103 127
81 100 127
84 101 127
77 97 127
85 102 127
85 102 127
79 98 127
80 99 127
76 94 121
80 99 127
71 89 116
82 100 127
78 98 127
76 96 127
74 93 121
76 97 127
79 99 127
82 100 127
76 97 127
78 98 127
78 98 127
80 99 127
78 98 127
81 99 127
83 101 127
75 96 127
81 99 127
77 97 127
78 98 127
82 100 127
80 99 127
75 96 127
70 88 115
85 102 127
77 97 127
81 100 127
78 98 127
77 97 127
84 101 127
77 97 127
80 99 127
82 100 127
86 102 127
81 99 127
79 98 127
77 97 127
76 97 127
74 93 121
71 94 127
81 100 127
80 99 127
82 100 127
83 101 127
88 104 127
78 95 121
79 98 127
78 98 127
79 99 127
79 98 127
81 100 127
81 100 127
77 95 121
82 100 127
75 93 121
76 97 127
72 92 121
85 102 127
78 98 127
79 99 127
81 100 127
82 100 127
73 91 118
82 100 127
81 100 127
82 100 127
77 97 127
83 101 127
82 100 127
82 100 127
75 96 127
83 101 127
76 96 127
82 100 127
79 98 127
69 90 121
77 95 121
74 91 118
75 96 127
75 96 127
73 91 118
80 99 127
79 98 127
84 101 127
80 99 127
82 100 127
83 101 127
75 96 127
84 101 127
77 97 127
79 98 127
79 98 127
83 101 127
78 98 127
78 98 127
75 92 118
79 98 127
74 91 116
82 100 127
81 100 127
76 96 127
82 100 127
82 100 127
78 98 127
83 101 127
77 97 127
76 93 118
77 97 127
79 98 127
81 100 127
68 89 121
74 95 127
77 94 121
81 100 127
67 86 115
71 90 118
78 98 127
82 100 127
73 91 118
78 98 127
76 94 121
81 100 127
80 99 127
78 96 121
74 93 121
75 92 118
83 101 127
78 98 127
72 92 121
71 89 118
77 92 115
79 98 127
79 98 127
71 91 121
82 100 127
86 102 127
85 102 127
77 97 127
81 100 127
79 98 127
79 98 127
81 100 127
74 96 127
69 89 118
79 99 127
78 98 127
73 95 127
82 100 127
72 92 121
74 91 118
77 97 127
81 100 127
77 97 127
74 95 127
75 96 127
74 92 118
77 97 127
71 86 108
70 89 118
83 101 127
76 97 127
79 98 127
77 97 127
74 91 118
71 94 127
82 100 127
73 91 118
71 90 118
77 97 127
80 99 127
81 100 127
83 101 127
80 99 127
78 98 127
77 97 127
76 93 118
77 94 121
78 95 121
70 87 111
78 98 127
78 95 121
75 92 118
72 91 121
76 97 127
81 100 127
84 101 127
75 92 118
76 94 121
79 99 127
76 93 118
73 90 115
83 101 127
74 92 118
79 98 127
83 101 127
71 90 118
73 89 115
66 83 108
77 97 127
77 94 118
72 92 121
53 68 91
59 74 95
60 72 89
52 64 83
43 54 70
58 69 86
48 58 73
54 65 81
52 66 86
47 59 76
52 64 83
51 61 76
40 51 67
50 61 78
59 72 91
62 75 95
57 71 92
61 75 95
45 55 70
49 61 78
61 76 99
52 65 84
60 74 95
55 66 84
53 65 83
64 79 102
74 88 108
63 76 97
58 70 87
67 84 108
60 72 91
60 75 97
61 75 95
40 50 65
65 80 102
63 76 95
67 78 95
48 59 75
63 75 92
47 57 73
62 75 95
45 56 73
49 59 75
44 54 68
58 71 91
49 60 77
54 66 83
34 41 52
59 75 99
62 75 94
62 75 95
59 72 92
52 65 83
49 60 78
66 80 102
53 63 78
52 65 83
62 76 95
52 64 83
61 75 95
58 70 89
61 75 97
65 80 102
48 62 83
65 77 95
43 54 70
40 49 63
55 69 89
54 65 83
53 65 83
63 76 95
52 65 83
46 58 75
69 82 102
49 61 79
63 75 92
58 70 89
58 71 89
55 69 89
57 70 89
69 82 102
55 69 91
67 81 102
66 78 95
62 74 92
62 74 91
47 56 70
61 76 97
55 66 83
82 98 121
45 55 70
56 68 86
54 65 83
56 67 83
57 70 89
45 55 71
42 54 70
65 80 102
42 56 76
54 65 81
63 75 92
49 60 77
56 69 89
62 76 95
58 69 86
53 64 81
67 79 99
60 74 96
64 76 95
50 59 72
59 71 89
67 81 102
84 101 127
75 92 118
82 100 127
72 94 127
77 97 127
65 82 108
68 84 107
68 83 105
74 93 121
77 97 127
76 97 127
82 100 127
72 92 121
75 96 127
84 101 127
70 86 110
75 96 127
82 100 127
70 88 115
83 101 127
75 93 121
70 90 121
73 91 118
75 94 121
77 97 127
79 96 121
82 100 127
81 100 127
67 85 111
70 88 115
75 92 118
73 95 127
75 96 127
71 89 115
70 86 111
80 99 127
78 98 127
84 101 127
71 90 118
84 101 127
80 99 127
78 98 127
76 96 127
71 90 118
74 91 116
77 97 127
74 95 127
81 100 127
82 100 127
69 90 121
76 97 127
76 97 127
74 93 121
84 102 127
81 96 118
80 99 127
77 93 118
79 98 127
79 99 127
81 100 127
82 100 127
77 97 127
83 101 127
79 98 127
83 101 127
77 95 121
82 100 127
80 99 127
82 100 127
75 96 127
63 77 99
75 96 127
76 96 127
80 97 121
71 90 118
73 95 127
69 87 115
79 98 127
79 98 127
75 96 127
81 100 127
83 101 127
75 96 127
82 100 127
72 90 118
80 99 127
77 92 116
82 100 127
81 99 127
76 97 127
79 99 127
79 98 127
81 100 127
79 99 127
76 97 127
75 96 127
70 89 118
72 90 118
77 97 127
81 100 127
83 101 127
76 96 127
80 99 127
73 95 127
79 98 127
74 93 121
80 99 127
81 100 127
77 97 127
81 99 127
84 101 127
83 101 127
71 91 121
80 99 127
80 99 127
73 92 121
81 100 127
81 99 127
80 99 127
81 100 127
78 98 127
84 102 127
77 97 127
77 97 127
77 97 127
81 99 127
78 98 127
77 97 127
78 98 127
78 98 127
76 97 127
82 100 127
82 100 127
82 100 127
78 98 127
75 96 127
78 98 127
83 101 127
77 97 127
79 98 127
78 98 127
78 98 127
81 99 127
81 99 127
82 100 127
76 97 127
74 96 127
81 99 127
82 100 127
81 100 127
78 98 127
79 98 127
84 101 127
79 98 127
77 97 127
74 96 127
74 95 127
78 98 127
83 101 127
79 98 127
77 95 121
79 99 127
75 96 127
78 98 127
81 100 127
81 99 127
85 102 127
81 100 127
73 91 118
78 98 127
79 98 127
78 98 127
83 101 127
81 99 127
83 101 127
82 100 127
76 97 127
75 96 127
82 100 127
85 102 127
81 100 127
73 91 118
79 99 127
77 97 127
78 98 127
80 99 127
82 100 127
80 99 127
72 91 121
81 100 127
77 97 127
76 97 127
81 100 127
80 99 127
79 99 127
77 97 127
82 100 127
84 101 127
77 97 127
85 102 127
67 86 115
77 95 121
73 95 127
82 100 127
83 101 127
79 96 121
77 97 127
74 96 127
74 95 127
76 97 127
75 96 127
78 98 127
79 98 127
81 99 127
77 97 127
77 97 127
75 94 121
71 90 118
79 99 127
80 99 127
81 100 127
71 91 121
76 97 127
79 94 118
76 96 127
75 96 127
74 93 121
76 94 121
79 98 127
74 92 118
74 93 121
79 99 127
81 99 127
78 98 127
66 81 103
77 97 127
74 93 121
81 100 127
78 98 127
81 99 127
75 96 127
79 98 127
71 90 118
70 86 111
73 91 118
77 95 121
79 98 127
72 92 121
76 96 127
73 91 118
72 91 118
73 92 121
80 99 127
81 100 127
78 98 127
77 97 127
77 97 127
77 97 127
78 95 121
79 99 127
79 98 127
88 104 127
80 99 127
80 99 127
72 91 118
74 93 121
82 100 127
78 98 127
82 100 127
80 99 127
78 98 127
84 102 127
76 97 127
80 99 127
68 83 106
74 92 118
75 92 118
72 90 118
79 96 121
82 100 127
80 99 127
75 93 121
76 94 121
71 88 115
81 99 127
79 98 127
78 98 127
77 95 121
73 90 115
69 83 105
54 64 80
49 61 78
55 67 86
53 64 79
52 67 89
59 72 90
49 61 78
62 76 96
49 59 75
51 63 81
59 71 89
53 65 81
59 71 89
45 55 71
71 86 108
48 59 76
45 56 71
73 87 108
58 72 92
65 80 102
62 75 95
59 69 85
55 67 84
51 64 83
70 86 108
48 58 72
63 76 95
55 66 83
64 79 102
77 92 115
55 69 89
55 67 86
66 81 102
59 72 91
75 91 115
41 50 63
65 80 102
53 65 83
52 64 83
62 75 95
55 65 79
55 69 89
48 60 76
54 67 87
56 67 83
67 81 102
44 55 70
51 64 84
65 77 95
49 62 80
40 49 62
64 80 105
54 68 89
45 55 70
56 68 86
61 73 91
50 61 78
64 77 95
55 67 86
63 76 94
52 62 77
69 85 108
69 82 102
52 62 78
88 104 127
51 64 83
59 73 94
56 67 84
64 77 95
48 58 73
62 74 92
50 63 83
47 58 75
63 76 95
49 59 73
67 80 99
65 79 99
64 79 102
66 80 102
48 60 76
54 66 84
65 77 95
43 52 66
43 53 69
50 60 76
63 77 97
60 73 92
71 83 102
44 55 71
62 76 97
42 52 69
62 76 95
60 72 89
59 70 87
71 84 102
53 65 83
55 67 86
59 71 89
52 64 83
51 64 84
46 60 83
54 66 84
62 76 95
58 70 89
62 74 92
72 87 108
48 60 76
36 45 59
58 72 92
74 91 118
83 101 127
80 99 127
74 93 121
69 86 111
78 98 127
69 86 111
83 101 127
78 98 127
70 91 121
77 97 127
77 95 121
72 92 121
73 91 118
85 102 127
80 99 127
78 98 127
71 89 115
77 97 127
80 99 127
77 94 118
55 71 95
64 79 102
73 91 118
82 100 127
74 91 118
79 96 121
79 96 121
78 98 127
85 102 127
70 89 118
81 100 127
77 97 127
69 87 115
80 95 118
80 99 127
67 83 108
78 98 127
76 96 127
80 99 127
78 98 127
81 100 127
71 90 118
78 98 127
74 91 118
67 85 111
78 98 127
81 100 127
78 98 127
81 100 127
75 96 127
72 91 118
75 92 118
73 95 127
70 89 118
78 98 127
87 103 127
77 94 121
84 101 127
80 99 127
76 96 127
79 99 127
78 98 127
79 98 127
77 97 127
80 99 127
80 99 127
81 100 127
82 100 127
79 98 127
74 95 127
76 96 127
79 98 127
78 98 127
70 89 118
76 97 127
79 99 127
84 101 127
74 95 127
74 95 127
80 99 127
82 100 127
74 93 121
80 99 127
84 101 127
78 98 127
83 101 127
81 100 127
76 96 127
82 100 127
78 98 127
81 99 127
70 89 118
82 100 127
82 100 127
74 96 127
75 96 127
78 98 127
72 92 121
75 92 118
79 98 127
76 97 127
80 99 127
82 100 127
84 101 127
80 99 127
75 92 118
77 97 127
76 97 127
77 97 127
84 101 127
80 99 127
75 94 121
84 101 127
79 99 127
82 100 127
79 98 127
80 99 127
84 102 127
82 100 127
77 97 127
85 102 127
81 99 127
80 99 127
75 96 127
79 99 127
79 99 127
80 99 127
72 90 118
76 96 127
79 99 127
81 99 127
79 99 127
80 99 127
75 92 118
80 99 127
79 98 127
78 98 127
81 99 127
83 101 127
72 90 118
78 98 127
77 97 127
79 98 127
76 96 127
80 99 127
81 99 127
81 99 127
82 100 127
79 99 127
79 98 127
77 97 127
80 99 127
79 98 127
83 101 127
81 100 127
84 101 127
73 92 121
77 97 127
77 97 127
73 92 121
78 98 127
81 100 127
76 96 127
80 99 127
78 98 127
80 99 127
82 100 127
77 97 127
79 99 127
77 97 127
72 92 121
76 96 127
80 99 127
80 99 127
82 100 127
74 92 118
78 98 127
82 100 127
78 98 127
70 89 118
71 91 121
76 96 127
82 100 127
71 94 127
86 103 127
76 97 127
83 101 127
76 94 121
77 97 127
76 96 127
76 97 127
79 96 121
79 96 121
81 100 127
77 97 127
74 96 127
74 91 118
77 97 127
80 99 127
79 98 127
79 99 127
74 92 118
81 100 127
79 99 127
76 97 127
79 96 121
80 99 127
83 101 127
73 95 127
82 100 127
79 99 127
74 92 118
82 100 127
74 91 118
78 98 127
88 104 127
78 98 127
78 98 127
76 97 127
82 100 127
81 99 127
83 101 127
80 99 127
75 96 127
69 88 116
82 100 127
79 99 127
82 100 127
73 90 116
76 93 118
83 101 127
80 99 127
77 97 127
84 102 127
69 87 115
78 98 127
66 82 107
76 97 127
73 90 115
80 99 127
79 99 127
74 95 127
83 101 127
82 100 127
71 90 118
82 100 127
79 96 121
78 98 127
75 93 121
78 98 127
70 89 118
76 96 127
81 99 127
79 98 127
79 98 127
81 99 127
75 90 111
81 97 121
75 93 121
73 90 116
80 99 127
78 98 127
85 102 127
78 98 127
79 98 127
70 89 118
68 84 108
79 98 127
74 90 115
78 98 127
80 95 118
82 100 127
72 87 108
84 101 127
73 91 118
71 89 115
71 91 121
66 84 111
79 98 127
70 87 111
74 91 118
72 91 121
81 100 127
69 83 105
81 99 127
68 85 111
80 99 127
81 99 127
78 98 127
77 97 127
55 67 84
61 75 95
62 76 95
55 66 83
51 61 75
42 50 63
48 59 76
53 64 79
53 64 80
43 52 66
59 71 89
60 72 89
65 80 102
48 58 72
68 82 102
59 73 93
67 79 95
41 50 63
51 60 75
67 81 102
53 65 83
57 71 91
61 75 95
46 56 71
68 84 108
62 74 92
53 64 79
51 64 83
56 70 91
47 57 73
48 57 71
52 64 83
54 66 84
56 69 89
67 81 102
67 79 97
47 59 76
67 81 102
52 65 84
54 66 83
56 69 89
60 73 92
47 59 77
54 65 83
60 72 89
64 78 99
69 85 108
70 86 108
70 83 102
64 77 96
79 93 115
43 54 71
40 52 70
68 82 102
68 84 108
43 50 61
47 60 79
72 87 110
58 70 89
50 62 79
60 74 95
67 83 108
67 81 102
59 70 87
69 85 108
71 89 115
62 75 95
55 68 89
55 65 81
55 69 89
64 76 95
67 81 103
54 65 81
59 71 90
50 60 76
58 73 95
54 67 86
44 55 72
56 69 90
56 67 83
47 57 73
61 73 91
57 70 89
49 60 76
41 51 66
56 69 89
64 78 99
50 59 72
57 70 89
62 73 89
62 75 95
32 41 56
54 67 86
77 92 115
56 69 89
56 69 89
52 63 79
56 69 89
46 57 73
65 80 102
45 53 67
62 75 95
49 63 83
54 68 87
42 51 65
57 68 86
60 72 91
62 76 97
67 83 107
79 99 127
76 94 121
75 92 118
69 85 108
66 83 108
77 93 118
70 87 111
69 87 115
61 79 105
68 85 111
78 98 127
81 100 127
81 99 127
74 90 115
69 87 115
73 90 115
77 97 127
78 98 127
79 98 127
69 87 115
75 94 121
73 90 115
84 101 127
63 82 110
79 98 127
80 99 127
82 100 127
77 95 121
80 99 127
79 98 127
78 98 127
80 99 127
73 90 115
72 92 121
85 102 127
78 95 121
70 86 108
70 89 118
79 99 127
80 95 118
67 85 111
73 90 116
82 100 127
70 90 121
70 89 118
74 91 118
72 90 118
79 96 121
75 96 127
78 98 127
79 98 127
81 100 127
79 99 127
75 92 118
84 101 127
75 94 121
79 99 127
71 88 115
78 98 127
70 89 118
76 94 121
71 89 115
76 97 127
75 93 121
74 95 127
75 96 127
77 95 121
79 98 127
79 99 127
79 98 127
80 99 127
79 98 127
81 99 127
78 98 127
74 95 127
78 98 127
84 101 127
78 98 127
79 98 127
80 99 127
71 94 127
81 99 127
79 98 127
80 99 127
76 97 127
77 97 127
80 99 127
77 97 127
72 88 111
80 96 121
80 99 127
79 98 127
81 99 127
79 96 121
77 97 127
79 99 127
68 83 106
69 89 118
79 98 127
78 95 121
83 101 127
71 90 118
80 99 127
83 101 127
82 100 127
78 98 127
75 93 121
80 99 127
81 99 127
85 102 127
81 100 127
82 100 127
80 99 127
80 99 127
79 99 127
83 101 127
78 98 127
81 100 127
74 95 127
78 95 121
76 97 127
77 95 121
81 100 127
81 100 127
75 93 121
81 99 127
75 96 127
77 97 127
80 99 127
75 92 118
82 100 127
76 96 127
79 98 127
76 97 127
74 96 127
80 99 127
76 96 127
79 96 121
84 101 127
80 99 127
81 99 127
79 99 127
82 100 127
82 100 127
82 100 127
76 97 127
75 92 118
80 99 127
76 94 121
82 100 127
80 99 127
79 98 127
76 97 127
81 100 127
77 97 127
81 100 127
79 98 127
81 100 127
79 98 127
74 96 127
79 98 127
78 98 127
85 102 127
82 100 127
77 97 127
81 99 127
81 100 127
74 96 127
74 96 127
79 99 127
83 101 127
71 93 127
81 100 127
82 100 127
83 101 127
83 101 127
81 99 127
81 99 127
77 97 127
78 94 118
79 99 127
77 97 127
80 99 127
82 100 127
80 99 127
72 91 118
75 96 127
80 99 127
81 100 127
76 97 127
84 102 127
82 100 127
77 97 127
79 98 127
81 99 127
77 93 118
80 99 127
80 99 127
77 97 127
78 98 127
74 96 127
82 100 127
83 101 127
81 100 127
81 100 127
80 99 127
74 89 111
78 98 127
77 97 127
82 100 127
81 99 127
80 99 127
77 94 118
78 98 127
78 98 127
74 93 121
77 95 121
68 86 111
78 98 127
81 100 127
62 81 109
73 95 127
83 101 127
84 101 127
72 91 121
84 101 127
79 99 127
78 98 127
79 98 127
69 89 118
70 89 118
77 97 127
80 99 127
66 84 111
74 96 127
79 98 127
76 97 127
80 99 127
83 101 127
73 92 121
79 98 127
78 98 127
77 95 121
68 88 118
80 99 127
79 99 127
81 100 127
83 101 127
68 85 111
82 100 127
73 89 115
66 87 118
74 92 118
78 98 127
81 99 127
79 98 127
79 98 127
74 93 121
77 97 127
82 100 127
75 96 127
81 100 127
79 99 127
78 98 127
85 102 127
83 101 127
59 75 97
75 92 118
70 90 121
73 91 118
74 93 121
71 91 121
76 96 127
76 97 127
64 82 108
65 82 108
76 94 121
71 90 118
62 81 109
70 86 108
74 92 118
70 86 111
79 99 127
77 95 121
72 91 118
74 92 118
77 95 121
81 100 127
73 92 121
63 81 108
80 99 127
59 71 89
45 54 68
69 85 108
42 54 71
48 59 76
46 57 73
63 78 102
56 69 89
63 76 95
52 64 83
55 68 89
62 76 97
65 80 102
42 53 70
49 61 79
56 69 89
71 86 108
63 78 102
50 60 75
51 62 79
54 66 83
58 70 89
63 79 102
54 68 89
48 60 78
56 70 90
67 81 102
66 79 99
44 54 70
64 77 95
52 63 79
40 51 67
53 67 89
64 77 95
48 57 72
56 70 92
55 65 81
58 70 89
52 65 84
37 46 59
51 61 75
50 61 76
54 68 89
52 65 84
54 64 78
64 82 108
51 63 81
46 57 73
51 61 76
63 76 95
65 77 95
48 60 78
49 61 79
49 60 76
70 88 115
57 73 95
62 74 92
50 61 78
67 81 102
50 61 78
60 73 91
54 67 86
40 48 60
63 79 102
48 59 76
55 66 84
34 44 59
52 64 83
60 74 95
51 64 83
34 43 55
59 70 86
67 81 102
60 75 97
53 69 92
59 72 91
59 71 91
53 62 76
55 67 86
52 64 83
53 68 89
53 66 84
58 69 86
52 64 83
62 77 99
58 72 92
54 65 83
37 46 60
48 61 81
45 55 70
49 62 81
48 59 76
56 69 89
47 57 72
68 81 102
65 79 102
42 52 68
65 80 102
65 80 102
59 70 87
45 55 70
55 67 84
48 59 75
56 66 81
52 62 76
53 63 79
49 60 76
56 69 87
77 93 118
62 78 102
81 100 127
62 79 105
72 90 118
77 97 127
78 98 127
78 93 115
77 95 121
60 76 99
77 97 127
64 83 110
84 101 127
84 101 127
69 89 118
80 99 127
70 85 108
81 100 127
76 97 127
76 97 127
64 76 96
74 95 127
73 92 121
77 95 121
62 77 99
69 87 115
82 100 127
78 98 127
72 94 127
81 100 127
77 97 127
83 101 127
71 86 108
78 95 121
72 94 127
62 77 99
81 100 127
69 90 121
83 101 127
80 99 127
71 89 115
82 100 127
79 99 127
64 81 105
67 84 110
72 90 118
68 86 111
76 97 127
67 82 103
67 84 108
80 99 127
72 94 127
78 98 127
73 91 118
77 97 127
66 83 108
80 99 127
72 90 118
80 99 127
85 102 127
77 97 127
80 99 127
78 98 127
78 98 127
79 99 127
74 91 118
72 90 118
76 97 127
83 101 127
79 96 121
79 98 127
79 98 127
82 100 127
80 99 127
77 97 127
79 99 127
76 93 118
76 97 127
75 93 121
78 98 127
79 98 127
78 98 127
82 100 127
85 102 127
77 97 127
79 99 127
77 92 115
79 99 127
78 98 127
80 99 127
79 98 127
75 92 118
80 99 127
75 96 127
74 95 127
80 99 127
75 96 127
73 91 118
75 92 118
67 88 118
80 99 127
84 101 127
82 100 127
79 96 121
78 95 121
73 89 111
82 100 127
71 90 118
78 98 127
80 99 127
86 102 127
78 98 127
82 100 127
66 84 111
79 99 127
76 96 127
79 99 127
80 99 127
74 95 127
80 99 127
77 97 127
78 98 127
78 98 127
76 97 127
77 97 127
79 98 127
80 99 127
82 100 127
80 99 127
77 97 127
78 98 127
73 91 118
82 100 127
78 98 127
83 101 127
79 98 127
70 89 118
74 95 127
78 98 127
77 97 127
75 96 127
77 97 127
73 95 127
76 97 127
81 99 127
75 94 121
78 98 127
78 98 127
80 99 127
79 99 127
79 98 127
83 101 127
81 100 127
80 99 127
85 102 127
76 96 127
78 98 127
75 96 127
81 100 127
84 101 127
76 97 127
77 97 127
75 93 121
82 100 127
79 98 127
80 99 127
75 96 127
78 98 127
81 99 127
76 96 127
74 96 127
78 98 127
80 99 127
77 97 127
81 100 127
76 97 127
77 97 127
76 96 127
73 95 127
73 91 118
81 100 127
78 98 127
75 96 127
82 100 127
76 93 118
76 94 121
78 98 127
80 99 127
78 95 121
76 97 127
80 99 127
82 100 127
77 97 127
82 100 127
72 90 118
74 91 115
82 100 127
75 96 127
84 101 127
78 98 127
75 92 118
81 99 127
69 86 111
80 99 127
82 100 127
75 96 127
81 100 127
79 98 127
83 101 127
79 96 121
80 99 127
77 93 118
76 97 127
78 98 127
76 97 127
88 104 127
70 89 118
62 82 111
79 98 127
80 99 127
73 92 121
72 91 118
73 93 121
82 100 127
82 100 127
77 97 127
80 99 127
69 90 121
63 81 108
76 90 111
78 98 127
82 100 127
75 96 127
77 97 127
77 97 127
83 101 127
79 99 127
80 99 127
76 97 127
81 100 127
80 96 121
77 97 127
75 94 121
78 98 127
71 90 118
77 97 127
70 85 108
71 90 118
69 88 115
82 100 127
79 98 127
68 87 115
78 98 127
70 85 109
68 85 109
68 84 108
80 99 127
79 99 127
69 89 118
80 99 127
59 74 96
73 91 118
74 95 127
81 99 127
75 92 118
78 98 127
75 94 121
75 92 118
82 100 127
78 98 127
76 97 127
82 100 127
78 98 127
76 96 127
69 86 111
78 95 121
63 77 99
78 98 127
71 90 118
77 97 127
60 81 111
72 90 118
78 94 118
72 92 121
75 92 118
76 97 127
78 93 115
71 89 116
61 76 99
79 98 127
75 92 118
79 98 127
70 89 118
51 63 80
49 61 79
44 54 70
50 60 76
54 68 89
60 72 91
52 64 83
61 73 89
49 61 78
33 42 57
64 77 95
50 60 76
51 62 77
52 65 85
60 72 89
57 70 89
71 87 110
49 59 75
54 66 83
61 72 89
59 71 90
50 62 79
49 59 75
60 72 91
67 82 103
52 65 84
53 66 84
48 61 80
58 67 81
55 70 92
61 75 95
51 62 79
61 73 92
61 75 95
56 69 89
60 74 95
55 67 86
76 92 115
56 69 89
70 85 108
51 62 78
67 83 108
58 68 84
41 51 67
50 61 78
61 78 102
50 60 77
58 70 89
64 79 102
53 63 78
51 61 77
52 63 78
48 58 72
64 77 97
71 86 108
56 69 89
60 72 91
52 62 76
67 79 95
52 62 78
54 66 83
34 43 58
64 79 102
36 44 55
55 66 82
48 61 79
54 65 83
52 62 76
49 61 78
55 68 86
60 74 95
75 91 115
46 58 75
43 54 70
68 82 102
70 88 115
62 76 99
61 74 92
55 66 83
52 62 78
51 63 81
49 61 79
67 84 108
50 61 78
56 67 84
50 61 77
50 63 83
56 67 83
57 67 83
50 61 78
55 66 83
74 90 115
50 61 78
45 56 71
43 52 67
65 78 99
48 59 76
68 82 103
53 66 86
48 59 75
67 81 102
50 61 78
55 66 83
54 64 80
59 71 89
41 50 63
71 89 115
60 73 92
62 77 99
79 99 127
79 98 127
63 81 108
71 87 111
82 100 127
63 81 108
79 98 127
75 91 115
77 95 121
78 98 127
77 95 121
82 100 127
70 86 111
68 84 108
57 71 92
76 97 127
82 100 127
74 91 115
74 91 118
72 90 118
74 96 127
68 83 107
72 90 118
74 93 121
81 100 127
79 98 127
75 94 121
69 86 111
69 86 111
79 96 121
78 98 127
75 92 118
75 92 118
65 84 111
82 100 127
76 93 118
76 94 121
76 97 127
81 100 127
72 90 118
60 74 96
74 93 121
72 92 121
80 99 127
77 97 127
81 100 127
77 97 127
80 99 127
73 92 121
82 100 127
74 92 118
76 97 127
81 100 127
79 98 127
78 94 118
83 101 127
79 98 127
75 94 121
80 99 127
78 95 121
74 96 127
78 98 127
74 91 118
78 98 127
80 99 127
79 98 127
72 90 118
77 97 127
73 90 115
81 100 127
78 98 127
81 100 127
75 92 118
83 101 127
75 96 127
77 93 118
79 96 121
68 87 115
81 100 127
77 97 127
79 98 127
81 99 127
77 97 127
75 94 121
79 99 127
79 98 127
76 97 127
80 99 127
79 99 127
75 93 121
80 99 127
83 101 127
68 85 111
71 90 118
76 93 118
73 91 118
75 94 121
78 98 127
78 98 127
78 98 127
77 97 127
80 99 127
73 95 127
71 89 118
81 100 127
78 98 127
79 98 127
81 100 127
77 97 127
80 99 127
79 99 127
71 91 121
78 98 127
82 100 127
81 99 127
74 96 127
78 98 127
75 96 127
83 101 127
81 100 127
80 99 127
77 93 118
78 98 127
80 99 127
79 99 127
87 103 127
79 98 127
79 98 127
77 97 127
84 101 127
78 98 127
85 102 127
80 99 127
80 99 127
84 101 127
83 101 127
77 97 127
80 99 127
79 99 127
76 96 127
80 99 127
75 96 127
83 101 127
75 96 127
75 96 127
81 100 127
74 96 127
81 100 127
77 95 121
74 91 118
80 99 127
80 99 127
82 100 127
82 100 127
74 93 121
76 97 127
77 97 127
74 96 127
83 101 127
80 99 127
80 96 121
80 99 127
77 97 127
81 100 127
83 101 127
76 97 127
82 100 127
75 96 127
76 94 121
82 100 127
80 99 127
79 96 121
79 99 127
81 100 127
75 96 127
73 90 115
77 97 127
74 90 115
81 100 127
81 97 121
78 98 127
74 95 127
85 102 127
72 90 118
78 98 127
83 101 127
79 98 127
78 98 127
79 98 127
80 99 127
76 97 127
83 101 127
80 99 127
75 96 127
76 94 121
78 98 127
83 101 127
76 94 121
77 97 127
72 90 118
78 98 127
72 89 115
77 97 127
66 84 111
72 90 118
69 89 118
78 98 127
79 98 127
78 98 127
86 103 127
82 100 127
81 99 127
79 96 121
78 94 118
80 99 127
68 86 111
80 99 127
75 96 127
78 95 121
73 91 118
70 88 115
81 100 127
69 87 115
76 94 121
83 101 127
79 98 127
73 91 118
84 102 127
78 98 127
80 99 127
70 84 104
80 99 127
78 98 127
83 101 127
71 89 115
75 93 121
77 97 127
81 97 121
83 101 127
79 99 127
73 92 121
77 97 127
80 99 127
74 92 118
65 82 108
74 95 127
74 95 127
64 80 105
75 92 118
73 91 118
79 99 127
75 93 121
83 101 127
80 96 121
81 100 127
78 98 127
73 93 121
79 98 127
77 94 121
80 99 127
75 92 118
80 99 127
70 91 121
81 100 127
54 71 97
72 91 121
74 92 118
77 97 127
79 99 127
78 98 127
66 84 111
72 91 118
72 91 118
65 83 108
71 86 110
68 81 102
81 99 127
79 96 121
81 100 127
78 98 127
83 98 121
74 93 121
78 98 127
66 87 118
75 91 115
75 92 118
68 83 105
85 102 127
63 78 102
65 82 108
66 80 100
74 92 118
60 72 91
61 72 89
45 54 68
58 72 92
43 52 65
58 70 89
56 69 89
62 76 95
55 65 79
72 86 108
48 60 78
62 75 95
60 72 91
52 64 83
60 72 91
57 69 87
52 64 83
62 76 97
55 66 83
44 54 69
45 56 71
66 78 96
45 56 73
58 71 91
50 60 75
34 42 52
49 60 76
56 68 84
58 73 95
58 70 89
62 78 102
65 80 102
61 73 91
42 51 65
66 82 105
69 85 108
61 73 91
51 63 81
70 83 102
56 69 89
57 69 87
46 56 70
53 65 83
65 80 102
63 76 95
46 57 73
61 75 95
59 71 89
49 60 77
67 78 95
70 85 108
60 73 92
42 53 70
55 68 89
56 67 83
47 58 75
54 66 84
49 60 76
45 56 73
53 65 83
57 70 89
55 66 83
73 90 115
53 65 84
79 94 115
51 61 76
55 66 83
77 92 115
58 72 92
45 55 71
48 60 79
72 86 108
57 73 95
58 70 89
59 71 89
57 70 91
47 59 78
41 51 64
51 64 83
60 74 95
60 72 91
60 74 95
55 66 81
50 61 78
54 66 84
58 72 92
72 87 110
63 76 96
53 66 84
56 69 89
44 54 70
70 84 105
63 77 97
68 81 102
50 62 79
60 75 97
54 66 84
41 50 65
42 52 67
42 51 65
62 77 99
63 76 96
51 61 78
60 72 90
74 90 115
77 97 127
76 97 127
68 87 115
63 79 102
75 91 115
75 96 127
71 91 121
74 95 127
76 94 121
72 89 116
81 99 127
64 80 105
73 89 111
67 84 108
73 92 121
74 96 127
79 96 121
68 84 108
66 84 111
71 90 118
76 97 127
75 92 118
66 84 111
73 95 127
79 95 118
80 99 127
75 96 127
72 90 118
64 81 106
82 100 127
80 99 127
71 86 109
75 94 121
71 87 111
64 79 102
75 96 127
63 80 106
80 99 127
74 91 115
76 94 121
69 85 108
76 93 118
70 88 116
80 99 127
78 98 127
80 99 127
80 99 127
83 101 127
79 98 127
76 93 118
80 99 127
76 93 118
83 101 127
83 101 127
80 99 127
79 99 127
73 92 121
82 100 127
81 99 127
68 88 118
70 87 111
80 99 127
78 98 127
83 101 127
72 94 127
78 98 127
77 97 127
76 97 127
72 86 108
72 89 115
80 99 127
79 98 127
78 98 127
79 99 127
79 99 127
76 97 127
78 98 127
76 94 121
80 96 121
73 95 127
80 99 127
80 99 127
79 96 121
75 96 127
75 96 127
74 95 127
82 100 127
73 87 108
78 98 127
85 102 127
81 99 127
77 97 127
71 90 118
74 91 118
75 96 127
79 98 127
73 91 118
78 95 121
75 93 121
79 98 127
80 99 127
84 101 127
81 99 127
69 90 121
81 99 127
82 100 127
80 99 127
75 96 127
80 99 127
73 92 121
78 98 127
84 101 127
65 84 111
80 99 127
78 98 127
82 100 127
80 99 127
82 100 127
80 95 118
80 99 127
77 97 127
82 100 127
76 96 127
81 100 127
78 98 127
77 97 127
86 102 127
74 95 127
80 99 127
79 98 127
74 92 118
79 98 127
80 99 127
73 92 121
82 100 127
73 95 127
79 99 127
77 97 127
82 100 127
70 90 121
79 96 121
76 96 127
77 97 127
79 99 127
73 91 118
76 94 121
76 97 127
79 99 127
77 97 127
77 97 127
76 97 127
82 100 127
78 98 127
75 96 127
75 96 127
81 100 127
82 100 127
81 99 127
79 98 127
81 100 127
75 92 118
75 96 127
81 99 127
73 95 127
76 97 127
83 101 127
77 97 127
84 102 127
74 95 127
81 100 127
74 92 118
69 89 118
71 91 121
81 100 127
81 100 127
81 100 127
75 92 118
80 99 127
83 101 127
83 101 127
79 98 127
78 98 127
78 98 127
83 101 127
78 98 127
78 98 127
75 96 127
72 94 127
80 99 127
74 93 121
74 96 127
84 101 127
81 99 127
77 97 127
79 98 127
83 101 127
82 100 127
83 101 127
71 91 121
78 98 127
78 98 127
78 98 127
72 91 118
73 91 118
81 100 127
79 98 127
74 93 121
75 96 127
79 98 127
71 94 127
77 97 127
81 100 127
84 101 127
83 101 127
77 97 127
79 99 127
76 93 118
85 102 127
72 88 111
75 96 127
79 99 127
77 97 127
74 93 121
78 95 121
75 93 121
68 88 118
70 88 115
83 101 127
77 93 118
76 94 121
69 88 115
78 98 127
72 92 121
77 97 127
81 100 127
86 103 127
80 99 127
80 96 121
83 101 127
77 97 127
79 96 121
74 96 127
76 96 127
77 93 116
76 93 118
74 92 118
59 79 108
66 83 109
84 101 127
79 96 121
74 96 127
75 92 116
82 100 127
71 87 111
60 75 99
75 94 121
78 98 127
81 99 127
80 99 127
71 90 118
80 99 127
75 96 127
71 90 118
74 93 121
73 86 106
69 85 108
78 98 127
68 86 115
58 71 91
73 90 115
69 86 111
73 95 127
72 91 118
77 95 121
76 96 127
70 84 107
65 84 111
82 98 121
71 90 118
76 96 127
75 94 121
60 74 96
68 84 108
61 77 102
66 80 102
80 96 121
65 81 105
80 97 121
77 93 118
64 82 108
74 90 115
77 97 127
56 71 92
76 94 121
71 91 121
72 88 111
61 75 95
55 69 89
42 52 67
57 69 86
54 66 83
59 71 89
53 66 84
52 64 81
59 72 92
49 59 73
63 77 99
43 52 65
56 68 86
60 73 92
56 69 89
45 55 70
36 45 58
57 68 84
42 53 70
45 55 70
51 62 79
49 61 78
45 56 72
61 73 91
62 74 92
46 57 73
46 59 77
51 62 79
61 75 96
50 63 83
58 70 89
46 58 75
62 76 95
73 88 110
64 77 97
44 54 70
51 61 76
44 56 73
44 55 71
58 70 89
57 70 89
56 70 89
51 62 79
51 61 78
52 64 83
71 86 108
64 76 95
59 71 90
53 65 83
53 64 81
61 75 95
65 80 102
43 54 71
63 75 92
68 84 108
53 65 83
61 73 91
55 66 81
62 75 95
55 66 83
75 88 108
53 64 81
58 70 89
63 76 95
55 70 91
46 58 77
58 71 91
57 69 86
59 71 89
50 62 80
60 74 95
69 82 102
66 79 97
59 71 89
52 62 77
50 62 79
59 74 95
58 71 89
41 50 65
49 58 71
62 76 97
60 72 91
65 77 95
65 80 102
56 67 83
46 56 71
53 66 84
62 74 91
54 64 79
53 64 79
44 53 66
56 67 84
52 65 84
63 79 102
51 62 78
52 62 77
56 68 86
55 67 84
36 45 57
44 54 70
62 73 91
42 49 61
76 93 118
77 94 121
73 92 121
72 88 111
49 60 76
80 99 127
81 100 127
50 63 81
66 81 103
81 99 127
80 99 127
82 100 127
72 88 111
76 96 127
62 77 99
73 92 121
78 98 127
70 91 121
77 95 121
69 89 118
75 94 121
75 96 127
77 97 127
80 99 127
83 101 127
58 75 99
81 99 127
83 101 127
70 87 111
66 83 108
77 95 121
77 94 121
75 92 118
75 96 127
81 97 121
73 95 127
84 101 127
73 91 118
77 97 127
77 95 121
79 98 127
80 99 127
74 91 118
79 96 121
74 93 121
77 97 127
78 94 118
72 90 118
84 101 127
78 98 127
74 93 121
73 90 116
73 91 118
79 99 127
76 94 121
77 97 127
78 98 127
75 96 127
74 93 121
68 86 111
78 98 127
69 85 109
77 97 127
79 98 127
77 97 127
65 81 105
76 97 127
75 93 121
78 98 127
78 98 127
79 98 127
73 92 121
85 102 127
85 102 127
82 100 127
80 99 127
76 94 121
66 80 100
84 102 127
77 93 118
80 99 127
74 92 118
82 100 127
77 93 118
79 99 127
82 100 127
76 97 127
78 98 127
77 97 127
73 95 127
73 92 121
79 98 127
70 89 118
78 98 127
74 91 118
79 98 127
79 98 127
81 99 127
82 100 127
80 99 127
72 91 118
77 94 118
76 97 127
83 101 127
81 99 127
78 98 127
82 100 127
74 96 127
73 95 127
79 98 127
80 99 127
77 95 121
75 96 127
84 101 127
80 99 127
84 101 127
74 92 118
78 98 127
78 98 127
77 97 127
78 98 127
68 84 108
82 100 127
76 97 127
78 98 127
76 97 127
72 94 127
80 99 127
66 86 115
78 98 127
85 102 127
77 97 127
83 101 127
77 97 127
82 100 127
77 97 127
85 102 127
75 93 121
73 91 118
82 100 127
87 103 127
72 94 127
77 97 127
83 101 127
81 99 127
78 98 127
83 101 127
71 90 118
83 101 127
75 96 127
75 93 121
79 96 121
80 99 127
72 90 118
83 101 127
82 100 127
76 97 127
80 99 127
71 91 121
75 96 127
78 98 127
69 86 111
77 97 127
76 97 127
82 100 127
83 101 127
83 101 127
83 101 127
81 100 127
76 97 127
76 94 121
76 94 121
78 98 127
85 102 127
75 96 127
80 99 127
79 98 127
78 95 121
83 101 127
75 93 121
77 95 121
75 92 118
78 98 127
80 99 127
75 96 127
77 95 121
80 99 127
82 100 127
79 98 127
81 99 127
69 87 115
77 97 127
82 100 127
77 97 127
69 88 115
77 97 127
82 100 127
80 99 127
71 91 121
78 98 127
74 91 118
77 94 121
69 90 121
73 92 121
81 100 127
78 98 127
77 95 121
78 98 127
80 99 127
67 85 111
68 88 118
80 99 127
75 93 121
71 90 118
75 94 121
73 91 118
78 98 127
75 93 121
78 98 127
83 101 127
76 96 127
78 95 121
74 93 121
70 88 115
78 98 127
79 96 121
77 97 127
75 94 121
80 96 121
77 97 127
76 97 127
79 98 127
88 104 127
63 84 115
80 99 127
75 93 121
82 100 127
82 100 127
80 99 127
72 89 115
58 72 92
87 103 127
78 98 127
82 100 127
83 101 127
80 99 127
69 86 111
76 97 127
68 84 108
76 94 121
71 86 108
66 83 108
76 94 121
60 79 108
79 98 127
63 78 100
79 94 118
79 96 121
73 89 111
81 100 127
80 99 127
76 96 127
74 93 121
76 92 115
82 100 127
76 94 121
68 87 115
79 98 127
71 89 116
70 89 118
80 99 127
80 99 127
78 98 127
72 90 118
74 93 121
73 91 118
62 75 96
75 96 127
82 100 127
69 88 116
68 84 108
80 99 127
67 83 108
63 77 99
62 76 99
62 77 99
75 91 115
73 90 115
75 96 127
64 81 105
66 80 100
74 93 121
75 92 118
64 83 111
74 92 118
78 94 118
72 88 111
63 78 100
34 44 59
55 68 86
60 70 86
56 67 84
64 75 92
53 65 83
47 57 72
55 64 78
47 57 71
55 66 84
56 67 84
39 49 63
47 59 76
52 62 76
45 53 67
51 62 79
75 88 108
60 74 96
41 50 63
47 58 76
48 60 77
35 45 59
37 44 56
48 57 71
54 67 86
64 77 95
58 69 86
51 61 77
60 72 91
54 65 83
69 82 102
47 59 78
52 64 81
39 50 67
69 82 102
49 60 76
49 61 78
65 77 95
59 74 95
64 77 96
40 49 61
55 67 84
60 72 89
62 75 95
60 75 97
55 67 84
40 51 67
53 65 83
53 66 86
62 75 95
72 85 105
59 74 95
59 76 102
61 71 87
50 60 76
71 86 108
64 77 97
57 68 84
41 51 66
53 64 81
52 63 81
50 62 79
42 52 67
52 64 83
38 46 59
56 65 80
58 70 89
52 65 84
59 73 92
56 67 84
58 72 92
40 50 65
52 62 76
72 84 102
66 79 99
62 72 87
50 61 78
48 60 76
50 61 78
58 73 95
55 64 78
57 68 86
41 49 61
36 45 59
55 69 89
37 45 56
45 56 73
45 56 74
75 91 115
48 59 75
40 50 64
67 81 102
47 56 70
50 61 76
63 77 98
49 59 73
48 59 76
45 54 67
51 63 81
52 64 83
45 56 71
71 87 111
61 75 95
73 90 115
64 79 100
66 82 105
77 97 127
73 88 111
71 90 118
73 88 111
67 83 108
68 84 108
75 93 121
61 76 97
69 85 108
64 82 108
63 82 111
71 90 118
74 91 115
76 92 115
60 74 95
67 84 108
70 87 111
73 89 111
71 87 111
71 87 111
79 98 127
72 88 111
73 91 118
80 99 127
76 97 127
79 99 127
72 90 118
72 91 118
79 98 127
76 96 127
78 98 127
83 101 127
79 98 127
78 94 118
79 99 127
64 78 99
79 98 127
70 88 115
81 100 127
80 99 127
74 91 118
62 82 111
65 82 108
78 98 127
72 89 115
81 100 127
76 92 116
69 85 109
79 99 127
80 99 127
79 98 127
79 98 127
78 98 127
77 97 127
71 87 111
80 99 127
76 97 127
79 96 121
76 93 118
82 100 127
77 97 127
82 100 127
73 95 127
77 97 127
75 96 127
57 74 99
80 99 127
78 98 127
82 100 127
73 95 127
73 92 121
72 89 115
77 97 127
81 100 127
73 93 121
74 95 127
74 96 127
81 100 127
76 97 127
67 83 108
81 99 127
83 101 127
82 100 127
68 85 111
87 103 127
80 99 127
73 92 121
80 99 127
77 97 127
84 101 127
75 96 127
77 97 127
77 97 127
71 90 118
79 98 127
83 101 127
76 94 121
75 96 127
74 96 127
74 91 118
79 98 127
82 100 127
68 85 111
86 102 127
78 98 127
78 98 127
83 101 127
79 98 127
81 100 127
85 102 127
82 100 127
78 94 118
79 98 127
64 79 102
80 99 127
81 100 127
79 98 127
79 98 127
83 101 127
79 99 127
72 90 118
69 86 111
81 100 127
78 98 127
71 87 111
80 99 127
83 101 127
77 97 127
78 98 127
79 99 127
75 96 127
80 99 127
81 100 127
83 101 127
76 93 118
79 96 121
81 100 127
75 96 127
80 99 127
80 99 127
82 100 127
76 96 127
74 95 127
79 98 127
74 96 127
73 92 121
80 99 127
78 95 121
78 98 127
81 100 127
83 101 127
78 98 127
78 98 127
82 100 127
80 99 127
80 99 127
75 96 127
78 98 127
81 100 127
80 99 127
78 98 127
74 96 127
81 100 127
73 91 118
74 90 115
79 98 127
81 100 127
66 87 118
80 99 127
84 101 127
82 100 127
81 100 127
79 98 127
80 99 127
79 98 127
77 97 127
71 94 127
72 94 127
77 95 121
78 98 127
80 99 127
80 99 127
81 99 127
78 98 127
75 92 118
84 101 127
82 100 127
68 87 115
71 87 111
84 101 127
74 96 127
76 97 127
73 95 127
84 101 127
71 90 118
72 92 121
79 98 127
82 100 127
76 97 127
78 98 127
79 98 127
75 96 127
83 101 127
82 100 127
81 100 127
75 96 127
70 85 108
74 91 115
79 99 127
79 99 127
82 100 127
70 89 118
72 92 121
81 99 127
81 99 127
82 100 127
76 94 121
80 99 127
80 96 121
78 98 127
75 94 121
78 98 127
78 98 127
77 97 127
77 97 127
84 99 121
81 100 127
73 91 118
76 94 121
75 96 127
78 98 127
72 91 118
71 90 118
81 99 127
69 83 105
87 103 127
77 93 115
78 96 121
73 95 127
76 94 121
73 91 116
77 95 121
81 100 127
74 93 121
79 99 127
82 100 127
70 87 111
67 82 106
86 102 127
65 80 102
78 98 127
68 84 108
73 92 121
75 92 118
78 98 127
81 99 127
74 93 121
75 93 121
78 95 121
75 92 118
74 92 118
74 92 118
72 89 115
79 98 127
72 88 111
78 98 127
68 87 115
79 99 127
74 96 127
69 86 110
79 99 127
77 95 121
71 89 115
81 99 127
73 88 111
65 81 106
68 88 118
73 90 115
68 82 102
77 97 127
64 78 99
77 94 121
63 78 99
59 74 96
78 94 118
77 93 118
85 102 127
75 93 121
60 75 99
63 77 99
79 96 121
71 87 111
71 87 111
60 76 99
74 92 118
59 72 93
39 47 59
48 58 73
53 65 83
57 67 83
52 63 79
54 68 89
65 80 102
37 48 63
55 67 86
30 38 49
43 53 68
54 64 79
63 76 95
51 61 77
53 65 83
63 74 89
71 86 108
52 66 87
60 74 96
69 82 102
53 65 83
65 79 99
59 74 95
51 64 83
52 63 81
54 66 84
55 69 89
55 67 84
66 78 95
60 71 87
57 71 91
56 70 91
55 68 89
48 60 78
48 59 75
55 69 89
47 58 75
53 63 79
56 69 89
50 62 79
67 81 102
58 71 89
51 63 81
61 72 89
75 91 115
47 58 75
56 68 86
68 80 97
50 60 76
64 77 96
62 79 104
56 69 87
70 83 102
53 63 78
67 78 96
58 73 95
38 47 62
53 66 86
53 64 81
56 68 87
47 57 71
43 52 65
43 52 66
43 53 67
52 61 76
69 82 102
58 70 87
65 80 102
54 65 83
38 47 61
67 81 102
61 74 92
70 85 108
52 65 84
49 61 79
58 71 89
55 66 84
62 75 95
65 80 102
52 64 83
59 72 93
54 66 83
52 63 78
47 60 79
65 80 103
61 73 89
57 71 91
55 67 84
52 63 79
65 78 97
56 70 89
59 71 89
42 52 67
37 45 58
72 85 103
51 60 75
54 66 83
77 92 115
61 72 89
72 88 111
57 69 87
69 89 118
65 83 108
72 89 115
81 99 127
68 84 108
76 93 118
58 75 100
66 83 108
69 85 108
72 88 111
74 91 118
63 78 100
74 91 118
82 100 127
79 98 127
77 97 127
69 88 115
84 101 127
73 92 121
77 97 127
76 94 121
63 79 104
77 97 127
71 94 127
74 89 111
65 80 102
73 91 118
70 89 118
60 76 99
79 98 127
71 87 111
71 89 115
81 100 127
71 90 118
70 86 111
77 94 121
71 91 121
79 99 127
82 100 127
85 102 127
77 93 118
55 69 89
78 98 127
66 84 111
80 95 118
80 99 127
75 94 121
77 95 121
78 98 127
75 96 127
83 101 127
73 90 115
69 90 121
81 100 127
73 95 127
76 93 118
77 93 118
77 97 127
79 98 127
72 91 121
78 98 127
78 98 127
79 96 121
82 100 127
66 82 105
76 94 121
85 102 127
74 93 121
84 101 127
81 100 127
78 98 127
83 101 127
82 100 127
72 92 121
77 97 127
78 98 127
74 95 127
83 101 127
77 97 127
71 89 115
79 96 121
78 98 127
79 98 127
76 94 121
80 99 127
77 97 127
74 93 121
82 100 127
81 100 127
76 93 118
74 96 127
80 99 127
86 103 127
81 100 127
81 99 127
68 87 115
78 98 127
79 98 127
82 100 127
82 100 127
85 102 127
80 99 127
77 97 127
76 97 127
83 101 127
80 99 127
74 92 118
74 92 118
75 93 121
79 96 121
79 98 127
76 96 127
81 99 127
78 98 127
78 98 127
76 97 127
77 97 127
79 99 127
70 87 111
80 99 127
75 96 127
81 100 127
79 96 121
73 91 118
78 94 118
78 98 127
73 91 118
85 102 127
83 101 127
78 98 127
78 98 127
76 97 127
78 98 127
84 101 127
74 91 115
80 99 127
84 101 127
72 90 118
75 96 127
83 101 127
78 98 127
77 97 127
80 99 127
74 95 127
75 96 127
80 99 127
81 100 127
75 96 127
80 99 127
84 101 127
83 101 127
80 99 127
82 100 127
75 94 121
78 98 127
83 101 127
77 97 127
66 83 109
73 92 121
79 99 127
82 100 127
77 97 127
79 99 127
83 101 127
83 101 127
80 99 127
78 98 127
81 100 127
77 95 121
85 102 127
75 93 121
77 97 127
83 101 127
80 99 127
72 89 115
83 101 127
78 98 127
78 95 121
82 100 127
75 96 127
72 90 115
79 99 127
79 98 127
71 90 118
75 94 121
79 98 127
70 89 118
81 100 127
75 96 127
81 100 127
73 90 115
78 98 127
81 99 127
79 98 127
76 93 118
84 101 127
79 98 127
78 94 118
73 91 118
81 100 127
78 98 127
83 101 127
80 99 127
78 98 127
71 88 115
72 90 118
76 96 127
72 92 121
76 97 127
73 91 118
81 99 127
78 98 127
72 88 111
70 89 118
74 93 121
82 100 127
72 92 121
80 99 127
74 95 127
75 94 121
81 99 127
73 92 121
75 93 121
78 98 127
84 101 127
77 97 127
78 98 127
72 91 118
81 100 127
71 87 111
77 97 127
79 98 127
80 99 127
81 100 127
79 99 127
78 98 127
71 91 121
78 95 121
75 93 121
68 88 118
85 102 127
77 97 127
73 91 118
63 80 105
70 86 111
87 103 127
73 91 118
69 87 115
83 101 127
81 100 127
70 89 118
69 86 111
76 94 121
74 95 127
64 79 102
79 99 127
70 89 118
73 90 115
71 89 115
76 97 127
85 102 127
81 99 127
68 85 111
79 99 127
77 93 118
77 97 127
79 98 127
73 91 118
75 91 115
77 97 127
72 91 118
67 83 106
65 80 102
78 98 127
80 99 127
74 92 118
70 88 115
61 76 99
66 79 99
76 94 121
85 102 127
70 89 118
67 84 108
61 77 102
72 91 118
78 94 118
73 91 118
80 99 127
69 86 111
70 90 121
76 94 121
74 93 121
58 73 96
69 86 110
68 88 118
74 92 118
70 91 121
78 98 127
60 77 102
55 68 87
44 54 70
41 49 62
49 59 73
61 75 95
54 66 84
52 63 78
49 61 79
40 48 61
49 60 78
55 69 89
52 64 81
61 73 91
54 64 79
48 60 77
40 48 61
64 76 95
73 87 108
51 61 77
63 76 96
61 73 91
46 57 73
40 50 65
57 69 87
45 55 70
57 68 86
71 86 108
60 74 96
57 68 84
51 63 81
52 62 76
53 65 84
39 49 64
50 59 72
65 78 97
57 69 86
56 69 89
47 57 73
68 81 100
56 66 83
57 68 86
54 67 86
41 50 64
56 70 89
50 62 79
60 74 95
58 70 89
62 76 95
45 56 73
48 58 73
58 71 89
54 66 84
40 49 64
47 55 68
45 56 71
47 57 71
47 59 78
53 66 84
60 72 89
48 58 73
71 83 102
61 73 91
55 67 85
68 82 102
54 69 91
47 57 73
68 81 102
51 64 83
50 62 79
55 68 89
49 58 73
57 71 91
52 63 79
60 72 91
45 55 70
61 73 92
64 79 102
42 51 65
61 73 91
55 65 79
49 59 73
62 74 91
65 79 99
64 78 99
58 73 96
55 69 89
48 61 80
57 67 83
35 44 57
60 72 91
47 58 74
48 57 70
52 62 76
40 50 65
36 45 59
46 56 70
49 63 83
70 85 108
52 63 80
70 85 108
67 82 106
70 88 116
72 87 109
68 87 115
64 79 102
80 99 127
64 79 102
72 88 111
72 87 108
68 83 106
60 74 94
86 102 127
55 71 93
71 90 118
69 84 106
72 92 121
70 89 118
75 90 111
54 68 89
72 88 111
72 90 118
55 71 95
75 94 121
78 95 121
76 94 121
71 86 108
67 81 102
71 87 111
67 85 111
76 94 121
79 98 127
57 72 93
63 80 105
80 99 127
70 91 121
68 86 111
78 98 127
76 94 121
74 93 121
75 93 121
77 97 127
80 99 127
71 87 111
78 95 121
67 85 111
77 97 127
71 90 118
82 100 127
80 99 127
83 101 127
81 100 127
78 98 127
75 96 127
78 98 127
73 91 118
72 89 115
63 81 108
73 92 121
66 83 108
68 84 108
79 98 127
79 98 127
74 93 121
80 99 127
75 94 121
74 93 121
67 84 108
81 100 127
84 102 127
83 101 127
76 96 127
76 97 127
73 92 121
79 98 127
71 90 118
76 93 118
70 89 118
82 100 127
73 92 121
79 98 127
76 93 118
75 94 121
81 100 127
79 99 127
80 99 127
83 101 127
70 89 118
80 99 127
76 97 127
73 92 121
77 97 127
85 102 127
79 98 127
80 96 121
83 101 127
73 91 118
71 90 118
71 91 121
76 97 127
71 90 118
71 90 118
79 99 127
78 98 127
79 98 127
78 98 127
79 99 127
82 100 127
80 99 127
83 101 127
79 99 127
79 98 127
73 95 127
84 101 127
73 91 118
67 85 111
83 101 127
80 99 127
82 97 121
80 99 127
79 98 127
81 99 127
75 92 118
76 94 121
76 94 121
76 97 127
74 95 127
81 100 127
79 98 127
70 90 121
81 100 127
83 101 127
76 94 121
75 96 127
80 99 127
73 91 118
84 101 127
85 102 127
80 99 127
71 94 127
82 100 127
80 99 127
82 100 127
84 101 127
81 100 127
75 96 127
77 92 115
79 96 121
83 101 127
73 92 121
79 98 127
81 99 127
82 100 127
86 103 127
80 99 127
80 99 127
80 99 127
81 100 127
78 98 127
76 96 127
80 99 127
82 100 127
79 98 127
76 97 127
80 99 127
75 96 127
77 97 127
80 99 127
81 99 127
75 93 121
75 96 127
70 91 121
84 102 127
76 97 127
80 99 127
74 93 121
75 94 121
85 102 127
78 98 127
76 97 127
71 90 118
86 103 127
80 99 127
78 98 127
79 98 127
71 87 111
78 95 121
67 87 118
79 98 127
79 98 127
82 100 127
71 91 121
67 87 118
81 100 127
76 93 118
78 98 127
75 96 127
83 101 127
74 91 118
82 100 127
73 92 121
78 98 127
79 98 127
77 97 127
77 93 118
79 98 127
80 99 127
82 100 127
67 82 106
86 103 127
75 94 121
73 95 127
74 95 127
82 100 127
77 97 127
78 98 127
77 97 127
77 97 127
77 97 127
80 99 127
75 93 121
78 96 121
70 85 108
75 92 118
76 96 127
77 95 121
79 96 121
74 96 127
82 100 127
79 99 127
73 89 115
72 90 118
84 101 127
70 89 118
76 97 127
78 98 127
81 99 127
81 99 127
68 88 118
80 99 127
77 94 121
78 94 118
71 87 111
77 97 127
68 88 118
77 95 121
72 89 115
74 95 127
73 91 118
78 98 127
75 92 118
73 92 121
73 92 121
52 66 88
82 100 127
79 96 121
73 91 118
76 92 118
82 100 127
69 86 111
81 100 127
71 94 127
81 100 127
66 83 109
77 97 127
72 90 118
73 91 118
70 85 108
68 88 118
76 93 118
72 90 118
71 90 118
66 83 109
71 87 111
69 86 111
74 93 121
79 98 127
78 95 121
78 95 121
78 98 127
79 96 121
68 83 105
80 99 127
68 84 108
56 69 88
55 69 91
72 92 121
77 97 127
68 86 111
79 94 118
83 101 127
76 94 121
72 86 108
71 88 115
70 86 108
66 82 105
67 82 103
73 89 115
70 86 111
83 101 127
61 77 102
41 51 67
70 85 108
45 55 70
61 72 89
64 76 94
35 44 57
54 66 84
50 61 78
52 62 78
44 52 63
55 66 83
52 64 83
46 57 73
61 72 89
49 59 73
49 58 72
54 66 84
67 81 102
56 69 87
66 79 99
62 76 95
70 85 108
44 55 71
58 70 87
45 56 72
58 69 86
35 44 59
44 55 70
46 56 71
59 70 87
59 71 89
59 73 92
51 62 78
58 72 92
60 75 97
42 51 65
47 59 76
44 56 73
44 55 70
50 59 71
56 67 83
61 75 95
47 57 71
41 51 64
48 60 78
52 64 83
42 52 67
68 80 99
67 81 102
67 80 99
56 68 86
33 40 51
51 62 78
61 75 95
66 81 102
55 67 86
55 67 84
55 69 89
62 76 97
45 55 70
40 50 65
48 59 75
50 62 80
46 55 70
56 69 87
49 59 73
41 49 62
58 70 89
57 69 87
61 73 91
51 62 78
44 54 70
52 64 81
46 57 73
32 40 52
42 50 62
58 73 95
53 65 83
50 60 75
68 83 105
58 73 95
52 64 83
42 51 65
62 75 95
58 70 89
50 61 76
45 58 76
38 48 62
58 69 86
55 67 85
74 88 110
60 72 91
54 66 84
66 81 103
59 69 86
50 60 76
54 66 84
53 65 83
83 101 127
73 91 118
74 91 118
67 81 102
62 75 96
57 73 96
70 87 111
73 88 111
60 73 93
80 94 115
62 78 100
63 80 105
67 82 105
71 86 109
83 101 127
77 93 118
68 85 109
70 87 111
73 90 115
84 101 127
79 98 127
73 89 115
77 97 127
68 85 111
67 86 115
75 93 121
72 90 118
77 95 121
67 85 111
70 91 121
78 98 127
76 93 118
76 94 121
71 94 127
65 82 108
70 86 110
74 93 121
79 96 121
75 96 127
58 75 99
77 97 127
79 98 127
78 98 127
81 100 127
71 90 118
79 99 127
86 102 127
75 92 118
79 99 127
76 97 127
67 84 108
80 99 127
82 100 127
77 97 127
83 101 127
71 90 118
74 92 118
80 99 127
75 89 111
79 98 127
77 97 127
76 97 127
75 93 121
74 96 127
81 99 127
79 99 127
78 98 127
79 99 127
79 99 127
69 89 118
82 100 127
82 100 127
74 93 121
77 97 127
75 96 127
85 102 127
69 89 118
77 94 118
78 98 127
79 98 127
81 97 121
70 85 108
74 96 127
76 97 127
75 92 118
76 94 121
70 89 118
70 89 118
79 98 127
78 98 127
80 99 127
81 100 127
75 96 127
75 91 115
82 100 127
71 94 127
81 99 127
80 99 127
80 99 127
76 94 121
77 95 121
71 94 127
81 100 127
76 97 127
79 99 127
73 91 118
84 101 127
76 97 127
77 95 121
77 97 127
81 100 127
77 97 127
73 95 127
72 94 127
77 97 127
81 100 127
81 100 127
79 98 127
78 98 127
80 99 127
84 101 127
77 97 127
81 100 127
82 100 127
67 87 115
81 100 127
78 98 127
74 95 127
84 101 127
74 92 118
83 101 127
78 98 127
79 98 127
70 90 121
78 98 127
73 90 115
80 99 127
79 98 127
74 96 127
64 81 106
76 96 127
81 99 127
80 99 127
74 96 127
85 102 127
76 97 127
78 95 121
82 100 127
69 89 118
79 99 127
83 101 127
78 98 127
79 98 127
80 99 127
79 99 127
80 99 127
74 92 118
76 97 127
81 100 127
84 101 127
77 97 127
76 97 127
76 97 127
83 101 127
77 93 118
72 91 121
73 91 118
73 95 127
82 100 127
68 84 108
75 93 121
81 96 118
78 95 121
81 100 127
79 98 127
82 100 127
79 99 127
80 99 127
78 98 127
79 98 127
79 98 127
72 91 118
79 99 127
85 102 127
81 99 127
80 99 127
79 99 127
77 97 127
78 98 127
77 97 127
80 99 127
78 98 127
75 96 127
80 99 127
76 94 121
86 103 127
85 99 121
80 99 127
77 95 121
79 98 127
76 96 127
80 99 127
80 96 121
75 94 121
65 82 106
77 97 127
79 96 121
82 100 127
78 98 127
80 96 121
80 99 127
72 90 118
78 98 127
71 90 118
76 97 127
85 102 127
79 98 127
76 97 127
79 99 127
81 99 127
83 101 127
79 99 127
76 97 127
78 98 127
78 98 127
73 92 121
82 100 127
75 92 118
80 99 127
80 99 127
71 89 116
77 95 121
77 95 121
75 89 111
81 100 127
72 90 118
73 92 121
79 98 127
81 100 127
73 90 115
81 100 127
79 99 127
65 82 108
77 94 121
77 93 118
81 100 127
71 87 111
76 94 121
74 95 127
79 99 127
77 97 127
73 91 118
71 87 111
72 86 108
81 99 127
69 89 118
78 95 121
76 96 127
74 93 121
72 90 118
79 98 127
79 96 121
75 93 121
66 83 108
74 91 118
73 92 121
72 91 121
80 99 127
68 84 108
73 92 121
66 84 111
77 97 127
59 78 106
79 99 127
79 98 127
50 62 80
72 88 111
59 74 96
73 91 118
75 93 121
78 98 127
75 93 121
68 85 111
79 98 127
68 84 107
56 71 92
77 97 127
77 97 127
77 94 121
72 90 118
64 79 102
58 75 102
76 94 121
76 94 121
77 93 118
75 94 121
66 81 102
74 91 118
64 76 92
77 95 121
64 81 107
80 96 121
63 77 97
56 69 88
55 67 86
36 43 53
37 45 56
43 53 67
54 63 76
50 61 78
47 56 70
59 71 91
41 51 65
53 65 83
54 66 84
43 54 70
59 71 87
59 73 92
51 64 84
62 75 95
55 66 83
64 77 95
43 54 70
64 77 95
49 58 70
64 79 102
52 63 79
53 65 83
57 71 91
52 62 78
67 81 102
51 63 79
61 78 102
55 67 86
60 72 91
66 78 97
47 58 75
45 56 73
64 77 95
51 65 86
77 90 109
55 66 83
53 66 84
46 59 78
57 69 86
59 70 87
62 73 91
54 67 86
51 64 83
51 62 79
46 55 68
55 68 89
44 54 70
54 66 85
60 74 95
58 72 92
69 82 102
56 69 89
46 58 76
58 70 89
55 66 83
48 60 79
45 55 70
54 65 83
54 64 80
49 63 83
53 66 84
51 64 84
46 57 72
53 65 83
60 72 89
37 47 61
57 68 85
50 61 76
41 51 66
67 79 97
52 64 83
59 71 89
42 52 65
53 65 83
63 79 102
66 80 102
56 68 86
58 69 86
62 75 95
52 64 83
69 85 108
52 65 84
53 65 84
60 71 87
70 83 103
60 72 91
73 87 108
38 48 62
38 47 60
47 56 71
41 51 65
56 69 87
76 94 121
76 94 121
83 98 121
62 74 92
56 71 93
75 89 111
75 93 121
70 86 108
67 84 110
60 75 99
70 88 115
58 70 87
69 86 111
77 97 127
72 88 111
63 78 99
72 89 115
81 100 127
76 97 127
68 87 115
63 81 108
74 95 127
81 100 127
87 103 127
69 88 116
60 76 99
64 82 108
70 89 118
65 80 103
72 90 118
74 92 118
82 100 127
74 92 118
82 100 127
74 91 118
68 86 115
80 99 127
70 87 111
74 92 118
66 83 108
70 88 115
62 80 105
71 88 115
73 90 115
69 89 118
75 93 121
82 97 121
59 74 96
68 88 118
85 102 127
71 86 108
75 94 121
77 93 118
80 99 127
77 95 121
79 99 127
70 87 111
73 92 121
78 98 127
77 95 121
78 98 127
79 98 127
72 88 111
73 90 115
77 97 127
77 97 127
76 96 127
81 97 121
74 93 121
71 89 115
78 94 118
81 99 127
82 100 127
78 98 127
77 97 127
72 88 111
81 100 127
75 96 127
74 96 127
77 97 127
84 102 127
72 91 118
85 102 127
81 99 127
70 89 118
75 91 115
69 88 115
70 89 118
75 92 118
78 98 127
75 92 118
81 100 127
78 98 127
74 93 121
79 99 127
78 98 127
82 100 127
76 97 127
78 98 127
81 100 127
79 98 127
79 98 127
74 91 116
76 92 115
73 92 121
72 91 121
78 98 127
74 96 127
77 97 127
83 101 127
75 96 127
74 95 127
75 96 127
71 90 118
72 90 118
80 99 127
79 98 127
78 98 127
73 93 121
81 99 127
82 100 127
78 98 127
78 95 121
81 100 127
84 101 127
81 100 127
73 92 121
74 95 127
78 98 127
79 98 127
74 93 121
81 99 127
75 93 121
73 95 127
83 101 127
77 97 127
68 84 108
83 101 127
78 98 127
75 92 118
79 98 127
80 99 127
70 89 118
77 97 127
79 98 127
79 98 127
75 96 127
70 89 118
72 92 121
83 101 127
83 101 127
72 90 118
85 102 127
79 99 127
82 100 127
77 97 127
79 98 127
81 99 127
81 99 127
84 102 127
78 98 127
76 97 127
75 96 127
79 98 127
77 97 127
73 91 118
80 99 127
83 101 127
76 97 127
76 94 121
80 99 127
73 92 121
72 92 121
81 99 127
77 97 127
83 101 127
85 102 127
77 97 127
75 92 118
82 100 127
76 94 121
70 88 115
82 100 127
81 100 127
83 101 127
80 99 127
81 100 127
79 99 127
72 90 118
77 97 127
76 97 127
79 98 127
61 78 105
78 98 127
80 99 127
78 98 127
77 97 127
80 99 127
83 101 127
84 101 127
80 99 127
73 91 118
77 94 121
77 97 127
63 81 108
73 90 115
76 97 127
77 97 127
80 99 127
69 88 118
79 98 127
76 96 127
78 95 121
69 89 118
81 100 127
78 98 127
76 97 127
75 94 121
77 97 127
74 95 127
66 84 109
67 86 115
80 99 127
79 98 127
78 98 127
81 99 127
80 99 127
88 104 127
78 98 127
76 97 127
80 99 127
76 97 127
82 100 127
85 102 127
77 94 118
65 81 105
70 89 118
77 95 121
79 98 127
68 89 121
74 91 118
79 99 127
77 97 127
71 89 115
61 77 102
76 97 127
55 70 92
75 96 127
66 82 106
81 100 127
69 90 121
73 90 115
77 97 127
81 100 127
76 94 121
80 96 121
75 94 121
77 94 118
76 96 127
78 93 115
65 82 108
78 95 121
76 93 118
77 95 121
70 87 111
65 80 102
65 82 108
72 89 115
83 101 127
68 85 111
77 97 127
66 83 108
79 98 127
65 82 108
83 101 127
71 88 115
66 79 99
69 89 118
73 91 118
69 85 109
78 94 118
73 92 121
66 82 105
71 90 118
71 87 111
59 74 95
73 95 127
80 99 127
75 92 118
73 95 127
68 83 106
66 82 106
75 91 115
71 87 111
70 86 108
65 80 102
71 86 108
74 92 118
64 78 99
74 95 127
72 90 118
55 70 92
82 100 127
59 71 88
75 91 115
51 64 84
63 78 100
61 73 91
39 48 62
66 78 97
61 74 92
38 48 63
37 47 61
44 52 64
62 75 95
49 61 79
58 70 89
58 68 83
64 79 102
56 70 89
55 68 89
44 57 76
47 58 75
61 73 92
58 71 91
61 75 95
55 67 86
56 67 84
43 53 68
54 66 83
44 53 67
61 75 96
69 80 97
58 69 86
36 47 65
63 75 93
59 70 86
61 73 91
47 56 70
50 61 78
47 56 70
78 93 115
43 55 71
51 62 79
41 50 63
57 68 86
59 71 89
55 65 79
55 69 89
46 56 71
42 52 67
62 75 95
52 62 78
61 75 96
53 66 84
55 67 86
56 68 86
39 48 62
51 62 79
58 69 86
57 70 89
58 71 90
61 71 86
35 43 56
64 77 95
44 53 67
54 66 84
63 75 92
47 57 71
38 47 60
46 56 71
50 61 77
59 71 89
53 63 79
50 61 79
53 66 84
55 67 84
43 54 70
55 69 90
53 62 77
66 78 96
50 60 74
53 65 83
57 70 91
64 77 95
58 68 83
47 59 76
50 64 84
40 50 65
44 54 70
51 59 71
38 47 61
54 66 83
33 40 50
45 55 68
58 71 89
41 50 63
50 61 77
72 85 105
60 77 102
73 88 109
69 84 106
53 68 89
69 87 115
72 86 106
70 85 108
50 62 79
70 86 110
72 88 111
55 69 90
74 93 121
76 94 121
57 73 96
58 71 90
70 88 115
67 84 108
65 83 108
72 89 115
63 80 105
79 95 118
69 89 118
81 99 127
60 75 99
70 90 121
77 97 127
71 89 115
80 99 127
70 89 118
76 94 121
68 85 111
79 95 118
73 91 118
64 81 106
72 91 118
62 80 105
67 82 105
71 87 111
71 89 115
85 102 127
78 95 121
73 92 121
77 97 127
73 91 118
64 82 110
74 91 116
62 75 95
66 85 115
78 98 127
79 99 127
78 98 127
80 99 127
78 98 127
78 98 127
76 93 118
74 91 116
70 86 111
66 84 111
73 95 127
78 98 127
77 94 121
68 86 111
79 99 127
79 98 127
77 95 121
74 93 121
74 89 111
73 88 111
80 99 127
76 92 115
72 92 121
75 96 127
68 84 108
79 98 127
79 98 127
81 100 127
75 92 118
77 97 127
72 89 115
80 99 127
76 97 127
78 95 121
84 101 127
81 99 127
77 95 121
74 91 118
79 94 118
73 95 127
81 99 127
68 85 111
86 103 127
81 99 127
78 98 127
78 98 127
67 86 115
76 97 127
78 98 127
79 99 127
75 96 127
77 97 127
73 95 127
69 88 118
80 99 127
81 100 127
85 102 127
77 97 127
80 99 127
72 91 121
84 102 127
80 99 127
76 94 121
79 98 127
79 99 127
78 95 121
78 98 127
75 96 127
77 97 127
81 99 127
80 99 127
76 94 121
71 89 115
78 98 127
82 100 127
80 99 127
77 97 127
83 101 127
80 99 127
81 100 127
78 94 118
78 98 127
81 100 127
81 100 127
81 100 127
78 98 127
78 98 127
72 90 118
85 102 127
82 100 127
74 96 127
86 103 127
73 92 121
83 101 127
83 101 127
67 88 118
79 98 127
75 96 127
78 98 127
80 99 127
84 102 127
81 100 127
77 97 127
84 101 127
72 91 118
79 96 121
79 98 127
78 98 127
77 97 127
78 98 127
76 94 121
74 90 115
80 99 127
79 99 127
79 99 127
82 100 127
79 98 127
80 99 127
74 93 121
83 101 127
80 99 127
76 97 127
71 90 118
79 98 127
74 96 127
81 99 127
77 97 127
86 102 127
78 95 121
85 102 127
79 98 127
79 98 127
75 96 127
77 97 127
75 91 115
78 98 127
76 92 116
79 98 127
86 102 127
73 92 121
79 98 127
81 100 127
70 86 111
84 102 127
74 93 121
82 100 127
81 99 127
84 101 127
80 99 127
72 91 118
78 98 127
68 85 110
79 99 127
67 83 108
82 100 127
72 91 121
76 97 127
80 99 127
67 86 115
74 93 121
63 82 110
74 91 118
81 99 127
77 97 127
71 88 115
79 98 127
66 78 97
76 97 127
74 95 127
79 98 127
65 82 108
77 97 127
72 92 121
70 90 121
77 97 127
86 102 127
80 99 127
81 100 127
76 97 127
79 98 127
77 97 127
78 98 127
77 97 127
82 100 127
79 99 127
75 91 115
78 95 121
72 90 116
78 98 127
77 93 118
82 100 127
79 98 127
77 97 127
77 97 127
76 97 127
74 95 127
72 89 115
72 92 121
81 99 127
85 102 127
80 99 127
68 88 118
68 83 105
71 89 118
65 82 108
77 97 127
77 97 127
81 100 127
79 96 121
77 97 127
73 91 118
63 82 111
78 95 121
72 88 111
65 83 109
77 97 127
71 87 111
62 76 99
80 99 127
70 84 105
78 98 127
72 90 118
78 98 127
74 91 118
68 88 118
74 91 118
66 82 105
60 75 96
75 92 116
76 93 118
78 95 121
75 93 121
75 96 127
81 100 127
72 92 121
73 90 115
77 94 121
65 78 97
77 93 118
64 78 99
64 81 106
71 87 111
79 99 127
64 80 105
72 89 115
66 80 100
68 87 115
70 86 111
68 84 108
83 101 127
61 76 99
68 80 99
78 94 118
73 88 111
75 88 108
79 96 121
39 46 57
76 93 118
58 71 90
73 87 108
64 82 108
44 55 71
51 63 81
48 59 75
35 43 55
51 63 81
60 72 91
66 77 92
58 71 89
41 51 67
62 74 92
46 56 71
45 54 68
59 71 89
54 66 83
62 75 95
64 79 102
67 81 102
67 81 102
50 61 78
37 46 60
77 92 115
46 57 73
56 67 83
46 57 73
70 83 102
64 77 96
59 71 90
61 76 99
46 57 75
52 63 79
62 75 95
56 66 83
59 70 86
52 63 79
68 82 102
57 68 84
59 71 89
54 66 85
54 65 83
64 76 95
60 71 87
52 64 81
55 68 89
42 51 64
62 74 92
49 60 76
47 60 79
55 67 86
49 60 76
50 63 83
70 85 108
65 77 95
39 48 60
63 77 97
56 68 86
56 69 89
56 66 83
62 74 91
57 68 86
44 54 69
41 50 64
48 59 75
53 66 86
39 48 62
57 70 89
50 62 79
56 68 86
51 62 79
75 88 108
60 72 91
58 70 89
51 64 83
54 66 84
45 54 67
63 75 92
40 50 66
64 77 95
47 59 77
45 55 70
61 74 92
47 58 74
59 71 89
51 60 75
55 67 86
44 55 73
58 70 89
62 74 93
43 54 70
56 67 83
44 52 63
68 85 111
63 76 95
68 85 111
62 78 102
74 91 118
64 79 102
64 79 103
71 87 111
73 91 118
56 70 89
71 85 105
76 93 118
81 99 127
56 73 99
71 87 111
63 79 102
62 80 107
61 75 96
65 81 107
77 95 121
70 85 108
72 90 118
64 78 99
57 72 95
72 90 118
64 78 99
78 96 121
66 80 102
84 101 127
70 88 115
61 74 93
79 98 127
71 90 118
72 90 115
65 83 109
77 93 118
78 95 121
71 90 118
69 86 111
62 75 96
75 96 127
67 88 118
71 84 105
71 90 118
66 82 106
82 100 127
72 90 115
78 98 127
80 99 127
74 89 111
83 101 127
78 94 118
82 100 127
66 80 103
80 99 127
70 88 115
59 75 99
74 91 115
67 86 115
67 85 111
78 98 127
77 97 127
75 91 115
83 101 127
65 81 105
81 100 127
73 90 115
73 89 115
78 98 127
77 97 127
80 99 127
82 100 127
73 92 121
69 89 118
79 98 127
82 100 127
68 87 115
75 93 121
68 84 108
78 98 127
79 98 127
66 80 102
79 98 127
82 100 127
74 96 127
82 100 127
72 90 118
79 98 127
74 95 127
83 101 127
76 93 118
78 98 127
82 98 121
73 93 121
72 94 127
82 100 127
72 94 127
76 97 127
72 92 121
78 98 127
72 90 118
71 88 115
73 88 111
77 97 127
82 100 127
74 91 118
83 101 127
77 95 121
74 91 118
70 87 111
80 99 127
78 98 127
77 97 127
79 99 127
79 99 127
81 100 127
75 96 127
79 98 127
76 96 127
81 100 127
78 98 127
78 98 127
76 94 121
74 95 127
70 89 118
69 87 115
70 88 115
66 83 108
80 99 127
74 92 118
72 90 118
77 97 127
80 99 127
83 101 127
82 100 127
76 96 127
76 97 127
82 100 127
77 97 127
75 94 121
81 100 127
74 95 127
77 97 127
79 96 121
77 97 127
82 100 127
70 89 118
75 96 127
72 92 121
81 100 127
76 97 127
82 100 127
79 99 127
82 100 127
82 100 127
79 98 127
80 99 127
78 96 121
79 99 127
78 98 127
78 95 121
85 102 127
78 98 127
80 99 127
75 92 118
80 99 127
72 90 118
83 101 127
75 89 111
72 94 127
77 97 127
72 90 118
72 94 127
78 98 127
81 100 127
80 95 118
76 94 121
78 98 127
87 103 127
75 96 127
71 90 118
80 99 127
77 97 127
77 97 127
78 98 127
77 97 127
78 98 127
69 89 118
81 100 127
73 92 121
70 88 115
74 91 118
77 97 127
81 100 127
72 88 111
85 102 127
81 100 127
84 102 127
76 96 127
78 98 127
79 98 127
75 93 121
83 101 127
84 101 127
61 75 97
78 98 127
69 88 116
79 98 127
67 84 108
70 85 108
73 91 118
79 96 121
73 92 121
81 99 127
75 96 127
82 100 127
75 92 118
75 93 121
81 100 127
84 101 127
77 95 121
73 92 121
78 95 121
62 81 108
75 96 127
69 85 108
79 99 127
72 90 118
71 85 105
79 98 127
74 93 121
80 99 127
73 92 121
74 93 121
71 89 118
74 93 121
68 84 108
58 71 92
68 89 121
77 94 118
78 98 127
73 89 111
70 89 118
70 91 121
80 99 127
81 100 127
78 95 121
71 89 118
66 82 107
72 90 118
73 95 127
74 93 121
76 93 118
74 90 115
66 83 109
78 95 121
83 101 127
75 94 121
78 98 127
71 90 118
78 98 127
71 89 115
77 97 127
81 100 127
73 91 118
68 87 115
72 90 118
71 89 116
70 89 118
65 82 108
80 99 127
80 99 127
75 93 121
76 94 121
75 96 127
75 93 121
82 100 127
74 92 118
60 73 92
72 92 121
69 85 108
58 70 88
80 99 127
73 91 118
67 85 111
69 85 108
71 87 110
69 85 108
64 79 102
57 72 95
59 76 102
72 90 118
73 89 115
62 77 99
64 78 99
81 100 127
66 82 105
54 68 89
62 75 95
65 83 111
70 88 115
60 78 105
73 88 111
72 88 111
61 77 99
63 76 95
69 85 108
64 78 99
65 78 99
63 76 96
55 67 86
58 71 91
54 66 84
39 48 60
44 53 67
57 68 84
55 64 78
45 56 71
61 75 95
43 54 72
59 73 92
67 81 102
56 67 83
61 75 95
71 86 108
55 68 86
55 69 89
50 63 83
44 55 71
44 54 70
53 64 81
66 78 97
58 71 89
54 66 84
59 71 89
43 51 63
54 66 86
60 72 89
58 71 89
52 64 83
53 65 84
47 58 75
49 61 80
56 68 86
56 67 84
61 73 91
49 60 77
58 69 86
51 62 78
58 70 89
72 89 115
40 50 65
49 59 75
50 59 73
39 48 62
50 62 79
54 65 81
49 60 76
71 84 103
69 83 105
45 56 71
51 64 83
51 63 79
51 61 76
41 50 63
57 70 91
65 80 102
44 55 71
49 60 77
42 51 65
50 62 80
50 60 76
67 82 103
46 57 73
69 82 102
42 51 64
57 70 89
60 72 91
46 56 71
71 82 100
66 78 95
70 84 105
51 61 77
38 48 63
59 74 95
49 59 73
54 64 79
50 61 78
75 91 115
49 60 77
61 72 87
30 36 45
61 72 89
49 58 72
54 67 87
48 59 75
55 67 86
43 53 67
38 46 58
80 97 121
72 91 118
39 48 61
57 68 84
78 93 115
65 77 96
67 85 111
59 72 92
74 89 111
66 82 105
55 70 92
64 77 95
75 91 115
75 91 115
78 98 127
73 90 115
59 73 96
60 74 95
79 99 127
60 75 97
70 85 108
72 91 121
75 90 111
65 80 102
72 90 118
68 85 111
71 90 118
78 95 121
81 97 121
76 97 127
70 88 116
79 98 127
75 92 118
69 83 105
52 64 82
63 80 106
72 91 118
64 82 108
81 99 127
79 98 127
68 84 108
73 92 121
63 80 105
79 98 127
78 94 118
70 89 118
66 82 107
74 93 121
72 89 115
63 79 102
75 92 118
70 90 121
72 90 116
71 87 111
63 80 105
77 95 121
84 101 127
74 92 118
72 92 121
76 94 121
75 92 118
71 89 116
68 83 106
76 97 127
83 101 127
77 97 127
70 91 121
69 86 111
82 100 127
80 99 127
75 96 127
72 88 111
84 101 127
69 89 118
67 84 108
71 90 118
78 98 127
77 95 121
82 100 127
76 94 121
80 99 127
78 98 127
75 92 118
73 95 127
79 98 127
78 98 127
71 90 118
77 97 127
69 84 106
77 95 121
66 80 102
80 99 127
80 99 127
77 97 127
74 92 118
63 81 108
77 97 127
83 101 127
85 102 127
77 97 127
74 91 118
83 101 127
77 97 127
72 89 115
77 94 121
73 92 121
76 97 127
83 101 127
72 90 116
66 86 115
70 93 127
80 99 127
68 84 108
75 93 121
70 90 121
79 98 127
77 95 121
72 90 118
82 100 127
77 97 127
70 88 115
74 93 121
79 98 127
81 100 127
75 96 127
79 99 127
79 98 127
81 99 127
84 102 127
80 96 121
78 98 127
83 101 127
78 98 127
75 96 127
81 100 127
83 101 127
80 99 127
78 98 127
73 92 121
77 97 127
76 97 127
81 99 127
80 99 127
76 96 127
79 99 127
74 92 118
77 97 127
75 96 127
70 91 121
79 98 127
73 95 127
77 97 127
78 98 127
74 93 121
81 99 127
78 98 127
69 86 111
78 98 127
77 97 127
81 99 127
75 96 127
82 100 127
75 96 127
82 100 127
77 97 127
82 100 127
78 94 118
69 86 111
74 92 118
76 93 118
78 98 127
61 77 99
75 96 127
82 100 127
68 88 118
82 100 127
83 101 127
76 94 121
79 98 127
86 103 127
79 96 121
79 98 127
76 97 127
79 99 127
76 97 127
78 98 127
77 97 127
78 98 127
82 100 127
75 96 127
79 98 127
75 92 118
76 97 127
77 94 118
78 98 127
72 90 118
69 89 118
77 97 127
65 84 111
81 100 127
81 100 127
64 81 106
74 93 121
75 93 121
76 94 121
74 95 127
76 97 127
84 101 127
71 89 115
76 97 127
75 96 127
80 99 127
79 96 121
84 101 127
75 96 127
70 88 115
78 98 127
73 92 121
82 100 127
82 100 127
74 93 121
69 88 118
76 93 118
69 86 111
77 97 127
81 100 127
71 90 118
78 98 127
77 95 121
83 101 127
73 95 127
69 86 111
84 102 127
74 93 121
75 96 127
72 92 121
87 103 127
67 81 103
81 99 127
71 90 118
79 98 127
81 100 127
78 95 121
72 94 127
76 97 127
77 93 118
84 102 127
77 94 121
66 82 107
74 96 127
78 98 127
73 91 118
60 75 99
80 96 121
71 91 121
86 102 127
71 91 121
69 86 111
82 100 127
77 97 127
72 89 115
69 88 115
80 97 121
85 102 127
82 100 127
73 92 121
79 99 127
72 94 127
84 101 127
64 83 111
80 99 127
70 89 118
79 94 118
67 85 111
68 88 118
67 86 115
76 94 121
79 99 127
69 85 108
67 82 105
73 88 109
73 91 118
63 79 102
69 82 102
74 90 115
74 93 121
83 101 127
77 97 127
76 92 115
75 92 118
63 77 99
73 91 118
50 63 81
60 77 102
70 89 118
75 91 115
49 60 77
67 82 105
62 77 99
74 90 115
74 90 115
73 88 111
54 67 87
69 85 109
67 82 105
74 89 111
58 74 97
66 79 97
61 72 89
70 86 108
73 90 115
68 82 102
55 68 88
60 71 89
50 60 76
36 44 55
63 75 92
49 60 77
40 49 62
57 68 84
43 52 67
45 56 72
52 65 83
54 65 83
40 49 62
68 81 102
62 76 96
39 49 64
47 58 75
53 66 84
46 55 70
56 67 83
48 57 71
55 65 79
39 48 61
59 71 90
58 73 96
59 71 88
44 52 65
44 55 73
57 68 83
45 54 68
62 74 92
65 77 95
49 60 76
51 61 77
47 57 71
54 66 83
44 54 68
56 69 89
57 68 84
60 75 97
42 49 61
54 66 83
56 67 83
42 51 63
63 79 102
50 60 75
39 48 61
60 74 96
47 58 73
47 57 71
71 86 108
65 80 102
38 48 64
47 57 73
40 49 63
54 69 91
43 53 67
58 70 89
57 68 84
59 71 91
53 63 78
55 67 84
56 68 86
35 45 60
61 75 95
63 76 95
41 50 63
45 55 71
41 50 65
50 64 84
62 76 97
62 76 95
56 67 84
61 73 91
62 76 95
59 73 94
61 75 95
38 47 60
70 83 102
63 74 90
53 64 79
57 67 83
34 42 54
48 57 72
42 52 66
50 61 77
65 77 95
57 70 89
72 86 108
70 88 116
65 79 100
74 91 115
62 76 96
75 92 118
61 72 89
51 62 80
65 83 108
64 79 102
68 85 109
74 89 111
68 87 115
68 88 116
60 74 96
47 58 75
61 77 102
74 90 115
81 97 121
44 55 70
72 90 116
70 88 115
63 80 105
58 75 99
81 99 127
76 96 127
74 92 118
69 85 108
63 80 104
71 88 115
70 85 108
66 83 110
71 90 118
80 97 121
75 93 121
76 93 118
75 96 127
74 93 121
82 100 127
65 81 106
81 100 127
77 97 127
78 94 118
74 91 116
76 93 118
75 92 118
74 95 127
66 84 111
82 100 127
67 82 105
74 92 118
74 95 127
69 84 106
80 99 127
68 87 116
74 91 116
79 96 121
74 90 115
82 100 127
62 76 96
76 94 121
72 92 121
83 101 127
80 99 127
73 91 118
73 89 111
78 98 127
68 89 121
75 92 118
78 98 127
69 86 111
64 78 100
77 95 121
61 75 95
80 99 127
75 92 118
75 96 127
78 98 127
82 100 127
82 100 127
76 97 127
67 85 111
72 91 121
78 98 127
73 90 115
67 85 111
74 93 121
70 89 118
72 94 127
82 100 127
73 95 127
77 95 121
73 90 115
75 92 118
77 97 127
76 94 121
81 99 127
77 97 127
75 92 118
76 94 121
74 93 121
80 99 127
81 99 127
66 83 108
86 103 127
72 90 118
81 100 127
78 98 127
80 99 127
81 100 127
76 93 118
78 95 121
74 90 115
79 99 127
83 101 127
75 92 116
73 91 116
74 93 121
80 99 127
74 90 115
74 95 127
71 89 115
77 94 118
79 98 127
72 90 118
73 92 121
73 91 118
78 95 121
81 100 127
80 99 127
77 97 127
77 97 127
71 90 118
74 95 127
81 100 127
78 98 127
77 97 127
82 100 127
68 85 111
68 88 118
70 91 121
75 93 121
78 98 127
77 97 127
82 100 127
81 100 127
79 98 127
79 99 127
70 89 118
80 99 127
77 97 127
79 98 127
80 99 127
77 97 127
84 101 127
77 93 118
80 99 127
79 96 121
81 100 127
71 90 118
81 99 127
78 98 127
80 99 127
80 99 127
71 91 121
81 100 127
81 97 121
79 98 127
79 99 127
83 101 127
79 98 127
80 99 127
75 96 127
75 92 118
79 96 121
81 100 127
75 96 127
67 89 121
79 98 127
81 100 127
81 100 127
81 100 127
78 94 118
65 81 105
79 98 127
79 96 121
77 97 127
77 97 127
77 97 127
80 99 127
73 95 127
72 92 121
75 96 127
72 89 115
78 98 127
75 96 127
71 89 115
79 98 127
78 98 127
77 97 127
74 92 118
78 98 127
70 89 116
75 96 127
80 99 127
77 94 121
82 100 127
79 98 127
79 99 127
75 96 127
79 98 127
71 91 121
72 94 127
74 92 118
84 102 127
75 96 127
76 97 127
82 100 127
78 98 127
74 93 121
79 98 127
74 90 115
78 98 127
64 78 99
70 89 118
80 96 121
81 99 127
74 96 127
78 98 127
80 99 127
68 85 109
81 100 127
78 98 127
81 99 127
81 100 127
86 103 127
64 81 108
73 91 118
69 88 118
71 90 118
75 92 118
66 84 111
72 92 121
74 91 116
84 101 127
81 100 127
80 97 121
79 98 127
73 92 121
84 101 127
75 94 121
68 88 118
80 99 127
67 84 108
78 98 127
71 91 121
69 87 115
72 92 121
76 96 127
74 93 121
66 83 109
67 87 118
67 83 108
69 88 116
79 99 127
86 102 127
69 85 108
72 92 121
78 98 127
66 84 111
84 101 127
72 89 115
67 84 108
65 83 108
72 87 109
74 93 121
81 97 121
73 89 115
74 91 118
69 88 115
75 94 121
63 79 102
69 87 115
76 94 121
72 90 118
74 93 121
75 92 118
70 87 111
64 79 102
60 72 89
60 74 95
76 97 127
73 88 111
81 100 127
80 99 127
53 64 80
71 87 111
63 76 95
60 72 90
79 94 118
58 73 96
61 79 105
65 80 102
56 71 94
48 60 79
61 73 93
66 83 109
68 84 109
64 75 93
60 72 90
72 89 115
63 77 99
61 76 99
68 83 106
56 67 83
42 50 63
61 70 84
53 65 83
50 58 70
57 69 86
56 69 89
52 61 75
61 75 96
51 62 78
69 81 97
54 64 79
48 59 75
48 58 73
51 60 75
50 62 79
49 58 72
45 53 65
49 62 81
57 67 83
59 72 91
42 50 62
51 62 78
46 56 70
50 61 78
43 53 67
55 66 83
66 78 95
52 64 83
59 71 89
46 57 73
56 72 95
54 63 76
41 50 64
50 62 79
41 51 65
58 71 89
65 80 102
58 71 91
46 57 73
48 57 71
57 68 85
53 65 83
56 67 83
41 52 67
63 76 95
58 71 89
56 69 89
45 55 70
47 59 78
69 82 102
55 66 83
55 66 83
59 71 89
52 62 78
50 60 75
32 39 50
61 75 95
31 38 48
56 67 83
61 74 92
48 57 70
41 50 64
37 44 55
49 60 77
52 62 76
62 76 95
61 73 91
59 71 89
47 57 71
56 69 89
57 68 86
65 77 95
57 68 84
62 73 89
69 82 102
54 64 79
43 53 68
54 66 84
32 40 52
61 75 95
47 57 70
49 60 77
68 83 105
74 91 115
61 76 97
57 71 92
62 73 91
51 62 80
62 77 100
67 85 111
76 93 118
67 82 105
64 80 105
77 93 118
57 71 92
63 77 97
65 77 96
55 68 86
61 76 99
73 91 118
58 71 92
69 88 115
77 95 121
75 92 118
75 91 115
72 89 115
77 95 121
63 80 105
63 78 99
77 93 118
75 90 111
78 94 118
72 89 115
61 77 99
78 94 118
71 91 121
73 91 118
78 93 115
76 92 115
67 83 106
71 89 115
81 97 121
76 93 118
81 99 127
84 102 127
80 99 127
72 92 121
65 80 102
73 91 118
71 90 118
77 97 127
76 93 118
76 97 127
88 104 127
78 98 127
77 95 121
86 103 127
75 92 118
65 81 105
79 96 121
70 86 108
68 88 118
68 84 108
66 84 111
64 81 106
78 95 121
75 93 121
69 87 115
77 94 121
65 81 105
76 97 127
72 90 118
80 99 127
80 99 127
70 87 111
66 83 110
79 99 127
69 90 121
64 83 111
71 90 118
80 99 127
81 96 118
79 99 127
82 100 127
84 101 127
82 100 127
81 100 127
72 90 118
81 100 127
72 90 118
81 100 127
69 89 118
81 99 127
73 93 121
82 100 127
78 95 121
78 98 127
78 98 127
74 90 115
74 92 118
76 92 118
69 88 118
84 101 127
74 91 118
78 98 127
76 96 127
78 98 127
77 97 127
80 95 118
79 99 127
79 95 118
73 92 121
76 93 118
83 101 127
61 79 105
75 92 118
83 101 127
84 101 127
76 97 127
79 98 127
80 99 127
78 98 127
78 98 127
76 93 118
77 97 127
77 94 121
83 101 127
80 99 127
78 98 127
78 98 127
72 89 115
76 96 127
61 77 102
80 99 127
75 96 127
75 96 127
79 98 127
82 100 127
77 97 127
77 97 127
82 100 127
85 102 127
81 100 127
76 97 127
77 93 118
73 95 127
81 100 127
80 99 127
77 97 127
76 96 127
76 94 121
79 98 127
77 97 127
79 99 127
75 96 127
78 98 127
77 97 127
75 92 118
78 98 127
79 98 127
80 99 127
78 98 127
77 97 127
83 101 127
80 99 127
78 98 127
69 84 106
73 91 118
75 94 121
86 102 127
82 100 127
66 83 109
73 91 118
80 99 127
80 99 127
78 98 127
76 97 127
82 100 127
79 98 127
82 100 127
75 96 127
72 90 115
81 100 127
76 94 121
78 98 127
80 99 127
74 92 118
66 83 108
78 98 127
74 95 127
75 92 118
77 97 127
83 101 127
79 98 127
74 92 118
74 96 127
82 100 127
71 90 118
78 98 127
82 100 127
72 92 121
78 98 127
74 95 127
80 99 127
77 93 118
77 97 127
79 98 127
73 92 121
78 98 127
75 96 127
66 84 111
79 98 127
81 100 127
78 98 127
79 99 127
79 99 127
79 98 127
76 97 127
71 91 121
84 102 127
78 94 118
72 90 118
82 100 127
73 91 118
77 97 127
78 98 127
83 101 127
81 99 127
71 91 121
80 99 127
80 99 127
82 100 127
73 91 118
78 98 127
69 86 111
70 86 109
72 94 127
83 101 127
78 98 127
75 96 127
64 86 118
72 92 121
68 85 109
78 98 127
77 97 127
70 88 115
71 89 116
78 98 127
81 100 127
75 93 121
71 87 111
74 95 127
69 88 118
80 99 127
74 95 127
80 99 127
72 90 118
66 84 111
75 92 118
80 96 121
69 86 111
64 83 111
70 88 115
77 93 118
73 88 111
65 83 108
79 99 127
79 98 127
62 78 103
74 92 118
71 89 115
79 99 127
82 100 127
72 90 118
72 89 115
70 89 118
69 86 111
79 98 127
87 103 127
61 77 102
57 75 102
71 94 127
68 85 111
71 86 108
77 97 127
66 80 102
68 88 118
62 77 99
82 100 127
71 89 115
67 84 108
67 83 108
71 87 110
67 85 111
68 87 115
68 85 111
72 88 111
45 58 77
72 86 108
59 70 88
64 77 96
79 96 121
70 84 105
75 91 115
56 69 90
62 77 99
68 81 102
74 92 118
65 82 108
64 78 100
72 87 109
62 77 99
62 76 96
48 61 81
78 95 121
56 66 83
79 94 118
82 96 118
61 76 99
69 85 108
60 70 87
67 81 102
45 54 68
47 55 67
49 61 78
49 61 78
57 69 87
65 77 95
47 57 71
61 75 95
55 66 83
48 60 78
50 59 72
49 61 79
54 66 84
47 58 73
49 59 73
51 64 83
44 54 68
69 84 108
60 71 87
48 60 78
60 74 95
47 58 73
57 68 85
48 57 70
54 63 78
57 68 84
53 64 81
55 66 83
40 50 65
39 48 61
41 51 67
69 85 108
59 70 87
60 74 95
41 50 64
62 76 96
55 66 83
56 69 89
48 60 78
54 64 79
40 51 67
43 50 62
38 46 59
43 53 68
75 91 115
51 61 77
51 61 75
39 48 61
47 58 73
53 62 76
50 61 78
39 48 60
51 62 77
59 71 89
46 55 68
44 55 71
31 37 46
40 50 63
57 70 91
43 52 65
47 56 70
57 70 89
68 82 103
44 53 67
44 54 68
44 53 67
48 58 73
60 72 90
56 67 83
43 53 67
47 58 73
52 62 78
56 68 86
40 48 62
31 40 54
25 33 43
53 64 81
55 66 83
51 62 79
49 61 80
65 79 99
64 77 97
63 76 95
67 82 105
65 80 102
70 83 103
49 58 72
70 85 108
69 84 108
70 87 111
64 79 102
73 91 118
66 81 102
69 89 118
70 85 108
58 71 92
79 96 121
68 82 103
56 69 89
57 70 89
74 92 118
63 78 102
64 82 108
60 74 96
67 82 105
72 90 118
72 90 118
76 94 121
68 84 108
70 85 108
81 100 127
73 92 121
79 99 127
62 78 103
63 79 102
73 91 118
67 82 106
65 82 108
72 87 108
68 85 111
51 64 84
73 88 110
83 101 127
65 84 111
69 86 111
66 83 109
54 70 93
80 96 121
82 100 127
70 88 115
81 100 127
69 90 121
76 94 121
71 90 118
79 98 127
74 93 121
73 91 118
70 86 111
73 90 115
78 98 127
75 92 118
71 89 115
77 97 127
73 91 118
70 83 104
70 90 121
77 97 127
77 95 121
71 87 111
59 74 96
78 95 121
79 98 127
79 98 127
75 92 118
75 92 118
80 99 127
70 88 115
73 88 111
77 95 121
81 99 127
65 80 102
79 98 127
70 85 108
71 89 115
77 97 127
76 94 121
79 98 127
79 98 127
78 98 127
75 93 121
77 97 127
78 98 127
82 100 127
76 94 121
80 99 127
84 101 127
76 93 118
77 97 127
78 98 127
77 97 127
85 102 127
73 95 127
81 100 127
76 96 127
72 94 127
84 101 127
76 94 121
78 98 127
82 100 127
83 101 127
82 100 127
81 100 127
76 97 127
78 98 127
71 89 116
76 97 127
84 102 127
79 98 127
80 99 127
78 98 127
77 97 127
84 101 127
77 94 121
79 99 127
75 96 127
78 98 127
75 94 121
79 99 127
72 88 111
76 97 127
79 99 127
73 95 127
73 95 127
78 98 127
76 96 127
86 103 127
73 90 115
83 101 127
78 95 121
76 92 116
73 91 118
77 97 127
81 97 121
77 94 121
76 97 127
78 98 127
74 93 121
77 93 118
79 98 127
78 98 127
79 98 127
77 97 127
76 97 127
75 94 121
77 97 127
81 100 127
80 99 127
78 98 127
80 99 127
74 95 127
73 91 118
80 99 127
79 98 127
84 102 127
80 99 127
73 91 118
76 97 127
82 100 127
78 98 127
77 93 118
76 94 121
80 99 127
85 102 127
77 97 127
77 97 127
74 95 127
83 101 127
78 98 127
77 97 127
80 97 121
82 100 127
70 88 116
83 101 127
72 91 121
74 95 127
79 99 127
82 100 127
80 99 127
68 85 111
71 90 118
70 89 118
78 98 127
75 92 118
78 98 127
80 99 127
81 99 127
78 94 118
73 91 118
64 82 108
79 98 127
79 98 127
80 99 127
79 98 127
66 83 108
81 100 127
76 97 127
80 96 121
78 98 127
79 98 127
77 95 121
80 99 127
78 98 127
73 91 118
70 89 118
75 96 127
75 93 121
69 89 118
79 99 127
81 97 121
83 101 127
78 98 127
83 101 127
77 97 127
74 96 127
75 92 118
75 92 118
80 99 127
74 92 118
60 77 102
78 98 127
82 100 127
72 92 121
75 92 118
81 100 127
74 90 115
82 100 127
70 89 118
74 90 115
78 98 127
69 88 118
74 91 118
80 99 127
79 98 127
75 93 121
76 97 127
73 92 121
80 99 127
71 87 111
80 99 127
71 88 115
78 98 127
73 92 121
65 85 115
71 90 118
73 91 118
69 88 118
63 76 96
83 101 127
81 100 127
62 78 102
82 100 127
55 70 91
85 102 127
71 88 115
64 79 102
83 101 127
72 87 108
78 98 127
68 88 118
77 94 121
82 100 127
77 97 127
78 98 127
67 85 111
70 89 118
75 92 118
67 85 111
68 84 108
48 62 83
78 98 127
70 86 111
69 86 111
72 90 116
78 94 118
74 93 121
66 81 102
69 83 105
64 79 102
74 90 115
63 78 100
78 95 121
66 78 95
62 78 102
72 89 115
68 82 102
80 99 127
64 79 102
75 93 121
80 96 121
71 86 108
70 86 108
57 70 90
73 90 115
54 65 83
59 77 102
60 76 99
67 80 100
67 82 105
67 85 111
65 78 96
60 74 93
67 79 97
67 85 111
71 85 106
58 74 97
84 102 127
47 58 74
54 64 80
59 74 97
60 73 92
37 45 58
70 86 108
47 57 73
52 65 84
44 54 68
48 59 75
52 65 83
68 79 95
53 63 78
53 66 84
60 72 91
60 72 91
63 76 95
44 55 71
48 58 74
50 61 76
39 49 63
49 61 79
46 57 73
45 56 71
48 60 77
44 54 70
47 57 73
50 60 75
62 74 92
74 86 105
72 86 105
54 65 80
53 66 84
45 55 70
50 60 77
61 74 92
58 70 89
48 60 79
48 58 72
57 68 84
53 62 76
51 62 78
71 86 108
36 45 58
62 75 95
59 71 89
63 75 92
64 77 95
54 65 83
59 69 86
57 71 91
65 77 96
44 53 67
50 59 73
49 61 79
44 54 70
47 60 78
55 66 83
48 58 72
54 67 86
56 65 78
51 62 79
66 78 97
51 63 81
43 52 67
49 58 71
40 50 64
46 57 72
53 65 83
59 70 85
62 74 92
52 63 80
42 54 72
51 64 83
53 64 81
61 72 89
49 60 76
44 54 68
48 58 73
46 54 65
56 67 83
64 76 96
43 51 63
47 59 76
56 68 85
76 92 115
61 75 95
58 73 95
61 74 93
53 66 86
52 65 83
45 55 71
70 86 109
77 95 121
55 66 84
55 68 87
80 95 118
67 81 102
69 83 105
64 81 105
69 85 109
67 82 105
82 100 127
67 82 105
78 98 127
76 92 118
73 90 115
55 67 86
75 93 121
72 90 118
72 85 106
62 81 109
64 81 107
71 90 118
60 76 99
70 89 118
70 87 111
69 87 115
76 93 118
65 79 99
68 85 111
63 77 99
75 92 118
58 71 90
73 88 111
68 84 108
73 91 118
80 99 127
72 90 118
66 83 107
59 75 99
68 83 105
83 101 127
80 99 127
79 96 121
73 92 121
77 97 127
66 81 102
68 83 106
70 85 108
80 99 127
80 99 127
72 91 118
65 80 102
78 94 118
77 93 118
78 98 127
71 87 111
81 100 127
70 88 115
79 98 127
79 96 121
69 85 110
73 91 118
67 85 111
81 100 127
76 97 127
65 78 97
78 98 127
76 94 121
70 86 111
86 103 127
72 90 118
79 98 127
72 90 118
73 95 127
77 97 127
66 81 105
77 97 127
74 96 127
78 95 121
69 86 111
70 88 116
75 96 127
77 97 127
79 99 127
71 91 121
68 87 115
79 98 127
79 98 127
78 98 127
75 89 111
76 97 127
66 82 105
71 90 118
85 102 127
69 85 108
78 95 121
79 98 127
77 97 127
82 100 127
83 101 127
73 91 118
80 99 127
71 90 118
67 86 115
81 100 127
81 99 127
77 95 121
79 99 127
75 93 121
73 91 118
81 100 127
84 101 127
72 90 118
74 95 127
85 102 127
74 96 127
68 84 110
75 92 118
75 96 127
77 97 127
81 100 127
76 93 118
69 89 118
76 97 127
74 93 121
72 91 121
77 97 127
73 95 127
80 99 127
78 98 127
82 100 127
76 93 118
80 99 127
78 98 127
80 99 127
74 96 127
70 88 115
83 101 127
80 99 127
78 98 127
81 100 127
80 99 127
76 97 127
73 91 118
79 98 127
72 91 121
81 100 127
79 98 127
79 93 115
70 88 115
77 93 118
71 90 118
78 98 127
74 91 115
75 96 127
80 99 127
79 98 127
82 100 127
70 88 115
76 97 127
83 101 127
72 90 118
80 99 127
74 96 127
78 98 127
79 98 127
80 99 127
79 98 127
82 100 127
78 98 127
78 98 127
73 91 118
75 96 127
76 93 118
74 93 121
76 97 127
78 98 127
77 97 127
68 85 110
79 98 127
83 101 127
77 94 121
73 92 121
72 92 121
79 95 118
81 99 127
75 92 118
83 101 127
79 98 127
78 98 127
86 103 127
79 98 127
78 98 127
77 93 118
78 98 127
79 99 127
78 98 127
81 100 127
77 97 127
84 101 127
73 90 115
77 93 118
72 89 115
77 95 121
76 97 127
73 92 121
74 95 127
59 71 90
79 98 127
75 96 127
82 100 127
75 96 127
83 101 127
75 91 115
77 93 118
72 90 118
79 98 127
66 84 111
78 98 127
74 92 118
71 87 111
78 98 127
73 91 118
75 92 118
76 94 121
77 97 127
80 99 127
76 96 127
75 92 118
80 99 127
83 101 127
70 89 118
77 97 127
75 96 127
67 85 111
79 98 127
79 98 127
81 97 121
73 91 118
77 95 121
73 93 121
77 97 127
75 92 118
76 97 127
77 97 127
67 85 111
76 97 127
76 94 121
55 70 92
81 99 127
84 101 127
78 93 116
66 86 115
73 91 118
78 94 118
68 81 102
76 96 127
80 96 121
79 99 127
80 94 116
82 100 127
64 80 105
70 86 111
75 92 118
66 83 108
69 86 111
52 64 83
58 70 90
81 100 127
62 79 105
67 88 118
69 84 107
83 101 127
78 98 127
72 88 111
72 88 111
72 90 118
76 94 121
60 75 99
69 86 111
76 94 121
65 80 102
78 94 118
59 75 98
77 94 121
65 80 102
77 93 118
67 82 106
64 80 105
66 79 99
73 87 108
74 90 115
47 57 71
78 93 115
65 77 95
72 89 115
70 85 108
67 82 105
71 87 111
68 84 109
53 64 80
70 84 105
68 82 102
38 46 57
60 73 92
52 63 80
64 77 97
70 85 108
65 81 105
58 71 91
73 88 111
83 101 127
45 57 75
33 39 48
41 49 61
64 76 96
32 38 48
40 50 64
46 57 73
45 55 70
59 69 83
66 80 102
60 73 91
51 62 78
63 76 95
48 58 71
55 65 80
39 46 56
34 43 57
49 59 75
47 58 75
49 59 75
51 61 76
48 59 75
65 77 95
65 78 96
51 62 78
60 72 91
50 61 78
55 65 81
50 62 79
66 81 102
45 56 73
45 53 67
61 75 95
45 56 73
54 65 81
44 53 65
55 68 89
49 59 75
46 58 76
46 56 71
54 66 84
54 64 78
56 67 83
52 63 79
44 54 68
61 75 95
60 72 89
55 68 86
42 51 65
40 49 63
68 81 102
40 49 63
63 76 95
52 63 80
50 59 72
46 57 72
43 53 67
35 44 57
57 70 89
51 61 76
51 63 83
47 57 71
69 82 102
45 56 73
36 43 54
57 68 83
46 56 70
54 65 81
54 67 86
49 60 77
43 51 63
55 66 82
59 71 89
61 71 87
48 58 73
60 74 95
77 92 115
51 63 80
44 53 67
54 65 83
76 91 115
62 78 102
83 101 127
81 100 127
56 67 83
75 89 110
62 77 99
79 96 121
53 66 87
68 80 99
64 82 108
68 84 108
69 85 109
59 70 86
60 75 97
59 74 96
73 88 111
79 98 127
73 88 111
76 92 116
65 78 99
78 98 127
82 100 127
59 73 93
67 84 108
70 86 110
60 76 99
64 78 99
61 79 106
56 70 92
67 82 104
66 82 105
55 67 86
63 80 105
72 89 115
68 87 115
67 84 109
64 83 111
53 68 89
77 93 118
80 99 127
80 99 127
74 90 115
72 88 111
74 91 118
70 86 111
74 93 121
71 90 118
71 90 118
72 90 118
73 95 127
66 83 110
79 98 127
73 89 115
79 99 127
62 80 105
77 95 121
66 83 108
73 88 111
61 77 100
73 91 118
64 81 105
75 92 118
82 100 127
68 86 111
75 96 127
82 100 127
83 101 127
75 96 127
80 99 127
76 94 121
76 97 127
75 91 115
73 92 121
83 101 127
74 95 127
63 79 102
81 99 127
77 95 121
70 88 115
78 98 127
77 97 127
76 93 118
76 94 121
84 101 127
79 98 127
87 103 127
75 92 118
77 97 127
86 102 127
77 97 127
83 101 127
66 82 106
77 97 127
77 95 121
82 100 127
72 90 118
71 88 115
76 96 127
81 99 127
81 100 127
70 89 118
64 82 108
76 92 118
82 100 127
85 102 127
76 93 118
78 98 127
74 92 118
74 95 127
80 99 127
73 91 118
75 96 127
69 89 118
74 93 121
77 95 121
85 102 127
78 98 127
76 93 118
79 98 127
82 100 127
77 93 118
73 95 127
83 101 127
79 98 127
77 97 127
77 97 127
78 98 127
77 97 127
80 99 127
79 98 127
68 84 108
77 97 127
70 87 111
75 92 118
85 102 127
78 98 127
79 98 127
81 99 127
83 101 127
78 95 121
81 100 127
75 92 118
74 91 118
77 97 127
83 101 127
79 98 127
83 101 127
77 97 127
68 84 110
79 98 127
78 98 127
78 98 127
78 98 127
83 101 127
81 100 127
79 98 127
77 97 127
74 91 118
76 93 118
77 97 127
82 100 127
74 96 127
80 99 127
80 99 127
75 93 121
78 95 121
80 99 127
78 98 127
77 97 127
76 96 127
73 95 127
79 98 127
84 101 127
70 85 108
70 87 111
80 99 127
78 98 127
75 94 121
81 100 127
78 98 127
75 96 127
78 98 127
76 97 127
61 76 99
68 83 106
72 90 118
70 88 116
75 96 127
81 99 127
67 87 115
79 98 127
78 95 121
76 94 121
78 95 121
80 99 127
77 97 127
70 89 118
73 95 127
69 86 111
81 99 127
82 100 127
78 98 127
79 98 127
70 88 115
71 87 111
77 95 121
77 97 127
73 91 118
87 103 127
84 101 127
74 92 118
84 102 127
67 84 108
68 85 111
82 100 127
78 98 127
76 94 121
77 95 121
83 101 127
75 96 127
83 101 127
79 98 127
66 84 111
73 92 121
74 95 127
76 93 118
73 95 127
63 83 111
81 100 127
80 99 127
77 97 127
81 99 127
76 97 127
86 102 127
60 77 103
81 100 127
82 100 127
73 91 118
61 79 107
76 97 127
75 96 127
74 92 118
76 97 127
71 90 118
79 95 118
75 96 127
85 102 127
81 100 127
85 102 127
76 94 121
81 100 127
72 89 115
77 97 127
73 87 108
70 89 118
81 99 127
73 91 118
73 90 115
73 91 118
70 89 116
71 89 115
74 93 121
82 100 127
73 92 121
74 93 121
65 81 106
77 95 121
77 92 115
71 87 111
77 94 121
58 73 94
75 96 127
75 92 118
59 75 99
74 92 118
62 79 105
74 93 121
58 71 90
73 91 118
72 88 111
55 67 84
75 94 121
79 96 121
59 72 91
74 90 115
66 82 105
73 87 110
71 89 115
76 93 118
62 76 97
76 93 118
67 84 110
72 90 116
73 91 118
78 98 127
68 84 107
60 74 95
59 71 89
72 86 107
69 85 109
75 91 115
69 85 108
76 92 115
67 83 108
66 82 105
76 92 115
61 74 94
71 87 111
49 64 85
63 76 95
53 66 87
56 67 83
72 88 111
45 53 67
24 30 39
72 88 111
51 62 77
65 78 98
62 75 94
49 62 81
40 48 61
49 60 77
54 64 79
59 71 89
47 59 76
70 83 102
48 58 73
61 73 92
56 67 84
46 54 65
58 71 91
49 58 71
50 59 73
53 66 86
55 65 79
56 67 83
49 61 79
48 58 73
44 54 71
49 58 72
55 69 89
57 70 89
42 52 67
46 57 73
63 76 95
55 67 86
47 57 71
55 66 84
50 62 79
61 72 89
36 45 59
54 65 81
40 50 65
58 68 83
64 77 97
48 59 76
66 79 97
45 54 68
51 61 76
50 59 73
42 51 64
60 72 90
53 65 83
59 71 90
47 56 69
48 58 72
47 57 73
56 67 84
61 75 95
50 60 76
46 55 68
49 58 72
51 60 73
58 70 89
50 62 80
41 52 68
52 64 83
46 57 74
30 36 45
43 52 65
46 56 71
49 59 73
63 76 97
50 60 76
56 67 83
53 64 81
63 76 95
62 73 91
71 87 110
52 63 78
49 58 73
41 50 62
47 57 71
60 73 92
33 41 53
64 78 99
56 69 90
47 57 72
65 80 102
64 77 96
53 65 84
52 66 86
64 76 95
65 80 102
52 65 86
56 72 95
72 86 108
55 69 89
72 85 105
73 91 118
45 58 77
57 69 87
62 77 99
61 72 89
63 77 99
73 87 108
62 77 99
56 70 91
54 70 95
75 92 118
69 85 109
80 95 118
72 86 108
51 60 75
65 77 96
66 79 99
65 81 105
70 87 111
58 73 96
71 89 118
72 89 115
70 87 111
60 73 93
63 78 102
57 69 87
73 92 121
72 90 115
83 101 127
71 90 118
62 76 96
71 89 115
56 71 93
79 98 127
80 99 127
83 101 127
70 91 121
82 100 127
67 84 108
75 92 118
72 90 118
87 103 127
66 83 108
72 88 111
70 91 121
71 90 118
73 92 121
73 95 127
64 81 105
69 84 105
68 83 105
76 96 127
80 99 127
74 96 127
78 98 127
69 85 109
63 79 102
76 94 121
71 88 115
66 84 111
72 92 121
77 97 127
76 97 127
79 99 127
68 87 115
76 97 127
80 99 127
72 90 118
57 71 93
60 75 97
83 101 127
73 90 115
80 99 127
76 92 115
72 91 118
77 97 127
82 100 127
77 95 121
79 98 127
62 78 102
75 91 115
78 98 127
74 91 118
77 93 118
72 90 118
78 95 121
76 94 121
69 89 118
70 88 115
76 94 121
71 87 111
69 86 111
80 99 127
79 98 127
69 88 118
74 95 127
73 91 118
82 100 127
78 95 121
78 98 127
82 100 127
79 98 127
78 98 127
76 93 118
78 98 127
76 97 127
78 98 127
71 91 121
87 103 127
83 101 127
81 100 127
80 99 127
82 100 127
77 97 127
76 94 121
76 96 127
77 97 127
79 96 121
72 90 118
79 98 127
77 97 127
79 98 127
82 100 127
80 99 127
75 96 127
74 91 118
76 97 127
81 100 127
79 99 127
80 99 127
78 98 127
78 98 127
81 100 127
84 101 127
86 102 127
77 97 127
69 90 121
70 91 121
73 92 121
78 98 127
78 98 127
79 96 121
79 98 127
71 89 118
67 85 111
85 102 127
74 92 118
71 90 118
76 97 127
77 94 121
78 95 121
77 97 127
70 93 127
83 101 127
75 96 127
81 99 127
70 90 121
74 92 118
81 100 127
83 101 127
81 100 127
82 100 127
83 101 127
74 92 118
74 93 121
83 101 127
79 98 127
86 103 127
83 101 127
77 97 127
69 93 127
80 99 127
77 97 127
83 101 127
79 98 127
71 90 118
73 91 118
70 87 111
77 95 121
66 82 105
82 100 127
79 99 127
78 98 127
75 92 116
85 102 127
76 97 127
76 93 118
82 100 127
78 98 127
75 96 127
84 101 127
77 97 127
74 91 118
77 93 118
70 87 111
85 102 127
73 90 115
74 93 121
78 98 127
71 89 115
78 98 127
73 91 118
80 97 121
78 98 127
75 96 127
74 95 127
75 92 118
74 93 121
76 97 127
81 100 127
77 97 127
70 85 109
74 88 110
78 94 118
76 97 127
78 98 127
78 98 127
80 99 127
71 87 111
81 100 127
76 92 115
67 82 106
74 92 118
81 100 127
69 88 118
64 82 109
72 90 118
73 91 118
74 92 118
64 81 107
68 84 107
84 101 127
57 71 92
76 96 127
64 78 99
77 93 118
78 98 127
70 89 118
59 75 99
62 75 96
73 92 121
74 93 121
77 97 127
82 100 127
62 78 102
76 93 118
59 71 89
64 82 109
74 91 116
81 99 127
74 93 121
68 87 115
68 89 121
70 91 121
67 84 108
74 90 115
71 88 115
70 87 111
75 94 121
77 97 127
68 88 118
69 83 105
71 87 111
85 102 127
66 82 106
71 90 118
69 86 111
71 85 105
75 91 115
71 90 118
71 86 109
78 98 127
70 87 111
68 85 110
68 85 111
55 71 96
76 94 121
56 68 86
61 75 97
57 74 99
75 94 121
62 74 92
72 91 118
77 93 118
71 83 102
69 84 106
64 75 91
68 82 103
72 88 111
81 97 121
60 73 92
79 96 121
62 77 99
73 91 118
64 78 99
49 60 78
59 72 92
72 85 106
66 79 99
59 72 90
58 70 89
69 86 111
58 74 99
69 83 105
69 85 108
52 65 84
70 87 111
57 69 86
56 70 89
58 72 92
55 66 83
64 77 96
62 76 96
46 57 74
43 51 62
55 66 81
57 67 81
54 68 87
60 72 90
47 58 73
40 48 59
46 57 73
47 55 67
34 43 56
58 69 84
41 49 62
52 63 79
43 52 66
49 61 79
45 55 70
47 55 69
67 79 97
46 58 76
41 49 62
69 82 102
41 49 61
37 45 59
58 70 87
51 62 78
58 70 87
41 51 67
63 74 91
62 73 89
64 77 96
49 59 73
59 71 89
48 58 72
56 67 84
65 78 97
51 63 79
38 48 64
61 75 95
43 53 67
52 63 80
47 59 77
56 67 85
67 81 102
40 49 62
57 68 86
55 67 86
74 86 103
44 53 65
29 35 45
65 77 95
59 70 86
44 54 70
38 49 65
52 62 78
43 52 65
62 73 89
44 54 68
43 52 65
44 54 70
48 60 76
51 62 78
61 72 89
59 73 92
43 52 67
55 66 83
39 50 65
54 65 83
54 65 81
54 64 79
46 56 71
52 63 80
37 46 59
51 60 74
58 69 85
52 62 76
51 61 75
64 77 96
52 62 78
70 85 106
64 79 102
70 85 108
65 78 99
79 99 127
64 76 94
65 80 103
72 88 111
74 93 121
52 64 81
73 87 108
60 73 91
77 97 127
57 70 89
74 91 118
69 84 107
48 59 75
73 87 108
42 53 68
73 90 115
70 85 109
59 70 87
71 86 110
73 88 111
68 84 109
76 91 115
75 93 121
71 86 109
66 80 99
82 97 121
74 90 115
61 76 99
77 94 118
63 79 103
63 80 105
73 95 127
67 84 108
55 70 93
69 84 105
74 93 121
63 80 105
80 99 127
72 88 111
66 81 103
69 88 115
66 81 105
81 100 127
72 87 110
68 84 108
74 90 115
76 93 118
77 91 111
65 84 111
76 93 118
75 91 115
77 95 121
72 91 118
77 97 127
78 94 118
79 95 118
69 89 118
79 98 127
75 93 121
64 81 107
78 95 121
71 90 118
80 99 127
77 93 118
74 92 118
68 85 111
72 89 115
58 76 102
66 80 102
63 76 95
77 93 118
76 94 121
83 101 127
68 83 105
82 100 127
72 88 111
78 98 127
67 83 107
77 97 127
77 97 127
82 100 127
75 96 127
77 97 127
81 100 127
82 100 127
79 99 127
79 96 121
83 101 127
67 86 115
74 91 118
78 98 127
73 91 118
78 95 121
74 93 121
80 99 127
76 97 127
76 97 127
75 96 127
75 92 118
80 99 127
74 91 115
78 98 127
78 98 127
69 87 115
80 99 127
66 83 109
82 100 127
70 89 118
82 100 127
73 92 121
73 91 118
81 99 127
82 100 127
84 101 127
78 98 127
76 97 127
60 75 99
79 98 127
70 87 111
78 98 127
80 99 127
78 98 127
78 98 127
74 95 127
84 101 127
75 96 127
78 98 127
71 89 115
81 99 127
75 96 127
79 98 127
81 100 127
77 93 118
83 101 127
80 99 127
77 97 127
76 94 121
76 97 127
85 102 127
80 99 127
71 87 111
81 100 127
82 100 127
79 99 127
84 101 127
81 100 127
81 97 121
74 91 118
80 99 127
76 97 127
78 98 127
78 98 127
75 93 121
66 86 115
78 98 127
84 102 127
82 100 127
85 102 127
75 93 121
77 97 127
76 97 127
75 96 127
81 100 127
79 98 127
73 91 118
79 99 127
80 99 127
75 96 127
81 100 127
71 90 118
79 98 127
79 98 127
74 93 121
81 99 127
81 100 127
80 99 127
85 102 127
75 93 121
71 90 118
75 96 127
77 94 121
69 85 108
75 96 127
78 95 121
76 94 121
80 99 127
73 95 127
82 100 127
73 91 118
71 90 118
77 95 121
81 100 127
79 99 127
77 97 127
82 100 127
80 99 127
73 91 118
69 85 108
82 100 127
80 99 127
74 95 127
84 101 127
86 102 127
79 99 127
79 98 127
80 99 127
80 99 127
83 101 127
80 99 127
69 90 121
75 92 118
78 95 121
72 92 121
70 89 118
73 91 118
82 100 127
72 91 118
74 92 118
74 96 127
78 95 121
64 80 103
77 97 127
79 98 127
82 100 127
82 100 127
80 96 121
78 98 127
71 87 111
77 97 127
72 91 118
72 94 127
76 97 127
79 98 127
77 93 118
74 93 121
72 89 115
78 98 127
72 88 111
77 97 127
62 76 99
82 100 127
69 87 115
69 87 115
62 76 97
63 80 105
76 97 127
73 91 118
85 102 127
62 82 111
69 84 105
81 100 127
71 86 108
76 94 121
63 83 111
63 83 111
80 96 121
74 92 118
63 76 97
73 91 118
76 96 127
72 90 118
70 89 118
76 96 127
64 79 102
64 81 106
69 85 109
73 92 121
72 88 111
63 79 102
74 95 127
78 98 127
68 84 108
68 85 111
75 96 127
69 81 99
75 96 127
60 75 96
75 92 118
56 70 92
74 91 116
66 83 108
60 72 90
72 89 115
68 88 118
74 93 121
82 100 127
70 86 111
58 69 86
68 83 106
66 83 108
75 94 121
75 93 121
67 82 105
65 80 102
60 72 91
74 92 118
77 95 121
60 75 97
59 75 99
68 83 106
70 84 105
62 75 96
64 79 102
69 85 108
67 82 105
54 67 87
67 86 115
60 72 90
75 92 118
69 84 107
60 74 95
70 83 103
51 62 77
63 77 97
51 61 77
49 59 74
62 74 93
39 48 63
65 77 94
39 48 61
79 95 118
44 53 67
55 67 84
59 69 86
42 52 67
46 56 70
62 73 89
45 55 70
51 64 83
54 65 81
51 62 79
49 60 76
45 56 71
59 71 89
44 55 71
42 49 61
37 45 57
53 65 83
47 58 73
44 53 67
58 70 87
45 53 65
47 57 71
48 57 72
52 65 83
44 55 72
65 77 96
43 54 70
52 66 86
63 76 95
62 77 99
51 61 76
45 55 70
64 77 97
55 65 81
58 71 89
49 60 76
42 51 64
56 68 85
47 56 68
41 50 64
64 79 102
57 68 84
56 69 89
46 56 70
59 69 84
41 49 61
49 58 71
47 59 76
40 49 62
52 64 83
42 51 65
61 72 89
48 58 73
45 53 67
55 66 83
52 63 79
35 42 53
42 49 61
63 76 96
45 56 73
47 57 73
59 71 87
58 70 89
53 63 78
39 47 59
59 73 92
52 62 77
38 45 57
44 54 70
49 60 75
74 91 118
56 67 83
58 74 97
65 80 102
72 88 111
46 56 71
71 85 105
63 76 97
48 59 74
62 79 105
68 85 111
56 70 89
69 85 108
63 77 99
62 76 97
54 65 83
69 85 108
81 99 127
44 53 67
53 65 83
61 76 99
76 94 121
76 93 118
68 87 115
70 87 111
74 91 118
78 95 121
69 82 102
53 65 84
51 61 76
68 84 108
62 75 95
79 96 121
65 81 105
76 96 127
75 89 111
64 78 99
64 79 102
66 84 111
70 87 111
75 92 118
63 76 96
75 93 121
63 78 100
68 83 105
80 99 127
67 84 108
70 87 111
67 83 108
79 96 121
72 89 115
69 85 108
66 84 111
66 83 108
79 99 127
58 73 96
63 79 102
75 93 121
66 84 109
72 92 121
79 98 127
50 62 79
68 85 110
82 100 127
63 82 111
63 81 108
75 93 121
68 85 111
81 100 127
74 91 118
73 91 118
71 91 121
80 99 127
70 88 115
76 93 118
67 84 108
78 95 121
72 92 121
70 84 106
70 90 121
80 99 127
83 101 127
68 83 106
72 89 115
72 92 121
72 91 118
74 95 127
81 100 127
83 101 127
82 100 127
67 79 99
70 86 111
71 90 118
78 98 127
67 84 110
80 99 127
71 90 118
76 94 121
75 93 121
83 101 127
77 97 127
74 93 121
62 79 105
71 86 108
81 97 121
81 100 127
73 93 121
75 96 127
71 89 115
70 87 111
83 101 127
74 96 127
74 92 118
79 98 127
81 100 127
70 87 111
74 92 118
84 101 127
72 91 118
70 88 115
84 102 127
66 87 118
68 85 111
77 97 127
70 86 111
74 92 118
73 91 118
77 97 127
77 95 121
82 100 127
69 87 115
78 98 127
78 98 127
80 95 118
78 98 127
73 91 118
80 99 127
71 89 116
75 93 121
81 100 127
77 97 127
72 92 121
83 101 127
75 94 121
71 90 118
79 98 127
83 101 127
77 95 121
76 96 127
80 99 127
80 99 127
74 95 127
76 96 127
82 100 127
80 96 121
76 97 127
80 99 127
78 98 127
74 92 118
78 98 127
76 92 118
78 98 127
76 97 127
78 95 121
85 102 127
76 94 121
79 98 127
78 93 115
81 99 127
80 99 127
75 93 121
70 88 115
80 99 127
67 88 118
73 89 115
83 101 127
75 96 127
78 92 115
68 89 121
78 98 127
78 98 127
77 97 127
79 98 127
80 99 127
80 99 127
76 93 118
75 94 121
78 98 127
76 93 118
81 100 127
84 101 127
70 89 118
72 92 121
83 101 127
78 98 127
76 94 121
78 98 127
69 88 116
78 96 121
82 100 127
78 98 127
75 96 127
73 91 118
76 97 127
64 82 108
82 100 127
79 98 127
79 98 127
74 91 118
72 90 116
86 102 127
78 98 127
74 93 121
86 102 127
75 94 121
82 100 127
63 75 92
68 88 118
74 92 118
74 92 118
76 97 127
70 86 111
80 99 127
72 88 111
83 101 127
62 81 108
74 95 127
80 96 121
70 89 116
83 101 127
80 99 127
77 94 121
71 89 115
77 93 115
79 98 127
79 99 127
82 100 127
76 97 127
73 92 121
83 101 127
67 86 115
71 90 118
74 92 118
77 94 118
78 95 121
75 92 118
84 101 127
70 86 108
84 102 127
72 87 109
72 91 118
74 90 115
72 91 118
66 84 111
68 85 111
75 92 118
77 95 121
62 79 105
59 71 91
70 89 118
75 96 127
79 98 127
81 100 127
80 99 127
76 93 118
64 83 111
77 95 121
65 80 102
64 79 102
67 81 102
77 94 121
75 91 115
59 70 86
58 73 95
74 93 121
82 100 127
54 68 89
57 73 96
67 81 102
80 96 121
73 91 118
60 73 93
70 86 111
67 81 102
61 76 99
72 87 109
85 102 127
72 86 108
69 83 105
56 69 89
76 93 118
65 81 105
64 79 102
64 81 107
64 78 99
66 82 105
62 78 103
77 95 121
68 83 106
73 91 118
73 90 115
82 97 121
60 76 99
77 94 121
77 90 109
81 100 127
71 90 118
70 83 103
64 78 99
56 68 87
68 86 111
58 73 94
65 80 102
47 56 71
63 75 95
70 85 108
56 71 93
59 74 97
65 80 102
66 80 100
63 80 105
47 58 74
53 64 80
43 52 66
31 39 52
54 64 80
52 62 76
53 64 80
67 82 105
56 68 86
60 73 92
63 73 89
32 40 53
48 57 71
60 73 91
48 58 73
57 70 89
68 80 99
55 66 83
56 68 86
45 54 67
49 56 68
39 48 62
52 62 78
46 56 71
47 58 73
48 59 75
56 68 84
46 55 68
54 66 84
42 52 67
34 43 57
48 59 76
47 58 73
49 61 79
49 58 72
62 74 91
38 46 59
43 51 64
47 57 71
60 74 95
55 69 89
45 55 70
62 76 96
36 43 54
60 70 84
46 56 70
47 58 73
61 72 89
58 70 89
45 58 76
58 69 86
47 56 70
55 66 83
60 71 87
64 77 95
55 67 86
37 46 59
36 44 56
32 39 50
39 48 62
46 56 70
44 52 65
54 66 83
58 70 87
49 60 78
51 60 73
44 53 65
39 48 60
39 45 56
64 77 97
44 53 67
53 63 78
33 41 52
66 78 96
58 70 87
59 71 87
50 59 72
64 75 93
61 75 95
46 55 69
56 69 88
37 43 53
56 66 80
50 61 78
67 82 105
42 53 69
80 95 118
58 73 94
53 62 77
51 62 79
71 91 121
58 69 87
52 64 81
66 80 100
53 68 89
68 85 111
66 83 108
74 91 118
66 80 102
68 84 108
59 74 95
76 94 121
58 73 97
71 88 115
52 65 85
70 87 111
64 79 102
74 92 118
73 90 116
79 98 127
71 87 111
69 87 115
63 79 102
59 75 99
70 87 111
55 69 89
76 93 118
67 81 102
75 96 127
76 93 118
77 95 121
79 98 127
77 97 127
78 98 127
77 97 127
76 94 121
71 87 111
69 88 118
71 87 111
76 94 121
67 85 111
83 101 127
74 93 121
71 89 115
74 90 115
73 91 118
68 86 111
74 91 115
71 90 118
80 99 127
74 89 111
83 101 127
76 94 121
67 82 105
68 84 108
70 88 115
79 98 127
78 98 127
75 96 127
63 79 102
72 88 111
77 97 127
64 78 99
83 101 127
74 91 118
79 98 127
68 86 111
77 97 127
70 89 118
78 94 118
70 89 118
68 86 111
75 93 121
74 90 115
75 92 118
71 91 121
81 100 127
64 81 106
81 97 121
80 99 127
75 92 118
66 84 111
69 85 109
74 93 121
77 97 127
69 89 118
80 99 127
76 96 127
83 101 127
74 96 127
73 92 121
66 83 108
74 96 127
75 96 127
76 93 118
81 100 127
80 96 121
86 103 127
72 92 121
61 80 108
78 98 127
73 88 111
72 89 115
72 90 118
66 81 105
66 83 108
63 78 102
73 91 118
77 97 127
79 98 127
71 90 118
78 98 127
78 95 121
74 93 121
74 91 115
81 99 127
77 95 121
80 99 127
73 95 127
76 96 127
81 100 127
71 90 118
79 98 127
73 91 118
78 98 127
78 98 127
65 83 111
82 100 127
83 101 127
74 95 127
72 91 121
81 99 127
79 96 121
79 98 127
80 99 127
80 99 127
75 96 127
77 93 118
75 91 115
72 94 127
78 98 127
76 97 127
69 86 111
76 97 127
83 101 127
76 94 121
62 80 107
78 98 127
77 97 127
77 97 127
80 99 127
77 97 127
77 93 118
76 97 127
77 97 127
76 94 121
73 95 127
80 99 127
79 98 127
75 93 121
72 89 115
80 99 127
77 97 127
77 97 127
81 100 127
82 100 127
82 100 127
74 92 118
76 97 127
69 88 115
79 99 127
71 90 118
75 92 118
78 95 121
79 99 127
74 93 121
75 92 118
71 87 111
79 96 121
75 96 127
75 96 127
79 96 121
71 88 115
79 99 127
78 98 127
77 97 127
82 100 127
78 95 121
72 89 115
76 96 127
78 95 121
77 94 121
82 100 127
73 92 121
75 96 127
70 91 121
84 101 127
68 86 111
73 92 121
77 97 127
70 87 111
78 98 127
60 74 95
83 101 127
78 98 127
79 98 127
84 101 127
82 100 127
67 86 115
72 90 118
80 96 121
67 84 109
70 86 111
79 96 121
67 80 99
82 100 127
82 100 127
69 85 109
72 92 121
76 94 121
70 87 111
67 85 111
82 100 127
68 86 111
79 98 127
79 99 127
71 89 115
73 92 121
72 91 118
80 99 127
72 89 115
82 100 127
73 90 115
70 86 111
69 86 111
84 101 127
74 95 127
76 94 121
77 97 127
77 97 127
77 93 118
70 89 118
83 101 127
81 99 127
75 96 127
51 61 77
75 92 118
67 85 111
58 73 96
73 90 115
68 88 118
73 91 118
63 82 110
76 90 111
82 100 127
76 90 111
73 95 127
68 84 108
72 92 121
58 77 105
70 86 111
75 93 121
64 80 105
73 88 111
77 95 121
72 86 108
75 92 118
61 75 96
75 92 118
83 101 127
73 90 115
80 99 127
55 70 94
66 83 108
62 77 99
75 96 127
74 91 115
71 89 115
59 73 96
70 85 109
64 78 99
64 80 105
67 83 108
73 91 118
77 97 127
60 77 102
69 89 118
56 70 92
66 80 102
65 81 106
62 76 96
63 75 92
66 81 105
71 87 111
58 73 95
59 73 95
67 81 102
64 81 106
68 83 106
55 66 83
64 79 103
44 53 67
64 77 97
45 53 65
63 76 96
65 79 100
56 67 83
50 61 77
64 75 92
37 45 56
50 60 75
32 40 52
67 82 103
76 89 109
52 63 80
54 63 77
59 69 84
48 58 72
57 68 85
50 61 76
45 53 65
48 57 71
43 53 67
34 43 57
33 41 52
34 42 52
46 57 73
45 56 72
49 61 78
37 43 52
55 65 80
46 54 67
63 76 95
57 68 84
55 66 81
44 52 63
46 57 73
47 58 73
55 66 83
57 67 83
45 54 68
46 56 70
59 71 89
45 54 68
53 65 83
35 44 59
62 74 92
41 51 67
51 60 75
48 57 72
52 63 79
34 42 54
61 73 91
39 48 61
48 57 71
53 64 81
43 50 62
42 51 65
44 53 67
52 62 78
64 76 96
53 63 78
40 50 65
42 52 67
62 73 90
51 63 79
61 75 95
43 52 67
55 65 79
60 72 91
38 46 56
40 50 67
58 71 89
56 68 84
52 64 83
39 47 60
64 75 92
53 65 83
34 41 52
51 60 74
32 40 52
54 65 82
60 71 89
62 75 93
60 72 91
36 43 53
56 68 87
67 81 102
35 43 56
61 75 96
55 66 83
61 77 99
60 73 93
58 72 92
73 90 115
58 73 95
59 72 92
57 67 84
74 89 111
48 60 77
55 68 87
67 82 105
64 78 99
66 80 102
69 84 105
52 64 81
68 83 106
58 73 95
55 68 89
60 77 103
61 74 92
69 85 108
57 73 99
63 79 102
55 68 87
48 63 85
66 80 102
75 93 121
63 77 96
55 69 90
68 81 100
57 69 87
48 60 76
57 70 89
76 94 121
72 88 111
77 95 121
66 83 108
63 80 105
75 93 121
85 102 127
69 86 111
69 90 121
60 74 96
81 97 121
63 79 103
73 91 118
77 93 118
70 89 118
59 74 95
69 84 107
64 79 100
78 98 127
77 93 118
77 97 127
82 100 127
82 96 118
70 85 108
78 95 121
70 88 115
62 75 96
71 86 108
73 91 118
77 92 115
64 79 102
70 89 118
65 83 108
67 84 108
77 93 118
80 99 127
75 94 121
79 98 127
70 88 115
79 98 127
73 88 111
67 82 105
76 97 127
70 89 116
62 80 107
76 94 121
81 100 127
73 90 115
68 88 118
68 84 109
79 98 127
72 90 118
73 90 116
79 99 127
58 74 99
71 87 111
75 96 127
69 87 115
74 92 118
77 94 121
63 77 99
81 99 127
70 87 111
73 95 127
79 99 127
76 97 127
77 97 127
81 100 127
85 102 127
78 98 127
77 97 127
81 100 127
84 101 127
78 98 127
79 98 127
66 85 115
76 94 121
69 90 121
64 82 108
78 98 127
82 100 127
79 99 127
80 99 127
80 99 127
76 94 121
81 100 127
75 93 121
71 87 111
80 99 127
82 98 121
71 89 115
72 90 118
80 99 127
82 100 127
79 99 127
69 90 121
71 88 115
78 95 121
74 96 127
77 97 127
74 96 127
67 86 115
77 93 118
83 101 127
77 95 121
79 98 127
73 92 121
77 97 127
75 92 118
71 90 118
79 98 127
72 94 127
78 98 127
82 100 127
66 82 105
81 100 127
75 92 118
81 100 127
80 95 118
81 100 127
83 101 127
82 100 127
76 96 127
77 97 127
75 92 118
72 92 121
78 98 127
76 97 127
82 100 127
65 82 107
76 97 127
75 96 127
79 99 127
76 97 127
78 98 127
82 100 127
78 98 127
77 97 127
76 96 127
74 93 121
78 98 127
76 93 118
79 99 127
80 99 127
81 100 127
82 100 127
69 88 115
74 95 127
82 100 127
77 93 118
70 85 108
80 99 127
79 96 121
77 94 121
79 96 121
75 92 118
80 99 127
77 97 127
78 98 127
69 88 118
73 91 118
78 98 127
83 101 127
80 99 127
80 99 127
84 101 127
72 91 121
69 92 127
79 98 127
80 99 127
80 99 127
80 99 127
80 99 127
71 87 111
80 99 127
82 100 127
79 99 127
76 97 127
70 89 118
72 89 115
78 96 121
76 96 127
70 86 110
80 99 127
78 98 127
83 101 127
66 86 115
72 91 118
74 91 115
63 78 100
63 80 105
84 101 127
73 92 121
79 98 127
71 90 118
76 92 116
74 92 118
72 92 121
78 98 127
77 97 127
76 94 121
78 98 127
78 95 121
79 99 127
74 96 127
71 90 118
80 97 121
73 90 115
63 80 106
77 95 121
63 77 99
70 89 118
72 94 127
73 90 116
71 86 108
68 83 105
81 97 121
76 97 127
53 65 83
75 96 127
69 84 108
72 90 118
62 78 103
66 83 108
75 92 118
84 101 127
72 91 121
75 92 118
69 86 111
83 101 127
62 77 99
67 86 115
75 94 121
72 88 111
68 87 115
64 79 103
73 92 121
67 82 106
80 96 121
77 95 121
75 91 116
66 83 108
72 89 115
64 78 99
66 81 102
78 94 118
82 100 127
67 84 110
64 79 102
68 85 111
78 98 127
72 89 115
56 68 87
70 88 115
66 82 105
64 81 106
71 85 106
76 91 115
70 87 111
69 86 111
57 68 86
73 88 111
74 92 118
39 47 59
61 76 99
52 67 89
54 67 87
61 75 96
59 71 89
81 100 127
65 82 108
58 73 95
65 79 99
60 74 94
65 79 99
72 89 115
66 83 108
66 79 99
61 72 89
67 81 102
52 62 78
50 61 77
63 75 93
65 79 99
55 67 83
60 75 99
51 64 84
73 87 108
69 82 102
65 78 96
54 66 84
59 71 89
56 68 87
60 70 87
33 39 48
39 47 59
40 46 56
37 46 60
44 52 63
44 52 65
53 64 80
35 42 51
59 69 84
64 75 92
57 67 80
25 31 41
43 52 65
47 55 68
59 69 84
34 43 55
39 46 57
36 43 54
50 61 78
37 44 54
45 54 68
65 78 97
48 60 78
52 63 79
50 58 70
50 60 75
53 63 79
63 77 99
44 53 68
47 58 74
41 51 66
53 66 84
59 70 86
66 80 102
38 47 60
45 55 72
51 62 78
57 68 83
37 43 54
50 61 78
50 61 77
40 49 62
48 58 73
60 74 95
36 44 57
56 65 79
49 60 77
38 47 59
42 51 65
58 71 91
55 67 84
49 57 70
56 66 81
50 61 78
36 44 55
58 69 84
46 54 67
46 56 72
50 60 75
71 83 100
65 78 99
55 64 77
60 70 86
68 81 99
35 42 53
53 62 76
43 51 64
47 55 67
65 78 96
56 67 84
51 62 79
44 54 68
60 73 91
61 76 97
73 87 108
51 63 80
48 60 78
76 94 121
58 69 87
70 87 111
66 80 99
77 95 121
71 85 106
72 89 115
67 82 105
70 83 102
42 52 67
61 73 92
73 86 107
58 71 90
60 74 94
61 74 92
60 75 97
47 58 75
50 60 75
59 72 92
61 75 95
58 74 99
68 84 107
72 88 111
59 75 99
62 79 105
74 90 115
52 66 87
65 81 105
62 80 107
73 95 127
87 103 127
62 78 102
63 77 99
77 93 116
65 82 107
66 81 103
56 68 87
68 81 102
64 82 108
73 95 127
59 76 102
65 80 102
72 91 118
70 87 111
78 93 115
68 87 115
81 99 127
61 76 99
69 87 115
70 89 118
68 86 111
72 90 115
73 90 115
66 84 111
73 92 121
66 81 103
79 99 127
61 80 108
77 97 127
73 90 115
73 92 121
74 91 115
75 93 121
72 91 118
65 83 111
78 95 121
76 93 118
74 91 118
75 91 115
80 99 127
66 84 111
72 89 115
77 97 127
87 103 127
72 91 121
67 85 111
67 83 105
59 74 96
70 88 115
74 93 121
75 93 121
70 89 118
67 82 105
78 98 127
73 92 121
80 99 127
78 98 127
72 94 127
75 96 127
80 99 127
83 101 127
85 102 127
66 83 108
73 91 118
76 97 127
80 99 127
80 99 127
78 98 127
70 87 111
77 94 121
76 97 127
81 100 127
72 87 110
67 82 105
84 101 127
79 98 127
86 102 127
79 96 121
68 83 105
73 88 111
73 91 118
66 82 106
74 93 121
80 99 127
80 99 127
70 87 111
74 93 121
82 100 127
77 97 127
73 91 118
75 96 127
77 97 127
77 95 121
71 91 121
80 99 127
80 99 127
79 99 127
71 89 115
70 89 118
79 99 127
78 98 127
81 100 127
80 96 121
83 101 127
72 86 108
72 94 127
75 96 127
77 97 127
81 100 127
72 90 116
70 87 111
84 101 127
73 95 127
83 101 127
75 96 127
83 101 127
78 98 127
74 91 116
79 98 127
82 100 127
81 100 127
74 96 127
82 100 127
75 96 127
67 87 116
77 97 127
68 84 108
83 101 127
72 90 115
79 99 127
81 100 127
81 99 127
70 89 118
73 90 115
79 98 127
69 88 116
73 91 118
75 93 121
76 93 118
85 102 127
68 85 111
81 100 127
77 93 118
83 101 127
72 92 121
79 98 127
75 93 121
84 102 127
80 99 127
77 97 127
75 96 127
83 101 127
77 95 121
85 102 127
68 87 115
84 101 127
81 100 127
79 98 127
70 88 115
77 94 121
79 98 127
66 84 111
83 101 127
74 95 127
79 99 127
78 98 127
70 89 118
77 97 127
80 99 127
73 90 115
81 99 127
69 86 111
76 92 115
76 94 121
75 92 118
77 97 127
80 99 127
77 94 121
82 98 121
71 90 118
67 83 108
77 97 127
77 95 121
71 89 115
70 88 115
77 97 127
75 96 127
79 94 118
65 84 111
76 97 127
74 92 118
77 94 121
67 81 102
71 91 121
80 99 127
77 97 127
68 87 115
81 100 127
73 92 121
83 101 127
83 101 127
76 97 127
79 98 127
73 88 111
73 91 118
79 98 127
76 94 121
73 92 121
70 88 115
61 81 111
80 99 127
73 92 121
72 90 118
74 95 127
71 87 111
63 81 107
74 95 127
69 90 121
76 94 121
70 85 108
82 100 127
76 94 121
64 80 103
67 83 108
66 83 108
78 98 127
74 91 118
75 91 116
54 68 89
76 93 118
75 94 121
80 99 127
82 100 127
77 95 121
77 93 118
67 84 109
71 89 116
75 88 108
66 82 106
71 87 111
60 78 105
71 87 111
75 90 111
72 88 111
73 90 115
76 97 127
71 87 111
69 87 115
64 82 108
77 95 121
68 87 115
77 97 127
74 93 121
73 92 121
55 70 92
65 81 105
79 96 121
80 95 118
73 92 121
66 83 109
70 87 111
59 73 95
60 74 95
64 79 102
67 81 102
65 81 105
51 63 81
50 61 78
53 63 79
72 87 109
68 82 102
68 83 105
66 83 108
60 74 96
59 70 87
70 85 107
61 76 99
53 65 83
57 67 83
49 59 75
80 96 121
51 64 84
46 58 76
65 79 99
52 63 79
33 39 50
75 89 111
67 79 99
52 63 80
54 66 83
49 61 78
51 63 80
52 64 81
44 52 64
67 82 103
64 77 96
53 62 75
39 46 58
41 48 59
56 66 81
34 40 50
47 56 71
47 57 72
50 62 80
40 47 57
48 57 70
50 60 75
58 69 86
46 52 63
57 68 84
62 75 95
47 55 67
66 76 91
47 55 67
51 62 79
43 52 67
45 54 68
35 44 56
44 53 67
39 48 62
43 52 65
55 66 83
39 49 64
49 58 71
56 68 86
47 57 71
50 59 73
54 66 83
47 56 70
57 67 81
30 37 47
49 59 73
60 71 87
52 61 74
43 54 70
39 49 64
42 51 65
55 67 86
62 73 89
52 63 79
51 64 83
50 60 74
49 60 76
36 45 58
55 68 87
35 43 56
45 53 66
58 70 89
39 48 61
22 26 33
53 64 79
41 50 62
57 68 84
65 76 93
63 76 95
45 54 68
57 66 80
56 67 85
53 62 77
41 50 64
61 74 93
56 68 86
72 85 105
61 74 94
64 77 96
59 70 86
75 90 111
56 67 84
47 60 78
41 49 61
66 82 105
68 84 108
63 79 102
63 76 96
70 86 108
61 76 99
56 69 87
57 70 89
52 66 86
61 72 90
58 71 91
52 66 87
65 83 109
73 88 111
76 94 121
53 67 88
77 93 118
61 75 95
75 93 121
77 95 121
74 92 118
74 90 115
58 71 91
68 83 105
75 94 121
63 78 99
65 83 109
59 75 99
59 73 94
66 80 102
62 77 100
80 96 121
62 78 102
77 97 127
52 63 80
45 55 70
69 85 108
55 70 92
55 69 90
79 96 121
65 79 99
65 81 105
77 93 118
70 89 118
77 95 121
73 91 118
71 90 118
79 98 127
75 91 115
68 83 106
62 80 108
68 85 111
80 99 127
75 96 127
64 82 108
72 91 118
63 81 108
68 85 109
75 93 121
78 98 127
71 89 116
74 90 115
60 76 99
73 92 121
64 82 108
82 100 127
74 92 118
76 92 118
73 92 121
83 101 127
76 93 118
73 91 118
71 90 118
76 93 118
79 94 115
77 97 127
79 98 127
65 84 111
70 85 108
74 95 127
74 91 118
80 99 127
76 92 115
65 82 108
76 96 127
79 98 127
69 84 107
74 96 127
76 94 121
67 85 111
78 98 127
60 74 95
68 84 109
79 98 127
75 92 118
75 96 127
81 100 127
67 86 115
77 93 118
75 96 127
76 97 127
73 91 118
64 85 115
71 90 118
80 99 127
72 88 111
80 99 127
73 91 118
67 85 111
67 89 121
69 88 115
79 99 127
81 99 127
80 99 127
82 100 127
78 98 127
78 98 127
81 100 127
77 97 127
80 99 127
82 100 127
78 94 118
74 93 121
72 90 118
75 93 121
73 95 127
78 98 127
79 98 127
81 99 127
73 91 118
69 84 108
75 93 121
77 97 127
72 94 127
85 102 127
80 96 121
80 99 127
76 94 121
84 102 127
80 99 127
77 97 127
71 90 118
84 101 127
77 94 121
70 88 115
78 98 127
79 98 127
73 95 127
76 97 127
75 94 121
80 99 127
71 87 111
76 97 127
72 91 118
75 92 118
79 98 127
73 91 118
76 94 121
77 97 127
77 97 127
79 98 127
79 99 127
82 100 127
75 96 127
78 98 127
73 92 121
74 95 127
73 95 127
71 91 121
83 101 127
80 99 127
75 96 127
82 100 127
70 89 118
78 96 121
74 93 121
81 99 127
83 101 127
77 94 118
82 100 127
79 96 121
73 91 118
69 84 108
84 102 127
73 95 127
81 100 127
79 98 127
75 93 121
80 99 127
76 97 127
64 83 111
86 103 127
76 97 127
83 101 127
73 92 121
80 99 127
82 100 127
74 92 118
73 92 121
75 92 118
78 98 127
77 97 127
87 103 127
80 99 127
78 98 127
76 97 127
77 95 121
78 98 127
75 96 127
74 91 116
71 91 121
75 96 127
74 90 115
74 91 116
83 101 127
81 99 127
78 98 127
61 76 97
73 90 115
72 89 115
65 82 108
74 92 118
68 86 111
73 88 111
81 99 127
80 99 127
68 88 118
77 97 127
75 96 127
72 90 118
69 85 109
72 89 115
72 89 115
79 99 127
72 90 116
78 98 127
64 78 99
63 76 95
82 100 127
77 97 127
78 98 127
73 91 118
65 82 107
82 100 127
75 94 121
74 93 121
73 91 118
79 98 127
80 99 127
73 89 115
74 92 118
51 63 81
64 80 105
75 92 118
70 86 111
82 100 127
70 89 118
66 83 108
70 88 116
61 77 99
73 90 115
71 89 118
78 95 121
72 92 121
77 97 127
73 91 118
71 86 108
66 82 105
68 82 102
73 91 118
75 92 118
80 99 127
73 88 111
72 88 111
71 88 115
74 93 121
75 93 121
51 63 81
74 91 118
65 82 107
62 77 99
74 95 127
51 60 73
71 84 105
70 86 108
72 90 118
66 83 108
74 89 111
72 86 108
76 90 111
66 82 106
63 77 99
73 92 121
62 77 99
74 91 118
78 94 118
64 79 102
71 87 111
69 84 107
53 62 76
42 52 68
59 74 97
66 78 96
72 87 108
68 82 102
71 86 108
36 46 60
47 58 74
67 84 110
68 82 102
78 95 121
63 76 96
63 77 96
49 61 79
69 85 108
48 60 76
29 35 44
76 93 118
62 74 93
52 63 79
56 67 83
52 62 77
58 71 91
54 65 81
42 50 62
52 61 74
58 71 89
44 52 65
45 54 68
43 50 61
38 46 58
40 48 60
41 49 61
36 45 59
37 43 53
30 36 46
55 66 83
36 44 56
47 57 72
35 42 53
55 67 84
56 68 84
53 63 78
57 67 83
42 52 67
34 42 54
50 59 73
38 45 55
42 50 62
56 67 83
37 44 56
56 67 83
71 86 108
44 53 67
48 57 71
48 58 73
56 66 81
59 71 87
33 41 53
51 62 79
66 78 95
48 58 72
43 50 61
55 67 84
49 59 73
45 54 67
43 51 63
52 60 72
31 38 48
42 50 62
43 52 66
52 62 76
55 66 83
41 48 60
35 44 56
39 47 59
37 46 59
55 65 80
43 50 62
44 51 62
49 57 70
53 63 80
56 65 79
54 64 80
34 41 51
50 60 74
39 45 55
70 86 108
37 44 54
48 57 71
71 87 111
40 49 63
61 74 94
73 87 108
54 64 80
46 56 71
69 84 105
61 75 97
65 77 94
49 61 78
75 89 108
55 66 83
36 45 59
61 75 96
66 78 96
70 83 102
58 69 86
46 59 78
67 82 105
67 79 99
60 73 93
69 84 107
64 81 106
77 93 118
51 62 79
68 81 100
68 83 107
63 76 96
57 71 92
59 71 89
77 93 118
65 78 97
58 73 95
64 81 106
65 80 102
65 82 107
67 82 105
60 74 96
66 79 99
67 84 108
63 78 102
65 82 108
72 91 118
63 80 106
71 90 118
72 90 118
80 96 121
62 78 102
70 85 108
77 95 121
84 102 127
66 84 111
79 98 127
76 93 118
80 99 127
55 68 87
77 97 127
67 84 108
67 85 111
71 87 111
63 81 108
71 90 118
76 92 115
62 77 99
74 93 121
75 93 121
70 87 111
77 93 118
69 85 109
75 96 127
81 100 127
74 96 127
76 92 118
77 97 127
72 90 118
73 92 121
77 95 121
72 88 111
77 97 127
78 95 121
78 98 127
74 89 111
75 96 127
79 99 127
69 87 115
63 80 105
74 92 118
77 94 121
76 93 118
76 96 127
69 85 108
68 84 108
80 99 127
78 95 121
75 96 127
78 98 127
74 90 115
73 91 118
65 84 111
73 92 121
73 95 127
67 83 108
75 92 118
80 99 127
80 99 127
67 83 106
73 91 118
75 91 115
78 95 121
77 97 127
74 92 118
64 78 99
72 89 115
71 90 118
72 88 111
76 97 127
80 99 127
75 94 121
78 95 121
77 93 118
75 94 121
72 90 118
78 98 127
72 92 121
79 98 127
73 95 127
81 100 127
72 92 121
65 82 107
82 100 127
72 91 118
69 89 118
75 93 121
80 99 127
77 94 118
78 98 127
84 102 127
77 93 118
78 98 127
75 96 127
71 91 121
75 96 127
78 98 127
66 84 111
69 88 116
73 91 118
78 98 127
70 89 118
77 97 127
74 91 118
79 99 127
78 98 127
77 97 127
78 94 118
75 92 118
74 95 127
77 97 127
69 88 118
74 95 127
81 100 127
82 100 127
75 96 127
69 85 109
75 96 127
83 101 127
82 100 127
80 99 127
80 99 127
60 76 99
66 80 102
78 98 127
72 94 127
80 99 127
76 94 121
67 81 102
77 95 121
79 98 127
76 96 127
76 96 127
70 89 118
78 98 127
81 97 121
77 97 127
85 102 127
74 93 121
66 82 105
80 99 127
75 96 127
71 89 115
74 91 118
76 93 118
73 91 118
74 93 121
82 100 127
82 100 127
76 97 127
69 86 111
70 89 118
71 91 121
77 93 118
79 99 127
74 92 118
72 90 115
81 100 127
80 99 127
75 92 118
82 100 127
77 97 127
80 99 127
73 92 121
85 102 127
70 93 127
81 100 127
69 86 111
62 77 99
82 100 127
77 97 127
72 90 118
69 86 111
73 92 121
81 99 127
77 97 127
68 88 118
70 89 118
74 92 118
77 97 127
72 88 111
69 85 108
70 85 108
77 97 127
74 93 121
77 93 118
59 76 102
81 97 121
81 99 127
77 97 127
81 97 121
80 99 127
81 99 127
77 97 127
77 97 127
74 95 127
77 94 121
77 97 127
79 98 127
58 75 100
78 94 118
73 90 115
76 97 127
77 93 118
79 96 121
67 82 105
76 94 121
71 86 108
77 97 127
79 99 127
74 90 115
81 99 127
70 91 121
71 91 121
65 80 102
81 100 127
80 99 127
73 90 115
76 93 118
70 87 111
71 88 115
76 92 115
80 99 127
57 70 91
67 81 102
67 85 111
72 89 115
74 90 115
72 88 111
77 93 115
81 100 127
76 94 121
81 97 121
82 98 121
52 64 82
73 92 121
71 89 115
76 94 121
50 65 87
70 89 118
65 81 105
66 84 111
73 91 118
72 92 121
61 74 93
56 72 96
66 81 105
73 88 111
78 95 121
67 83 108
66 80 100
55 68 87
66 82 107
71 87 111
55 69 89
67 81 102
49 61 80
62 77 99
75 91 115
61 75 97
47 58 74
49 59 76
67 83 108
50 61 77
77 93 118
67 80 99
32 40 51
66 79 99
72 88 111
69 83 105
53 63 80
72 88 111
57 69 86
43 54 71
44 53 67
58 70 89
49 62 81
53 65 83
56 68 86
46 56 71
55 66 84
55 66 83
41 50 65
61 74 94
69 82 102
64 77 95
53 62 76
44 54 68
46 56 72
37 44 55
34 41 51
46 55 68
39 47 60
44 53 65
48 58 74
50 59 72
63 74 92
39 47 58
25 31 39
42 49 59
47 56 69
31 38 48
47 56 70
47 56 68
38 46 57
47 56 70
43 51 63
55 66 83
42 52 67
49 58 73
45 53 67
52 62 77
37 43 53
58 68 81
41 49 60
65 76 92
41 49 60
60 72 89
26 32 41
39 47 60
56 67 83
33 42 55
52 62 76
44 52 64
35 42 52
58 69 86
47 57 71
43 51 64
64 76 95
50 59 72
46 56 70
37 44 55
57 69 86
53 63 78
36 44 57
46 54 67
48 59 75
39 47 58
54 65 81
47 56 68
52 62 76
48 57 71
40 48 59
62 73 90
52 64 82
61 72 89
39 46 56
44 54 68
53 62 75
58 69 85
51 60 73
53 65 83
42 52 68
61 72 89
47 57 71
63 76 95
44 52 64
56 70 90
48 58 73
57 71 91
65 79 99
64 79 102
54 65 80
55 69 89
62 75 96
51 63 80
42 53 70
64 78 99
69 82 102
64 77 95
49 60 76
67 79 99
75 91 116
69 84 105
72 88 111
72 87 108
78 94 118
78 91 111
66 81 102
52 65 85
63 79 103
57 71 92
63 76 96
69 82 102
72 89 115
71 87 111
68 84 108
77 93 118
73 89 111
62 77 99
63 76 95
64 77 95
57 72 95
46 58 75
76 97 127
59 74 96
75 96 127
66 84 111
73 91 118
69 85 109
71 86 108
55 72 96
66 83 108
70 89 118
79 95 118
62 77 99
74 92 118
55 68 88
74 91 116
77 95 121
69 85 108
59 72 91
75 92 118
74 91 116
63 80 105
76 93 118
76 93 118
65 81 105
71 91 121
79 98 127
65 82 107
60 73 92
70 89 118
64 79 102
75 96 127
62 79 105
76 94 121
78 98 127
75 93 121
79 99 127
57 74 99
82 100 127
73 91 118
64 80 103
75 94 121
67 85 111
76 94 121
66 83 108
73 92 121
76 93 118
74 91 115
71 90 118
81 97 121
79 98 127
87 103 127
76 97 127
75 92 118
84 101 127
65 82 108
83 101 127
60 74 95
81 100 127
73 90 115
73 95 127
72 89 115
73 91 118
61 77 102
73 95 127
80 99 127
78 98 127
66 80 102
82 100 127
77 97 127
78 95 121
82 100 127
69 87 115
82 100 127
82 100 127
79 96 121
77 97 127
61 75 96
71 90 118
69 85 108
73 88 111
74 95 127
79 98 127
77 94 118
80 99 127
78 98 127
67 84 108
73 92 121
69 87 115
76 96 127
81 100 127
71 89 116
77 97 127
88 104 127
82 100 127
78 98 127
56 70 92
83 101 127
82 100 127
75 93 121
74 93 121
75 93 121
70 89 118
80 99 127
79 99 127
76 97 127
73 91 118
75 96 127
79 98 127
78 98 127
81 100 127
75 96 127
78 98 127
77 97 127
76 97 127
79 98 127
76 97 127
82 100 127
79 99 127
72 90 118
74 92 118
73 91 118
79 98 127
71 90 118
77 97 127
71 90 118
74 93 121
67 84 109
70 91 121
74 91 116
81 100 127
77 97 127
76 97 127
76 92 116
82 100 127
84 101 127
81 97 121
76 93 118
78 98 127
75 94 121
76 97 127
75 91 115
79 99 127
80 99 127
81 99 127
83 101 127
69 88 118
83 101 127
76 97 127
80 99 127
74 93 121
76 97 127
80 99 127
77 97 127
78 94 118
83 101 127
83 101 127
78 94 118
73 91 118
70 89 118
75 91 116
77 97 127
79 99 127
84 101 127
68 86 111
74 88 108
76 94 121
64 79 102
80 96 121
72 89 115
70 89 116
76 94 121
84 102 127
67 82 106
66 84 111
62 78 102
81 99 127
77 93 118
73 91 118
75 93 121
70 87 111
71 87 111
68 88 118
79 96 121
57 74 99
76 97 127
65 83 110
68 81 102
73 92 121
72 90 118
81 99 127
74 92 118
67 87 118
82 100 127
72 89 115
73 91 118
67 80 99
75 91 115
76 93 118
62 79 105
77 97 127
81 97 121
78 98 127
79 99 127
79 94 116
76 94 121
74 93 121
74 93 121
63 77 99
72 90 118
65 85 115
68 88 118
68 84 108
63 81 108
75 92 118
59 75 99
64 82 108
74 93 121
64 81 106
84 101 127
77 97 127
58 74 99
72 90 118
68 83 105
68 87 115
72 91 118
71 90 118
71 90 118
73 95 127
69 85 110
70 88 115
62 74 93
67 82 106
72 90 118
71 88 115
61 76 99
66 82 106
74 89 111
66 82 106
68 84 108
71 90 118
64 78 99
76 94 121
78 95 121
69 85 109
61 75 95
72 88 111
64 78 99
58 73 95
66 80 102
65 82 108
63 79 102
52 65 86
57 73 96
74 90 115
62 76 95
59 73 95
77 93 118
78 98 127
68 83 106
51 65 87
68 85 109
68 85 111
57 72 96
51 62 79
61 75 95
63 79 102
54 67 87
70 86 110
57 70 89
55 70 93
52 63 80
46 57 75
60 72 90
57 68 86
70 85 108
43 51 63
63 76 95
71 86 109
55 65 80
64 77 97
59 69 86
47 58 75
54 67 87
57 67 83
55 66 84
54 67 86
39 47 58
51 62 80
56 68 86
67 80 99
67 82 103
44 52 64
68 84 108
58 70 88
46 56 71
55 68 87
51 62 80
40 48 59
50 59 71
42 50 62
56 67 83
66 78 96
50 60 74
52 62 78
34 41 51
44 54 67
50 58 72
59 69 84
22 26 32
12 14 18
45 55 69
44 51 63
47 55 68
23 28 36
47 58 73
41 48 60
48 58 72
38 47 60
27 32 40
37 44 55
37 46 59
42 50 62
33 41 53
45 55 70
65 78 97
52 63 79
54 66 83
45 54 68
47 58 73
46 54 67
33 40 51
52 63 79
56 66 81
50 58 72
41 49 61
48 57 71
51 60 73
38 46 57
69 81 97
44 53 67
45 53 65
43 50 60
54 65 80
19 23 29
50 58 71
29 34 43
45 52 64
35 41 50
32 40 50
57 67 83
49 59 74
44 52 65
45 54 68
51 63 80
69 81 99
36 43 53
39 47 60
49 59 74
49 61 78
47 56 71
42 50 63
54 64 78
62 76 96
44 54 69
54 67 87
25 30 37
59 75 99
53 65 83
66 78 97
68 83 107
49 60 76
62 75 96
64 75 92
50 60 75
50 64 84
66 79 99
45 58 76
76 93 118
58 72 92
58 71 92
72 86 108
51 59 71
65 77 96
66 84 111
57 69 87
53 67 87
73 91 118
63 75 92
66 84 111
55 67 84
55 67 86
64 80 105
70 86 111
50 61 78
77 94 121
62 76 97
79 96 121
65 80 103
75 92 118
70 85 107
69 87 115
69 89 118
49 61 80
52 63 80
66 82 105
62 80 107
71 87 111
76 91 115
67 83 108
61 72 89
66 80 100
75 93 121
64 75 93
50 63 84
59 71 90
82 100 127
72 90 118
77 97 127
70 84 105
67 81 102
78 98 127
76 93 118
70 87 111
68 83 105
79 98 127
72 91 118
74 93 121
63 76 96
66 83 108
66 83 108
70 88 115
72 88 111
74 93 121
70 89 118
70 86 109
76 96 127
68 85 111
83 101 127
82 100 127
72 89 115
71 90 118
57 73 95
69 88 118
71 87 111
80 95 118
58 72 92
70 88 115
80 99 127
70 89 118
74 91 115
82 98 121
75 94 121
74 88 108
74 92 118
78 98 127
67 83 108
74 95 127
77 97 127
72 92 121
80 99 127
76 93 118
68 83 107
68 83 106
79 98 127
83 101 127
77 95 121
74 96 127
70 88 116
75 92 118
83 101 127
76 97 127
82 97 121
78 98 127
77 97 127
76 97 127
78 98 127
69 85 108
75 93 121
74 93 121
67 85 111
74 91 118
57 70 90
66 83 110
64 82 108
79 98 127
79 98 127
67 84 108
83 101 127
83 101 127
80 99 127
80 99 127
77 97 127
67 84 108
78 95 121
78 95 121
73 92 121
63 81 108
66 86 116
72 90 118
77 97 127
68 86 115
81 100 127
77 97 127
76 97 127
68 83 105
67 84 109
79 98 127
82 98 121
79 99 127
82 100 127
79 99 127
75 94 121
64 78 99
80 99 127
77 97 127
81 100 127
82 100 127
74 90 115
77 94 121
78 98 127
82 100 127
79 99 127
80 99 127
79 98 127
80 99 127
75 96 127
80 99 127
73 91 118
76 96 127
76 97 127
83 101 127
74 92 118
76 94 121
74 95 127
78 98 127
74 93 121
80 99 127
75 96 127
79 98 127
73 90 116
79 96 121
78 95 121
84 101 127
75 93 121
78 98 127
79 94 118
72 92 121
73 89 111
79 99 127
78 95 121
81 100 127
75 93 121
82 100 127
71 89 115
67 84 109
82 100 127
71 90 118
73 92 121
68 87 115
73 90 116
80 99 127
74 95 127
81 100 127
72 89 115
69 86 111
77 93 118
81 97 121
70 90 121
73 92 121
76 92 115
77 97 127
76 97 127
79 98 127
78 98 127
83 101 127
80 99 127
78 98 127
71 90 118
70 89 118
81 97 121
75 93 121
68 87 115
78 98 127
76 94 121
73 90 115
69 89 118
79 99 127
79 98 127
75 96 127
69 84 106
79 99 127
75 93 121
77 97 127
78 98 127
72 88 111
74 93 121
84 102 127
78 98 127
84 101 127
71 87 111
77 94 121
75 92 118
73 90 115
78 98 127
66 80 102
73 89 111
70 88 115
75 91 115
69 85 109
72 90 118
74 93 121
80 99 127
70 85 106
70 88 116
81 99 127
74 93 121
65 85 115
80 99 127
72 91 121
63 78 99
75 96 127
75 90 111
69 85 108
77 94 121
79 99 127
79 98 127
71 87 111
62 78 102
74 93 121
49 62 80
56 71 93
77 97 127
77 97 127
67 83 108
51 64 84
69 85 108
66 80 103
80 99 127
64 81 105
72 86 108
74 93 121
70 87 111
71 88 115
67 83 108
67 82 105
64 80 105
72 90 116
70 88 115
67 82 105
71 86 108
73 89 115
75 96 127
59 73 95
70 86 111
71 88 115
55 70 94
67 81 102
56 70 91
69 85 110
70 86 111
58 73 95
71 90 118
63 77 97
62 75 96
61 75 96
66 80 102
49 58 71
57 69 87
45 58 77
61 75 96
53 67 87
63 78 102
66 79 99
69 84 108
64 78 99
63 78 99
62 74 92
45 54 68
69 83 105
51 61 76
72 86 107
49 60 77
41 48 59
68 84 108
59 70 88
59 71 89
57 72 93
69 85 108
60 75 96
59 71 89
48 57 71
35 43 56
54 67 85
69 81 99
56 68 84
70 84 106
57 68 84
60 71 88
27 34 43
63 75 93
22 27 34
33 39 49
41 49 61
46 55 67
62 72 87
52 60 72
33 39 49
42 51 64
60 70 86
30 34 42
56 65 77
51 60 74
44 51 63
53 63 77
32 39 48
37 43 53
33 38 46
54 64 78
43 51 63
40 48 59
42 48 59
43 51 64
39 47 58
30 36 46
40 48 59
36 44 55
40 49 62
56 67 84
42 50 62
52 62 78
52 61 75
43 52 65
36 44 56
32 38 48
44 54 67
42 51 63
37 45 56
33 40 50
44 51 62
34 40 48
14 17 21
32 37 45
32 38 46
37 43 52
25 30 39
50 59 72
37 44 55
42 50 61
39 47 58
55 67 83
42 51 63
35 42 52
55 66 83
63 74 90
46 54 65
53 65 84
35 42 52
45 54 67
62 75 93
40 47 58
45 52 64
39 47 58
66 82 105
60 74 93
42 50 62
53 64 80
45 54 68
50 60 74
69 82 102
67 81 102
67 83 106
71 87 110
60 74 95
54 64 80
68 84 108
67 83 106
65 79 99
63 76 96
87 103 127
79 98 127
54 69 90
63 79 103
59 70 87
54 67 87
75 92 118
62 76 96
68 84 108
75 89 108
62 77 99
54 67 86
77 95 121
59 73 93
73 88 110
59 74 96
74 93 121
56 69 88
78 98 127
75 91 115
68 82 102
67 80 99
74 89 111
62 77 99
54 69 91
64 79 102
65 80 102
67 85 111
75 91 115
73 88 111
67 84 108
70 88 115
67 83 105
71 89 115
65 84 111
71 91 121
76 93 118
70 88 115
67 85 111
70 87 111
74 91 115
76 97 127
55 68 88
52 63 79
66 84 111
70 89 118
75 92 118
68 84 108
52 65 86
67 84 108
63 77 99
61 79 105
69 86 111
79 96 121
52 65 84
73 91 118
75 94 121
82 100 127
71 91 121
83 101 127
70 88 115
74 93 121
74 93 121
69 85 108
70 85 108
63 81 108
78 98 127
75 92 118
55 68 87
78 98 127
81 100 127
72 90 116
71 87 111
70 85 108
68 85 111
68 86 111
76 93 118
69 85 108
81 99 127
82 100 127
60 75 99
75 92 118
73 90 115
73 91 118
79 98 127
76 97 127
75 96 127
82 100 127
73 92 121
76 97 127
78 98 127
71 91 121
72 91 118
82 100 127
66 84 111
68 88 118
86 102 127
84 101 127
76 94 121
81 99 127
71 87 111
74 91 115
69 87 115
74 96 127
81 100 127
75 94 121
65 83 111
80 99 127
68 85 111
76 97 127
79 98 127
75 91 115
61 76 99
83 101 127
76 96 127
82 100 127
69 88 118
79 99 127
77 95 121
76 97 127
81 97 121
75 96 127
84 101 127
82 100 127
78 98 127
81 97 121
69 86 111
66 83 108
68 88 116
81 100 127
80 99 127
81 100 127
78 98 127
76 97 127
79 99 127
76 96 127
76 97 127
83 101 127
77 97 127
74 93 121
71 90 118
75 94 121
78 98 127
81 100 127
79 98 127
77 97 127
84 101 127
75 92 118
78 98 127
75 91 115
83 101 127
69 86 111
77 94 121
69 88 118
62 83 115
78 98 127
77 95 121
77 97 127
76 92 115
75 94 121
75 92 118
76 96 127
76 97 127
81 100 127
77 94 118
75 91 115
71 91 121
72 90 118
76 97 127
73 92 121
75 93 121
69 88 116
78 98 127
82 100 127
77 97 127
81 97 121
79 98 127
74 92 118
73 92 121
71 90 118
70 87 111
72 90 118
80 99 127
74 95 127
78 98 127
72 90 118
82 100 127
87 103 127
80 99 127
73 90 115
72 89 115
82 100 127
73 91 118
79 98 127
73 92 121
70 85 108
71 90 118
80 99 127
63 81 108
78 98 127
70 88 115
75 96 127
79 99 127
75 93 121
72 90 118
73 91 118
71 89 118
78 95 121
75 92 118
79 98 127
75 93 121
77 97 127
67 82 105
66 83 108
71 87 111
66 86 115
76 97 127
83 101 127
62 78 102
73 92 121
77 97 127
57 70 89
68 84 108
72 90 118
68 84 107
83 101 127
74 92 118
69 86 111
71 91 121
62 76 99
76 94 121
74 90 115
74 91 115
79 98 127
84 102 127
68 86 115
76 92 115
77 94 121
76 92 115
71 91 121
63 79 102
81 100 127
80 99 127
67 86 115
64 81 106
72 90 118
78 95 121
78 95 121
69 84 106
68 84 108
67 85 111
67 82 106
79 96 121
76 93 118
70 89 116
79 96 121
70 88 115
65 80 102
71 85 107
76 93 118
70 87 111
62 74 92
70 84 105
68 84 109
78 98 127
74 87 107
80 99 127
75 93 121
60 75 97
59 71 91
72 90 118
54 68 89
68 84 108
61 75 96
58 71 90
75 91 115
73 91 118
66 79 99
52 65 84
78 94 118
74 90 115
59 75 99
61 74 93
55 66 84
78 95 121
73 88 111
76 90 111
62 74 92
61 75 96
71 86 109
74 91 116
67 85 111
55 70 93
65 80 103
40 51 67
70 88 115
68 84 108
53 64 82
49 59 75
71 83 102
75 89 111
73 88 111
55 67 86
64 76 96
58 72 93
70 85 108
70 84 107
45 54 69
71 86 108
53 64 81
57 73 96
41 51 65
59 70 87
42 52 68
46 56 71
58 68 84
45 54 67
23 27 34
53 64 80
52 62 79
52 64 82
33 40 50
53 63 79
46 55 70
48 59 74
55 66 82
48 58 74
55 64 77
45 54 67
41 49 61
49 59 74
13 16 20
44 52 63
27 32 40
53 62 77
47 55 68
35 42 53
41 47 57
24 29 35
25 30 37
36 42 50
32 39 48
33 38 46
33 39 48
51 60 73
39 47 58
52 61 74
30 36 44
45 53 65
30 35 43
59 70 86
20 24 29
18 22 27
39 47 58
44 51 61
29 33 39
30 35 42
36 43 53
33 39 48
24 29 36
37 43 53
32 38 47
47 55 68
25 29 35
70 83 102
55 65 80
47 55 68
46 54 67
45 53 64
38 45 56
50 60 75
57 69 87
36 44 56
56 65 79
44 54 69
53 65 84
41 49 63
32 39 50
43 52 64
52 62 76
52 63 80
69 83 106
29 35 45
42 50 63
42 50 63
43 52 64
75 90 111
55 67 84
64 77 96
46 57 73
65 79 100
75 89 111
40 50 64
68 82 102
59 71 90
61 73 92
66 82 105
77 91 111
57 69 86
63 77 99
64 78 99
62 74 92
72 88 111
84 101 127
72 90 118
58 70 87
74 92 118
66 82 105
70 87 111
43 54 70
67 85 111
56 69 87
58 71 90
61 75 95
62 77 99
82 98 121
66 83 108
64 77 97
64 81 107
71 87 111
61 78 103
66 82 106
61 74 94
83 101 127
77 97 127
74 92 118
76 93 118
82 100 127
69 86 111
82 100 127
72 91 118
66 79 99
82 100 127
80 99 127
63 79 102
75 96 127
68 84 108
67 81 102
59 77 105
78 94 118
86 103 127
65 81 105
60 75 96
60 76 99
71 88 115
67 84 109
76 94 121
75 93 121
76 93 118
78 98 127
68 82 103
63 79 103
72 92 121
81 100 127
75 92 118
75 91 116
71 86 108
79 99 127
65 82 108
70 86 108
80 96 121
68 87 115
73 92 121
68 85 111
78 98 127
73 91 118
77 95 121
68 86 111
79 98 127
72 89 115
77 95 121
72 88 111
74 95 127
72 88 111
75 91 115
73 92 121
63 77 96
80 96 121
63 80 105
85 102 127
78 98 127
74 88 108
71 89 116
65 86 118
81 100 127
79 98 127
83 101 127
65 83 109
80 99 127
69 87 115
77 97 127
60 74 94
74 92 118
81 99 127
85 102 127
72 90 118
74 93 121
69 89 118
58 74 96
77 97 127
74 91 118
73 89 115
81 99 127
79 98 127
75 94 121
81 99 127
78 95 121
80 99 127
79 98 127
69 85 108
75 91 115
75 92 118
73 91 118
78 98 127
71 88 115
80 99 127
81 99 127
72 89 115
74 95 127
74 91 118
81 100 127
74 92 118
79 98 127
79 98 127
71 90 118
73 91 118
76 94 121
68 85 111
67 85 111
83 101 127
82 100 127
81 97 121
68 84 108
79 98 127
77 94 121
80 99 127
80 95 118
83 101 127
75 96 127
77 97 127
73 95 127
74 92 118
76 94 121
72 88 111
72 94 127
72 90 118
72 89 116
76 97 127
73 92 121
77 97 127
76 96 127
80 99 127
75 93 121
75 96 127
80 99 127
78 98 127
76 93 118
76 96 127
67 83 106
75 96 127
72 90 115
77 93 118
73 91 118
83 101 127
76 94 121
70 89 118
83 101 127
84 102 127
78 98 127
82 100 127
73 91 118
74 95 127
74 93 121
74 90 115
80 99 127
79 98 127
80 99 127
73 92 121
64 83 110
70 90 121
80 99 127
79 98 127
78 98 127
72 90 118
74 96 127
82 100 127
82 100 127
74 92 118
68 85 111
75 93 121
73 91 118
76 97 127
74 93 121
76 96 127
82 100 127
78 95 121
70 87 111
69 84 106
71 91 121
78 98 127
79 94 118
79 99 127
77 97 127
76 93 118
75 92 118
81 97 121
72 91 121
75 91 115
75 96 127
68 84 108
72 90 118
75 93 121
75 93 121
84 101 127
81 97 121
69 85 108
83 101 127
69 87 115
80 97 121
71 90 118
74 92 118
79 98 127
83 101 127
70 89 118
81 97 121
77 97 127
81 100 127
63 79 102
75 93 121
84 101 127
52 64 83
67 84 108
75 93 121
80 95 118
75 92 118
71 85 105
76 93 118
75 92 118
64 80 103
68 85 111
78 95 121
78 95 121
74 91 118
71 87 111
77 95 121
74 92 118
75 92 118
76 93 118
63 80 105
72 90 115
72 86 108
60 73 92
73 92 121
56 71 92
63 77 99
58 71 91
63 80 106
65 78 97
78 94 118
73 89 111
81 96 118
81 100 127
78 95 121
74 90 115
71 91 121
71 87 111
58 74 99
74 90 115
77 93 118
65 83 111
74 92 118
59 75 99
67 83 108
69 85 108
63 77 99
71 89 115
68 82 102
68 83 105
71 83 102
48 56 70
74 93 121
76 93 118
65 82 107
53 67 88
71 84 105
64 76 95
71 90 118
63 80 104
62 77 99
61 75 95
67 81 102
72 88 111
54 68 88
70 89 118
64 81 105
62 75 96
57 69 88
71 87 111
59 75 99
42 51 65
46 55 69
77 93 118
64 78 99
68 82 102
61 75 97
74 89 111
61 75 94
54 66 84
65 78 96
53 64 80
54 64 79
56 69 89
49 59 73
62 74 92
46 56 71
51 62 80
44 52 65
55 66 83
41 49 61
35 43 55
50 60 75
50 62 79
47 57 72
60 72 90
60 72 89
49 59 73
45 54 67
25 30 38
52 61 75
30 35 42
51 62 78
56 67 83
52 61 75
31 38 49
19 22 27
37 43 52
59 68 83
34 41 50
44 52 63
38 45 55
45 54 68
34 40 49
43 51 63
19 22 27
34 39 48
33 38 46
21 25 30
29 33 40
21 24 29
46 54 65
30 35 44
38 44 53
62 72 88
35 42 52
30 35 42
21 26 33
31 36 43
36 42 52
40 46 57
37 43 53
21 26 34
46 55 67
51 60 74
47 55 68
52 61 74
38 45 54
44 54 68
59 72 91
33 39 49
66 80 99
40 48 61
44 53 67
29 36 46
49 59 73
65 77 96
44 52 64
45 53 65
59 72 91
46 55 69
36 42 52
43 52 66
54 65 81
54 64 80
72 86 105
44 55 71
49 58 72
54 65 81
52 64 81
54 65 81
59 72 91
52 67 89
47 58 74
44 53 68
56 72 95
53 65 83
56 69 88
51 65 85
58 69 85
62 80 107
46 57 74
82 100 127
62 77 99
72 88 111
81 96 118
70 86 109
65 76 93
40 49 63
70 84 105
55 68 89
68 85 110
68 84 108
81 97 121
61 76 99
75 94 121
65 79 99
47 60 79
60 73 92
82 100 127
61 76 99
70 87 111
75 94 121
67 80 99
68 83 105
68 83 105
71 87 109
52 65 84
66 82 107
60 74 95
63 80 105
82 100 127
63 76 96
64 80 103
75 91 115
69 85 108
72 89 115
60 73 92
80 99 127
76 93 118
67 84 109
72 90 118
59 75 99
66 84 111
63 79 102
61 76 99
53 67 89
78 98 127
71 87 111
64 80 105
52 65 84
77 97 127
76 93 118
70 89 116
67 85 111
57 72 96
70 85 108
79 95 118
81 100 127
71 91 121
70 89 118
80 99 127
81 97 121
75 96 127
64 78 99
81 99 127
70 90 121
63 79 102
65 80 102
77 97 127
66 82 106
67 85 111
71 90 118
67 84 110
70 88 116
78 98 127
60 76 100
82 100 127
62 81 108
78 98 127
77 95 121
75 96 127
73 95 127
81 99 127
72 91 121
61 75 95
63 77 99
73 92 121
74 89 111
65 82 106
71 90 118
70 89 118
84 101 127
77 94 118
70 90 121
69 90 121
61 78 102
70 88 116
69 89 118
69 89 118
75 92 118
80 99 127
73 95 127
59 75 99
82 100 127
74 93 121
83 101 127
79 98 127
77 97 127
69 84 106
75 93 121
77 93 118
80 99 127
73 91 118
72 90 118
76 92 115
74 92 118
78 98 127
78 98 127
81 99 127
73 92 121
69 86 111
71 89 115
77 97 127
82 100 127
76 94 121
80 99 127
77 97 127
73 92 121
78 98 127
78 98 127
79 96 121
80 99 127
85 102 127
78 98 127
78 98 127
81 100 127
76 94 121
85 102 127
77 97 127
81 99 127
79 96 121
78 95 121
77 97 127
71 90 118
78 98 127
78 95 121
75 92 118
71 90 118
66 83 108
72 89 115
72 90 118
69 88 116
71 90 118
78 94 118
80 99 127
79 98 127
78 95 121
75 96 127
78 95 121
73 90 115
68 86 111
82 100 127
82 100 127
81 100 127
81 100 127
83 101 127
70 87 111
84 101 127
71 89 115
72 87 109
78 98 127
82 100 127
81 100 127
64 78 99
81 99 127
72 91 121
79 95 118
54 68 88
79 98 127
73 92 121
69 88 116
77 97 127
82 98 121
68 89 121
83 101 127
78 98 127
81 100 127
81 100 127
81 100 127
73 92 121
57 71 93
63 79 103
73 95 127
74 95 127
75 92 118
77 97 127
73 95 127
79 99 127
73 91 118
86 102 127
82 100 127
77 97 127
66 83 108
81 100 127
84 102 127
68 87 115
71 90 118
79 95 118
68 85 109
68 86 111
66 83 108
72 86 106
82 100 127
66 83 108
69 84 107
71 87 111
68 84 108
76 94 121
72 92 121
77 97 127
59 74 96
77 95 121
69 88 115
76 94 121
84 101 127
68 85 111
74 91 115
79 98 127
81 100 127
66 82 107
54 68 90
77 93 118
59 73 93
76 97 127
75 92 118
72 91 118
81 100 127
75 93 121
70 87 111
62 80 105
76 94 121
76 93 118
56 68 86
77 97 127
70 89 118
65 81 105
73 93 121
67 85 111
83 101 127
62 76 96
66 83 108
69 86 111
82 100 127
71 89 118
64 79 102
79 98 127
60 76 99
82 100 127
52 62 76
67 83 106
55 70 93
58 71 89
60 74 96
66 84 111
72 88 111
75 96 127
53 64 80
81 97 121
74 91 118
65 83 108
81 100 127
52 61 75
66 82 107
58 73 95
70 87 111
54 66 84
60 74 95
74 91 115
77 97 127
74 91 118
58 71 90
78 98 127
71 85 106
63 78 100
67 84 108
63 77 99
77 93 118
53 64 80
56 68 87
60 72 90
67 84 108
66 82 105
77 93 118
64 79 102
58 73 94
69 82 102
47 55 67
77 93 118
46 56 70
80 95 118
56 66 80
47 58 75
59 71 89
56 68 86
63 78 102
53 65 83
83 101 127
64 79 100
61 75 95
69 85 108
45 53 65
52 63 79
49 61 78
48 56 67
36 44 56
59 71 89
74 91 116
57 68 86
46 55 68
54 65 83
44 53 68
62 75 94
23 27 33
21 25 31
35 42 52
32 39 49
38 45 56
34 40 50
54 66 84
42 50 60
44 53 67
35 41 50
62 76 96
46 54 67
40 47 57
28 33 40
43 50 61
40 47 58
43 49 59
24 28 34
40 46 56
45 53 65
44 52 64
18 22 27
23 27 33
20 23 28
34 40 49
40 47 58
45 52 63
28 33 41
36 42 50
41 48 60
29 35 44
38 44 54
37 44 54
10 12 15
40 46 55
38 45 55
36 42 53
35 41 50
39 46 56
35 41 51
9 11 14
39 47 59
32 38 46
31 37 47
62 74 93
51 60 75
33 40 51
34 41 51
69 81 99
55 65 80
37 44 54
55 66 82
34 41 50
38 46 57
31 37 47
50 60 77
49 59 74
63 76 95
37 43 53
63 76 96
69 83 103
42 51 64
57 69 87
60 72 91
54 66 83
56 68 87
58 71 90
59 70 87
60 74 93
54 68 89
62 74 91
54 66 83
50 60 75
59 72 92
66 80 102
70 84 106
55 68 87
51 61 77
59 71 89
68 82 102
62 76 96
65 81 105
60 75 97
62 75 96
63 77 99
73 87 109
50 62 79
70 89 118
47 59 76
65 81 106
75 92 118
71 87 111
43 52 64
62 77 99
76 93 118
67 79 95
68 83 107
71 87 111
50 60 77
64 77 96
64 79 102
68 84 109
79 94 118
60 73 93
56 67 84
62 75 95
59 73 92
56 70 90
78 98 127
57 69 88
70 87 111
68 83 105
65 81 105
88 104 127
78 98 127
69 86 111
62 76 95
71 87 111
60 76 100
69 86 111
72 89 115
66 83 108
77 97 127
71 87 111
62 76 96
73 90 115
71 86 108
73 88 111
61 73 90
61 79 106
73 88 111
71 90 118
61 78 102
81 100 127
77 93 118
78 94 118
68 84 108
65 82 106
69 88 118
62 79 105
74 93 121
69 86 111
72 89 115
72 88 111
82 100 127
69 87 115
71 90 118
65 79 99
79 96 121
75 93 121
75 96 127
64 81 105
72 89 115
53 67 89
85 102 127
76 94 121
72 88 111
72 89 115
71 90 118
77 95 121
78 98 127
79 98 127
74 96 127
83 101 127
73 89 111
79 98 127
75 92 118
68 88 118
62 79 105
82 100 127
79 98 127
72 89 116
76 97 127
72 90 118
75 92 118
77 97 127
73 91 118
75 91 115
85 102 127
81 97 121
70 88 116
70 89 118
78 98 127
79 98 127
65 78 99
72 92 121
58 72 92
72 90 118
74 93 121
76 91 115
80 99 127
72 89 115
66 83 108
78 96 121
73 90 115
77 97 127
59 74 96
81 100 127
65 82 107
70 90 121
76 93 118
78 95 121
73 93 121
77 95 121
80 99 127
83 101 127
71 89 115
75 92 118
81 100 127
71 91 121
80 96 121
81 100 127
76 93 118
76 97 127
73 92 121
82 100 127
65 82 108
68 88 118
78 98 127
75 93 121
82 100 127
80 99 127
78 94 118
85 102 127
78 98 127
84 101 127
75 96 127
80 99 127
74 95 127
84 102 127
69 89 118
71 86 108
71 90 118
72 91 118
76 93 118
79 98 127
77 97 127
76 93 118
83 101 127
66 86 115
73 92 121
76 94 121
68 85 110
74 92 118
70 87 111
81 97 121
61 77 102
71 90 118
76 97 127
73 91 118
72 94 127
81 100 127
77 95 121
79 96 121
72 92 121
70 87 111
76 96 127
75 93 121
77 92 115
80 99 127
79 98 127
80 99 127
76 93 118
82 100 127
74 95 127
78 98 127
82 100 127
76 94 121
63 81 108
78 98 127
73 91 118
62 79 105
74 95 127
72 91 118
72 90 116
69 86 111
71 86 108
73 92 121
72 88 111
71 90 118
79 95 118
75 96 127
77 97 127
74 92 118
72 89 115
80 99 127
76 96 127
68 83 105
64 82 109
76 96 127
73 91 118
79 98 127
74 91 118
79 99 127
76 94 121
64 79 102
78 95 121
64 79 102
69 88 116
71 87 111
77 95 121
77 93 118
86 103 127
62 80 106
65 82 108
77 97 127
75 93 121
73 89 115
85 102 127
79 98 127
71 89 115
60 75 97
74 93 121
73 90 116
69 84 107
68 83 106
70 87 111
62 76 99
67 85 111
65 82 108
69 89 118
59 73 96
82 100 127
70 89 118
70 88 115
80 99 127
63 80 105
76 94 121
70 87 111
63 79 102
74 90 115
76 93 118
78 98 127
79 98 127
66 82 105
63 77 99
67 88 118
76 96 127
81 100 127
72 90 118
71 84 104
75 92 118
57 72 93
63 77 99
65 84 111
61 75 95
80 99 127
75 92 118
60 74 96
75 93 121
77 95 121
66 84 111
77 93 118
48 58 73
71 88 115
53 67 89
59 74 96
65 84 111
73 91 118
59 73 93
69 85 108
71 86 109
69 83 105
41 51 66
53 65 83
71 86 108
39 47 60
48 58 73
80 95 118
54 67 87
50 61 76
62 74 92
55 66 83
57 72 94
68 85 111
54 64 80
43 52 67
58 70 87
62 75 94
58 69 87
41 50 64
32 39 49
45 55 71
41 49 62
54 67 86
37 45 56
51 62 78
58 69 84
43 55 73
31 37 47
44 55 71
47 59 77
70 85 108
39 48 61
53 64 80
57 69 87
61 72 90
35 42 52
37 44 55
67 81 102
41 49 60
50 60 75
52 62 77
26 32 40
46 55 70
39 45 55
23 29 37
54 65 81
44 53 67
40 47 58
38 44 55
38 46 57
66 79 99
52 63 81
45 52 63
37 45 56
30 35 42
37 44 54
45 55 68
43 51 62
25 30 37
47 56 68
28 33 40
21 26 33
40 47 57
44 52 63
45 53 64
43 51 64
41 49 61
28 33 39
44 51 62
41 48 59
31 37 47
34 40 49
26 31 38
23 27 34
60 70 87
59 70 86
55 65 80
36 42 52
32 39 50
27 33 42
40 47 57
29 35 43
48 57 72
57 68 85
39 47 58
50 61 77
36 42 50
40 47 58
33 40 50
48 58 72
47 55 67
45 55 71
60 72 90
53 64 80
46 55 69
60 74 96
65 78 99
60 71 88
53 63 79
54 65 80
56 69 89
53 65 82
48 60 78
33 39 47
66 78 94
48 61 80
72 88 111
45 54 69
65 79 99
63 76 96
68 84 108
44 52 64
43 53 67
55 65 81
63 76 95
63 77 97
74 90 115
68 85 111
59 70 87
68 81 102
67 84 108
79 96 121
52 64 83
68 82 102
70 84 106
63 78 99
48 61 81
53 65 83
63 78 99
48 61 79
56 70 90
69 86 111
70 89 118
43 56 74
68 82 102
78 95 121
76 92 115
69 85 108
75 92 118
74 89 111
60 76 99
62 78 103
73 92 121
72 90 118
75 89 108
62 76 96
75 96 127
76 93 118
61 75 95
65 82 107
78 95 121
72 90 118
64 79 102
64 81 105
54 68 89
77 95 121
77 95 121
70 85 108
69 83 105
61 75 96
63 80 106
74 91 118
76 93 118
75 92 118
78 98 127
71 88 115
78 95 121
70 85 108
65 81 105
79 99 127
44 57 77
72 89 115
78 98 127
72 90 118
71 91 121
73 92 121
73 92 121
67 83 108
63 77 99
73 90 115
79 98 127
69 84 106
74 91 118
82 100 127
67 82 106
74 93 121
64 81 106
77 97 127
69 84 106
75 93 121
60 75 97
78 95 121
72 92 121
69 85 110
67 86 115
74 92 118
80 99 127
74 93 121
77 94 118
69 86 111
84 101 127
71 90 118
79 98 127
74 91 116
80 99 127
77 93 118
80 99 127
78 95 121
75 93 121
84 102 127
79 98 127
83 101 127
72 90 118
66 83 108
72 92 121
77 92 116
79 98 127
60 74 96
70 88 115
77 93 118
74 93 121
72 91 121
76 97 127
70 88 115
81 99 127
75 92 118
82 100 127
79 99 127
80 99 127
70 90 121
68 84 108
75 96 127
82 100 127
65 81 105
80 99 127
80 99 127
69 84 105
75 92 118
76 97 127
79 98 127
76 93 118
73 91 118
79 98 127
78 98 127
69 85 110
82 100 127
71 91 121
78 98 127
73 92 121
76 96 127
77 97 127
75 96 127
76 97 127
81 99 127
75 96 127
79 99 127
78 98 127
78 95 121
76 94 121
77 97 127
81 99 127
72 87 109
78 95 121
71 87 111
71 87 111
72 89 115
80 96 121
81 100 127
74 96 127
76 97 127
69 89 118
71 86 108
78 95 121
85 102 127
79 99 127
77 97 127
72 91 118
74 92 118
75 92 118
72 90 118
65 84 111
76 94 121
68 84 107
77 97 127
78 98 127
78 95 121
82 100 127
77 93 118
78 98 127
77 97 127
66 79 99
75 91 115
80 99 127
81 100 127
78 98 127
75 92 118
74 93 121
82 100 127
82 100 127
71 91 121
74 95 127
82 100 127
76 97 127
81 100 127
69 89 118
72 91 118
75 92 116
66 87 118
83 101 127
77 97 127
75 96 127
61 75 95
70 87 111
78 98 127
76 93 118
78 95 121
84 101 127
77 93 118
67 82 105
67 83 108
81 100 127
73 95 127
74 90 115
72 88 111
81 99 127
71 89 115
68 83 106
70 87 111
78 98 127
83 101 127
80 99 127
76 97 127
76 94 121
72 88 111
73 91 118
68 86 111
66 83 108
82 100 127
80 99 127
68 83 106
65 79 100
61 78 102
83 101 127
82 100 127
80 99 127
78 96 121
75 92 118
78 95 121
68 87 115
73 88 111
75 92 118
75 96 127
86 103 127
68 84 108
62 78 102
70 85 108
76 97 127
72 90 118
64 79 100
69 88 116
65 81 105
74 92 118
48 60 77
73 95 127
69 88 118
81 100 127
78 94 118
75 93 121
69 87 115
65 82 108
61 76 99
69 82 102
71 87 111
80 95 118
74 91 115
68 85 111
68 85 109
77 93 118
60 74 95
55 69 91
68 84 108
73 91 118
63 78 102
65 79 100
70 88 115
72 90 118
74 93 121
68 83 107
75 93 121
63 77 99
75 90 111
70 85 108
49 61 80
76 92 116
65 79 99
58 70 87
62 77 99
67 84 108
79 94 118
71 87 111
69 89 118
55 66 83
66 83 108
69 86 111
66 79 99
48 58 74
61 75 96
48 60 77
54 66 83
65 80 103
61 75 95
60 73 93
56 68 85
63 77 99
62 77 99
75 91 115
62 77 99
51 62 78
53 69 92
51 63 82
74 88 110
59 73 93
53 64 80
66 79 99
54 66 83
37 47 60
29 35 44
41 49 62
46 55 68
55 67 84
57 70 89
34 40 49
57 69 87
45 55 69
38 45 56
38 46 57
59 70 86
52 62 76
39 47 58
68 79 95
29 36 45
51 61 75
43 51 64
36 44 56
63 75 92
51 60 75
43 52 65
34 42 53
45 53 64
57 67 82
29 35 44
57 67 81
36 43 53
39 46 56
53 62 75
51 61 76
55 66 83
33 40 49
42 50 63
32 38 46
31 36 43
76 89 108
40 47 57
22 26 32
34 41 52
48 57 70
46 54 67
58 69 85
16 18 22
37 43 53
39 46 56
43 52 65
64 75 92
53 62 74
40 49 61
34 39 46
34 39 48
36 43 53
31 36 45
29 35 44
36 43 54
54 63 76
33 39 49
44 54 68
57 68 84
44 52 64
47 57 73
55 64 77
54 65 80
61 74 94
39 46 58
56 68 84
47 58 74
37 46 59
51 60 73
52 61 75
48 58 72
54 67 86
45 56 72
62 75 95
60 71 87
62 73 90
56 68 87
55 69 89
48 58 73
50 61 77
59 70 86
49 58 71
69 85 109
44 53 68
45 52 64
49 61 79
51 65 87
47 58 74
27 34 44
66 83 108
72 89 115
63 74 92
47 57 71
59 70 86
61 75 97
69 82 103
70 89 116
69 83 105
51 64 83
68 83 106
68 84 108
75 92 118
61 74 93
51 60 74
59 73 96
67 85 111
58 70 89
69 85 108
53 67 89
73 90 115
66 82 105
84 101 127
72 90 115
74 91 118
56 69 89
73 89 115
80 99 127
72 87 108
74 91 118
72 88 111
72 90 118
59 75 99
61 76 97
69 85 108
64 80 105
71 89 115
63 78 100
69 85 108
68 85 109
66 82 105
70 84 105
82 100 127
72 89 115
60 78 105
64 80 105
72 90 118
81 99 127
73 88 111
71 86 108
76 94 121
75 92 118
56 72 95
83 101 127
78 95 121
76 97 127
74 92 118
81 99 127
78 98 127
76 94 121
80 99 127
78 98 127
74 89 111
70 87 111
71 91 121
68 87 115
75 93 121
78 94 118
79 98 127
68 84 109
56 72 96
77 93 118
75 92 118
73 92 121
63 77 99
69 86 111
81 100 127
76 94 121
79 98 127
65 80 102
68 84 108
63 79 103
69 85 108
77 93 118
81 99 127
82 100 127
73 90 116
70 84 107
79 98 127
80 99 127
78 98 127
70 86 109
76 97 127
73 92 121
76 94 121
72 91 118
70 86 110
79 95 118
63 81 107
75 93 121
66 84 111
72 90 118
81 96 118
78 95 121
69 82 103
69 85 108
74 90 115
81 99 127
70 87 111
77 95 121
81 99 127
77 97 127
70 87 111
80 99 127
71 90 118
79 99 127
69 86 111
76 97 127
84 102 127
79 98 127
75 92 118
78 98 127
74 93 121
73 95 127
81 100 127
76 91 115
68 85 111
62 78 102
67 84 108
67 85 111
82 100 127
81 100 127
80 99 127
75 92 118
73 90 116
72 89 115
76 94 121
80 97 121
71 90 118
67 87 118
82 100 127
71 87 111
70 89 118
74 92 118
70 89 118
80 99 127
75 92 118
75 96 127
81 100 127
73 91 118
83 101 127
75 96 127
79 98 127
76 96 127
73 92 121
79 98 127
74 91 116
70 88 115
69 86 111
76 96 127
67 84 108
79 99 127
67 83 108
75 92 118
70 89 118
71 91 121
70 88 115
84 101 127
79 98 127
73 91 118
80 99 127
79 99 127
75 96 127
72 91 118
75 96 127
80 99 127
76 96 127
82 100 127
77 97 127
71 87 111
75 96 127
74 92 118
79 98 127
77 97 127
75 93 121
71 89 116
67 85 111
68 87 115
77 94 118
77 93 118
80 99 127
77 97 127
64 80 105
73 91 118
77 97 127
66 82 106
77 95 121
66 84 111
62 78 102
75 93 121
84 102 127
67 87 118
79 96 121
71 87 111
76 96 127
77 95 121
75 92 118
81 100 127
77 97 127
78 98 127
75 96 127
79 98 127
68 87 115
58 72 92
79 98 127
73 90 115
71 86 108
70 89 118
64 83 111
75 92 118
71 90 118
68 83 106
77 97 127
59 72 90
75 96 127
62 78 102
70 89 118
76 96 127
79 98 127
67 84 108
75 94 121
73 91 118
53 68 91
74 91 118
75 96 127
67 85 111
80 99 127
79 99 127
55 73 99
64 78 99
75 92 118
79 95 118
63 79 102
73 88 111
75 92 118
82 100 127
73 91 118
65 80 102
68 86 111
72 92 121
78 95 121
74 92 118
76 91 115
74 91 118
75 92 118
70 85 108
70 86 111
75 91 115
79 96 121
78 95 121
71 88 115
59 75 99
83 101 127
73 92 121
74 91 115
72 88 111
62 76 97
79 98 127
49 61 80
64 82 110
68 82 103
63 78 99
73 89 111
68 79 95
60 75 96
62 76 97
69 84 108
74 91 118
71 86 109
66 80 99
62 77 100
74 89 111
57 71 92
64 78 99
78 95 121
73 91 116
61 76 99
79 94 118
58 71 90
57 69 88
62 75 95
56 70 89
70 83 102
60 71 87
72 87 108
63 76 95
65 78 99
63 77 96
67 80 99
43 53 68
55 69 89
69 84 105
61 76 99
58 73 95
65 79 99
39 49 65
57 70 89
72 86 108
50 58 71
60 71 87
45 54 67
70 84 105
37 48 63
51 61 76
64 76 95
55 65 81
68 83 106
40 49 62
45 55 70
54 66 85
40 49 62
41 50 62
65 78 96
49 59 74
35 43 55
60 73 93
61 74 95
50 62 80
52 63 78
55 64 78
45 55 68
50 57 69
43 51 63
44 53 65
43 51 64
74 87 105
50 59 71
33 40 50
41 48 60
40 47 59
16 20 25
38 46 58
41 48 59
53 63 77
37 44 55
50 58 70
44 52 65
37 44 55
29 34 41
40 47 58
48 56 67
16 19 23
30 36 45
51 62 77
36 41 49
30 37 48
44 52 64
39 46 57
48 57 71
51 61 75
19 22 27
25 30 37
38 47 59
48 57 70
56 66 83
51 61 77
53 62 76
42 51 65
38 46 58
31 38 47
47 55 68
27 32 40
23 28 34
63 75 93
48 58 71
50 61 78
56 67 84
74 88 108
72 86 106
50 59 73
48 58 72
50 61 77
57 70 90
45 55 69
53 63 77
64 77 96
66 83 108
59 72 91
41 49 60
45 54 67
57 71 92
68 85 110
60 74 95
65 78 96
63 77 99
53 64 80
44 54 68
61 74 92
50 64 86
50 62 80
74 91 115
53 65 84
62 76 96
67 83 108
43 51 64
63 76 96
55 67 84
44 55 71
61 78 104
76 92 115
58 72 92
60 75 96
69 85 109
68 85 111
65 83 108
70 86 110
54 69 91
46 57 75
61 77 102
57 71 93
71 87 111
70 87 111
65 84 111
70 85 108
69 88 118
59 75 99
79 96 121
63 78 99
66 81 103
53 66 86
68 83 105
52 66 87
55 68 89
55 68 87
57 70 89
53 65 83
64 78 99
68 86 115
75 92 118
56 69 90
70 89 118
72 89 115
71 87 111
77 95 121
66 80 102
76 97 127
68 86 111
78 98 127
53 70 96
79 96 121
71 91 121
65 81 107
84 102 127
71 88 115
66 82 107
72 88 111
72 89 115
64 82 108
79 98 127
75 92 116
78 95 121
79 98 127
63 79 103
63 77 99
65 82 108
74 88 108
60 73 92
76 96 127
62 77 100
65 80 103
78 98 127
76 90 111
78 94 118
78 94 118
67 84 108
70 84 105
64 77 98
71 84 105
63 79 102
82 100 127
73 91 118
80 99 127
73 91 118
73 88 111
69 88 116
74 96 127
73 88 111
73 91 118
73 91 118
84 102 127
82 100 127
66 81 103
65 81 105
76 97 127
73 91 118
70 89 118
73 91 118
69 84 106
76 96 127
68 87 116
78 95 121
77 95 121
69 88 115
74 93 121
78 98 127
83 101 127
75 92 118
74 92 118
74 91 118
71 86 108
80 99 127
72 90 118
76 96 127
77 97 127
75 96 127
73 91 118
74 93 121
73 93 121
83 101 127
80 99 127
68 89 121
77 97 127
71 89 115
77 92 116
75 94 121
63 80 105
80 99 127
75 96 127
76 97 127
78 98 127
78 94 118
70 87 111
69 89 118
81 100 127
81 97 121
79 99 127
79 98 127
81 99 127
73 92 121
78 98 127
77 97 127
72 92 121
70 89 118
77 94 121
71 90 118
77 95 121
72 91 118
79 98 127
75 92 118
70 89 118
81 100 127
69 89 118
80 99 127
76 96 127
77 95 121
73 91 118
77 97 127
75 91 115
78 98 127
80 99 127
80 99 127
69 89 118
78 95 121
80 99 127
74 92 118
68 88 118
66 84 111
85 102 127
69 88 116
72 89 115
77 95 121
83 101 127
78 98 127
78 98 127
82 100 127
70 88 115
76 97 127
67 86 115
57 74 99
76 94 121
69 87 115
71 90 118
78 98 127
80 99 127
76 94 121
71 87 111
73 91 118
79 99 127
70 89 116
68 87 115
80 99 127
69 89 118
80 99 127
72 90 118
61 77 102
73 89 111
75 94 121
79 98 127
79 99 127
80 99 127
75 89 111
76 97 127
73 89 115
78 98 127
79 98 127
84 102 127
72 90 118
70 88 115
73 91 118
76 94 121
76 96 127
72 90 118
82 100 127
76 97 127
64 83 111
72 88 111
76 92 115
75 94 121
77 92 115
80 99 127
74 92 118
70 86 109
76 97 127
82 96 118
70 86 108
78 94 118
68 88 118
79 99 127
66 82 105
71 89 118
78 98 127
68 88 118
83 101 127
86 103 127
81 97 121
75 92 118
72 88 111
67 84 110
79 94 118
67 82 105
68 83 105
75 92 118
72 88 111
77 92 115
77 97 127
71 87 111
74 90 115
68 84 108
75 96 127
77 93 118
76 90 111
65 84 111
81 100 127
68 87 115
77 95 121
61 75 96
76 93 118
71 90 118
70 87 111
69 83 104
69 84 105
58 73 96
75 89 111
61 76 97
72 89 115
62 77 99
79 94 118
82 97 121
77 95 121
75 92 118
63 77 97
70 87 111
76 91 115
50 62 79
52 66 86
58 70 88
73 90 115
65 82 108
82 100 127
55 69 89
77 92 115
58 71 90
62 76 96
51 62 80
70 88 115
64 75 93
56 68 87
70 84 106
58 68 84
70 86 108
59 74 96
58 73 96
44 54 70
55 67 86
80 97 121
70 87 111
66 78 96
65 80 102
65 79 99
71 86 108
66 82 106
39 48 61
59 71 90
53 64 79
67 82 106
64 79 102
52 63 80
54 64 79
45 55 68
56 67 83
51 61 76
56 68 86
42 51 64
54 65 80
64 78 99
55 69 89
67 80 99
72 87 108
37 43 53
49 58 71
38 47 61
58 69 87
58 69 87
66 79 99
36 42 52
54 66 85
37 44 55
67 80 99
41 48 58
55 67 84
43 51 65
32 39 49
42 50 61
33 40 51
48 57 70
48 60 77
35 42 53
39 47 59
40 47 58
39 47 58
33 40 51
21 25 31
20 24 30
40 47 57
45 54 66
34 39 47
57 67 83
46 54 67
62 75 93
43 50 61
41 49 61
30 37 46
42 51 64
33 39 49
49 58 72
57 67 83
18 21 26
39 46 56
31 35 42
37 44 55
50 60 74
59 70 86
32 38 46
48 57 71
70 83 102
68 81 99
56 69 87
47 54 65
39 46 57
33 38 46
69 85 108
56 68 84
43 51 65
36 44 56
55 67 84
37 46 59
62 73 89
38 45 56
29 36 47
67 81 102
51 62 77
68 81 102
63 77 99
61 74 92
50 61 79
47 57 71
52 63 81
64 77 96
52 62 76
65 79 99
74 88 108
56 67 84
64 76 95
62 74 92
57 69 86
46 58 76
58 70 87
50 62 80
51 61 75
60 74 96
65 79 99
61 76 99
55 68 86
65 79 99
75 92 118
65 78 99
61 76 98
59 74 96
74 88 109
57 71 92
46 57 73
58 70 89
63 77 99
70 88 115
68 83 106
61 75 97
77 93 118
62 76 98
71 85 105
76 93 118
70 87 111
55 70 93
59 75 99
64 80 104
57 73 96
77 93 118
52 64 82
78 98 127
67 83 108
72 91 118
64 82 108
74 91 118
68 82 103
82 100 127
68 85 111
63 82 111
72 85 105
83 101 127
71 86 108
64 80 105
64 79 102
67 83 105
60 74 96
76 94 121
68 88 118
68 83 105
64 81 106
58 73 96
63 79 102
71 90 118
81 99 127
62 77 100
68 84 108
68 84 108
74 92 118
73 90 115
74 93 121
74 90 115
59 74 96
66 88 121
52 65 83
75 92 118
60 76 100
64 83 111
77 97 127
78 98 127
73 91 118
68 84 108
72 90 118
67 83 107
72 85 103
73 91 118
77 97 127
67 83 105
63 80 105
67 85 111
62 77 99
69 87 115
74 96 127
80 99 127
79 98 127
73 95 127
82 100 127
74 90 115
70 91 121
65 81 104
78 98 127
78 98 127
75 96 127
67 89 121
72 88 111
71 89 115
75 93 121
77 92 115
64 82 108
71 89 118
75 92 118
77 97 127
78 98 127
71 88 115
71 89 115
80 99 127
81 100 127
75 96 127
74 92 118
75 92 118
76 96 127
76 94 121
77 95 121
78 98 127
66 84 111
79 98 127
70 89 118
76 97 127
72 89 115
81 100 127
78 98 127
74 93 121
74 92 118
76 97 127
63 83 111
75 92 118
67 86 115
76 94 121
77 97 127
81 100 127
73 95 127
70 85 108
78 95 121
81 100 127
83 101 127
78 98 127
77 97 127
71 90 118
71 86 109
70 89 118
69 90 121
75 96 127
69 89 118
74 92 118
76 92 115
82 100 127
72 89 115
75 96 127
81 99 127
81 99 127
83 101 127
74 96 127
79 99 127
80 99 127
80 99 127
74 91 118
81 100 127
68 88 116
79 98 127
74 92 118
82 100 127
79 98 127
75 93 121
67 84 110
82 100 127
72 89 115
73 90 116
72 94 127
82 100 127
69 89 118
74 89 111
82 100 127
71 90 118
76 96 127
74 91 118
72 91 121
77 95 121
80 97 121
75 92 118
70 89 118
68 84 108
71 91 121
73 91 118
67 85 111
74 96 127
79 99 127
80 96 121
69 87 115
73 91 118
78 98 127
74 95 127
79 96 121
79 98 127
82 100 127
81 99 127
75 96 127
68 88 118
82 100 127
73 89 111
75 96 127
71 90 118
73 91 118
79 98 127
66 84 109
69 90 121
71 89 115
71 90 118
79 99 127
70 86 110
77 93 118
69 90 121
63 77 99
77 94 118
68 84 108
74 96 127
75 91 115
75 93 121
79 98 127
81 100 127
76 96 127
69 84 107
73 92 121
70 85 108
73 92 121
71 86 108
85 102 127
68 84 107
81 99 127
79 98 127
76 93 118
67 85 111
79 99 127
80 95 118
66 83 109
73 92 121
66 83 108
76 97 127
74 93 121
76 94 121
72 90 118
66 80 102
68 87 115
65 79 99
76 97 127
71 89 118
77 93 118
77 97 127
72 91 118
63 81 108
44 57 77
67 82 105
78 94 118
82 100 127
73 91 118
65 81 105
77 97 127
79 99 127
88 104 127
75 90 111
74 91 118
62 75 96
63 79 103
66 82 105
63 81 107
61 75 96
71 90 118
74 92 118
69 84 106
72 87 110
60 75 97
73 87 108
64 80 105
81 96 118
53 67 87
68 83 105
77 95 121
70 87 111
65 79 99
63 76 95
64 78 99
74 93 121
69 85 108
55 68 89
77 95 121
59 72 92
85 102 127
57 72 95
61 76 97
76 93 118
60 76 99
56 71 93
50 63 81
70 84 104
51 64 83
71 87 111
56 68 87
69 83 105
57 68 86
67 79 99
68 83 105
71 85 106
55 67 86
47 56 70
56 68 86
73 88 111
67 81 102
58 73 96
65 77 95
56 67 84
57 72 93
53 64 80
57 69 86
63 76 96
63 77 99
51 62 80
42 52 67
56 67 84
75 89 110
60 72 90
67 79 99
67 82 105
62 74 91
42 51 65
49 59 74
52 63 80
64 76 95
48 60 77
62 75 93
64 78 99
40 49 62
42 49 59
68 83 105
55 66 81
41 48 59
46 55 68
37 44 54
69 82 102
56 67 84
25 31 39
37 43 52
59 71 89
37 44 54
64 78 99
36 44 55
23 28 34
62 73 88
26 31 39
62 73 91
43 51 64
61 73 91
58 70 87
50 60 74
44 53 66
56 67 82
40 47 57
54 64 80
36 43 52
33 39 48
39 46 56
41 49 61
37 44 54
42 51 64
32 38 46
46 54 66
48 56 68
40 47 57
55 65 79
74 87 108
55 65 80
60 72 89
67 81 102
47 56 70
48 57 70
45 55 69
42 49 60
53 63 78
52 63 80
37 44 55
37 45 57
65 78 96
54 64 78
32 40 51
50 61 77
74 90 115
47 57 71
72 88 111
57 69 88
47 58 75
68 82 102
41 48 60
53 63 77
59 73 93
56 68 86
45 54 68
24 29 36
66 81 103
52 64 83
59 71 89
72 88 111
67 80 99
76 93 118
71 83 102
69 83 105
69 83 105
58 69 86
54 66 83
61 77 102
70 87 111
66 80 102
53 64 80
59 74 95
75 92 118
66 78 96
60 74 96
65 81 105
60 72 90
36 45 58
62 79 105
69 82 102
48 61 80
60 75 97
72 85 105
62 76 96
69 83 105
65 79 100
67 83 107
80 99 127
52 66 86
60 74 94
83 101 127
64 81 108
64 78 99
53 66 86
68 84 107
80 96 121
73 91 118
75 91 115
61 79 105
72 90 118
77 97 127
65 81 105
63 78 99
68 84 108
70 85 108
52 66 87
75 92 118
77 97 127
68 84 109
62 76 96
68 84 108
68 86 111
68 86 111
64 80 103
78 98 127
77 94 121
79 96 121
76 97 127
80 99 127
75 92 116
78 98 127
65 82 107
72 87 109
74 91 118
71 87 111
87 103 127
66 82 106
78 95 121
79 98 127
68 83 106
65 81 106
75 96 127
58 75 102
80 99 127
78 95 121
78 94 118
65 82 108
73 91 118
78 94 118
71 90 118
72 89 116
73 92 121
69 86 111
71 90 118
69 86 111
73 88 111
81 99 127
79 98 127
70 89 118
81 99 127
81 100 127
64 79 102
80 99 127
69 89 118
76 96 127
74 93 121
75 92 118
67 83 108
72 89 115
63 79 103
77 94 121
75 92 118
81 99 127
76 93 118
65 84 111
79 98 127
72 94 127
81 99 127
75 92 118
75 94 121
75 94 121
69 92 127
73 90 115
74 95 127
83 101 127
71 87 111
79 98 127
79 98 127
69 88 116
83 101 127
77 97 127
71 87 111
82 100 127
75 92 118
64 82 108
80 99 127
85 102 127
72 90 118
79 99 127
75 93 121
77 95 121
78 98 127
74 93 121
78 98 127
83 101 127
70 90 121
75 92 118
74 93 121
79 98 127
77 97 127
71 87 111
73 91 118
65 86 118
79 99 127
84 102 127
75 92 118
76 96 127
78 98 127
85 102 127
74 92 118
78 98 127
76 92 115
84 101 127
73 92 121
80 99 127
76 93 118
76 97 127
85 102 127
80 99 127
78 98 127
77 97 127
79 99 127
82 100 127
82 100 127
82 100 127
87 103 127
75 94 121
80 96 121
82 100 127
66 80 102
81 100 127
73 90 116
77 97 127
83 101 127
78 98 127
65 83 109
87 103 127
83 101 127
75 96 127
68 86 111
75 92 118
79 99 127
68 84 107
75 96 127
76 96 127
87 103 127
71 91 121
69 88 115
74 92 118
78 94 118
78 98 127
78 98 127
86 103 127
81 100 127
75 91 115
83 101 127
78 95 121
67 87 115
71 91 121
73 91 118
82 100 127
79 98 127
79 98 127
74 93 121
81 100 127
73 91 118
72 94 127
66 81 105
71 87 111
81 100 127
78 95 121
74 93 121
71 90 118
79 98 127
77 93 118
72 90 118
60 73 93
74 90 115
74 95 127
75 93 121
68 86 111
71 88 115
68 85 111
74 95 127
79 95 118
69 87 115
70 88 115
71 88 115
79 96 121
68 84 108
81 100 127
65 80 102
69 88 115
75 92 118
77 95 121
62 76 96
56 69 89
73 90 115
79 96 121
77 92 115
78 94 118
54 67 86
75 92 118
80 99 127
59 75 99
74 95 127
86 103 127
69 83 105
80 99 127
69 85 108
70 84 106
75 93 121
68 85 110
67 85 111
71 89 115
77 92 115
68 87 115
63 79 102
71 90 118
67 82 105
71 90 118
77 95 121
82 100 127
64 82 108
64 85 118
67 80 100
68 84 108
61 75 95
62 77 99
65 82 107
73 90 115
66 79 99
75 91 116
64 81 105
70 85 107
66 79 99
68 84 108
76 93 118
73 90 115
68 84 108
57 72 95
81 99 127
73 88 111
70 88 115
55 69 89
64 81 107
77 93 116
61 75 95
82 96 118
58 74 99
58 72 93
66 82 105
74 90 115
50 61 77
73 88 111
69 87 115
60 74 96
62 77 99
75 92 118
47 57 73
68 84 109
51 61 76
66 79 99
70 85 108
52 64 82
47 57 71
51 62 78
56 71 92
54 66 83
50 65 86
71 85 105
74 88 108
52 65 83
53 64 80
62 74 92
79 94 118
38 47 61
61 74 94
47 55 67
62 72 87
63 75 94
40 49 61
69 82 102
61 75 96
73 87 108
49 61 80
50 60 76
51 61 76
47 58 75
63 75 93
53 64 81
46 56 71
52 63 80
45 55 71
34 41 51
45 55 71
51 61 76
30 36 45
52 65 84
45 53 65
47 58 75
36 42 51
58 70 87
40 47 58
67 79 96
52 62 76
54 66 83
47 56 70
32 38 47
54 65 80
60 70 86
46 54 67
24 29 35
35 42 52
42 50 62
36 41 50
64 76 95
44 54 68
60 71 87
40 48 60
41 49 62
45 54 68
71 86 108
39 47 60
35 41 49
31 38 47
28 33 41
56 67 84
48 57 71
54 64 80
40 47 58
39 46 56
67 80 99
44 53 67
32 38 47
71 85 104
42 51 64
52 63 80
57 68 86
47 56 71
75 87 106
50 60 76
45 54 67
34 40 49
74 89 111
50 58 71
52 63 80
62 75 95
59 72 91
37 46 60
68 80 98
60 70 87
52 65 83
59 74 96
44 53 67
56 68 86
54 67 85
60 71 89
38 44 54
56 70 92
45 55 71
69 82 103
54 65 82
31 38 47
49 59 75
55 67 86
83 101 127
65 79 99
57 69 87
67 84 108
77 93 118
72 84 102
71 90 118
73 90 115
81 100 127
55 69 91
60 75 96
66 80 102
64 78 99
58 76 103
44 58 77
56 71 92
52 67 89
75 96 127
69 85 108
76 92 115
75 91 115
68 83 107
66 80 100
68 83 106
64 79 102
63 79 104
57 72 94
67 84 108
80 96 121
70 91 121
62 79 105
52 65 86
65 82 108
64 81 105
83 98 121
77 93 118
66 82 105
75 91 115
79 98 127
80 96 121
76 93 118
54 67 87
53 69 92
77 93 118
73 91 118
75 92 118
74 91 118
75 92 118
70 84 106
70 89 118
66 83 108
82 100 127
80 96 121
69 85 109
67 83 108
63 76 95
56 70 90
60 77 102
86 103 127
71 91 121
68 86 115
71 91 121
79 96 121
64 80 104
72 88 111
79 99 127
84 101 127
79 96 121
79 96 121
77 97 127
77 95 121
81 99 127
83 101 127
72 90 118
64 79 102
71 85 106
77 97 127
70 89 118
73 90 115
76 92 115
77 97 127
73 89 111
81 100 127
63 79 103
70 89 118
73 92 121
71 86 109
82 100 127
75 96 127
76 93 118
76 94 121
68 87 115
74 89 111
75 92 118
76 96 127
74 90 115
68 87 115
80 99 127
79 98 127
73 91 118
77 95 121
76 97 127
77 95 121
70 88 115
68 89 121
75 91 115
77 94 118
78 98 127
71 87 111
74 93 121
75 94 121
71 90 118
66 86 115
83 101 127
77 97 127
79 98 127
66 82 107
64 81 108
70 87 111
62 81 109
76 94 121
75 94 121
76 97 127
74 91 118
73 90 115
75 96 127
75 93 121
76 93 118
77 97 127
75 92 118
72 94 127
77 97 127
78 93 115
71 90 118
75 94 121
81 100 127
70 88 115
77 97 127
81 100 127
66 83 108
76 94 121
81 100 127
72 90 118
82 100 127
64 82 108
75 96 127
82 100 127
67 85 111
79 99 127
81 100 127
83 101 127
80 96 121
80 99 127
81 100 127
68 85 111
78 98 127
73 95 127
80 99 127
84 101 127
75 96 127
77 97 127
68 87 115
79 98 127
75 96 127
76 97 127
61 75 95
75 93 121
80 99 127
68 85 111
63 83 111
84 102 127
80 99 127
77 95 121
71 91 121
79 98 127
69 84 106
83 101 127
81 100 127
81 99 127
73 95 127
83 101 127
74 93 121
77 97 127
71 91 121
74 93 121
82 100 127
82 100 127
76 94 121
73 91 118
74 95 127
77 94 121
70 85 109
75 92 118
74 93 121
70 83 103
70 84 105
72 94 127
79 96 121
82 100 127
70 86 111
77 95 121
74 91 115
78 94 118
72 85 105
80 99 127
68 84 109
80 99 127
71 88 115
72 90 118
69 90 121
82 100 127
63 81 107
75 96 127
75 90 111
80 99 127
68 87 115
72 92 121
80 99 127
71 86 109
60 75 96
70 85 108
74 93 121
79 98 127
55 69 91
69 86 111
67 84 108
76 93 118
79 98 127
74 92 118
80 99 127
72 85 105
74 93 121
80 99 127
52 68 92
77 97 127
76 93 118
78 98 127
78 95 121
68 84 108
63 80 105
68 84 108
66 83 108
70 87 111
59 75 99
77 97 127
66 83 108
68 86 111
73 87 108
81 100 127
71 89 115
78 94 118
77 93 118
74 92 118
70 88 115
83 101 127
71 87 111
71 88 115
73 88 111
67 83 108
65 80 102
76 93 118
79 98 127
65 80 102
62 76 97
62 76 96
63 79 104
55 68 89
85 102 127
73 91 118
57 71 92
68 85 109
68 84 108
72 89 115
68 83 106
62 74 92
67 84 108
67 85 111
61 79 106
61 79 105
60 73 92
71 86 108
71 87 110
62 75 94
60 75 96
70 85 108
64 78 99
70 86 108
70 85 108
62 75 95
80 99 127
68 83 106
72 87 109
42 52 67
54 69 91
65 80 102
77 92 115
51 61 77
40 50 65
56 68 86
61 76 99
53 65 83
50 62 79
67 82 105
59 74 95
57 69 87
62 75 93
53 63 79
60 73 94
65 77 96
62 72 87
46 55 68
62 78 100
65 77 96
80 97 121
61 73 90
64 78 99
59 71 90
17 20 25
40 47 57
40 47 57
51 60 74
53 63 77
31 38 48
53 63 77
61 72 89
45 54 67
50 61 79
52 64 81
44 53 67
27 33 41
45 54 68
46 54 67
59 70 86
42 51 64
60 70 86
48 57 71
57 69 86
46 54 67
54 63 78
44 53 65
76 92 115
31 37 45
35 43 56
33 41 54
23 28 36
59 71 89
46 57 73
45 53 65
65 77 96
43 51 65
48 57 70
41 49 60
45 53 64
35 43 54
35 41 51
38 46 59
40 47 57
48 59 74
49 59 73
49 60 77
41 48 59
50 60 73
46 56 71
64 74 89
65 78 96
65 79 99
63 76 96
48 58 72
54 65 81
41 49 61
41 49 62
48 57 71
61 75 96
50 61 78
65 78 99
45 55 70
55 65 80
69 83 105
48 59 75
46 55 69
70 85 108
51 61 77
56 70 90
38 47 62
49 60 76
49 60 78
57 69 87
46 55 68
60 74 95
59 71 89
67 79 96
49 59 74
79 94 116
50 61 78
46 57 75
53 65 83
81 96 118
78 98 127
49 61 79
64 81 106
53 64 80
66 79 99
57 69 87
56 69 89
74 89 111
64 79 102
58 70 88
64 78 99
54 65 81
60 76 99
72 87 109
84 101 127
71 86 108
64 77 96
69 86 111
59 73 93
57 70 90
72 86 106
63 78 99
44 55 71
52 62 77
55 71 93
52 67 89
75 91 115
72 88 111
52 64 83
65 82 106
58 69 87
74 89 111
82 98 121
81 100 127
71 91 121
57 70 91
60 73 93
73 91 118
66 83 108
71 86 110
64 82 108
63 78 102
64 78 100
66 84 111
61 73 92
73 90 115
71 86 108
67 84 108
74 92 118
76 94 121
84 101 127
64 80 103
75 92 118
76 93 118
66 83 108
73 91 118
81 99 127
70 85 106
75 94 121
76 93 118
68 84 108
73 91 118
68 84 108
72 90 115
53 67 87
64 79 102
56 72 95
69 86 111
68 85 109
80 99 127
67 83 108
62 77 99
60 76 99
72 88 111
44 57 76
78 98 127
75 92 118
73 92 121
72 92 121
64 82 108
77 97 127
50 64 84
71 91 121
83 101 127
83 101 127
75 91 115
68 85 109
81 100 127
77 94 121
59 75 99
70 86 108
77 94 121
73 92 121
70 87 111
77 93 118
75 92 118
70 89 118
77 97 127
76 93 118
65 82 108
72 91 121
73 91 118
73 91 118
69 85 108
72 90 118
83 101 127
54 69 92
77 97 127
77 97 127
69 86 111
80 99 127
83 101 127
80 95 118
76 97 127
72 90 118
71 85 105
78 98 127
78 95 121
75 96 127
75 92 118
81 100 127
66 84 111
75 96 127
60 75 97
72 91 118
64 82 108
79 98 127
73 92 121
76 96 127
69 86 111
82 100 127
74 91 118
85 102 127
83 101 127
68 85 111
69 89 118
74 93 121
72 90 118
80 99 127
74 95 127
65 81 106
72 92 121
66 86 115
80 99 127
76 96 127
77 97 127
72 90 115
78 98 127
78 98 127
81 100 127
78 98 127
74 92 118
72 92 121
80 99 127
71 90 118
77 95 121
75 94 121
73 91 118
74 91 116
75 96 127
67 85 111
74 92 118
74 91 118
79 99 127
67 84 109
79 98 127
76 94 121
75 93 121
78 98 127
75 92 116
76 97 127
71 89 115
78 98 127
77 97 127
81 100 127
75 96 127
71 89 115
83 101 127
75 96 127
72 88 111
74 95 127
77 97 127
75 92 118
70 88 115
74 95 127
72 89 115
72 91 118
72 87 109
72 89 115
78 98 127
79 94 118
81 99 127
74 91 118
63 79 102
79 98 127
67 85 111
65 79 99
77 95 121
70 89 118
75 92 118
72 90 118
79 98 127
82 100 127
73 93 121
70 84 106
77 97 127
87 103 127
73 91 118
80 97 121
74 91 118
63 80 106
71 87 111
80 99 127
77 97 127
79 98 127
74 95 127
77 95 121
75 93 121
79 98 127
77 97 127
76 93 118
65 80 102
73 95 127
63 81 108
72 90 115
75 92 118
80 99 127
81 100 127
66 84 111
74 92 118
80 99 127
65 84 111
76 96 127
69 90 121
71 87 111
72 90 118
69 90 121
68 84 108
75 96 127
79 98 127
77 97 127
73 89 111
68 85 111
76 93 118
77 94 121
85 102 127
66 82 105
67 84 108
51 62 80
75 92 118
76 97 127
74 91 118
68 88 118
73 89 111
78 98 127
75 96 127
60 77 103
69 86 111
70 87 111
73 88 111
68 83 105
58 72 92
72 88 111
65 83 111
77 94 118
60 73 92
62 76 97
64 82 108
66 84 111
66 80 102
66 86 116
69 89 118
71 89 115
63 78 102
58 74 99
64 78 97
72 89 115
58 72 94
67 82 106
43 53 68
61 73 92
59 71 90
53 64 80
79 99 127
58 75 99
70 84 105
80 99 127
61 74 93
59 73 95
61 77 102
76 90 111
56 69 89
77 94 118
55 67 83
71 87 111
50 60 75
48 59 75
59 75 99
68 81 102
51 62 79
50 63 84
48 58 74
57 71 91
70 85 107
50 61 76
53 62 76
46 55 68
67 82 106
51 63 81
53 64 80
34 41 53
66 80 102
45 53 66
71 85 105
48 58 73
57 69 88
46 55 67
49 58 71
52 63 79
68 86 111
57 69 87
48 58 73
44 53 65
66 81 102
48 61 81
62 76 95
59 72 92
56 65 80
57 70 89
62 75 93
49 59 73
66 79 99
32 38 47
41 51 65
60 71 87
49 60 75
64 78 99
42 51 64
43 52 65
49 59 75
69 83 105
74 89 111
53 63 77
36 43 54
54 65 83
62 72 87
56 67 83
35 44 58
54 63 77
33 41 53
59 70 87
40 50 64
47 55 67
46 56 70
38 45 56
41 49 60
42 51 65
74 89 111
42 51 63
42 51 63
39 47 60
54 67 87
55 66 83
52 65 84
45 53 65
53 64 80
46 55 68
41 48 60
47 57 72
30 37 47
36 43 55
42 50 63
62 74 94
52 63 80
49 59 73
53 67 87
55 69 89
52 64 81
56 65 80
56 66 81
48 60 79
60 73 93
48 58 72
42 50 62
35 42 52
61 74 93
50 60 75
73 86 105
57 68 83
62 76 95
64 79 102
59 74 97
66 82 106
49 60 76
61 75 95
43 52 66
51 61 75
33 41 54
63 76 94
78 92 111
46 57 74
51 63 80
76 93 118
67 80 99
56 71 92
63 76 96
69 85 109
57 71 92
84 101 127
65 80 102
67 79 96
64 80 105
65 78 96
62 77 98
64 77 96
70 86 111
76 91 115
67 85 111
53 66 86
50 61 78
69 83 104
67 81 102
67 83 107
71 85 105
55 70 92
69 87 115
62 80 105
53 68 91
68 82 103
76 93 118
61 76 99
45 57 76
67 85 111
72 88 111
54 68 90
82 100 127
76 93 118
78 96 121
70 89 118
70 85 109
68 82 102
65 81 106
66 82 107
68 84 107
73 88 111
63 78 99
63 77 99
66 83 108
62 76 96
80 99 127
71 87 111
67 87 116
77 97 127
78 98 127
69 88 115
69 88 115
69 85 108
72 88 111
77 93 118
64 80 104
79 98 127
68 87 116
72 91 118
68 84 109
68 85 109
64 83 111
68 84 108
75 91 115
66 82 105
70 85 108
61 77 100
74 91 118
75 93 121
74 92 118
64 79 102
53 66 86
73 91 118
79 99 127
83 101 127
78 98 127
70 90 121
74 88 110
66 80 102
74 90 115
74 91 118
71 90 118
79 96 121
70 88 115
76 97 127
73 90 115
78 98 127
65 81 105
76 93 118
75 92 118
78 98 127
72 91 118
71 91 121
77 94 121
67 85 111
74 91 115
81 99 127
83 101 127
77 97 127
79 98 127
76 93 118
79 98 127
63 80 105
75 92 118
53 67 88
77 97 127
69 85 110
81 99 127
66 83 108
81 100 127
72 88 111
75 93 121
67 83 107
75 92 118
62 77 100
76 97 127
72 92 121
82 100 127
82 100 127
68 88 118
72 89 115
76 97 127
75 94 121
79 99 127
65 84 111
78 98 127
78 95 121
73 93 121
79 99 127
70 87 111
68 85 111
79 98 127
76 91 115
82 100 127
82 100 127
74 93 121
68 86 111
73 88 111
79 98 127
84 101 127
69 89 118
80 99 127
72 90 118
79 98 127
78 98 127
79 98 127
75 93 121
78 98 127
83 101 127
78 95 121
83 101 127
66 86 115
79 99 127
87 103 127
76 97 127
80 99 127
75 92 118
83 101 127
74 93 121
71 89 115
80 99 127
78 98 127
77 97 127
83 101 127
83 98 121
75 96 127
74 92 118
63 77 99
70 88 115
80 99 127
76 94 121
65 80 103
68 85 111
68 84 108
73 90 115
68 87 115
78 98 127
73 92 121
78 98 127
80 99 127
76 94 121
76 97 127
69 89 118
65 86 118
83 101 127
71 90 118
82 100 127
76 96 127
77 97 127
81 99 127
80 99 127
78 98 127
73 91 118
70 89 118
81 100 127
77 97 127
80 99 127
72 92 121
74 91 115
68 86 111
77 97 127
75 93 121
71 90 118
79 98 127
78 98 127
68 85 109
76 97 127
78 98 127
81 97 121
63 81 108
66 83 110
75 91 115
77 93 118
69 87 115
71 90 118
75 94 121
75 91 116
73 92 121
73 92 121
78 98 127
71 87 111
63 80 105
76 94 121
79 96 121
78 98 127
73 90 115
71 88 115
65 81 106
69 88 118
83 101 127
74 92 118
76 93 118
67 84 108
86 102 127
65 84 111
62 74 92
54 68 89
75 91 115
76 97 127
63 80 106
67 85 111
65 84 111
77 94 121
72 89 115
70 86 111
67 85 111
70 88 115
73 90 116
75 93 121
63 78 102
71 86 108
72 90 118
70 84 105
52 64 82
77 95 121
57 69 86
70 84 105
68 86 111
68 83 106
77 93 118
71 86 108
69 84 107
79 96 121
73 87 108
62 77 99
68 80 99
71 90 118
66 83 108
66 82 106
64 78 99
64 77 96
66 82 105
63 78 102
55 67 84
68 83 106
77 97 127
79 96 121
70 85 108
64 78 99
63 77 99
67 82 105
56 68 87
61 75 95
74 91 118
73 86 107
54 67 87
39 49 63
65 78 99
62 76 96
61 74 92
62 75 94
52 63 79
69 85 108
48 59 75
82 100 127
49 59 74
57 71 92
60 73 92
64 76 94
61 75 97
34 42 53
60 73 93
70 87 111
68 81 100
57 69 86
74 88 108
53 64 79
79 99 127
71 86 108
56 69 87
62 75 94
51 63 80
48 59 76
68 82 103
58 70 89
62 73 91
70 83 102
47 56 70
47 57 71
59 72 90
56 68 84
65 79 99
47 56 68
67 79 96
36 44 55
73 86 105
56 68 86
51 62 78
48 56 68
56 68 87
49 58 73
41 50 64
51 62 78
36 42 52
35 42 54
57 70 90
56 68 86
53 63 77
45 55 70
52 64 82
44 52 64
62 75 94
41 48 60
57 67 83
68 82 104
38 47 61
25 30 37
67 83 106
40 47 59
42 50 61
53 64 79
54 64 79
48 57 69
45 53 66
58 68 84
39 46 58
43 51 62
43 52 64
36 44 56
35 42 53
38 45 57
40 48 60
49 59 73
47 57 72
61 72 87
62 72 87
40 48 58
65 78 97
65 77 96
66 79 99
55 68 86
64 76 95
59 70 86
59 70 86
58 68 83
62 76 96
50 60 75
61 74 94
58 69 87
64 79 102
49 60 77
55 67 86
74 90 115
59 69 85
68 81 102
60 74 95
52 62 78
70 84 106
68 84 108
69 85 108
63 76 95
49 58 71
61 75 96
71 87 111
61 76 99
75 90 111
64 79 102
62 77 99
58 73 95
45 55 71
56 69 89
53 63 80
62 79 103
75 92 118
49 60 76
54 65 83
56 71 93
65 77 95
71 86 108
68 83 107
51 65 86
64 79 102
84 102 127
64 75 91
39 46 58
68 84 108
67 82 105
72 87 108
78 95 121
77 93 116
52 65 84
79 96 121
75 92 118
59 71 91
69 83 105
71 90 118
44 54 68
66 82 107
70 89 118
55 68 86
74 89 111
58 71 92
79 96 121
60 74 95
57 69 88
52 67 89
69 86 111
78 95 121
67 82 105
63 78 100
71 90 118
62 77 99
80 96 121
68 88 118
63 78 100
57 68 84
65 81 105
65 80 102
73 88 111
63 78 100
76 94 121
67 87 118
61 76 99
60 74 96
65 83 108
70 88 115
70 87 111
72 87 108
76 93 118
76 93 118
68 88 118
81 100 127
72 91 121
64 82 110
56 71 92
74 93 121
72 90 118
69 85 109
67 84 108
80 99 127
81 99 127
72 87 109
74 92 118
79 98 127
60 78 105
65 84 111
75 93 121
75 94 121
80 95 118
79 96 121
70 84 106
78 93 115
74 88 108
78 94 118
82 100 127
70 90 121
80 99 127
70 91 121
74 96 127
70 91 121
71 90 118
78 94 118
75 93 121
72 91 118
77 97 127
72 89 115
75 96 127
76 93 118
66 83 110
77 97 127
75 94 121
75 89 111
80 99 127
79 98 127
71 94 127
76 97 127
79 99 127
85 102 127
81 100 127
71 87 111
66 82 106
79 98 127
74 92 118
75 94 121
81 100 127
77 97 127
74 93 121
65 82 106
75 93 121
73 91 118
74 96 127
63 80 105
74 89 111
78 98 127
78 95 121
69 86 111
76 94 121
73 95 127
79 99 127
77 95 121
76 92 115
81 100 127
79 98 127
74 93 121
80 99 127
78 95 121
79 99 127
80 99 127
88 104 127
70 89 118
80 99 127
82 100 127
68 88 118
65 82 108
83 101 127
82 100 127
82 100 127
72 92 121
79 96 121
82 100 127
81 96 118
80 99 127
72 92 121
77 92 115
73 91 118
72 88 111
81 99 127
79 98 127
72 90 118
71 87 111
84 101 127
78 98 127
76 96 127
76 96 127
70 88 115
71 90 118
75 96 127
72 90 118
78 98 127
82 100 127
80 99 127
64 86 118
73 92 121
64 81 108
75 96 127
80 99 127
74 91 118
77 93 118
74 90 115
79 99 127
69 84 107
77 93 118
75 92 118
82 100 127
72 90 116
68 85 111
72 89 115
78 98 127
68 83 107
71 89 116
81 100 127
79 98 127
78 98 127
79 98 127
74 92 118
81 99 127
65 82 108
77 94 121
60 77 102
72 89 115
76 97 127
67 86 115
73 91 118
67 84 108
68 84 108
59 73 93
73 91 118
70 84 106
65 82 108
73 90 116
76 97 127
73 91 118
77 97 127
54 66 84
78 98 127
78 94 118
62 78 102
82 100 127
61 78 103
75 94 121
69 88 118
75 93 121
79 94 115
59 76 102
74 92 118
71 90 118
77 95 121
81 99 127
69 86 111
81 100 127
72 88 111
70 84 105
81 97 121
65 82 108
79 98 127
74 90 115
60 77 102
55 70 92
70 86 110
77 95 121
62 76 97
76 93 118
64 82 108
68 82 102
70 88 115
77 97 127
80 95 118
57 70 89
72 89 115
59 72 92
72 90 118
75 96 127
68 85 109
75 92 118
78 96 121
74 91 118
62 74 93
81 100 127
69 85 108
57 71 92
77 94 118
66 82 105
65 79 99
51 63 80
64 80 103
72 87 109
51 64 83
72 88 111
58 71 92
86 103 127
84 101 127
72 89 115
72 86 108
64 82 108
57 70 90
63 78 99
72 89 115
61 74 92
58 70 86
74 91 118
51 64 83
57 69 87
55 66 82
66 82 106
76 97 127
56 67 84
62 75 96
62 75 94
59 73 92
71 85 105
60 73 93
71 84 104
65 77 95
52 63 79
49 61 79
52 66 85
69 84 107
52 62 78
66 78 96
61 73 92
82 98 121
78 94 118
42 52 67
63 74 90
63 78 99
45 54 69
60 73 92
54 66 84
41 50 63
51 61 76
55 68 86
64 78 99
54 67 86
67 81 102
63 76 96
56 68 87
60 72 89
43 52 67
46 55 69
56 66 81
47 58 75
63 76 95
40 50 64
62 75 96
59 71 90
36 43 54
56 68 85
38 46 57
58 69 86
57 68 84
29 35 44
69 82 102
56 64 78
63 76 94
66 79 99
50 60 75
70 84 105
29 36 45
52 64 80
66 78 96
69 83 105
55 65 81
50 62 80
62 76 96
38 46 58
42 49 60
55 65 81
72 86 107
60 70 85
38 45 57
50 61 78
43 51 64
68 84 107
45 53 65
43 52 65
52 64 81
48 56 68
58 70 89
31 37 47
61 71 87
47 58 73
38 46 59
67 80 99
39 46 56
57 69 87
57 68 86
57 69 87
49 60 77
74 88 108
43 54 70
40 50 64
57 68 84
58 69 87
59 70 87
53 66 84
44 53 65
74 89 111
38 48 62
45 55 70
68 82 102
46 55 68
41 50 62
49 59 73
52 62 79
66 79 99
67 81 102
56 70 91
45 53 65
58 68 84
60 73 93
73 88 111
43 53 68
68 81 102
42 52 65
42 51 66
51 62 79
64 78 100
61 73 91
77 93 118
48 57 71
61 72 88
69 82 102
60 74 95
66 80 99
51 64 83
57 70 89
58 72 92
59 75 99
65 81 105
53 62 75
53 64 81
57 69 86
76 94 121
63 77 99
62 75 95
62 76 96
76 92 116
76 91 115
56 67 83
67 82 106
71 87 111
54 66 85
68 83 105
73 92 121
66 82 106
73 87 108
79 95 118
75 92 118
70 87 111
66 82 106
69 83 105
63 79 103
61 73 92
83 101 127
57 74 100
78 92 111
64 77 97
73 90 115
61 75 96
67 85 111
66 81 103
79 96 121
66 84 110
80 99 127
80 99 127
62 74 92
70 86 108
63 79 102
60 74 95
67 85 111
78 95 121
82 100 127
65 83 111
78 98 127
55 68 87
72 89 115
61 77 102
72 90 118
77 97 127
85 102 127
73 91 118
69 83 105
86 103 127
72 90 116
83 101 127
69 85 108
74 89 111
64 79 102
79 96 121
66 82 105
70 88 115
72 92 121
74 92 118
78 95 121
74 93 121
79 98 127
67 82 105
69 85 108
66 81 105
71 87 111
71 86 108
78 98 127
77 95 121
80 99 127
71 86 109
73 92 121
79 98 127
71 89 115
80 99 127
72 88 111
75 96 127
60 74 95
67 87 118
79 96 121
72 89 115
75 96 127
82 100 127
70 88 115
74 93 121
82 100 127
81 99 127
73 91 118
75 96 127
69 89 118
80 99 127
75 92 118
82 100 127
80 99 127
75 96 127
75 96 127
79 98 127
79 99 127
77 97 127
81 99 127
70 88 115
74 95 127
83 101 127
77 97 127
71 91 121
79 98 127
79 98 127
80 99 127
76 94 121
81 99 127
72 92 121
71 90 118
74 95 127
66 83 108
81 100 127
76 97 127
78 95 121
73 91 118
79 98 127
78 98 127
78 98 127
68 86 111
81 100 127
76 93 118
77 94 118
66 83 109
75 94 121
72 90 118
83 101 127
70 87 111
74 93 121
79 98 127
77 94 121
78 98 127
77 94 121
79 99 127
76 96 127
80 99 127
76 97 127
74 96 127
78 98 127
71 89 115
81 99 127
75 92 118
78 98 127
71 89 115
68 84 109
77 94 121
78 95 121
83 101 127
75 93 121
69 87 115
64 79 102
72 92 121
68 84 108
75 94 121
75 92 118
73 95 127
68 85 111
76 96 127
76 92 115
71 88 115
73 91 118
72 89 116
78 98 127
77 97 127
72 92 121
76 96 127
71 90 118
77 94 121
73 90 115
79 99 127
81 99 127
69 89 118
76 93 118
69 89 118
72 89 115
82 100 127
81 97 121
79 99 127
76 97 127
75 91 115
70 89 118
77 97 127
80 99 127
68 85 111
75 96 127
64 81 107
62 77 99
67 84 108
66 84 111
70 85 108
69 84 105
68 85 111
65 81 105
68 89 121
72 88 111
79 96 121
72 91 121
71 88 115
81 99 127
79 99 127
74 95 127
71 88 115
78 98 127
75 93 121
75 96 127
76 90 111
69 84 106
73 91 118
80 99 127
73 90 115
73 95 127
77 94 121
75 96 127
79 96 121
68 86 111
66 82 106
82 100 127
73 91 118
67 81 102
64 81 107
65 80 102
78 95 121
81 97 121
63 80 105
70 87 111
68 85 110
73 90 115
68 82 102
75 91 115
76 91 115
71 86 109
56 71 94
75 93 121
81 100 127
78 95 121
73 92 121
73 90 115
66 86 115
84 101 127
67 83 108
62 78 102
65 81 104
67 83 107
55 68 86
59 71 89
73 90 115
67 82 104
67 81 102
75 88 109
70 84 105
59 75 99
77 97 127
69 85 108
62 75 94
73 92 121
51 63 81
56 71 92
65 81 105
62 77 99
67 82 103
75 93 121
60 74 95
73 90 115
73 91 118
68 84 108
73 87 108
68 86 115
59 74 95
72 90 118
77 92 115
59 71 90
65 80 102
74 92 118
70 85 107
52 64 83
64 79 102
46 56 71
74 92 118
59 71 90
59 74 96
71 85 105
75 89 109
50 61 77
64 78 99
64 76 95
70 85 107
62 74 92
68 84 108
46 56 71
79 95 118
58 72 93
71 86 109
64 77 96
58 69 85
75 91 115
57 69 87
43 51 64
65 78 98
28 34 42
63 75 94
65 77 96
69 84 105
55 66 81
53 64 80
66 81 102
61 75 96
61 74 92
49 59 74
40 50 64
74 88 109
59 74 96
56 68 87
48 57 70
59 71 90
59 72 91
23 28 36
56 66 81
61 74 92
51 61 75
62 74 92
62 75 96
48 58 74
40 49 61
51 60 75
59 70 86
61 72 89
49 61 79
57 70 89
56 69 89
56 68 84
46 56 70
24 29 35
61 76 97
64 77 96
58 69 85
25 30 37
42 51 64
42 52 67
59 69 84
40 47 58
54 65 81
41 49 61
41 49 60
30 38 49
43 52 65
55 64 77
33 40 50
59 70 86
79 94 118
60 73 92
49 58 72
48 59 75
56 67 83
33 39 48
42 51 64
65 77 95
75 91 115
45 55 71
57 70 90
59 70 87
70 83 103
64 77 97
71 85 107
64 78 99
64 77 97
42 52 66
58 68 83
64 78 99
49 58 72
63 76 96
64 78 99
70 87 111
43 51 64
75 92 118
67 84 108
46 57 74
50 61 76
54 67 87
51 65 84
77 93 118
48 59 76
77 93 118
51 62 79
50 62 80
64 78 99
65 78 99
36 46 60
57 71 92
65 81 105
55 70 91
72 87 108
63 77 99
59 73 93
61 75 96
72 88 111
50 60 74
66 82 105
63 78 100
65 82 108
76 92 116
56 72 96
63 79 103
69 85 109
68 84 108
80 97 121
65 79 99
66 83 109
62 76 96
66 83 108
73 89 111
66 83 108
72 89 115
67 84 108
63 77 99
60 75 99
63 79 103
61 75 96
77 94 118
83 101 127
67 83 108
72 91 118
71 85 107
58 73 96
72 88 111
52 64 83
69 82 102
68 83 106
51 63 80
82 100 127
71 86 108
69 88 118
78 98 127
73 91 118
64 82 108
71 91 121
75 91 115
61 77 99
82 100 127
55 67 86
53 69 93
77 92 115
73 91 118
67 85 111
69 86 111
72 91 118
79 99 127
74 95 127
75 92 118
70 88 115
70 83 103
76 94 121
66 87 118
70 91 121
59 74 95
65 79 100
57 77 105
52 67 89
75 92 118
72 89 115
74 89 111
72 91 118
82 100 127
73 90 115
72 88 111
70 84 103
77 93 118
72 91 118
71 87 111
72 91 118
58 72 93
71 90 118
72 89 115
74 90 115
81 99 127
81 99 127
67 85 111
54 67 87
66 82 105
78 95 121
72 88 111
75 94 121
80 99 127
75 96 127
80 99 127
78 95 121
75 91 116
67 81 103
75 92 118
74 92 118
74 90 115
79 98 127
70 91 121
71 90 118
75 96 127
71 86 108
83 101 127
74 93 121
70 86 108
61 74 92
69 86 111
75 93 121
70 85 108
80 99 127
76 96 127
77 95 121
65 81 106
74 92 118
74 93 121
83 101 127
71 90 118
80 95 118
70 89 118
73 92 121
78 98 127
67 85 111
82 100 127
75 96 127
74 93 121
80 99 127
79 99 127
71 94 127
77 97 127
78 98 127
76 94 121
75 96 127
78 98 127
74 93 121
78 98 127
80 99 127
74 93 121
83 101 127
78 98 127
74 93 121
69 86 111
78 98 127
80 99 127
74 93 121
79 98 127
81 100 127
78 98 127
68 85 111
77 95 121
62 82 111
78 98 127
78 94 118
76 93 118
72 90 118
71 87 111
80 99 127
79 96 121
75 92 118
80 99 127
79 99 127
71 88 115
73 92 121
73 91 118
68 86 111
62 79 105
73 92 121
78 98 127
74 93 121
74 95 127
80 99 127
71 89 118
76 94 121
73 90 115
82 100 127
78 95 121
74 93 121
66 83 108
69 86 111
69 88 116
77 95 121
72 90 118
67 84 108
78 95 121
59 75 99
72 90 118
69 88 116
76 94 121
80 96 121
77 94 118
79 98 127
82 100 127
52 65 84
84 101 127
80 99 127
71 90 118
78 93 115
74 91 118
78 98 127
80 96 121
67 84 108
72 90 118
68 88 118
74 91 118
70 87 111
76 94 121
78 95 121
86 103 127
76 94 121
78 98 127
79 98 127
79 98 127
83 101 127
72 92 121
84 101 127
74 92 118
74 89 111
81 100 127
72 89 115
69 86 111
79 99 127
78 94 118
76 94 121
72 91 118
64 83 111
69 88 115
75 92 118
70 86 111
73 91 118
80 97 121
72 90 118
61 79 106
71 88 115
83 101 127
62 79 105
57 71 91
74 92 118
67 83 108
75 93 121
69 86 111
72 88 111
73 92 121
71 90 118
81 100 127
57 72 95
76 94 121
74 93 121
64 82 108
66 82 105
72 90 118
80 99 127
65 78 96
71 87 110
69 85 108
66 83 108
74 93 121
73 88 111
69 86 111
62 76 99
53 64 80
57 70 89
55 72 97
80 96 121
65 80 102
70 84 105
81 99 127
73 91 118
65 79 99
62 77 99
52 66 87
54 71 96
69 84 106
69 84 108
52 64 84
45 54 68
58 69 86
61 75 95
62 78 102
79 98 127
52 66 86
77 93 118
64 76 95
62 78 102
63 79 102
54 64 79
44 55 70
62 74 93
63 78 100
63 78 99
60 73 92
46 58 77
73 91 118
75 91 115
67 82 105
51 61 77
60 75 96
56 67 83
55 68 87
73 87 109
62 78 102
50 61 78
61 75 95
58 69 86
66 81 103
56 68 86
56 67 83
56 68 87
54 65 81
51 60 75
45 55 70
65 80 102
41 50 63
35 43 55
58 69 85
63 76 96
48 59 75
55 67 84
49 61 79
58 71 89
59 70 87
55 67 84
37 45 58
60 69 83
68 82 102
48 57 70
69 82 102
50 61 77
61 73 90
42 49 59
50 61 76
48 59 74
43 51 63
50 59 73
54 65 81
65 78 97
58 69 84
52 63 80
43 51 63
28 33 40
41 48 59
44 53 65
52 60 74
70 85 107
52 61 75
41 52 67
55 67 85
59 72 92
55 65 81
44 53 65
67 78 96
63 76 96
28 34 44
44 52 64
62 74 90
49 60 77
36 46 60
71 85 105
57 66 80
47 58 73
68 83 105
63 75 92
71 87 111
60 73 91
51 61 75
66 80 99
57 71 91
41 52 68
60 73 92
59 70 87
60 73 92
52 64 81
36 44 55
63 75 94
81 97 121
66 79 99
62 78 103
58 70 87
63 75 94
44 51 62
80 99 127
60 71 86
72 89 115
64 78 99
47 57 72
67 83 107
69 85 108
72 89 115
60 75 96
64 78 99
57 71 92
48 60 77
72 91 118
55 65 80
78 93 115
75 92 118
46 56 71
44 54 70
27 32 40
65 79 99
71 87 111
67 84 108
66 80 102
54 67 87
64 81 106
67 83 108
65 79 99
64 82 108
64 78 99
59 72 91
69 85 110
67 85 111
77 95 121
57 69 87
69 85 108
78 93 115
56 69 90
60 74 95
65 83 110
67 83 108
66 79 99
72 88 111
76 94 121
72 86 108
72 88 111
68 85 111
71 85 106
80 99 127
72 88 111
57 72 95
64 81 107
59 75 100
68 85 111
72 92 121
71 87 111
60 72 91
82 100 127
77 95 121
71 87 111
83 101 127
74 92 118
71 89 116
60 77 102
78 96 121
68 85 111
81 99 127
70 89 118
66 83 108
60 76 99
79 99 127
72 92 121
61 73 92
69 86 111
67 84 108
64 82 108
74 92 118
79 99 127
70 89 118
74 91 115
64 80 105
80 96 121
78 98 127
73 90 116
76 93 118
67 83 108
72 90 118
80 99 127
78 98 127
73 92 121
82 97 121
71 87 111
76 93 118
62 79 105
79 98 127
56 70 91
72 90 118
61 77 102
78 96 121
79 98 127
80 99 127
70 89 118
78 98 127
68 86 111
76 93 118
72 91 121
77 97 127
67 85 111
84 102 127
68 83 106
73 90 115
73 93 121
74 93 121
85 102 127
75 92 118
72 92 121
61 79 105
82 100 127
73 91 118
62 78 102
74 93 121
72 89 115
76 94 121
69 89 118
73 91 118
70 87 111
77 95 121
81 100 127
71 91 121
79 98 127
68 83 105
81 100 127
67 85 111
72 94 127
71 90 118
73 95 127
63 76 96
74 95 127
74 93 121
73 92 121
68 87 115
78 95 121
74 93 121
78 98 127
74 91 118
83 101 127
75 91 115
77 95 121
81 100 127
78 95 121
75 96 127
84 101 127
71 90 118
75 92 118
74 92 118
77 97 127
71 91 121
77 94 121
77 97 127
64 80 105
65 81 105
77 97 127
69 85 108
75 96 127
80 95 118
63 80 105
74 90 115
74 89 111
73 90 115
67 83 107
78 98 127
76 93 118
72 88 111
81 100 127
78 98 127
75 91 115
77 97 127
76 93 118
81 99 127
81 99 127
78 94 118
76 97 127
79 98 127
70 87 111
62 78 100
73 88 111
71 90 118
74 93 121
69 86 111
73 91 118
74 93 121
72 90 115
77 95 121
76 97 127
77 97 127
71 91 121
69 84 106
69 87 115
73 95 127
87 103 127
54 70 92
71 90 118
78 95 121
70 87 111
76 96 127
71 90 118
85 102 127
71 86 108
76 97 127
78 95 121
79 96 121
69 89 118
77 97 127
83 101 127
67 82 105
78 95 121
79 99 127
75 93 121
56 69 89
61 76 99
71 89 116
72 90 118
79 98 127
69 88 115
59 74 96
75 96 127
75 92 118
81 100 127
77 95 121
77 91 111
81 100 127
80 99 127
73 92 121
76 94 121
73 91 118
73 90 115
56 69 88
79 94 116
81 100 127
79 98 127
68 84 110
74 91 118
75 93 121
69 86 111
68 84 108
68 84 108
70 89 118
74 91 115
80 94 115
79 98 127
71 89 116
71 89 115
62 79 105
55 67 86
65 79 99
69 87 115
62 78 102
72 90 118
73 92 121
70 89 118
74 91 118
74 90 115
70 88 115
73 89 111
70 85 108
69 84 105
65 82 106
65 81 106
79 96 121
74 90 115
49 60 76
81 100 127
59 76 102
66 86 115
58 75 99
58 72 92
62 77 99
53 66 86
61 80 108
63 75 92
56 71 93
77 93 115
60 75 99
58 69 85
59 73 95
65 81 105
79 94 118
79 98 127
72 90 115
68 85 111
80 99 127
75 92 118
67 82 105
73 87 108
62 74 93
72 87 109
52 64 83
74 91 115
71 85 107
57 70 89
62 77 99
73 88 111
61 75 96
65 80 102
62 74 93
55 66 84
51 62 78
53 64 81
58 71 89
47 57 73
64 76 93
77 93 118
58 69 87
40 50 64
56 71 93
74 92 118
64 76 95
51 64 83
43 53 67
50 61 76
57 70 90
66 78 96
71 86 108
52 64 82
63 76 95
61 74 94
62 76 96
71 86 109
75 90 111
49 58 73
52 63 80
49 59 74
49 60 77
54 65 81
52 63 80
38 46 59
55 68 86
35 43 56
63 75 93
58 69 85
65 78 96
59 72 90
30 36 46
58 71 89
60 74 96
53 63 78
44 52 64
44 52 65
52 62 77
41 49 62
34 40 50
59 70 87
50 60 74
39 46 55
37 45 58
42 51 63
62 74 92
38 45 56
48 58 73
58 70 88
54 65 81
60 71 87
67 80 100
63 77 99
50 60 76
26 32 41
19 24 30
47 56 70
52 62 77
58 70 87
58 69 85
48 57 71
62 73 91
53 64 80
56 67 83
54 63 78
57 67 83
51 61 74
63 75 93
48 58 74
67 80 99
63 77 99
26 30 37
68 83 105
50 60 75
60 73 93
55 65 80
65 81 105
46 56 70
68 81 102
46 56 71
69 86 111
70 85 109
48 58 73
74 89 111
66 79 99
61 74 93
52 63 81
76 90 111
63 74 90
66 77 95
57 70 89
70 86 109
46 55 67
48 60 77
63 80 105
59 74 96
55 68 87
42 54 71
54 67 87
53 66 86
67 81 102
57 69 87
67 83 107
74 89 111
69 84 107
62 77 99
59 72 92
64 79 102
78 94 118
72 86 108
60 76 99
74 91 116
59 74 96
54 68 89
54 67 86
76 94 121
67 82 106
58 72 92
53 65 83
60 74 95
67 85 111
67 81 102
63 76 96
82 98 121
64 78 99
48 59 75
68 84 108
69 84 106
51 65 87
79 98 127
71 89 115
60 75 99
72 88 111
74 91 118
77 93 118
57 74 99
69 82 102
53 67 87
58 71 91
67 84 108
69 83 104
62 76 97
72 92 121
57 69 87
76 94 121
69 89 118
61 76 99
73 91 118
81 100 127
69 85 109
73 89 111
73 91 118
76 92 115
77 94 121
63 78 99
65 80 103
67 84 109
73 92 121
72 91 118
69 88 115
78 98 127
72 90 118
75 88 108
69 88 115
82 100 127
68 88 118
66 80 99
66 83 108
79 98 127
70 87 111
63 81 108
61 76 99
73 89 115
72 89 115
78 95 121
73 90 115
77 92 115
84 101 127
65 81 105
78 95 121
78 98 127
75 92 116
68 84 108
75 96 127
74 90 115
75 92 118
76 97 127
80 99 127
69 87 115
71 86 110
76 94 121
66 84 109
64 79 102
70 89 118
69 86 111
83 101 127
77 94 121
68 85 111
71 89 118
76 93 118
74 92 118
75 94 121
70 89 118
72 92 121
76 92 115
82 100 127
79 98 127
83 101 127
78 95 121
75 96 127
77 93 118
80 99 127
69 89 118
76 96 127
80 95 118
75 96 127
76 96 127
70 89 118
74 91 118
80 99 127
73 88 111
83 101 127
73 90 116
75 93 121
84 101 127
83 101 127
70 88 115
80 99 127
73 92 121
77 95 121
79 99 127
74 93 121
80 99 127
78 94 118
76 94 121
71 90 118
74 92 118
77 95 121
79 98 127
81 100 127
71 87 111
79 99 127
75 92 118
67 84 108
64 82 109
77 93 118
82 100 127
80 99 127
85 102 127
79 98 127
75 90 111
84 101 127
78 98 127
76 97 127
75 94 121
75 94 121
71 89 115
73 95 127
74 92 118
76 96 127
79 98 127
69 88 118
81 97 121
77 97 127
73 90 115
71 94 127
79 98 127
75 96 127
73 91 118
80 99 127
77 97 127
75 93 121
81 100 127
76 97 127
69 89 118
76 97 127
69 86 111
73 90 115
71 90 118
77 93 118
79 99 127
81 100 127
83 101 127
77 97 127
73 88 111
75 92 118
76 97 127
78 98 127
61 80 108
76 94 121
67 86 115
81 100 127
75 96 127
70 88 115
78 98 127
77 94 121
75 96 127
76 97 127
72 90 116
75 94 121
72 90 118
70 88 115
75 93 121
79 99 127
66 82 105
80 99 127
77 93 118
65 81 106
73 92 121
63 80 106
76 97 127
79 98 127
84 102 127
70 85 108
78 95 121
65 83 108
76 93 118
81 99 127
65 82 108
74 93 121
64 78 99
76 94 121
64 81 105
74 93 121
63 78 99
66 83 109
61 75 96
75 91 116
59 73 92
78 95 121
60 77 102
77 97 127
74 88 109
53 70 95
71 87 111
56 71 92
67 85 111
74 89 111
69 86 111
69 85 109
71 86 109
75 94 121
54 68 90
62 82 111
79 96 121
80 96 121
63 79 102
58 73 96
70 91 121
65 83 108
82 98 121
48 58 73
55 70 92
70 87 111
72 91 118
57 72 96
66 83 108
62 76 96
60 74 95
62 76 97
69 83 105
73 91 118
74 91 118
64 78 99
58 70 88
71 87 111
73 88 111
76 93 118
86 103 127
61 75 96
75 91 115
62 76 98
53 66 86
68 86 111
71 87 111
60 73 92
68 84 108
72 86 108
52 64 83
76 94 121
63 78 100
67 81 102
68 84 108
60 76 99
60 72 90
54 68 89
58 71 92
52 65 84
57 70 90
58 74 97
64 79 102
68 80 99
54 66 83
54 68 89
65 81 106
73 88 111
67 85 111
55 66 83
74 88 110
65 83 108
54 65 81
64 76 93
60 76 99
68 83 105
45 53 66
48 60 78
57 70 88
57 69 86
62 76 96
69 83 105
44 52 65
66 81 105
77 92 116
68 85 111
58 70 87
61 74 92
37 45 57
65 79 99
63 76 96
61 75 96
34 40 50
49 61 81
53 64 79
70 84 106
51 62 80
57 71 91
71 83 102
48 56 69
77 93 116
62 75 94
60 72 89
56 68 87
58 70 87
45 55 70
59 70 85
62 73 91
72 88 111
57 70 91
44 54 69
53 64 80
48 60 77
52 62 78
67 82 105
57 70 89
63 76 96
38 48 61
57 67 83
66 79 99
46 55 67
63 77 99
62 73 90
43 51 62
59 72 91
67 80 99
61 72 89
60 72 91
65 76 92
50 61 77
62 75 93
57 70 89
30 38 50
60 72 90
49 58 71
70 85 108
63 76 96
47 55 68
44 54 68
57 71 92
67 81 102
63 77 99
63 75 92
63 77 99
82 96 118
36 45 59
61 74 92
51 61 77
60 73 92
52 63 80
67 80 99
48 59 77
51 61 77
61 73 91
58 72 93
39 47 59
62 76 95
48 60 78
56 68 86
57 69 87
78 94 118
55 68 87
61 72 89
56 68 87
53 64 81
63 77 99
57 67 83
70 85 108
72 88 111
51 64 83
47 58 75
59 70 87
53 64 81
63 77 97
67 82 105
69 88 115
69 84 107
65 78 99
53 65 84
68 83 106
56 70 90
61 78 102
63 76 95
68 82 103
71 86 108
45 56 73
65 79 100
63 75 95
46 57 73
63 76 96
78 94 118
66 79 99
65 81 105
59 71 89
67 83 106
76 92 118
75 92 118
60 72 90
72 88 111
76 91 115
72 89 115
61 80 108
56 67 85
54 68 89
77 94 118
65 77 96
63 77 99
71 86 108
75 91 115
66 80 102
45 56 72
69 85 108
78 91 111
75 92 118
61 77 102
71 87 111
84 101 127
60 73 92
84 101 127
69 84 105
84 101 127
86 103 127
68 87 115
72 92 121
69 84 108
58 71 91
82 100 127
73 91 118
80 99 127
74 92 118
76 93 118
69 86 111
59 75 99
73 92 121
74 90 115
66 82 107
74 95 127
68 85 111
74 91 116
78 98 127
65 82 108
71 89 115
67 82 105
68 84 108
72 92 121
71 88 115
61 77 102
79 98 127
60 76 99
68 84 108
79 99 127
81 100 127
70 88 115
70 89 118
63 77 99
72 90 118
80 96 121
80 97 121
75 93 121
75 92 118
75 96 127
70 86 111
61 76 98
65 81 105
70 88 115
73 92 121
74 91 115
73 90 115
72 90 118
72 89 115
72 87 108
81 99 127
76 97 127
80 99 127
76 96 127
79 96 121
74 91 115
65 81 105
76 94 121
69 89 118
69 89 118
73 91 118
73 92 121
80 99 127
68 88 118
73 91 118
83 101 127
77 97 127
76 96 127
77 97 127
78 98 127
77 97 127
79 95 118
76 93 118
83 101 127
80 99 127
74 93 121
67 82 104
75 92 118
62 81 108
80 96 121
80 99 127
68 84 109
72 89 115
79 98 127
66 86 115
74 93 121
75 92 118
75 93 121
83 101 127
73 92 121
78 98 127
64 81 108
72 90 118
69 89 118
78 98 127
73 91 118
81 100 127
76 92 118
67 83 108
74 93 121
66 83 108
69 86 111
71 91 121
83 101 127
78 95 121
80 99 127
70 89 118
75 92 118
81 100 127
75 94 121
79 98 127
82 100 127
81 100 127
75 96 127
83 101 127
81 100 127
74 95 127
82 100 127
77 94 118
70 87 111
81 100 127
65 80 102
75 93 121
69 88 118
79 96 121
72 90 118
67 84 108
79 98 127
85 102 127
78 98 127
76 96 127
73 95 127
80 99 127
80 99 127
81 100 127
68 84 108
79 99 127
60 73 92
78 95 121
71 90 118
82 100 127
68 85 111
77 95 121
77 97 127
72 91 121
76 94 121
80 95 118
70 86 109
75 96 127
70 89 118
72 88 111
76 97 127
71 91 121
76 97 127
63 81 108
71 87 111
73 88 111
79 99 127
78 98 127
72 94 127
70 89 118
68 84 109
69 86 111
79 98 127
66 79 99
70 88 115
80 99 127
86 103 127
77 94 121
65 79 100
70 89 118
81 100 127
79 98 127
71 90 118
76 97 127
62 81 108
74 92 118
72 90 118
63 78 102
76 91 115
82 100 127
69 84 106
64 83 111
69 88 115
64 79 100
63 79 102
79 98 127
65 81 105
72 87 110
67 85 111
68 81 99
84 102 127
68 86 111
78 95 121
80 99 127
71 89 115
84 101 127
77 95 121
78 98 127
85 102 127
70 86 109
67 81 102
51 66 89
77 95 121
80 99 127
62 79 105
69 89 118
72 88 111
80 99 127
73 92 121
63 80 105
62 77 99
77 93 118
69 86 111
57 71 92
80 96 121
64 79 102
79 98 127
78 98 127
74 88 108
64 79 102
71 89 115
71 87 111
64 81 105
75 91 115
80 97 121
49 59 76
82 100 127
74 92 118
50 64 85
56 69 87
77 95 121
63 79 102
69 88 118
46 57 73
58 73 94
75 94 121
71 85 106
60 76 99
72 90 118
52 64 80
71 85 105
55 68 87
67 82 105
50 62 80
63 76 95
61 77 102
64 79 102
69 83 106
75 91 115
72 88 111
49 59 74
38 44 53
69 85 108
71 84 102
73 90 115
62 75 94
69 85 110
62 77 99
59 73 93
65 79 102
60 72 89
37 45 56
68 84 108
65 79 99
67 82 105
41 51 65
38 47 59
54 66 83
48 59 76
48 57 71
45 57 74
25 29 37
57 69 87
64 79 102
75 93 121
56 67 83
48 60 77
41 48 60
80 97 121
59 72 93
53 64 80
69 81 99
39 49 64
63 78 99
63 75 93
63 77 97
50 61 77
43 54 70
60 72 89
62 73 90
54 67 85
32 39 49
51 61 75
55 66 84
63 76 95
51 62 79
62 75 93
76 93 118
68 82 102
32 39 49
54 66 83
35 42 53
54 65 81
55 68 86
35 44 56
30 38 50
64 77 95
53 64 80
57 71 92
59 72 91
62 75 95
44 55 70
63 78 99
44 54 69
76 92 115
59 73 92
49 58 73
51 62 78
48 58 73
62 77 99
49 60 78
58 69 87
51 62 78
56 68 86
39 48 61
70 84 105
56 70 91
60 73 94
67 80 99
74 91 118
52 64 82
77 93 118
42 51 65
47 58 75
63 76 96
61 74 92
66 80 102
48 57 71
58 71 91
78 94 118
49 62 80
62 74 92
52 64 83
53 62 77
43 55 73
51 62 77
67 84 108
48 57 72
66 79 99
58 68 84
62 75 94
51 65 86
61 72 89
51 64 83
69 86 111
65 79 99
77 95 121
63 78 99
42 52 68
57 70 90
70 89 118
66 81 102
74 92 118
60 75 96
65 80 102
66 82 105
68 81 102
81 100 127
68 86 111
71 89 115
82 97 121
47 60 79
71 89 115
72 90 116
64 79 102
65 82 108
79 96 121
77 97 127
79 94 118
58 73 96
66 82 105
78 98 127
79 96 121
76 92 118
70 88 115
67 83 107
65 81 106
77 93 118
72 88 111
76 93 118
67 84 109
68 84 108
71 87 111
67 84 108
73 91 118
77 93 116
75 90 111
56 70 90
68 84 108
56 70 92
61 79 106
70 88 115
65 81 105
55 68 88
68 85 111
57 71 92
69 86 111
50 62 80
64 81 106
74 91 118
60 75 99
68 84 109
63 75 93
73 91 118
62 75 94
53 65 83
59 75 99
81 99 127
59 74 96
68 85 110
79 98 127
54 68 89
78 94 118
76 97 127
68 82 104
78 94 118
78 95 121
84 101 127
77 93 118
67 85 111
79 98 127
63 77 99
74 92 118
78 95 121
72 88 111
73 92 121
74 89 111
72 92 121
72 92 121
75 93 121
68 85 111
74 93 121
72 89 115
79 98 127
81 100 127
79 98 127
71 91 121
79 98 127
71 86 108
61 76 99
62 78 102
81 99 127
69 85 108
71 90 118
78 95 121
67 86 115
81 99 127
77 93 118
73 92 121
61 76 99
74 89 111
78 95 121
74 91 116
71 89 116
76 97 127
75 93 121
72 90 118
72 90 118
69 85 109
76 94 121
71 94 127
83 101 127
82 100 127
70 91 121
70 85 107
83 101 127
73 91 118
82 100 127
74 91 118
73 91 118
82 100 127
77 97 127
67 83 107
75 96 127
73 91 118
66 82 107
72 90 118
81 99 127
69 86 111
60 76 99
75 91 115
80 99 127
87 103 127
79 99 127
76 94 121
65 83 110
72 91 118
79 96 121
74 93 121
81 100 127
84 101 127
75 93 121
72 94 127
71 86 108
80 99 127
59 75 99
79 98 127
72 91 118
71 91 121
65 81 106
70 85 108
64 82 108
76 96 127
71 87 111
73 93 121
76 96 127
75 92 118
78 95 121
76 94 121
75 96 127
73 92 121
77 95 121
70 87 111
85 102 127
72 90 116
56 71 94
80 99 127
80 99 127
77 97 127
78 98 127
74 96 127
79 98 127
68 85 111
74 92 118
82 100 127
67 87 118
65 81 105
81 100 127
72 90 118
61 77 99
67 84 108
82 97 121
78 98 127
67 83 108
75 92 118
70 87 111
74 93 121
74 93 121
67 84 108
65 85 115
77 97 127
70 87 111
79 98 127
78 96 121
80 99 127
71 90 118
81 97 121
79 99 127
70 87 111
69 88 118
72 91 118
64 83 111
83 101 127
74 93 121
75 93 121
71 86 108
73 92 121
71 91 121
63 79 102
79 96 121
70 89 118
71 87 111
72 91 118
66 82 106
85 102 127
81 99 127
73 91 118
76 94 121
84 101 127
77 95 121
69 87 115
73 90 115
75 93 121
69 85 109
74 92 118
69 89 118
69 85 108
73 90 115
81 99 127
68 84 108
53 65 84
68 85 109
79 98 127
79 99 127
61 78 103
72 88 111
56 69 89
69 85 108
83 101 127
67 84 108
75 92 118
77 97 127
68 83 105
70 85 108
63 79 103
71 90 118
66 84 111
61 75 97
63 78 99
74 91 118
65 80 102
76 97 127
66 84 111
78 95 121
72 92 121
64 78 100
72 87 109
70 88 115
72 88 111
69 87 115
56 68 87
68 88 118
59 71 89
66 82 104
53 66 85
60 74 95
53 64 81
58 74 99
56 70 89
73 92 121
77 95 121
78 98 127
55 70 92
63 74 92
67 84 110
70 87 111
69 85 108
71 88 115
61 71 86
78 95 121
58 72 93
56 71 92
71 87 111
51 63 81
72 87 108
66 77 93
58 73 96
66 81 102
67 85 111
73 88 111
54 65 82
61 74 94
61 75 95
64 78 99
64 79 102
47 55 68
61 76 99
54 67 87
49 60 76
55 68 87
72 86 108
57 68 86
52 61 75
63 76 96
61 75 96
55 71 94
74 89 111
60 73 91
58 71 91
64 80 103
64 79 100
61 73 92
51 59 71
61 74 92
52 63 80
55 69 89
74 93 121
65 81 106
64 75 92
39 49 65
50 59 74
29 37 48
50 61 77
61 76 99
52 61 75
59 69 85
44 54 68
53 64 80
56 70 89
61 75 95
40 48 61
68 82 102
65 79 99
42 50 62
48 59 75
40 48 59
69 83 105
61 76 97
59 72 92
63 76 95
63 74 90
54 64 80
61 76 98
37 46 59
49 59 73
50 59 73
43 53 68
67 80 99
52 64 82
53 63 78
62 74 92
66 80 102
49 59 73
72 86 107
70 86 111
41 51 65
67 82 105
48 59 75
68 81 99
51 62 77
54 67 87
65 77 95
58 69 87
57 68 84
42 50 62
53 64 82
65 78 99
45 55 70
60 71 87
36 44 55
61 76 99
61 75 96
63 75 92
56 69 88
57 71 92
43 52 65
67 84 110
70 83 102
63 78 102
64 78 99
60 73 92
51 62 77
74 89 111
67 82 105
56 68 86
54 68 89
69 83 103
61 73 90
47 58 73
58 71 91
62 77 99
73 90 115
64 77 97
57 71 92
67 84 109
50 61 78
67 83 108
66 83 108
53 64 79
68 85 111
55 67 87
71 87 111
71 89 115
76 93 118
72 89 115
68 84 108
71 87 111
60 74 95
63 78 99
74 92 118
61 75 95
58 70 87
67 81 102
62 78 102
64 80 105
69 85 108
64 83 111
51 64 83
61 75 96
65 80 102
66 82 105
64 79 102
79 99 127
60 76 99
82 98 121
70 89 118
82 100 127
51 65 86
64 80 103
73 90 115
79 96 121
75 91 115
72 88 111
65 83 111
65 82 108
54 69 92
74 90 115
65 80 104
67 85 111
67 85 111
67 84 109
82 100 127
60 76 99
57 70 88
62 75 95
65 83 111
68 83 105
84 102 127
69 86 111
64 83 111
64 81 105
68 85 110
76 94 121
75 93 121
83 101 127
72 87 108
73 91 118
77 93 118
77 93 118
68 84 109
59 72 92
70 84 105
66 84 111
74 91 118
74 93 121
68 82 103
71 90 118
68 87 115
62 81 108
74 91 115
69 85 108
76 97 127
81 99 127
78 98 127
72 89 115
77 97 127
84 101 127
77 97 127
72 90 118
72 91 121
72 90 118
75 96 127
81 100 127
75 91 115
67 86 115
59 77 106
74 91 118
77 95 121
84 101 127
72 88 111
73 92 121
76 97 127
76 96 127
83 101 127
71 87 111
67 84 108
67 88 118
71 86 108
73 90 115
85 102 127
79 98 127
80 99 127
75 92 118
68 84 108
77 93 116
68 83 105
64 85 118
69 87 115
69 86 111
77 97 127
73 95 127
75 92 118
77 97 127
73 92 121
68 85 111
76 94 121
79 96 121
69 86 111
77 94 121
77 97 127
78 98 127
68 85 111
78 98 127
81 100 127
74 92 118
74 95 127
66 83 108
71 89 115
74 91 118
68 85 111
74 92 118
69 86 111
75 92 118
75 96 127
65 81 105
79 98 127
81 100 127
68 85 109
68 87 115
71 89 115
79 98 127
83 101 127
79 98 127
83 101 127
78 95 121
63 81 109
80 96 121
70 84 105
78 98 127
74 93 121
81 100 127
72 88 111
80 99 127
76 96 127
77 97 127
70 91 121
75 96 127
73 91 118
71 94 127
79 96 121
79 99 127
77 95 121
76 93 118
63 81 108
73 91 118
73 91 118
67 85 111
78 98 127
69 88 116
82 98 121
81 100 127
67 85 111
63 78 99
80 99 127
68 88 118
74 91 116
71 91 121
60 76 99
80 99 127
80 96 121
84 101 127
83 101 127
71 89 116
61 75 97
68 88 118
79 99 127
63 81 108
79 98 127
73 91 118
75 92 118
65 81 105
70 88 115
77 97 127
78 98 127
74 93 121
74 91 118
67 83 108
72 90 118
76 96 127
80 99 127
77 95 121
80 99 127
66 83 110
73 95 127
71 88 115
74 90 115
71 91 121
69 86 111
75 92 118
68 85 111
84 101 127
71 91 121
72 94 127
78 98 127
73 91 118
76 97 127
72 87 108
68 82 103
69 88 118
68 84 108
78 95 121
73 91 118
73 95 127
72 92 121
76 94 121
66 81 103
68 88 118
79 98 127
68 84 108
81 100 127
81 99 127
69 84 107
61 76 99
74 92 118
67 85 111
69 86 111
69 85 110
69 84 106
65 80 102
66 83 109
73 91 118
71 90 118
65 83 111
48 61 80
75 92 118
64 82 109
76 97 127
81 99 127
65 79 99
76 91 115
56 69 89
70 87 111
71 86 108
71 86 108
74 92 118
71 89 116
72 88 111
65 80 102
66 82 105
78 98 127
66 84 111
63 78 102
48 62 84
64 76 96
64 79 102
63 77 96
67 81 102
74 88 110
47 58 74
67 83 105
71 90 118
63 76 95
67 85 111
62 73 91
62 75 95
69 84 108
69 84 107
53 64 80
71 87 111
51 62 78
69 84 106
60 72 91
60 72 90
61 74 93
67 82 106
60 70 86
74 88 108
56 69 89
67 81 102
62 75 95
69 82 102
48 61 81
67 80 99
55 67 85
63 75 93
73 88 111
68 83 105
63 76 95
70 82 100
63 76 96
66 81 102
76 94 121
53 64 81
43 52 65
46 57 72
57 71 92
52 64 81
66 80 102
63 75 93
50 60 74
47 56 70
48 61 80
64 78 99
44 52 65
47 59 78
60 74 96
78 93 115
72 91 118
50 60 75
57 68 84
50 60 74
51 60 74
66 80 102
61 72 90
66 83 108
78 93 115
73 87 109
45 54 68
38 46 59
64 78 99
45 56 72
80 99 127
53 66 86
53 64 80
46 55 68
55 65 82
66 83 108
64 81 105
44 53 67
65 80 103
45 54 67
71 85 107
67 82 106
69 82 103
56 67 84
56 67 84
57 69 87
45 53 64
55 67 84
73 89 111
65 77 95
44 54 69
66 78 95
54 66 84
63 76 94
67 83 106
73 88 111
51 61 76
53 67 87
59 70 86
45 56 73
61 75 96
49 60 77
71 89 115
59 70 87
74 90 115
67 80 99
67 82 105
56 71 93
60 74 96
50 61 77
49 59 75
63 78 99
50 60 76
78 93 115
51 64 83
46 57 74
66 79 99
54 66 83
43 54 70
81 100 127
70 83 103
55 67 86
57 69 86
78 94 118
61 76 99
58 70 87
69 85 108
74 91 116
44 53 67
66 80 102
59 72 92
66 80 102
54 64 80
58 70 87
61 75 96
75 93 121
76 92 116
49 60 77
65 80 103
62 80 106
55 66 83
64 80 105
53 64 80
58 70 89
60 74 95
54 67 85
54 68 89
61 73 92
79 93 115
74 89 111
58 73 95
69 86 111
77 95 121
65 81 104
69 83 105
71 86 108
71 89 115
53 63 76
72 91 118
81 99 127
64 77 95
69 86 111
66 82 106
72 88 111
71 90 118
78 98 127
56 69 89
72 91 118
66 83 109
71 87 111
65 80 102
74 92 118
70 85 108
70 87 111
69 85 109
70 85 108
75 91 115
73 88 111
67 84 109
67 84 109
54 68 87
72 88 111
79 99 127
70 86 110
76 97 127
78 94 118
70 85 108
77 95 121
60 77 102
77 93 118
69 85 108
61 75 95
77 97 127
64 81 105
70 86 111
60 74 94
63 79 103
59 74 96
80 95 118
67 85 111
81 100 127
69 89 118
73 92 121
73 91 118
74 90 115
67 82 105
72 87 110
82 100 127
61 75 95
69 88 115
72 88 111
75 92 118
71 86 108
67 83 108
64 77 96
77 95 121
66 86 115
62 78 103
75 92 118
80 99 127
69 87 115
70 89 118
76 93 118
76 97 127
81 97 121
69 88 115
72 86 108
81 100 127
83 101 127
80 99 127
79 99 127
65 81 105
58 72 92
71 88 115
70 85 108
69 90 121
69 86 111
84 101 127
83 101 127
74 89 111
68 88 118
75 91 115
80 99 127
74 96 127
74 93 121
64 82 108
78 95 121
72 89 115
81 99 127
76 94 121
74 93 121
82 100 127
71 89 116
71 88 115
80 96 121
67 88 118
83 101 127
83 101 127
72 89 115
78 94 118
75 92 118
78 98 127
70 90 121
80 99 127
72 89 115
81 99 127
75 92 118
75 92 118
83 101 127
77 97 127
68 88 118
67 86 115
66 83 108
61 78 102
86 103 127
77 97 127
65 83 109
65 82 109
76 92 118
71 87 111
78 98 127
80 99 127
73 91 118
76 94 121
77 94 121
71 90 118
71 86 110
69 87 115
80 99 127
82 100 127
67 84 110
69 83 104
75 92 118
66 84 111
76 96 127
82 100 127
71 90 118
73 91 118
71 87 111
77 97 127
70 90 121
77 97 127
79 98 127
76 92 115
76 97 127
75 94 121
54 69 92
60 74 95
72 88 111
65 82 108
78 98 127
74 91 115
71 87 111
70 88 115
67 84 109
75 92 118
79 98 127
82 100 127
78 98 127
78 98 127
61 79 105
79 96 121
65 83 108
71 87 111
69 86 111
77 97 127
73 91 118
77 97 127
80 99 127
78 95 121
76 92 118
73 92 121
68 88 118
64 80 105
79 96 121
77 97 127
67 84 108
70 88 115
75 90 111
67 84 109
81 100 127
84 101 127
76 94 121
72 92 121
66 86 115
63 76 95
77 93 118
79 96 121
70 85 108
76 94 121
73 88 111
73 95 127
66 82 106
67 84 109
61 77 99
75 94 121
66 83 108
76 97 127
84 101 127
74 91 115
67 83 108
82 100 127
71 90 118
76 94 121
82 100 127
65 79 99
66 81 105
70 88 115
71 90 118
67 83 107
80 99 127
78 98 127
71 87 111
45 60 81
62 77 99
79 96 121
59 76 102
73 87 109
68 84 108
74 92 118
64 79 102
74 92 118
62 76 97
61 75 95
78 98 127
75 93 121
67 82 105
65 82 108
59 74 97
59 74 96
53 67 87
70 85 109
79 92 111
68 83 105
60 75 97
40 52 70
66 80 102
75 93 121
65 84 111
65 79 99
69 83 105
77 93 118
72 85 106
64 81 105
84 101 127
62 77 99
68 80 99
63 77 99
64 78 99
61 74 92
76 90 111
65 80 102
75 89 111
60 76 99
71 86 108
49 60 76
74 88 108
80 95 118
71 87 110
66 82 105
60 76 99
66 83 109
56 71 92
62 74 92
83 101 127
70 84 105
70 86 110
75 90 111
60 74 95
63 76 96
54 67 87
74 90 115
46 57 73
66 79 99
47 59 77
68 83 105
64 76 95
78 95 121
77 93 118
43 54 70
64 81 105
54 66 83
57 69 87
61 75 96
53 65 84
59 73 93
45 53 64
60 72 89
70 89 118
42 50 63
47 58 73
64 79 102
61 76 99
49 60 77
72 85 105
65 78 99
51 63 80
70 84 105
50 60 76
61 72 87
63 74 92
55 66 81
75 88 108
48 57 71
55 66 83
55 66 83
58 70 89
44 54 68
56 66 81
63 77 97
48 57 71
66 80 100
64 78 99
73 87 108
47 58 75
80 95 118
61 74 94
65 79 99
51 60 73
50 59 73
52 63 79
67 79 96
69 83 105
64 78 100
50 59 74
41 50 63
72 88 111
73 87 109
63 75 94
34 42 54
49 58 72
75 88 108
55 66 83
45 56 71
51 62 78
64 75 92
35 43 54
51 62 79
39 46 57
59 72 92
67 80 99
77 94 118
57 68 85
64 78 99
66 81 102
52 64 82
76 92 115
53 62 76
62 78 102
44 57 76
60 74 95
62 76 99
45 54 67
50 62 79
56 69 89
66 80 102
47 62 83
66 80 99
60 75 99
45 55 71
46 56 70
75 92 118
64 81 107
65 79 99
46 55 69
72 86 108
65 82 108
67 82 105
79 95 118
50 61 76
70 83 103
44 54 68
63 78 99
64 78 99
80 99 127
62 74 92
34 42 54
66 80 103
63 76 96
71 88 115
46 56 71
60 76 99
67 81 100
66 79 99
59 74 96
60 74 96
64 80 103
70 85 108
60 73 92
80 96 121
67 83 107
64 79 102
70 89 116
68 84 108
45 56 72
69 86 111
60 74 96
69 84 106
61 76 99
55 69 89
67 82 105
73 88 111
55 68 89
72 86 108
78 93 116
61 77 100
80 99 127
57 73 96
73 91 118
76 93 118
67 84 108
77 97 127
78 95 121
61 75 96
60 76 99
76 93 118
62 75 94
67 83 105
60 75 97
84 101 127
64 80 104
71 87 111
74 92 118
78 94 118
71 89 118
60 77 102
59 74 97
67 81 103
68 87 115
82 100 127
63 78 102
80 99 127
70 85 108
67 80 99
73 92 121
81 100 127
72 90 118
68 84 108
54 67 86
72 87 109
69 90 121
79 96 121
67 84 109
71 89 116
59 75 99
76 94 121
75 93 121
69 88 118
72 87 110
62 78 102
78 98 127
75 93 121
73 91 118
82 100 127
72 90 115
72 92 121
65 80 102
73 95 127
65 82 107
79 98 127
77 93 118
81 100 127
81 99 127
74 96 127
68 84 108
63 78 102
73 92 121
68 88 118
71 86 108
78 98 127
76 93 118
68 84 108
70 89 118
70 88 116
74 92 118
66 83 108
79 98 127
78 98 127
65 81 105
75 93 121
75 96 127
78 95 121
79 98 127
70 88 115
72 90 118
80 99 127
76 94 121
73 88 111
75 96 127
71 90 118
66 83 108
74 96 127
81 100 127
82 100 127
75 92 118
76 94 121
74 93 121
72 90 118
68 86 111
68 85 109
75 96 127
66 83 108
80 99 127
75 92 116
79 98 127
80 99 127
75 93 121
86 103 127
71 89 115
77 95 121
74 93 121
75 89 111
68 88 118
76 97 127
69 88 118
68 84 108
77 94 121
80 99 127
75 93 121
77 97 127
79 98 127
79 95 118
81 99 127
80 99 127
65 83 111
73 90 115
80 99 127
77 97 127
77 97 127
75 92 118
74 96 127
71 90 118
74 92 118
83 101 127
75 93 121
73 91 118
74 90 115
77 97 127
77 95 121
67 82 105
71 89 115
56 75 102
65 78 99
74 93 121
60 78 105
71 87 111
80 99 127
78 95 121
77 97 127
79 98 127
79 96 121
79 96 121
66 84 111
70 89 118
67 83 108
67 86 115
79 98 127
77 93 118
59 74 95
72 88 111
69 85 108
79 98 127
75 92 118
79 96 121
75 93 121
76 97 127
81 100 127
75 96 127
76 94 121
53 68 89
77 97 127
67 82 105
67 82 105
71 87 111
72 89 115
75 92 118
81 99 127
72 86 108
81 100 127
60 75 99
70 85 108
76 94 121
71 84 105
60 72 92
62 75 93
79 98 127
60 74 95
75 92 118
71 88 115
75 91 115
73 90 115
84 102 127
75 92 118
59 72 93
68 86 115
75 96 127
63 79 103
65 81 105
78 94 118
80 99 127
78 98 127
73 92 121
74 92 118
79 98 127
79 99 127
71 90 118
77 95 121
71 90 118
66 81 105
76 93 118
75 96 127
75 92 118
62 77 99
62 78 102
67 84 108
78 95 121
80 99 127
67 83 108
61 78 103
62 78 102
76 94 121
77 97 127
67 83 108
60 77 103
55 69 90
73 91 118
62 78 102
81 100 127
66 82 105
54 67 87
71 90 118
69 86 111
69 86 111
73 88 111
79 94 118
69 84 105
62 77 100
80 99 127
59 72 92
70 84 105
61 76 98
82 100 127
49 60 76
63 79 102
56 68 86
72 87 110
50 63 84
71 84 105
68 85 111
72 88 111
61 74 94
46 56 70
73 88 111
52 66 87
64 79 102
58 69 85
62 76 97
68 84 108
65 80 102
57 70 90
75 96 127
66 81 102
53 66 84
39 48 61
53 67 88
73 88 111
68 81 102
47 58 75
33 41 53
51 62 78
69 82 102
64 79 102
61 75 96
84 101 127
70 84 105
65 79 100
52 62 76
57 71 92
71 86 108
52 66 87
53 63 79
76 90 111
67 78 96
39 48 63
57 69 87
61 77 99
59 74 96
50 60 74
44 53 68
37 44 56
59 73 92
56 69 87
55 67 84
61 74 93
65 79 100
62 74 93
52 65 83
44 54 68
67 83 108
65 77 96
63 76 94
74 93 121
60 72 91
50 61 77
58 70 87
45 55 70
58 70 88
52 62 77
40 48 61
56 67 83
51 61 76
61 75 96
50 62 79
48 60 78
51 62 78
59 72 92
33 41 54
67 81 102
53 63 78
73 86 105
54 64 80
44 56 73
64 77 97
62 74 94
59 73 93
55 67 86
48 58 73
58 71 90
60 73 93
69 84 106
65 80 102
49 58 73
70 88 115
58 70 88
69 84 106
35 42 52
54 68 89
63 79 102
66 78 96
68 81 102
74 88 109
67 81 102
48 59 74
48 58 73
51 63 80
73 91 118
57 68 85
57 71 92
71 90 118
74 88 108
60 75 96
57 70 90
63 78 99
54 67 86
73 88 111
53 64 81
51 60 74
60 72 89
47 59 77
68 85 109
68 82 103
68 83 105
69 86 111
72 87 108
50 61 77
61 74 94
69 86 111
66 80 102
67 83 105
59 72 92
70 89 118
58 73 96
76 94 121
78 93 115
54 65 81
52 64 80
67 81 102
40 50 65
75 90 111
71 85 105
78 98 127
82 100 127
63 76 96
47 58 74
74 91 115
62 74 92
74 92 118
59 72 92
69 84 107
67 84 108
71 86 108
63 77 99
58 72 92
82 100 127
67 82 105
74 92 118
53 66 86
69 85 108
78 95 121
77 95 121
63 77 99
76 97 127
65 79 100
63 80 105
71 84 104
59 74 96
78 95 121
68 84 109
58 70 87
86 103 127
56 69 89
65 79 99
78 95 121
58 74 99
51 65 87
71 87 111
75 93 121
60 77 102
67 83 108
65 80 102
74 93 121
63 79 102
69 84 108
68 87 115
49 62 81
72 90 118
76 94 121
57 70 88
77 97 127
65 82 108
71 89 115
78 95 121
72 89 115
77 95 121
65 82 108
66 83 109
58 74 99
73 91 118
69 87 115
67 84 108
58 72 92
73 89 111
66 84 111
70 88 115
72 90 115
70 85 108
77 93 118
66 83 108
77 95 121
84 101 127
74 93 121
82 100 127
66 82 107
67 85 111
71 87 111
67 85 111
73 90 115
71 89 115
75 96 127
68 86 111
64 80 104
71 90 118
69 86 111
69 88 115
76 94 121
80 99 127
76 94 121
75 91 115
71 91 121
68 83 106
76 93 118
67 84 108
71 87 111
74 91 118
69 86 111
70 85 108
74 91 118
75 93 121
81 99 127
75 92 118
72 90 118
81 99 127
75 96 127
62 76 97
69 85 109
75 93 121
68 86 111
66 82 105
79 98 127
76 94 121
73 91 118
70 89 118
74 95 127
73 91 118
66 82 105
69 88 118
75 96 127
71 90 118
74 91 118
77 93 118
71 90 118
76 94 121
71 91 121
85 102 127
84 101 127
78 98 127
81 100 127
79 98 127
80 99 127
82 100 127
78 95 121
74 93 121
79 98 127
74 93 121
75 96 127
81 100 127
75 96 127
76 93 118
74 92 118
78 98 127
81 100 127
78 98 127
72 89 115
65 81 106
68 84 108
66 83 108
67 84 109
60 78 106
83 101 127
77 93 118
67 83 107
74 91 115
71 90 118
71 90 118
78 98 127
81 100 127
80 96 121
74 91 118
67 86 115
77 95 121
73 91 118
74 92 118
68 88 118
77 97 127
72 90 118
75 93 121
79 98 127
77 95 121
65 81 105
77 93 118
66 82 106
72 89 115
78 95 121
67 83 106
73 92 121
83 101 127
77 95 121
82 97 121
70 88 115
75 93 121
71 90 118
61 79 106
76 96 127
74 92 118
75 96 127
79 96 121
74 93 121
68 86 115
72 90 118
72 90 118
74 93 121
73 91 118
74 91 115
59 72 92
60 75 97
79 98 127
82 100 127
73 90 116
83 98 121
77 97 127
74 91 115
76 93 118
74 92 118
68 87 115
75 94 121
73 91 118
67 84 108
76 93 118
81 100 127
76 89 110
75 94 121
68 85 111
82 100 127
71 88 115
79 96 121
75 94 121
72 91 118
86 102 127
64 83 111
74 91 118
70 87 111
66 82 106
67 84 108
79 98 127
68 83 105
76 92 115
67 84 109
70 89 118
61 76 99
73 91 118
68 86 111
64 82 109
74 93 121
68 84 108
72 88 111
54 68 89
79 98 127
77 95 121
76 92 115
63 80 106
68 87 115
68 85 111
58 70 87
69 85 108
68 82 103
63 79 102
74 92 118
74 93 121
72 89 115
67 82 106
61 74 93
59 72 92
63 76 96
65 82 108
65 82 108
63 81 108
65 81 103
56 69 88
65 79 99
80 99 127
81 97 121
69 86 111
60 76 99
46 58 76
64 80 105
54 67 86
71 89 115
66 82 106
64 75 92
64 80 105
68 84 108
74 89 111
61 74 93
55 67 84
64 81 105
65 80 102
54 65 83
78 95 121
71 86 108
57 70 90
55 69 90
59 72 92
62 76 95
54 65 81
62 76 96
61 77 102
72 88 111
68 86 111
73 90 115
68 82 104
66 78 97
52 65 84
67 80 99
75 92 118
62 77 99
60 73 92
82 100 127
68 81 102
64 78 99
36 45 58
40 49 63
62 75 96
70 84 106
69 86 111
79 98 127
71 86 109
62 74 92
60 74 96
64 78 99
64 78 99
62 74 91
83 98 121
28 34 42
58 70 87
45 55 70
76 91 115
49 57 70
69 85 108
51 61 76
57 69 86
50 60 75
58 70 89
55 66 83
51 63 80
57 70 90
58 71 89
54 66 85
45 57 74
62 77 99
58 68 84
54 67 87
61 71 86
65 79 100
61 73 91
59 71 89
63 76 96
44 52 64
58 71 91
68 84 108
48 57 70
57 68 85
56 69 89
51 65 86
53 65 83
42 55 74
69 83 105
69 85 108
65 78 97
68 83 105
39 48 61
61 74 92
65 76 92
85 102 127
58 70 89
44 56 73
65 78 97
60 72 91
58 69 87
66 80 102
62 73 90
52 63 80
52 62 77
72 87 109
55 65 80
78 93 115
53 62 76
49 59 74
70 89 118
52 63 80
60 73 92
37 48 64
49 62 80
55 68 87
70 83 103
52 65 84
79 95 118
57 70 90
65 78 99
55 67 85
66 79 99
68 80 99
71 87 111
70 88 115
54 66 86
63 80 107
63 75 94
60 73 93
48 59 75
44 55 72
49 60 77
62 77 99
57 73 97
61 77 99
67 79 96
73 90 115
46 57 73
56 70 90
70 87 111
74 90 115
61 76 99
73 89 111
51 64 84
57 71 92
57 71 93
69 85 109
78 98 127
73 88 111
68 88 118
76 94 121
76 94 121
70 86 111
65 81 106
78 98 127
70 86 111
42 51 64
55 70 93
54 67 87
54 69 92
64 79 103
63 80 106
66 83 108
61 76 99
75 91 115
69 86 111
54 68 88
57 69 86
68 84 109
72 89 115
76 93 118
64 77 96
72 88 111
65 78 96
66 82 105
70 85 107
70 83 103
72 87 108
72 88 111
81 97 121
65 82 108
70 83 103
68 84 108
55 70 92
75 90 111
62 80 107
66 86 115
84 99 121
66 81 103
68 89 121
77 97 127
73 91 118
79 98 127
63 79 103
61 79 106
70 87 111
76 94 121
71 86 109
65 80 102
73 91 118
78 98 127
74 93 121
79 99 127
76 94 121
62 75 94
71 87 111
73 91 118
68 85 109
77 97 127
74 89 111
85 102 127
69 83 105
78 98 127
69 85 108
77 95 121
62 76 97
85 102 127
69 88 118
71 89 115
82 100 127
69 89 118
79 96 121
60 74 96
62 76 96
56 71 93
75 92 118
75 94 121
76 94 121
70 91 121
77 97 127
68 83 105
80 99 127
68 89 121
67 86 115
70 89 118
69 86 111
75 92 118
75 91 115
79 99 127
76 97 127
70 87 111
79 99 127
62 79 105
70 86 111
81 100 127
82 100 127
81 100 127
71 87 111
74 93 121
77 97 127
80 99 127
62 75 95
80 99 127
84 102 127
77 97 127
79 98 127
82 100 127
83 101 127
87 103 127
80 99 127
78 98 127
79 99 127
81 99 127
77 94 118
74 91 115
81 99 127
79 98 127
73 90 115
83 101 127
76 94 121
73 91 118
69 85 108
67 84 109
72 91 121
73 92 121
73 95 127
63 82 111
79 98 127
79 98 127
76 92 115
73 95 127
73 91 118
78 98 127
71 87 111
72 86 108
75 91 115
69 86 111
70 89 118
63 81 108
67 85 111
70 88 115
78 95 121
74 92 118
84 102 127
77 97 127
73 95 127
70 86 111
76 94 121
78 95 121
79 98 127
73 92 121
69 86 111
73 91 118
71 89 118
80 99 127
78 98 127
69 87 115
69 86 111
73 92 121
62 78 102
71 86 110
71 88 115
65 80 102
71 90 118
81 100 127
77 97 127
78 94 118
78 98 127
81 100 127
69 85 108
72 88 111
73 91 118
76 94 121
79 98 127
63 81 108
65 81 105
73 92 121
78 98 127
81 97 121
73 92 121
72 89 115
80 95 118
67 84 108
75 91 115
72 89 115
65 82 106
72 89 115
67 83 107
64 80 105
78 98 127
77 95 121
70 89 118
78 98 127
74 95 127
78 98 127
79 98 127
82 100 127
69 85 108
74 93 121
65 81 105
68 84 108
71 90 118
74 92 118
75 92 118
73 91 118
65 80 102
57 68 86
79 98 127
81 100 127
79 96 121
75 93 121
70 89 118
68 83 105
74 90 115
72 90 118
69 89 118
82 100 127
73 91 118
82 100 127
71 90 118
67 85 111
55 72 97
72 86 108
75 93 121
73 91 118
74 91 118
66 82 106
73 89 111
64 76 95
76 92 115
66 82 106
64 78 99
78 95 121
77 93 116
55 68 86
65 78 99
77 97 127
54 67 87
60 73 92
74 89 111
70 88 115
65 80 102
82 98 121
64 80 104
48 59 75
62 77 100
62 76 96
86 102 127
68 83 106
54 67 87
77 94 121
65 80 102
72 91 118
62 77 99
80 99 127
70 85 106
64 78 99
65 80 102
74 91 118
63 77 99
67 80 100
76 92 118
65 81 105
53 65 83
69 88 116
50 61 78
63 80 105
63 81 109
63 78 99
52 64 83
61 72 87
60 74 96
67 78 95
69 86 111
63 79 103
66 80 100
60 72 90
56 71 93
78 94 118
74 89 111
48 57 70
62 77 99
61 77 102
57 71 91
65 82 108
69 84 105
55 68 87
68 81 102
62 81 109
68 84 108
45 56 71
71 86 110
61 76 97
72 88 111
73 86 105
58 70 89
56 70 89
64 77 96
63 77 99
56 67 83
50 61 77
62 74 92
59 69 84
62 76 96
43 53 68
56 70 92
52 62 78
75 92 118
71 87 111
51 64 83
65 77 96
70 87 111
63 75 94
69 83 103
52 64 81
63 75 93
55 66 84
68 83 105
57 67 83
60 74 96
72 85 103
58 71 92
68 83 105
49 60 76
54 65 82
51 61 77
72 88 111
69 83 105
65 77 96
53 64 80
51 61 75
69 85 108
56 69 89
50 60 75
55 69 90
70 83 103
69 84 106
63 76 95
49 59 75
75 87 105
43 52 64
63 78 100
57 69 86
70 86 111
75 90 111
79 98 127
73 85 103
37 47 61
43 51 63
38 46 58
50 61 77
44 54 69
56 68 86
51 61 76
50 61 77
70 84 106
68 82 103
48 57 71
68 83 105
68 82 103
49 59 73
54 67 86
56 68 87
51 64 84
56 69 89
59 72 92
69 85 108
79 95 118
68 83 105
65 81 106
68 82 102
68 83 105
76 90 111
65 82 108
67 81 102
56 69 87
63 76 96
66 81 102
67 81 102
70 87 111
60 73 92
70 89 118
57 70 90
60 74 93
70 86 111
53 65 83
51 61 75
51 63 80
52 64 82
77 95 121
72 88 111
65 81 105
63 77 99
64 81 106
74 92 118
80 99 127
59 71 91
57 69 87
64 78 99
53 67 89
69 86 111
62 73 90
78 96 121
73 89 111
59 73 94
49 61 78
77 95 121
39 48 61
69 87 115
71 90 118
74 92 118
51 63 80
81 100 127
77 94 118
60 75 97
55 70 92
56 69 89
60 72 90
65 82 108
64 78 99
75 93 121
63 76 96
76 94 121
78 94 118
76 93 118
81 100 127
57 72 93
81 100 127
73 90 115
74 89 111
73 90 116
61 75 96
72 88 111
63 78 102
75 92 118
72 92 121
65 84 111
60 73 93
71 90 118
69 88 118
73 95 127
73 89 111
69 85 108
69 89 118
67 84 108
61 78 102
70 88 115
76 93 118
77 94 121
72 90 118
80 99 127
56 68 86
75 94 121
66 79 99
84 102 127
81 100 127
67 83 108
71 86 110
76 93 118
69 88 115
67 88 118
71 87 111
75 93 121
67 80 99
72 91 118
77 94 121
75 94 121
77 94 121
71 91 121
75 91 115
59 74 95
83 101 127
75 94 121
83 99 121
73 89 111
67 84 110
78 94 118
77 97 127
72 91 118
76 93 118
75 92 118
76 96 127
63 77 99
82 100 127
67 83 107
74 92 118
70 86 111
84 101 127
78 98 127
59 72 92
74 90 115
76 93 118
77 97 127
80 99 127
75 93 121
82 98 121
75 94 121
72 91 118
76 92 118
79 99 127
75 91 115
80 99 127
75 92 118
74 93 121
70 88 115
81 99 127
74 90 115
76 93 118
74 89 111
82 100 127
83 101 127
71 89 115
78 95 121
69 86 111
77 93 118
86 102 127
73 90 115
75 89 111
74 93 121
76 94 121
74 93 121
62 76 95
76 97 127
79 98 127
71 87 111
76 96 127
77 97 127
64 82 108
79 96 121
78 98 127
73 91 118
74 92 118
72 92 121
74 95 127
82 100 127
80 99 127
71 86 110
67 86 115
79 98 127
80 96 121
76 96 127
77 97 127
78 98 127
81 100 127
77 97 127
76 94 121
79 98 127
76 93 118
69 83 105
80 99 127
77 93 118
79 98 127
79 98 127
73 92 121
72 90 118
71 90 118
65 82 108
69 89 118
78 94 118
82 100 127
74 91 118
63 80 105
79 96 121
63 77 99
68 89 121
81 100 127
77 97 127
82 100 127
80 99 127
78 98 127
68 83 106
82 100 127
68 83 106
83 101 127
76 94 121
80 99 127
66 82 105
68 85 111
67 85 111
68 86 111
71 90 118
79 98 127
74 93 121
64 80 105
66 81 104
81 99 127
67 86 115
78 95 121
72 86 108
78 95 121
70 87 111
75 92 118
62 77 100
73 91 118
68 86 111
78 98 127
75 93 121
73 90 115
63 77 99
78 98 127
67 86 115
70 85 108
74 93 121
71 86 108
66 83 109
76 94 121
64 79 102
78 98 127
81 100 127
80 99 127
73 91 118
67 83 108
74 91 118
66 83 108
77 97 127
80 99 127
62 75 95
70 87 111
73 90 115
74 89 111
39 48 62
70 89 118
51 62 80
54 66 83
59 75 99
70 85 108
70 89 118
71 86 108
74 92 118
66 83 108
85 102 127
78 94 118
55 67 86
62 76 99
45 58 78
64 77 97
76 97 127
76 94 121
60 74 96
53 66 87
82 100 127
62 78 102
66 84 111
63 79 102
70 84 106
69 83 103
59 73 92
63 78 100
79 96 121
87 103 127
73 92 121
68 85 109
66 83 108
75 90 111
55 66 84
67 79 99
67 83 108
75 91 115
71 85 106
72 90 118
75 91 115
58 70 89
60 72 91
63 75 93
75 92 118
50 61 77
64 81 106
55 67 87
71 86 108
67 82 105
52 63 80
60 75 96
65 80 102
59 73 92
44 55 72
46 55 68
42 54 72
59 72 90
62 77 99
58 71 91
51 63 80
67 82 105
66 82 106
52 64 81
55 67 85
60 75 99
46 53 65
52 64 81
70 85 108
66 79 99
60 73 93
64 77 96
58 71 89
57 69 86
42 52 67
52 61 75
59 74 95
68 83 105
58 70 89
55 67 85
66 79 99
70 87 111
59 69 83
52 63 80
53 64 80
41 51 64
40 50 64
38 45 57
64 81 107
31 39 52
72 87 109
57 70 89
53 65 84
72 87 110
53 66 84
59 71 89
62 73 89
56 66 83
50 60 76
67 85 111
47 58 74
46 57 74
62 75 95
59 72 91
63 76 96
41 51 66
59 73 92
55 68 87
54 68 89
65 80 102
59 71 90
54 67 88
51 62 78
65 77 96
57 69 87
70 83 102
53 64 81
58 70 89
80 95 118
48 57 70
49 60 77
52 65 86
54 67 86
62 76 96
43 51 63
53 68 89
48 56 69
65 81 105
68 84 108
59 70 87
58 69 86
58 70 87
82 98 121
64 78 99
53 62 76
48 59 75
54 67 87
63 77 99
51 63 81
62 76 95
46 56 70
71 83 102
63 76 96
49 58 72
53 66 85
58 70 89
55 67 87
70 86 109
63 75 93
56 69 87
64 76 93
76 92 115
56 68 87
52 63 81
42 52 67
51 64 84
71 83 102
77 93 118
62 76 96
64 78 99
52 63 79
63 79 103
52 62 77
64 78 99
72 88 111
77 95 121
52 62 77
67 81 103
61 72 89
70 85 106
52 65 83
55 69 89
72 88 111
59 73 93
74 90 115
63 76 96
68 83 105
69 85 108
74 90 115
70 85 108
49 59 74
66 81 105
74 89 111
63 77 99
54 66 84
74 92 118
69 85 108
41 50 62
55 69 90
76 97 127
45 53 65
73 91 118
49 61 77
68 84 108
67 80 100
63 78 99
72 88 111
65 79 100
67 82 105
72 90 118
71 90 118
76 93 118
70 87 111
79 99 127
64 82 108
72 91 118
66 83 109
64 78 99
62 77 99
69 86 111
71 89 115
59 73 94
78 94 118
64 81 105
56 69 89
64 80 105
81 97 121
74 91 118
79 96 121
65 80 102
83 101 127
55 71 95
67 81 102
80 96 121
82 100 127
67 82 105
75 91 115
76 93 118
67 82 105
86 102 127
75 96 127
79 95 118
82 97 121
66 83 108
66 81 103
74 91 118
67 81 102
64 81 107
59 74 95
84 101 127
62 76 99
74 96 127
77 93 118
79 99 127
63 79 102
83 101 127
77 97 127
79 94 118
68 84 108
63 79 102
73 91 118
55 71 95
53 66 86
74 91 118
63 78 102
64 82 108
79 94 118
58 73 95
70 88 115
75 91 116
83 101 127
81 100 127
80 99 127
83 101 127
72 88 111
76 96 127
68 82 104
65 82 108
69 89 118
79 98 127
61 78 105
73 91 118
64 82 108
75 96 127
80 99 127
62 79 105
74 92 118
76 96 127
65 80 102
69 82 102
73 89 111
74 92 118
77 97 127
68 87 115
79 99 127
81 99 127
82 100 127
71 90 118
67 83 105
74 93 121
76 93 118
73 95 127
77 97 127
79 98 127
80 99 127
75 96 127
81 99 127
77 97 127
82 100 127
82 100 127
78 98 127
77 97 127
70 90 121
76 97 127
78 98 127
79 98 127
84 102 127
69 89 118
69 87 115
72 90 118
80 96 121
71 90 118
72 94 127
75 96 127
79 98 127
67 81 103
79 98 127
76 94 121
80 99 127
67 83 108
75 93 121
67 82 105
79 98 127
77 95 121
80 99 127
75 91 116
79 98 127
66 83 108
71 86 108
80 99 127
74 96 127
80 99 127
75 94 121
83 101 127
79 99 127
77 97 127
73 91 118
72 91 118
74 91 118
73 87 108
75 92 118
72 91 118
81 100 127
84 101 127
70 90 121
61 78 103
75 96 127
70 86 110
72 89 115
56 70 92
74 92 118
80 99 127
80 99 127
75 93 121
53 67 87
71 87 111
84 102 127
86 103 127
71 90 118
80 99 127
77 97 127
64 82 110
54 69 91
68 88 118
73 90 115
70 84 105
65 83 109
73 93 121
84 102 127
68 84 108
58 75 100
79 98 127
70 87 111
76 93 118
81 99 127
65 81 105
76 97 127
79 99 127
74 90 115
72 90 118
61 75 95
70 87 111
67 85 111
73 91 118
66 83 108
63 78 102
67 89 121
54 71 96
77 93 118
60 75 99
63 79 102
75 96 127
76 97 127
68 82 102
77 97 127
64 78 99
84 102 127
62 79 105
62 81 109
62 75 96
53 66 86
72 88 111
70 88 115
73 91 118
65 84 111
70 85 108
63 81 108
65 82 108
69 85 108
65 82 108
84 99 121
72 91 118
80 96 121
84 101 127
82 100 127
68 84 108
60 77 102
77 95 121
65 81 105
69 82 102
60 76 99
72 89 115
58 73 96
59 75 99
59 73 94
63 77 99
74 89 111
71 89 115
67 83 107
74 92 118
77 97 127
78 98 127
78 98 127
66 79 99
73 91 118
78 94 118
65 81 105
73 88 111
64 79 102
66 82 105
63 77 99
72 89 115
62 78 102
60 73 93
76 93 118
51 66 87
65 80 102
70 86 109
55 68 88
61 75 95
64 80 105
67 82 105
72 87 109
80 94 116
60 73 92
66 83 108
58 72 92
27 33 42
63 77 99
67 84 108
72 88 111
62 77 99
69 86 111
72 90 118
76 91 115
70 85 108
75 89 111
40 50 64
80 95 118
68 82 103
56 68 86
60 73 93
52 63 80
64 77 96
60 73 93
72 86 108
59 71 90
71 86 108
57 71 92
65 79 99
38 46 58
40 50 64
55 66 83
69 85 109
47 58 74
75 89 111
68 82 102
66 82 105
74 89 111
59 73 92
57 70 90
65 80 102
47 59 75
54 69 90
43 55 72
43 53 68
63 77 99
67 84 108
48 59 75
64 78 99
50 61 77
63 77 99
62 76 97
72 88 111
62 76 96
49 65 87
39 48 61
49 59 74
52 63 79
49 59 73
70 86 108
36 43 54
58 70 89
55 67 85
52 65 83
57 72 95
75 92 118
62 75 96
56 69 87
56 69 89
69 82 102
53 64 80
66 80 102
60 71 87
48 59 75
73 87 108
72 86 108
59 71 88
68 83 106
73 87 108
60 73 93
55 69 89
67 80 99
63 76 96
46 54 68
62 77 99
70 86 108
73 91 118
64 77 97
62 76 97
63 77 99
64 78 99
66 81 103
72 89 115
70 83 102
76 91 115
85 102 127
64 79 102
49 61 78
52 63 79
39 49 65
71 88 115
74 91 118
77 95 121
78 94 118
68 84 108
57 67 83
72 90 115
44 56 73
48 60 76
50 61 77
70 86 109
52 64 81
50 62 80
63 79 102
86 103 127
55 67 85
41 51 64
69 84 105
52 62 76
75 90 111
68 84 107
63 76 97
43 53 67
71 90 118
77 93 118
68 83 105
59 73 94
48 61 80
58 73 96
65 78 99
69 86 111
52 64 81
60 72 89
62 74 92
73 91 118
58 70 87
71 89 115
69 86 111
71 87 111
65 83 108
66 80 103
72 86 107
67 83 107
77 97 127
74 91 118
59 71 89
68 84 108
64 79 102
65 77 96
70 88 115
61 77 102
80 96 121
52 66 86
65 80 102
67 82 105
72 89 116
74 93 121
79 98 127
44 56 74
64 78 99
67 83 108
67 88 118
58 74 99
59 74 96
81 100 127
70 85 108
67 82 105
70 85 108
76 93 118
76 93 118
80 99 127
78 98 127
68 86 111
69 85 108
73 91 118
65 81 105
75 93 121
73 91 118
71 89 115
68 88 118
70 89 118
81 100 127
82 100 127
67 85 111
60 74 96
75 96 127
77 94 121
79 98 127
67 85 111
77 95 121
65 84 111
75 93 121
71 91 121
64 78 98
75 92 118
69 87 115
72 91 118
78 98 127
63 79 103
72 89 115
63 77 99
76 94 121
71 88 115
73 91 118
77 93 118
73 95 127
70 88 115
77 97 127
57 69 87
73 88 111
77 97 127
73 91 118
66 83 108
79 95 118
65 78 99
75 92 118
82 100 127
77 97 127
72 88 111
78 98 127
75 92 118
81 99 127
81 99 127
80 99 127
71 86 109
67 84 109
68 85 111
69 83 105
78 94 118
80 99 127
85 102 127
74 89 111
57 74 99
82 100 127
70 85 108
76 97 127
71 90 118
65 82 108
81 100 127
84 101 127
73 89 115
83 101 127
76 97 127
82 100 127
79 98 127
80 99 127
73 91 118
68 81 102
79 94 118
74 93 121
69 87 115
76 94 121
74 93 121
77 94 121
81 100 127
74 96 127
82 100 127
72 92 121
83 101 127
72 91 118
75 92 118
74 95 127
72 90 118
80 99 127
73 92 121
74 95 127
81 100 127
83 101 127
75 93 121
82 100 127
71 87 111
73 90 116
68 83 107
81 100 127
78 98 127
75 93 121
82 100 127
72 92 121
75 93 121
78 95 121
84 102 127
78 98 127
76 94 121
72 90 118
80 99 127
80 99 127
70 85 108
73 92 121
73 91 118
71 94 127
75 93 121
81 99 127
75 91 115
86 102 127
77 97 127
75 96 127
83 101 127
81 100 127
77 97 127
77 97 127
66 83 109
72 89 116
65 83 108
75 96 127
74 91 118
80 96 121
74 92 118
65 79 99
82 100 127
68 83 105
72 90 118
73 92 121
77 97 127
75 96 127
70 89 118
79 99 127
81 99 127
80 99 127
63 79 103
78 98 127
64 81 107
76 93 118
81 100 127
72 89 115
71 86 109
75 92 118
74 88 110
74 89 111
73 91 118
72 92 121
64 79 103
72 88 111
76 93 118
64 82 108
57 71 92
68 84 108
66 83 108
80 97 121
74 92 118
66 80 102
71 89 115
77 93 118
71 86 108
75 91 115
70 87 111
76 93 118
69 88 118
70 88 115
71 90 118
64 78 99
60 75 97
76 93 118
71 87 111
73 95 127
70 86 111
81 99 127
70 85 108
75 96 127
69 85 108
75 93 121
60 76 99
65 81 105
78 98 127
71 86 110
73 90 115
62 77 99
77 94 118
69 86 111
69 85 109
71 88 115
60 75 97
64 77 97
65 82 107
72 88 111
75 94 121
74 91 118
60 72 89
56 70 90
62 79 105
53 67 87
62 76 96
75 92 118
73 87 108
62 76 97
72 90 118
81 97 121
71 87 110
75 94 121
67 82 105
61 74 94
73 90 115
78 94 118
54 70 92
76 93 118
71 87 111
68 82 102
55 68 89
63 80 107
60 74 95
54 66 84
62 75 94
76 94 121
61 76 99
71 84 105
68 82 102
72 86 108
69 84 108
41 51 67
56 67 84
66 80 100
58 71 90
62 73 91
65 77 95
52 64 83
71 86 109
62 78 102
83 101 127
66 81 105
73 91 118
71 86 110
51 63 82
71 86 108
69 88 115
61 75 96
59 71 90
54 64 79
45 54 68
41 50 64
59 71 91
38 47 62
70 81 99
56 70 91
59 71 91
48 57 70
50 61 78
59 71 89
61 75 96
62 77 99
57 69 87
54 67 87
80 96 121
63 77 97
68 82 103
61 76 98
68 81 102
42 51 63
54 67 86
60 74 94
62 74 92
77 93 118
56 68 87
45 54 67
56 71 92
70 86 110
58 69 86
57 69 86
75 92 118
62 77 99
62 75 93
54 65 80
59 71 89
51 62 78
39 46 56
63 76 96
55 67 86
71 86 108
60 71 87
66 81 105
50 64 86
57 72 95
66 79 99
37 43 53
73 90 115
51 60 74
59 71 89
61 74 94
64 78 99
53 64 81
71 84 103
61 75 96
54 67 87
62 74 92
77 94 118
34 41 52
71 87 111
70 87 111
39 48 61
63 77 99
72 85 106
66 78 97
61 75 96
60 72 89
62 76 95
80 97 121
64 78 99
55 69 90
71 86 108
68 84 108
62 74 93
40 49 62
61 74 92
78 95 121
59 72 92
55 69 90
75 92 116
61 73 91
57 70 89
48 59 75
78 98 127
62 78 102
69 84 107
44 54 68
71 87 111
60 75 97
71 85 106
59 71 88
67 82 103
69 85 110
54 67 86
82 100 127
67 84 109
67 85 111
67 81 102
63 80 105
79 96 121
56 70 91
80 97 121
80 99 127
80 99 127
76 91 115
60 73 94
47 57 73
64 79 102
73 87 108
49 59 75
69 86 111
47 60 80
71 90 118
57 71 92
74 91 118
64 82 108
62 74 93
65 80 102
67 83 106
62 78 103
74 95 127
64 81 106
64 80 105
76 96 127
68 85 110
77 97 127
76 93 118
56 70 90
77 97 127
67 81 102
75 92 118
76 94 121
71 88 115
65 80 103
65 78 99
80 96 121
63 83 111
79 99 127
75 93 121
70 88 115
77 95 121
61 76 99
82 100 127
69 84 106
70 88 115
72 90 118
74 92 118
60 74 94
74 93 121
72 94 127
75 96 127
80 99 127
68 85 111
63 79 102
73 91 118
59 73 92
71 87 111
68 83 106
60 76 100
69 84 108
79 93 115
75 92 118
73 91 118
68 85 109
70 89 118
63 79 102
70 88 115
62 77 99
70 88 115
66 83 108
81 100 127
81 99 127
64 80 105
74 93 121
72 89 115
66 84 111
78 98 127
66 83 108
68 84 108
76 94 121
77 95 121
81 100 127
76 97 127
78 94 118
68 83 105
75 96 127
76 94 121
74 90 115
82 100 127
76 94 121
63 77 99
68 85 111
76 94 121
71 91 121
58 70 89
75 92 118
76 92 118
76 97 127
79 98 127
70 89 118
60 77 102
78 98 127
78 95 121
81 100 127
60 77 102
85 102 127
70 88 115
63 79 104
76 92 118
82 100 127
78 98 127
67 83 106
68 83 105
79 95 118
79 98 127
78 98 127
77 97 127
65 82 107
72 90 118
71 87 111
76 97 127
73 91 118
72 94 127
75 91 115
62 79 105
64 78 99
81 100 127
74 92 118
78 98 127
77 95 121
76 97 127
69 84 108
73 92 121
80 97 121
68 84 110
77 97 127
80 99 127
71 90 118
73 90 115
72 90 118
69 88 115
82 100 127
65 85 115
70 88 115
68 87 115
76 93 118
84 101 127
64 77 97
75 92 118
84 102 127
74 91 116
83 101 127
71 87 111
56 74 103
68 87 115
75 92 118
74 91 115
61 79 105
70 86 108
82 100 127
83 101 127
75 92 118
67 87 118
81 99 127
82 100 127
78 95 121
84 101 127
79 99 127
78 98 127
78 98 127
76 93 118
78 98 127
79 98 127
62 78 102
73 92 121
77 97 127
78 93 115
70 89 118
76 96 127
69 86 111
68 83 106
75 92 118
71 88 115
67 85 111
75 96 127
75 92 118
76 93 118
75 91 115
75 92 118
71 87 111
73 95 127
60 77 102
73 88 111
79 99 127
67 83 108
70 93 127
67 85 111
63 79 102
76 96 127
73 91 118
60 76 102
79 96 121
76 94 121
75 92 118
75 89 111
77 94 118
78 98 127
75 92 118
65 82 108
69 88 115
61 79 107
80 99 127
78 98 127
66 84 111
77 97 127
80 99 127
65 85 115
70 89 118
62 78 102
82 100 127
70 86 111
57 75 103
68 84 108
63 80 106
61 79 106
63 75 94
76 93 118
54 67 86
77 97 127
66 81 103
77 93 118
69 86 110
63 75 92
65 78 99
72 94 127
72 92 121
56 72 95
64 81 106
73 91 118
67 83 108
77 97 127
64 79 102
72 88 111
80 99 127
81 97 121
64 77 96
75 90 111
79 98 127
61 77 100
65 82 107
60 74 95
68 82 104
54 65 82
69 84 105
64 79 102
57 71 92
79 94 118
71 88 115
54 66 84
65 80 102
64 82 109
71 88 115
70 87 111
62 80 107
71 90 118
62 77 99
68 84 108
52 67 90
65 79 100
67 81 102
70 84 106
80 96 121
61 79 106
63 77 99
70 88 115
52 63 79
64 79 102
52 65 84
69 87 115
61 77 102
59 73 94
67 81 102
77 93 118
75 92 118
76 97 127
67 83 106
56 68 87
43 53 67
79 99 127
75 89 110
75 96 127
55 67 84
48 58 73
63 78 99
66 82 105
61 74 94
67 80 99
63 78 99
68 84 108
61 76 99
55 66 83
65 81 106
69 84 106
42 50 64
62 76 96
58 71 92
54 65 80
74 90 115
53 63 80
55 65 80
58 70 87
62 74 92
51 63 81
64 77 95
64 75 93
53 65 83
61 73 91
39 45 55
46 57 74
35 43 55
44 55 70
64 79 103
78 94 118
61 75 97
50 60 76
57 71 93
74 90 115
77 92 115
42 52 67
43 52 65
73 90 115
66 81 104
58 70 89
68 84 108
74 90 115
60 74 95
61 76 99
62 74 92
66 80 102
64 77 95
46 55 68
56 68 86
68 80 99
59 72 90
48 58 73
57 68 84
75 92 118
60 74 94
66 78 96
72 87 108
75 92 118
66 79 99
49 62 80
51 61 76
65 81 103
54 66 83
61 76 99
74 88 108
64 79 102
53 68 89
48 62 83
67 81 102
52 62 76
42 52 67
68 84 108
52 66 87
58 72 92
42 53 71
58 69 87
54 68 89
62 76 99
66 81 102
54 65 81
77 95 121
60 74 96
57 70 90
49 61 79
57 69 87
51 64 83
58 72 93
56 69 89
70 89 118
65 79 99
61 75 96
46 56 70
54 68 89
75 91 115
60 72 89
60 72 89
53 63 80
54 67 87
74 89 111
79 99 127
74 89 111
67 83 107
65 81 106
64 79 102
69 84 106
46 58 75
66 79 98
66 82 106
48 62 84
61 77 99
59 73 93
66 80 100
57 71 92
52 63 79
48 60 78
63 80 105
71 90 118
70 88 115
77 95 121
73 89 115
71 90 118
69 82 102
66 80 102
74 93 121
67 84 108
74 92 118
75 93 121
68 83 105
85 102 127
38 50 67
63 78 102
65 80 102
67 84 109
72 90 118
73 92 121
55 69 89
67 84 108
77 97 127
67 86 115
61 74 94
67 83 108
75 92 118
64 82 108
67 80 99
66 80 102
60 75 96
73 88 111
66 80 102
78 98 127
73 88 111
80 99 127
76 93 118
69 88 118
63 80 105
77 93 118
63 76 94
78 98 127
83 101 127
64 76 95
67 81 103
74 92 118
72 94 127
77 97 127
75 96 127
52 65 83
76 94 121
74 93 121
72 88 111
66 86 115
68 85 111
66 82 105
74 93 121
66 83 108
79 99 127
71 90 118
78 95 121
67 83 108
84 101 127
71 88 115
69 85 110
78 98 127
75 96 127
73 91 118
57 70 89
70 88 115
77 93 118
75 96 127
70 88 115
77 97 127
64 80 105
72 90 118
74 92 118
79 98 127
77 93 118
66 81 103
65 82 108
74 91 118
83 101 127
83 98 121
80 99 127
73 88 111
68 88 116
75 94 121
78 98 127
80 99 127
65 81 105
74 91 118
68 85 111
75 93 121
75 90 111
72 90 118
78 98 127
73 90 115
58 70 89
60 77 102
71 86 108
71 91 121
70 89 116
78 98 127
71 89 116
82 100 127
78 98 127
64 81 106
80 99 127
70 89 118
77 93 118
80 95 118
79 98 127
82 100 127
72 89 115
68 82 103
78 95 121
69 85 108
77 97 127
83 101 127
71 87 111
78 98 127
77 97 127
75 93 121
70 89 118
65 80 103
73 91 118
63 79 102
84 101 127
80 99 127
72 94 127
77 93 118
81 99 127
74 93 121
82 96 118
79 98 127
76 97 127
77 97 127
73 93 121
82 100 127
65 80 104
77 91 111
69 89 118
78 98 127
79 96 121
73 91 118
76 94 121
76 97 127
75 92 118
79 99 127
71 89 115
72 90 115
82 100 127
67 84 108
81 99 127
71 87 111
63 81 108
74 91 118
75 91 115
69 86 111
84 101 127
80 99 127
71 91 121
80 99 127
75 92 118
74 96 127
76 97 127
69 86 111
76 96 127
61 76 100
75 94 121
79 98 127
80 99 127
68 84 108
73 90 115
78 98 127
77 97 127
59 73 93
87 103 127
78 95 121
65 79 99
78 98 127
79 98 127
78 98 127
70 86 110
61 78 102
73 90 115
72 89 115
70 85 109
70 85 108
80 99 127
61 72 89
76 94 121
71 90 118
76 91 115
80 99 127
80 99 127
57 71 93
75 91 115
77 97 127
70 89 118
72 92 121
77 92 115
78 98 127
59 75 100
79 95 118
63 77 99
70 89 118
72 90 118
62 77 99
72 90 118
72 90 118
72 89 115
63 84 115
58 74 97
57 69 86
68 84 108
81 100 127
76 93 118
64 81 106
66 80 103
82 100 127
82 100 127
77 94 121
71 87 111
50 60 75
68 84 108
76 92 115
82 100 127
69 86 111
65 81 105
61 77 99
68 84 108
81 99 127
70 85 109
57 70 90
74 92 118
71 89 116
69 86 111
71 87 111
72 86 106
79 96 121
74 93 121
68 84 108
71 86 108
69 83 104
65 79 99
57 70 89
67 84 108
70 86 111
77 95 121
79 99 127
59 70 87
57 70 89
48 61 81
69 85 109
58 72 92
73 91 118
68 84 108
46 56 71
76 92 116
70 85 108
58 72 92
61 75 96
70 85 108
68 81 99
63 81 108
60 71 89
58 69 86
65 79 102
61 76 99
59 72 91
69 86 111
65 79 99
57 71 91
70 85 108
60 72 90
71 86 108
55 66 84
54 67 86
54 67 85
74 91 118
58 70 87
75 89 108
51 62 79
64 76 96
55 66 81
57 70 89
71 85 105
47 57 73
67 81 102
71 85 106
65 78 99
70 86 109
56 69 89
79 96 121
64 80 103
74 91 116
42 54 71
65 81 105
74 89 111
37 44 55
63 75 93
48 59 76
63 77 99
53 65 84
55 66 83
43 52 64
51 62 78
61 74 95
67 81 103
62 76 97
57 68 84
52 63 80
70 84 105
53 67 87
68 83 105
51 61 76
69 85 109
38 46 58
60 74 95
34 41 51
59 71 89
53 65 83
54 65 82
58 72 92
75 92 118
82 100 127
61 74 95
57 71 92
59 72 92
55 69 89
59 73 94
54 65 83
64 81 105
45 55 70
48 59 75
63 81 108
62 77 99
65 80 102
50 61 78
64 78 99
62 75 93
44 54 68
62 74 92
59 70 87
59 73 93
70 84 105
67 81 102
54 68 89
65 81 105
51 62 78
56 70 91
47 61 83
71 86 108
66 80 102
72 86 108
43 51 63
64 77 96
72 86 106
63 75 93
59 75 99
51 62 78
61 76 99
59 71 89
58 71 89
65 80 102
56 71 93
71 86 108
61 76 99
41 51 66
56 69 90
60 70 87
60 75 99
55 69 89
66 81 102
56 70 91
66 80 102
74 92 118
55 67 84
54 67 87
73 90 116
66 82 106
69 85 108
73 91 118
65 81 105
42 52 68
59 71 89
77 93 118
51 66 89
55 68 87
69 86 111
51 64 84
59 73 96
60 77 102
62 77 99
54 68 89
81 97 121
71 90 118
67 82 106
62 73 91
66 84 111
75 89 111
65 82 108
72 90 118
75 93 121
61 75 96
40 49 62
75 91 115
74 91 118
58 71 91
72 89 115
73 87 108
57 70 89
77 93 118
62 75 94
66 82 105
72 90 118
71 86 109
64 83 111
71 85 107
75 88 109
63 76 94
81 97 121
67 86 115
76 93 118
69 86 111
69 84 106
70 84 106
80 99 127
65 80 102
76 93 118
57 73 95
74 89 111
64 83 111
78 98 127
70 89 118
57 70 89
57 71 92
63 81 108
75 92 118
74 91 118
79 96 121
72 89 115
60 75 97
72 92 121
60 76 99
68 83 107
70 89 118
68 86 115
80 96 121
84 101 127
67 87 118
67 84 108
70 84 106
73 87 108
72 92 121
81 97 121
75 92 118
78 94 118
75 92 118
70 88 115
75 93 121
77 97 127
59 74 97
75 94 121
71 89 116
75 94 121
76 93 118
76 94 121
74 92 118
81 97 121
80 95 118
74 93 121
80 94 116
79 94 118
63 80 105
67 84 109
72 89 115
63 80 106
74 92 118
77 94 121
87 103 127
78 98 127
80 99 127
68 85 110
81 97 121
79 99 127
56 72 96
77 97 127
75 93 121
74 95 127
77 97 127
63 80 106
78 98 127
62 77 99
68 87 115
74 92 118
63 80 104
65 83 108
72 88 111
74 93 121
81 100 127
75 94 121
75 94 121
78 98 127
82 100 127
66 82 105
60 74 96
73 90 115
78 98 127
75 92 118
83 101 127
74 95 127
76 94 121
72 90 118
68 84 109
83 101 127
71 90 118
70 85 106
84 102 127
77 97 127
76 94 121
80 99 127
67 88 118
83 101 127
84 101 127
81 100 127
75 96 127
71 90 118
71 87 111
76 91 115
73 92 121
71 91 121
80 99 127
73 91 118
73 92 121
78 94 118
76 93 118
74 93 121
76 96 127
76 97 127
79 98 127
78 98 127
74 93 121
56 66 81
76 93 118
85 102 127
74 92 118
79 96 121
77 97 127
76 92 116
74 92 118
66 83 108
74 92 118
74 90 115
77 94 121
71 90 118
61 75 96
83 101 127
79 98 127
81 99 127
81 100 127
74 93 121
77 97 127
71 87 111
84 102 127
79 98 127
75 96 127
75 93 121
81 99 127
78 98 127
77 95 121
78 98 127
71 91 121
77 97 127
78 95 121
59 75 99
80 99 127
81 100 127
81 100 127
68 86 111
73 91 118
68 87 115
76 96 127
79 99 127
79 98 127
70 88 115
78 94 118
72 89 115
68 84 108
70 89 118
82 100 127
67 85 111
66 84 111
68 84 108
77 97 127
71 90 118
59 75 99
78 98 127
72 92 121
76 94 121
78 94 118
68 84 108
67 84 110
62 77 99
81 100 127
70 89 118
71 89 115
60 74 96
59 72 92
71 87 111
63 79 103
75 92 118
74 92 118
66 82 106
74 89 111
62 78 100
59 72 91
64 77 97
73 91 118
63 77 98
63 78 102
76 94 121
58 72 94
62 80 106
70 87 111
65 81 105
62 78 102
76 93 118
74 90 115
73 87 108
75 96 127
73 88 111
63 79 102
78 95 121
57 71 92
55 70 92
68 85 111
67 83 108
79 99 127
68 83 107
61 73 90
67 85 111
73 92 121
60 73 92
79 98 127
86 103 127
77 94 118
61 75 96
60 77 102
50 58 71
60 75 99
65 79 99
54 65 82
63 78 100
75 92 118
48 58 74
52 64 82
67 81 102
63 74 90
59 71 90
60 75 96
64 80 105
67 82 105
75 92 118
73 90 115
65 81 105
56 68 86
49 63 83
66 82 105
54 66 84
64 76 95
70 87 111
54 67 86
65 80 102
39 48 61
62 80 107
61 74 93
56 67 84
62 77 99
69 85 108
71 86 108
55 70 92
54 66 85
62 75 96
59 70 86
55 67 86
55 64 77
70 87 111
70 84 105
64 77 96
74 89 111
68 85 111
49 60 76
79 96 121
41 51 65
54 66 83
63 77 96
71 87 111
65 80 102
74 88 110
69 82 102
47 58 75
61 74 92
65 81 106
74 92 118
65 77 94
66 84 111
71 87 111
66 80 102
52 63 80
64 77 96
77 94 118
37 47 63
79 98 127
67 83 108
58 72 92
51 61 76
67 80 99
52 65 83
60 72 91
67 85 111
64 76 96
52 61 75
60 71 87
61 76 100
47 57 72
66 83 108
62 76 95
54 67 86
64 75 91
72 85 105
63 75 92
56 70 93
45 54 68
64 78 99
58 70 88
62 75 93
54 66 83
44 54 68
60 73 92
61 76 99
60 74 96
56 67 83
62 77 99
72 90 118
65 80 102
63 76 95
53 64 80
49 62 81
59 70 88
65 79 99
71 87 111
78 95 121
67 83 107
43 53 67
61 75 95
54 68 89
48 60 78
73 92 121
71 90 118
65 77 95
54 66 83
63 74 91
76 93 118
60 73 93
74 89 111
75 90 111
55 67 84
62 73 90
69 86 111
57 68 84
67 78 95
58 73 95
72 90 118
69 85 108
66 80 102
73 91 118
64 78 99
68 83 105
58 69 86
70 85 108
70 88 115
46 57 73
68 82 102
63 78 100
59 72 92
67 82 105
76 93 118
62 78 104
59 71 90
54 66 84
50 65 87
46 58 75
74 91 115
70 85 108
71 90 118
59 74 96
64 79 102
69 86 111
55 69 90
74 89 111
75 92 118
48 60 77
65 83 111
78 94 118
80 99 127
64 81 106
64 81 107
75 92 118
74 89 111
71 87 111
52 66 86
67 82 105
76 93 118
77 97 127
76 91 115
78 98 127
79 98 127
65 80 103
60 76 100
71 86 108
63 80 106
62 79 105
80 97 121
77 93 118
73 92 121
68 88 118
62 80 106
80 96 121
69 83 105
57 73 97
80 96 121
69 85 109
70 84 105
64 79 103
80 99 127
73 88 111
60 73 93
66 80 100
78 92 115
80 99 127
53 65 84
64 82 108
54 68 89
63 82 111
72 90 118
74 90 115
58 75 99
71 89 115
76 96 127
75 92 118
76 90 111
78 98 127
84 102 127
78 95 121
67 81 102
74 91 116
65 78 99
74 93 121
73 91 118
81 100 127
80 99 127
75 92 118
84 101 127
72 91 118
82 100 127
68 84 108
67 81 104
82 100 127
77 94 121
60 74 95
57 73 97
69 89 118
79 96 121
71 90 118
65 82 108
72 89 115
69 90 121
75 91 115
57 67 84
82 100 127
76 92 118
71 87 111
75 92 118
72 91 118
82 100 127
68 89 121
74 92 118
71 88 115
65 80 102
84 99 121
78 98 127
72 92 121
75 96 127
77 94 118
68 85 111
81 100 127
72 89 115
67 85 111
74 93 121
78 94 118
74 93 121
80 99 127
77 95 121
83 101 127
72 89 115
80 99 127
75 92 118
61 79 105
69 85 108
69 86 111
68 89 121
68 85 111
64 79 100
82 100 127
69 85 109
60 75 99
76 96 127
79 98 127
79 99 127
71 90 118
77 97 127
75 92 118
80 96 121
64 82 108
76 94 121
74 89 111
81 100 127
71 90 118
69 88 118
71 94 127
83 101 127
76 93 118
66 83 108
73 91 118
67 81 102
58 73 96
79 98 127
81 99 127
76 96 127
69 88 118
81 100 127
80 99 127
82 100 127
77 94 121
78 98 127
79 98 127
72 91 118
80 99 127
76 94 121
80 99 127
82 100 127
61 79 106
84 101 127
82 100 127
78 98 127
80 99 127
77 97 127
67 84 108
72 89 115
69 85 108
60 76 102
79 98 127
82 100 127
67 84 110
81 99 127
76 93 118
78 95 121
68 83 105
71 89 115
59 73 95
70 87 111
77 91 111
71 90 118
68 86 111
81 97 121
70 89 118
78 94 118
57 72 93
74 93 121
60 79 106
69 85 108
65 82 108
74 93 121
62 76 95
73 91 118
59 72 92
75 94 121
80 99 127
78 98 127
77 97 127
80 99 127
68 84 108
74 91 118
77 91 111
73 92 121
68 84 108
72 90 118
66 83 108
82 100 127
81 100 127
73 90 115
75 91 116
70 88 115
76 94 121
69 86 111
76 94 121
72 86 108
70 87 111
67 83 108
70 87 111
82 97 121
66 83 109
70 89 118
73 91 118
82 100 127
65 78 96
68 84 108
72 90 118
58 72 92
70 85 108
46 58 75
54 68 88
67 85 111
66 83 108
70 85 108
59 72 92
72 88 111
79 96 121
61 77 99
56 70 92
50 61 77
52 66 86
58 73 95
79 96 121
84 101 127
56 73 97
66 79 99
60 73 92
68 81 102
66 83 108
76 93 118
58 71 91
60 73 91
67 84 109
72 89 115
85 102 127
71 86 108
57 70 89
78 95 121
72 88 111
64 81 105
81 97 121
60 74 95
66 80 99
64 79 102
69 85 109
63 78 100
56 70 92
72 85 105
68 83 105
69 85 108
58 77 105
61 76 99
64 77 96
70 84 105
75 92 118
67 84 108
77 94 118
71 86 108
54 63 78
75 91 115
58 73 96
70 87 111
71 89 115
61 75 95
47 59 76
33 40 49
64 78 99
65 78 96
56 68 87
51 63 80
52 65 84
75 92 118
78 95 121
31 37 47
52 65 83
69 85 108
73 89 115
71 89 116
63 78 102
50 60 76
51 64 83
56 68 86
64 80 103
61 75 96
67 85 111
43 53 69
71 87 111
71 85 105
50 60 76
58 72 93
72 88 111
36 44 56
48 58 73
59 73 93
68 83 106
70 85 108
74 89 111
51 63 80
54 65 81
65 78 96
66 82 105
68 84 108
61 76 99
57 69 87
43 53 67
75 92 118
51 61 77
57 69 87
72 89 115
61 76 97
70 85 108
51 63 81
59 73 94
80 96 121
41 51 67
50 62 80
65 79 100
74 93 121
39 49 65
64 79 102
66 81 104
67 82 105
51 62 79
68 83 105
53 68 89
58 69 86
57 70 90
50 60 76
53 65 83
47 59 76
68 82 102
58 71 92
73 91 118
61 75 95
65 78 96
51 60 74
63 76 95
79 96 121
63 78 99
46 57 73
73 88 111
42 52 67
55 67 83
62 76 99
79 98 127
70 86 109
60 76 100
46 58 76
76 93 118
51 64 83
49 62 82
66 81 105
66 81 102
68 84 108
49 61 79
67 81 102
66 79 99
63 77 99
80 96 121
65 82 108
77 91 111
74 92 118
47 59 77
67 80 100
69 85 108
62 74 92
67 85 111
65 79 99
68 84 109
74 93 121
55 67 84
60 75 99
86 102 127
63 77 99
62 77 99
65 77 95
86 103 127
69 82 102
68 84 108
62 75 96
75 92 118
64 77 97
64 79 102
69 85 108
63 80 105
71 87 111
63 77 99
69 86 111
76 94 121
65 83 108
47 60 78
67 85 111
62 77 99
61 72 89
54 66 84
72 94 127
69 83 105
75 92 118
62 76 99
66 82 105
79 98 127
62 77 100
70 89 118
66 82 106
84 102 127
67 83 106
78 94 118
57 70 89
66 82 105
73 91 118
62 80 106
78 95 121
68 86 111
60 74 95
75 89 111
82 100 127
77 92 115
69 86 111
71 87 111
70 89 118
68 87 115
69 86 111
75 93 121
64 83 111
68 88 116
84 101 127
71 90 118
78 95 121
66 81 105
78 98 127
80 99 127
77 93 118
54 70 94
62 77 100
76 93 118
69 86 111
75 93 121
60 76 99
60 75 98
64 81 108
65 80 102
55 68 87
84 101 127
79 98 127
64 83 111
80 99 127
70 85 109
67 86 115
71 86 108
72 92 121
69 85 110
75 96 127
70 88 115
86 102 127
76 93 118
74 90 115
75 94 121
66 84 111
69 89 118
71 85 106
78 98 127
74 92 118
72 90 118
66 85 115
75 93 121
66 82 107
80 99 127
58 72 92
73 90 116
66 83 108
67 87 118
63 78 99
77 97 127
73 91 118
74 88 109
74 91 116
77 95 121
78 98 127
73 95 127
82 100 127
81 99 127
72 92 121
74 92 118
74 93 121
81 100 127
63 78 100
76 97 127
77 94 121
73 91 118
69 90 121
72 88 111
76 96 127
76 94 121
78 98 127
77 97 127
85 102 127
67 81 102
82 100 127
55 72 96
75 96 127
69 86 111
71 90 118
76 93 118
77 95 121
71 90 118
53 69 93
73 92 121
77 97 127
72 92 121
76 92 118
79 99 127
77 97 127
68 86 111
71 90 118
80 97 121
67 83 108
70 91 121
64 80 103
72 87 109
74 96 127
75 96 127
73 92 121
67 84 110
71 86 108
74 93 121
81 100 127
82 100 127
64 81 107
72 88 111
83 101 127
69 89 118
81 100 127
78 95 121
75 96 127
75 96 127
66 82 105
72 90 118
75 93 121
71 89 115
69 85 108
75 94 121
79 98 127
84 101 127
81 100 127
72 88 111
74 92 118
76 94 121
74 90 115
79 98 127
68 84 108
67 83 106
65 81 103
78 98 127
72 90 118
57 72 93
68 85 111
74 93 121
74 93 121
73 92 121
76 97 127
73 88 111
68 85 111
65 81 105
77 97 127
74 91 116
72 86 108
83 101 127
82 96 118
70 89 118
77 95 121
69 89 118
76 93 118
84 102 127
64 82 108
80 96 121
76 94 121
77 94 121
77 97 127
83 101 127
82 100 127
74 93 121
71 90 118
47 58 74
66 82 105
71 90 118
77 97 127
73 87 108
77 95 121
80 96 121
76 94 121
78 92 115
67 82 106
71 90 118
72 86 108
73 95 127
61 76 99
71 90 118
74 92 118
73 90 116
72 86 107
72 88 111
59 71 89
66 82 106
70 88 115
76 93 118
60 74 96
74 92 118
71 86 108
81 99 127
59 75 99
75 94 121
52 63 80
69 86 111
70 84 105
58 72 92
60 76 99
73 89 111
77 93 118
68 83 105
57 73 97
67 85 111
66 82 106
64 79 100
77 97 127
65 80 102
71 88 115
81 100 127
79 94 118
67 85 111
64 82 108
70 87 111
78 98 127
58 74 97
75 91 115
72 85 106
78 95 121
66 83 110
79 98 127
79 95 118
81 99 127
83 101 127
72 88 111
71 87 111
85 102 127
70 85 108
69 87 115
60 76 99
72 89 115
66 82 106
69 82 102
56 68 86
64 81 107
75 91 115
51 62 78
66 82 105
68 86 111
81 97 121
71 87 111
73 92 121
65 80 102
62 78 102
58 71 89
72 87 108
60 72 90
70 89 116
56 69 90
65 83 108
57 69 87
59 72 91
59 74 95
71 90 118
51 61 76
61 75 96
48 59 75
50 62 80
40 50 64
61 75 95
66 83 108
57 69 87
53 63 78
61 73 92
48 58 73
59 71 89
53 65 81
52 67 89
56 70 89
61 75 95
80 95 118
74 93 121
57 70 90
64 79 102
48 58 74
59 70 86
33 40 52
49 59 74
62 75 96
60 76 99
60 77 102
76 93 118
63 77 97
55 68 88
70 87 111
54 68 89
62 74 92
57 69 87
66 81 103
64 77 96
65 79 99
58 70 87
64 78 99
64 77 96
71 88 115
60 72 91
56 68 84
54 67 86
67 83 108
42 52 65
69 86 111
55 66 83
66 80 100
49 60 77
75 90 111
72 87 108
52 66 87
67 84 108
64 79 102
64 80 103
54 63 76
68 84 108
65 79 99
65 80 103
67 83 107
62 77 100
48 58 74
66 80 102
76 93 118
47 59 76
81 97 121
60 73 93
64 79 102
69 81 100
86 103 127
68 85 111
66 78 96
67 81 102
78 95 121
53 64 82
74 89 111
65 83 108
54 65 81
71 84 102
59 71 89
70 85 108
65 79 100
69 84 105
54 69 91
61 79 107
57 71 93
59 71 90
69 86 111
70 86 110
64 78 99
52 63 79
61 76 99
63 80 105
65 80 102
72 88 111
63 77 99
64 78 99
77 91 111
72 88 111
59 74 95
58 70 89
73 92 121
62 76 97
66 81 104
80 99 127
59 71 91
67 82 105
63 80 107
77 97 127
70 87 111
76 93 118
64 78 99
69 84 106
80 95 118
65 81 105
56 69 89
68 84 109
74 92 118
64 81 106
65 84 111
71 86 109
60 75 96
57 71 92
66 80 102
72 88 111
64 80 105
81 97 121
64 79 102
74 88 109
61 74 94
67 81 103
70 86 111
80 99 127
76 97 127
70 88 115
63 81 108
73 88 110
73 91 118
71 87 111
63 79 103
70 89 118
56 69 90
65 80 102
78 95 121
49 62 81
75 92 118
70 89 116
63 80 105
67 82 105
63 78 102
69 87 115
64 80 103
78 94 118
72 88 111
71 89 115
62 78 102
76 97 127
69 84 105
66 83 108
73 91 118
70 89 118
69 87 115
62 75 95
70 91 121
80 97 121
79 95 118
58 72 92
81 100 127
61 79 105
83 101 127
79 96 121
75 92 118
69 90 121
74 93 121
75 92 118
74 92 118
77 94 118
69 87 115
70 89 118
77 95 121
75 92 118
66 82 106
69 89 118
72 91 118
66 83 108
81 99 127
74 93 121
67 82 105
76 94 121
78 98 127
68 84 108
71 90 118
62 78 102
66 82 106
77 95 121
77 97 127
69 84 106
76 92 116
75 96 127
72 91 118
78 95 121
75 93 121
70 86 108
74 96 127
74 92 118
76 93 118
81 100 127
58 73 96
62 77 99
73 91 118
68 83 105
66 82 106
73 88 111
81 99 127
73 88 111
69 85 108
65 78 98
75 92 118
60 75 97
88 104 127
75 94 121
82 100 127
70 85 108
74 93 121
70 89 118
69 86 111
65 81 105
82 100 127
75 96 127
72 88 111
67 84 108
76 97 127
71 87 111
76 97 127
76 97 127
71 87 111
73 87 108
71 90 118
71 91 121
83 101 127
72 90 115
60 76 99
78 98 127
75 91 115
77 92 115
75 93 121
63 77 99
62 81 108
75 94 121
80 96 121
77 97 127
81 99 127
79 98 127
71 87 111
70 88 115
74 93 121
65 82 108
82 100 127
72 91 118
75 92 118
78 95 121
60 78 105
73 91 118
76 94 121
77 97 127
75 93 121
78 98 127
72 94 127
70 85 108
78 98 127
72 91 121
76 94 121
64 78 99
67 83 108
75 92 118
76 91 115
72 90 116
83 101 127
63 80 105
70 86 109
82 100 127
69 89 118
75 94 121
84 101 127
79 96 121
59 73 92
77 94 118
69 87 115
75 93 121
77 97 127
67 84 108
83 101 127
75 94 121
71 89 118
83 101 127
82 100 127
64 79 102
72 90 115
74 91 118
65 82 108
76 94 121
76 92 115
67 85 111
66 83 108
79 98 127
67 86 115
74 90 115
78 98 127
59 74 96
61 77 102
63 82 109
72 88 111
83 101 127
68 82 103
75 92 118
68 81 102
80 99 127
81 100 127
71 87 111
59 78 105
69 84 107
81 99 127
70 85 108
63 76 95
70 88 115
77 94 121
77 95 121
71 90 118
82 100 127
56 72 96
72 90 118
74 93 121
80 99 127
62 78 102
48 63 84
62 74 93
78 95 121
67 81 102
63 79 102
61 76 99
58 70 87
83 101 127
60 74 95
71 90 118
53 68 91
73 92 121
55 70 92
73 91 118
66 83 108
82 100 127
63 77 97
57 72 95
68 83 105
68 83 105
60 79 106
69 86 111
73 92 121
70 83 102
73 95 127
69 85 108
79 95 118
86 103 127
69 84 105
73 88 111
60 77 102
70 86 111
68 84 108
68 81 100
68 85 109
71 89 115
71 90 118
77 94 118
69 86 111
62 78 102
69 82 102
80 99 127
80 99 127
77 91 111
80 96 121
46 57 74
52 64 80
52 66 87
50 64 84
80 99 127
68 86 111
65 80 104
65 81 106
75 91 116
68 86 111
76 92 115
55 71 95
71 87 111
74 92 118
71 90 118
68 84 108
55 68 89
60 74 94
63 77 97
82 98 121
73 89 111
50 61 77
53 65 84
52 64 81
62 74 91
64 81 108
59 70 87
58 73 95
47 57 71
51 62 77
53 63 79
48 60 78
66 83 109
60 72 91
56 70 92
60 77 102
56 69 87
46 54 67
75 90 111
61 75 96
69 85 109
61 74 94
52 65 84
64 76 95
48 59 75
65 80 102
45 55 71
55 66 84
64 78 99
49 62 82
62 76 96
51 63 83
49 61 80
77 92 116
63 78 100
52 64 81
66 80 103
64 79 102
74 92 118
64 77 97
50 62 81
56 70 90
60 74 95
36 43 55
54 65 82
39 49 64
64 78 99
49 61 80
51 61 76
70 83 102
68 82 103
65 78 99
68 84 108
53 64 81
71 86 108
56 68 86
63 76 96
60 76 99
72 86 108
54 65 83
76 92 115
59 69 84
75 92 118
65 81 105
59 74 96
68 82 103
68 82 103
56 69 90
79 94 116
45 56 71
78 93 116
56 68 86
51 65 84
66 80 100
66 82 106
70 83 102
66 81 102
44 55 71
76 93 118
49 61 80
67 83 108
68 86 111
56 68 87
58 72 92
72 88 111
62 76 97
74 89 111
62 75 94
78 94 118
60 73 92
47 59 77
80 99 127
72 89 115
59 71 89
65 85 115
70 89 118
68 83 105
76 93 118
66 80 102
63 79 103
76 94 121
67 83 106
68 81 99
72 88 111
63 78 102
65 77 95
60 79 106
70 83 102
77 93 118
64 81 106
59 73 93
61 74 94
53 66 86
62 76 96
62 77 99
65 78 99
79 99 127
71 86 108
68 83 105
75 92 118
69 86 111
67 85 111
65 82 108
54 69 90
71 90 118
55 66 83
67 81 102
58 72 92
63 78 99
76 93 118
69 85 108
74 91 115
60 77 102
59 74 96
59 74 97
77 95 121
67 88 118
62 78 104
77 93 118
62 77 100
65 82 108
78 94 118
75 89 111
70 87 111
79 98 127
61 76 98
70 88 115
67 84 109
81 100 127
75 92 118
70 89 118
66 82 106
64 79 102
83 101 127
69 85 108
73 88 111
76 94 121
82 100 127
85 102 127
74 91 115
67 85 111
72 88 111
59 75 99
71 87 111
63 81 108
75 94 121
69 85 108
68 86 111
72 89 115
79 98 127
78 95 121
72 92 121
84 102 127
72 90 118
78 98 127
80 99 127
65 81 105
87 103 127
80 99 127
73 92 121
78 98 127
74 92 118
79 96 121
72 94 127
74 91 116
73 92 121
80 96 121
77 95 121
72 92 121
72 89 115
70 88 115
76 94 121
71 90 118
74 93 121
75 92 118
78 95 121
78 95 121
73 91 118
74 93 121
61 75 97
73 91 118
78 95 121
69 86 111
70 88 115
82 100 127
68 85 111
65 82 108
60 75 99
68 89 121
76 93 118
81 100 127
76 91 115
79 95 118
75 92 118
68 88 118
67 82 105
81 100 127
79 96 121
77 95 121
70 86 111
72 89 115
85 102 127
79 99 127
67 87 115
79 98 127
76 92 116
74 93 121
83 101 127
63 80 105
70 88 115
70 86 111
72 91 121
78 98 127
77 97 127
73 90 115
78 98 127
80 99 127
80 99 127
73 95 127
61 77 102
77 97 127
72 89 115
78 98 127
78 95 121
75 91 115
73 90 115
72 92 121
72 88 111
81 100 127
70 89 118
77 95 121
75 91 115
78 98 127
73 91 118
70 89 118
71 89 115
78 98 127
72 88 111
72 87 108
80 99 127
68 88 118
79 98 127
76 97 127
67 84 108
76 94 121
77 97 127
72 90 115
78 98 127
86 102 127
69 89 118
80 99 127
71 89 116
78 95 121
74 93 121
69 87 115
65 79 99
69 88 118
63 80 105
77 93 118
64 81 105
72 89 115
83 101 127
67 84 108
77 97 127
75 93 121
78 95 121
81 99 127
70 89 118
79 98 127
76 92 118
80 99 127
59 72 92
77 97 127
61 76 99
67 84 108
74 91 118
80 99 127
80 96 121
77 97 127
71 90 118
72 89 115
76 93 118
70 87 111
75 92 118
72 92 121
78 98 127
65 80 102
81 100 127
65 81 105
74 91 116
72 88 111
83 101 127
66 82 106
80 99 127
67 83 106
58 72 93
65 78 99
49 63 83
64 80 105
73 87 108
64 79 102
54 67 87
73 91 118
64 81 107
69 85 108
61 75 96
67 82 106
73 91 118
52 66 87
67 85 111
71 87 111
67 83 108
64 79 103
68 84 108
59 74 96
77 93 116
59 75 99
59 75 99
73 91 118
62 79 105
72 88 111
62 75 96
72 88 111
70 85 108
67 81 102
75 91 115
82 100 127
71 87 111
68 83 105
69 82 102
58 74 99
81 97 121
56 71 94
66 82 105
84 101 127
79 99 127
80 97 121
64 78 99
44 57 77
63 77 96
63 79 102
69 85 108
54 68 89
80 99 127
65 82 108
51 65 86
55 69 89
64 81 106
71 90 118
71 87 111
71 87 111
78 95 121
77 94 121
63 79 102
66 81 105
56 70 92
56 72 97
75 92 118
64 79 102
59 73 92
69 85 108
68 80 99
71 88 115
80 99 127
72 85 106
77 92 115
62 78 102
63 78 100
54 65 81
71 85 105
58 69 87
66 80 103
64 77 96
70 88 115
78 95 121
68 84 108
52 62 77
41 50 64
55 68 87
49 63 84
74 92 118
57 75 102
53 66 86
61 76 99
58 72 93
48 57 71
75 92 118
68 85 109
58 71 90
57 69 86
47 59 77
55 65 80
61 76 97
65 80 103
67 82 105
52 65 84
62 74 93
56 69 90
54 69 92
73 88 111
63 78 102
54 67 86
75 92 118
65 79 100
67 81 102
78 94 116
54 67 87
75 90 111
54 66 83
56 69 88
67 85 111
47 57 73
55 67 86
50 61 76
55 67 86
56 69 89
66 79 99
50 59 74
67 81 104
51 63 81
67 82 105
61 72 89
70 85 108
36 43 54
43 52 67
44 53 67
46 58 75
54 66 83
57 68 84
78 94 118
64 79 102
50 62 80
59 71 89
80 94 115
63 75 93
66 80 100
55 66 83
45 54 68
70 85 108
50 62 80
46 57 73
55 68 86
69 85 109
61 72 89
50 61 76
79 94 116
51 61 75
67 80 99
52 64 81
63 77 99
61 76 99
46 57 73
71 86 110
69 82 102
67 83 105
61 74 92
61 75 96
70 85 109
85 102 127
72 87 108
56 69 87
64 78 99
68 83 105
52 64 83
64 79 100
50 62 81
65 85 115
66 79 99
51 64 84
65 80 102
53 66 85
79 99 127
73 91 118
70 87 111
57 67 83
71 87 111
67 82 105
69 85 108
74 93 121
71 86 109
53 67 88
59 73 93
74 93 121
74 89 111
54 69 92
73 87 108
50 64 84
47 57 71
75 92 118
64 81 106
58 69 87
73 89 111
67 83 108
71 84 103
82 100 127
67 83 108
61 74 92
78 95 121
62 74 92
79 99 127
80 99 127
67 82 106
75 89 111
76 94 121
55 68 87
60 72 91
72 89 115
77 97 127
82 100 127
57 72 96
63 79 103
75 91 115
79 94 115
60 75 96
78 93 115
61 77 100
62 76 99
72 91 118
57 71 92
58 71 91
62 74 92
67 82 105
70 86 111
68 88 118
64 82 108
65 79 100
67 81 102
69 86 111
81 96 118
75 96 127
79 98 127
68 85 111
67 83 106
82 100 127
63 78 99
67 82 106
78 95 121
59 73 92
68 88 118
69 86 111
76 93 118
70 88 115
74 93 121
73 91 118
82 100 127
62 80 106
79 94 118
69 88 115
82 100 127
63 76 97
81 100 127
74 93 121
66 80 102
57 71 92
68 84 108
67 83 108
84 101 127
69 84 106
67 82 105
77 95 121
74 93 121
78 98 127
51 65 85
62 78 103
78 95 121
59 75 99
82 100 127
72 90 118
78 98 127
60 77 102
75 91 115
77 95 121
75 94 121
65 81 105
78 98 127
74 91 116
65 79 102
77 97 127
81 100 127
72 90 118
77 97 127
80 99 127
78 98 127
63 81 108
74 89 111
80 99 127
78 98 127
74 90 115
80 99 127
80 99 127
65 82 108
76 97 127
75 96 127
75 92 118
83 101 127
76 94 121
67 84 108
80 99 127
70 93 127
82 100 127
78 95 121
79 99 127
81 99 127
74 93 121
74 90 115
70 88 115
79 96 121
77 97 127
68 89 121
63 81 108
79 99 127
74 92 118
75 92 118
75 96 127
82 100 127
65 82 108
77 92 115
70 86 111
78 98 127
60 75 99
60 75 99
80 99 127
82 100 127
74 86 105
77 97 127
66 84 111
78 95 121
72 89 115
74 93 121
76 96 127
82 100 127
74 95 127
77 92 115
72 86 108
67 82 105
82 100 127
88 104 127
79 98 127
66 83 109
72 90 118
76 93 118
71 90 118
71 86 109
83 101 127
66 84 111
67 88 118
75 93 121
62 80 108
68 87 115
74 89 111
67 87 118
79 98 127
63 82 109
78 98 127
69 89 118
71 87 111
74 91 118
78 94 118
84 101 127
83 101 127
69 90 121
75 87 105
64 81 105
78 94 118
80 99 127
72 90 118
76 97 127
74 90 115
71 90 118
60 76 99
82 100 127
79 98 127
73 92 121
70 86 111
72 92 121
74 93 121
60 75 99
70 85 109
69 85 108
65 80 104
67 84 108
80 99 127
69 88 115
76 93 118
70 86 109
69 89 118
62 81 108
77 93 118
81 97 121
79 95 118
79 98 127
67 82 105
72 92 121
63 78 99
61 76 99
67 82 105
76 97 127
77 97 127
66 81 103
62 79 105
87 103 127
76 94 121
63 78 102
51 64 84
70 87 111
74 93 121
77 94 118
83 101 127
67 82 105
71 90 118
72 91 118
78 94 118
69 86 111
69 89 118
80 99 127
70 86 111
76 94 121
76 97 127
81 100 127
64 83 111
67 84 108
69 85 108
49 63 83
67 83 107
59 71 89
47 58 75
62 78 102
71 90 118
74 90 115
68 86 111
81 100 127
76 92 115
65 83 108
74 92 118
67 81 102
76 94 121
72 86 108
72 91 118
70 85 108
84 101 127
53 66 86
69 87 115
74 93 121
57 70 89
66 82 105
67 85 111
65 81 107
59 70 86
78 94 118
72 91 118
72 85 105
73 90 115
65 80 103
72 88 111
76 94 121
59 72 92
72 86 108
77 93 118
78 98 127
72 88 111
75 89 110
76 96 127
61 78 102
70 86 108
62 78 102
87 103 127
72 89 115
53 66 85
40 53 72
69 89 118
77 94 118
56 69 89
82 100 127
45 55 71
83 98 121
77 94 118
61 75 96
60 73 92
53 67 87
53 68 89
57 71 92
70 84 105
74 89 111
56 69 88
61 75 96
65 82 108
49 60 77
66 80 102
48 58 73
65 82 107
66 79 98
55 65 79
72 87 110
40 49 62
47 57 71
69 84 105
52 62 79
62 75 94
69 84 105
62 77 99
53 67 87
58 71 90
50 64 84
69 86 111
41 49 62
53 63 80
73 90 115
49 61 80
71 87 111
61 74 94
37 47 62
65 78 99
66 83 109
67 82 105
54 63 77
59 73 92
56 67 83
71 86 108
60 73 91
46 57 73
54 66 84
58 72 92
69 86 111
69 81 99
56 66 81
62 75 94
64 78 99
68 84 108
70 88 115
61 75 96
70 87 111
52 61 76
52 63 80
76 94 121
58 71 90
69 84 107
71 89 115
47 59 77
65 80 102
58 72 92
74 89 111
53 65 84
63 76 96
61 75 96
64 79 102
69 85 109
58 72 92
47 57 71
67 80 99
60 71 88
62 80 105
56 67 83
61 73 92
65 79 99
62 76 96
66 80 100
76 93 118
59 72 92
61 74 93
59 73 93
67 79 99
53 66 86
44 57 75
67 81 102
60 74 96
68 84 108
53 64 81
65 80 102
55 65 79
76 93 118
58 71 92
59 70 87
60 73 93
73 89 111
74 91 118
75 91 115
60 73 92
52 67 89
84 99 121
61 74 93
66 80 102
68 88 118
78 94 118
67 83 106
64 82 108
47 59 76
70 86 108
70 84 105
60 77 102
52 67 89
66 82 106
65 82 108
74 90 115
55 69 89
85 102 127
68 82 102
64 79 102
49 60 76
74 91 118
69 85 108
56 70 89
79 98 127
61 79 105
67 85 111
62 76 96
74 92 118
63 81 108
65 83 108
66 82 106
67 82 103
71 88 115
75 90 111
65 82 106
66 80 102
75 93 121
76 93 118
57 74 99
76 94 121
65 82 108
74 91 115
63 76 97
70 84 106
64 79 102
58 71 90
79 94 118
63 78 102
70 85 108
73 91 118
62 77 99
70 84 105
58 72 92
63 79 102
50 62 79
67 82 105
63 79 102
77 95 121
59 71 89
78 94 118
67 83 106
81 97 121
61 75 96
67 85 111
79 99 127
63 80 106
64 82 108
75 96 127
76 94 121
72 88 111
80 99 127
65 82 108
80 99 127
72 86 108
60 75 98
81 100 127
69 85 110
71 90 118
73 91 118
75 96 127
62 78 102
69 84 108
75 94 121
61 75 95
79 98 127
81 99 127
79 98 127
73 89 111
77 94 121
72 90 118
64 80 103
79 98 127
77 93 118
66 83 108
72 91 118
71 90 118
72 90 118
71 88 115
75 96 127
81 100 127
82 100 127
69 86 111
75 94 121
68 85 111
73 88 109
71 86 108
82 100 127
75 96 127
80 97 121
74 91 116
73 95 127
82 100 127
81 97 121
73 91 118
77 97 127
79 99 127
79 98 127
82 100 127
79 98 127
64 80 105
75 93 121
67 88 118
76 93 118
75 96 127
77 93 116
69 87 115
77 93 118
73 92 121
80 99 127
81 97 121
66 81 105
85 102 127
74 95 127
70 89 118
70 85 107
73 91 118
79 98 127
81 100 127
84 101 127
81 99 127
77 93 118
70 88 115
67 83 108
79 98 127
75 96 127
77 97 127
72 90 118
81 100 127
80 99 127
73 90 115
72 88 111
72 90 118
63 81 108
80 99 127
77 97 127
72 90 118
82 100 127
79 98 127
68 88 118
70 93 127
80 99 127
82 100 127
83 101 127
83 101 127
66 84 111
77 97 127
75 96 127
75 93 121
82 100 127
66 82 107
87 103 127
70 86 109
72 89 115
72 89 115
74 93 121
67 84 108
76 97 127
71 88 115
70 86 111
69 87 115
68 86 111
67 83 108
77 95 121
77 97 127
74 95 127
84 101 127
82 100 127
69 85 110
77 97 127
67 82 105
83 101 127
72 91 118
63 79 102
84 101 127
77 94 121
79 98 127
62 79 105
74 91 118
72 91 118
64 82 108
78 98 127
64 78 97
71 90 118
76 94 121
72 92 121
70 86 109
74 93 121
79 98 127
74 92 118
76 93 118
68 85 111
66 82 106
66 80 102
77 95 121
76 93 118
81 100 127
76 96 127
72 90 118
67 85 111
79 96 121
72 91 118
79 98 127
68 82 104
74 91 118
68 84 108
71 86 108
79 98 127
56 72 96
59 72 92
75 96 127
69 89 118
78 98 127
77 97 127
65 81 105
70 88 115
71 87 109
72 88 111
73 92 121
62 78 102
82 100 127
62 78 100
71 86 108
78 98 127
55 65 80
72 85 105
56 69 87
73 91 118
80 99 127
57 70 91
75 92 118
68 84 108
71 88 115
64 77 98
63 79 102
68 84 109
71 89 115
59 73 96
73 91 118
48 61 79
75 94 121
46 57 72
72 91 118
74 92 118
59 74 96
70 86 108
74 90 115
69 84 108
75 90 111
60 74 96
74 89 111
53 65 83
63 76 96
71 87 111
73 90 115
68 87 115
64 81 106
63 78 99
74 93 121
68 84 107
71 86 108
67 80 99
60 73 93
63 76 95
55 68 89
59 74 96
58 68 84
64 76 92
45 54 67
68 84 109
70 84 106
70 87 111
67 83 105
56 72 96
69 85 108
71 89 116
52 64 81
51 64 84
49 59 75
72 88 111
79 99 127
51 63 80
80 95 118
70 84 105
42 52 67
67 83 106
63 79 103
60 74 95
71 87 111
52 66 86
69 84 106
71 86 108
67 81 102
79 96 121
73 89 115
60 74 95
61 73 89
63 75 93
68 82 102
69 82 102
73 88 111
58 73 95
65 77 95
58 71 92
56 70 91
51 62 79
82 100 127
58 70 89
69 86 111
61 75 97
53 64 81
55 66 83
66 79 99
70 83 102
51 62 79
61 77 102
69 87 115
40 49 64
73 88 111
53 64 81
69 84 105
51 64 83
51 61 77
54 66 86
50 61 78
46 58 77
47 57 73
56 67 85
74 93 121
83 101 127
43 51 63
65 78 97
76 93 118
61 75 95
69 84 106
55 68 86
66 80 102
74 91 118
51 62 77
61 72 90
71 86 108
73 87 107
59 71 89
69 82 102
67 82 105
65 80 102
70 85 107
66 80 100
64 78 99
41 49 60
48 58 75
61 76 99
68 81 100
64 77 95
58 71 89
76 90 111
57 70 89
72 85 105
70 86 111
68 84 108
59 73 92
69 85 108
73 88 111
56 68 87
72 89 115
69 85 108
51 62 80
58 72 93
48 60 78
61 75 96
77 91 111
56 70 90
53 64 82
69 86 111
63 78 99
56 67 83
65 78 99
70 83 102
52 63 81
65 80 102
73 90 115
63 77 97
62 76 97
54 66 86
72 89 115
64 76 93
65 81 105
68 84 108
68 83 105
64 77 97
64 81 106
72 88 111
58 73 95
64 82 108
73 88 111
54 64 80
68 83 105
72 94 127
66 79 99
65 80 103
73 91 118
54 68 89
64 79 100
47 61 81
70 85 108
74 87 107
74 90 115
64 79 102
74 91 118
72 89 115
61 75 96
58 71 89
56 70 92
74 93 121
62 77 99
77 97 127
72 92 121
75 89 111
72 88 111
68 88 118
72 89 115
74 88 108
62 76 97
73 88 111
69 84 107
79 98 127
71 90 118
80 96 121
61 75 97
65 83 110
68 85 109
70 89 118
69 83 105
69 80 96
80 99 127
58 73 95
79 96 121
76 93 118
80 96 121
46 56 72
76 94 121
68 84 108
70 87 111
60 77 102
76 92 118
76 97 127
72 89 115
79 95 118
74 91 118
69 85 108
79 99 127
74 92 118
82 100 127
68 81 99
54 65 83
74 93 121
82 100 127
59 74 96
70 87 111
72 92 121
72 90 118
80 99 127
70 89 118
76 94 121
73 90 115
69 85 108
76 94 121
66 82 106
74 91 118
70 86 108
71 87 111
75 92 118
62 79 103
64 79 102
71 87 111
57 73 96
74 91 118
82 100 127
69 87 115
72 90 118
67 89 121
69 88 115
78 94 118
55 70 93
76 94 121
74 95 127
75 93 121
66 82 106
78 95 121
82 100 127
80 99 127
65 81 103
84 102 127
76 93 118
83 101 127
74 92 118
72 88 111
70 89 118
81 99 127
85 102 127
77 93 118
72 92 121
79 98 127
79 98 127
63 79 103
74 96 127
83 101 127
72 89 115
66 81 105
74 92 118
67 84 108
69 86 111
77 94 121
82 100 127
72 94 127
73 91 118
67 85 111
67 82 105
79 98 127
72 89 115
71 90 118
74 93 121
75 91 115
74 93 121
79 98 127
68 84 108
70 89 116
80 99 127
81 100 127
77 93 118
77 95 121
69 86 111
77 97 127
80 99 127
55 72 97
74 93 121
78 98 127
76 94 121
77 92 115
71 87 111
60 79 108
76 94 121
67 84 108
70 88 115
67 85 111
76 93 118
83 101 127
78 95 121
70 84 106
77 97 127
76 94 121
72 88 111
71 90 118
74 91 118
72 92 121
68 84 108
71 88 115
65 81 105
76 94 121
66 80 100
81 99 127
78 98 127
77 93 118
75 91 115
73 90 115
82 100 127
78 98 127
71 88 115
72 89 115
73 91 118
71 90 118
82 98 121
71 89 115
75 96 127
70 87 111
64 82 108
82 100 127
76 97 127
83 101 127
50 65 87
85 102 127
75 92 118
79 96 121
75 94 121
53 66 87
75 92 118
81 99 127
65 78 97
67 85 111
82 100 127
62 78 102
74 93 121
70 84 106
77 93 118
65 82 108
73 88 111
69 89 118
67 88 118
70 86 111
79 96 121
75 93 121
71 87 111
73 88 111
72 89 115
70 88 115
73 90 116
77 95 121
59 76 102
66 84 111
62 75 95
64 80 103
81 99 127
63 77 99
56 67 84
72 89 115
75 92 118
58 72 93
67 81 103
84 102 127
68 85 110
79 99 127
62 81 109
60 75 98
75 94 121
78 98 127
77 95 121
62 78 102
74 90 115
70 85 108
76 94 121
44 57 75
71 87 111
58 73 95
79 96 121
61 77 100
49 62 81
61 75 97
83 101 127
77 93 116
74 93 121
74 91 118
60 76 99
64 79 103
58 73 96
59 75 99
56 70 90
65 81 105
66 81 105
70 84 105
68 84 107
71 84 103
71 86 109
68 84 108
54 67 86
45 58 77
53 66 86
54 68 88
84 102 127
45 58 77
74 92 118
59 70 87
55 67 86
61 74 94
59 73 95
71 89 115
76 94 121
48 58 74
60 72 91
61 74 93
65 80 102
67 83 106
70 84 105
59 76 103
60 78 105
66 81 103
61 75 96
54 68 89
72 90 118
58 70 89
81 100 127
63 78 99
50 61 77
62 75 95
60 74 95
53 68 89
62 76 96
66 83 108
74 92 118
60 72 90
67 81 103
62 74 92
56 69 89
62 75 95
64 80 103
72 90 118
68 85 111
71 87 111
61 76 99
66 79 98
62 73 89
63 78 100
61 78 102
57 71 92
67 81 102
62 77 99
53 64 80
68 83 105
56 69 88
51 63 81
47 58 74
56 69 89
37 46 58
65 80 103
84 99 121
45 56 73
63 77 99
47 56 71
72 87 109
55 65 80
55 67 85
65 79 99
70 85 108
65 81 106
72 86 108
62 77 99
50 62 79
53 65 83
75 89 111
52 63 80
73 90 115
60 76 99
61 74 94
69 85 108
77 97 127
61 73 90
73 88 111
55 68 87
67 81 102
60 75 99
66 80 102
66 80 102
61 75 96
71 90 118
54 68 89
59 73 93
68 83 105
69 88 115
65 80 103
76 93 118
62 75 96
74 92 118
49 60 75
63 76 96
66 81 102
80 96 121
65 79 99
64 79 102
55 67 86
61 75 96
84 101 127
70 84 105
78 98 127
66 82 105
69 85 108
64 78 99
65 81 105
75 90 111
37 45 57
70 84 105
71 86 108
75 90 111
56 66 81
53 66 86
58 69 86
62 76 96
66 79 99
81 100 127
75 90 111
56 68 86
65 81 105
66 82 105
66 82 107
69 84 107
66 81 105
66 81 102
65 80 102
74 89 111
55 69 89
68 85 110
57 70 89
65 79 99
59 73 93
75 90 111
51 65 84
66 82 105
57 74 99
69 86 110
69 86 111
74 92 118
67 83 107
78 95 121
75 92 118
68 83 105
57 74 99
74 90 115
53 67 89
63 76 94
70 87 111
84 102 127
73 87 109
73 90 115
64 79 102
78 96 121
52 65 83
69 85 108
53 68 90
37 45 58
68 84 108
53 66 84
70 87 111
68 85 111
74 90 115
69 82 102
68 81 99
72 90 118
75 93 121
63 76 96
65 81 105
69 89 118
65 81 105
73 91 118
78 95 121
74 91 118
69 86 111
64 78 99
68 86 111
75 88 108
77 93 118
71 90 118
62 78 102
74 91 118
72 90 118
76 94 121
67 83 106
75 90 111
76 92 115
66 83 108
69 86 110
76 94 121
69 86 111
78 98 127
76 97 127
74 90 115
62 79 105
56 70 89
74 92 118
73 88 111
79 93 115
73 91 118
76 90 111
65 79 99
68 82 103
63 78 102
72 90 118
66 81 103
74 96 127
71 90 118
83 101 127
60 74 96
81 100 127
85 102 127
72 90 118
69 88 116
85 102 127
71 84 105
72 90 115
78 94 118
79 98 127
71 91 121
43 54 69
78 95 121
70 89 118
67 84 108
69 85 108
76 94 121
71 87 111
68 88 118
63 81 108
75 91 115
74 92 118
79 98 127
77 97 127
77 93 118
78 95 121
71 91 121
76 94 121
79 98 127
74 96 127
78 98 127
80 99 127
78 95 121
85 102 127
73 90 115
60 76 99
77 97 127
71 90 118
76 97 127
78 98 127
71 86 108
72 91 118
68 88 118
81 100 127
72 90 118
79 96 121
81 99 127
77 94 121
80 99 127
70 89 118
75 92 118
85 102 127
71 89 115
72 90 118
76 96 127
77 93 116
80 97 121
75 92 118
75 92 118
64 82 108
73 95 127
76 93 118
70 86 108
57 72 95
70 90 121
77 97 127
69 89 118
72 90 115
81 99 127
78 98 127
80 99 127
79 98 127
66 83 108
79 98 127
73 88 111
75 92 118
78 98 127
69 90 121
82 100 127
78 95 121
76 94 121
67 85 111
69 88 115
78 98 127
63 80 105
62 78 102
79 98 127
82 100 127
74 89 111
78 98 127
76 93 118
69 84 107
75 96 127
73 91 118
71 89 115
77 95 121
68 84 107
76 93 118
67 82 103
69 84 105
74 91 116
77 94 121
75 96 127
83 101 127
76 93 118
67 86 115
80 99 127
47 60 80
73 90 115
80 99 127
70 89 118
72 89 115
78 98 127
74 92 118
69 85 108
73 92 121
82 100 127
70 84 106
82 100 127
73 90 115
69 85 110
58 74 98
78 98 127
65 83 108
77 93 118
63 80 105
84 99 121
66 82 107
70 87 111
73 86 106
76 92 115
78 98 127
73 92 121
71 87 111
79 99 127
70 85 108
66 80 102
83 101 127
61 77 102
65 78 99
65 82 107
72 86 106
67 82 105
76 92 118
77 95 121
67 83 107
64 81 105
72 90 115
66 81 105
72 90 118
64 78 100
68 87 115
68 83 106
65 80 102
66 82 105
71 87 111
69 86 111
73 91 118
64 78 99
58 72 92
73 88 111
78 98 127
70 89 118
75 96 127
60 73 92
73 91 118
66 82 106
70 86 110
71 87 111
76 96 127
62 78 102
76 94 121
64 78 100
58 69 86
75 93 121
64 81 105
61 75 96
65 83 108
73 89 115
74 93 121
78 95 121
52 64 84
65 82 107
44 57 77
74 90 115
69 85 108
62 79 103
64 81 106
47 57 71
71 86 108
70 86 109
57 71 93
61 77 102
61 76 99
61 76 97
61 74 93
60 73 92
69 86 111
67 82 105
54 68 89
64 78 99
71 88 115
61 77 102
65 80 102
55 67 84
74 93 121
61 75 95
50 62 80
62 78 102
63 78 99
58 72 94
72 85 105
59 76 102
63 78 99
56 68 86
69 86 110
53 64 79
76 94 121
62 77 99
61 78 102
62 75 95
67 81 100
56 69 89
51 63 81
76 93 118
68 83 105
60 75 96
64 77 96
54 65 81
49 61 78
72 87 108
61 79 106
76 93 118
64 80 105
57 73 96
57 72 96
51 64 83
61 74 92
77 90 110
57 71 91
59 72 91
50 61 76
63 76 96
66 79 99
59 75 99
69 83 105
67 84 108
46 58 75
69 82 103
54 68 89
52 66 86
65 79 99
37 45 55
60 74 96
64 81 106
58 71 89
49 59 73
61 75 96
75 92 118
60 73 92
56 68 84
63 75 92
61 76 99
66 80 100
68 83 105
72 86 108
66 79 97
77 94 121
51 64 83
55 67 85
72 88 111
71 86 108
64 78 99
57 69 86
72 91 118
49 62 80
60 72 90
68 83 106
61 74 93
75 89 111
71 85 106
58 71 91
57 70 89
73 91 118
64 82 108
65 79 100
54 65 83
75 91 115
66 82 105
57 71 93
67 85 111
58 69 86
79 95 118
82 98 121
74 89 111
67 81 102
68 83 106
42 53 69
43 53 68
72 87 108
60 73 93
74 89 111
59 73 95
63 78 99
52 66 86
68 82 102
64 80 105
61 77 100
79 96 121
76 91 115
73 88 111
77 95 121
65 81 106
72 88 111
69 86 111
53 65 83
58 70 87
74 92 118
60 74 96
50 63 83
64 80 104
63 76 94
65 80 102
77 97 127
54 68 87
65 78 99
69 85 108
68 88 118
51 62 80
77 94 118
69 86 111
60 75 99
59 74 96
68 85 111
70 85 108
69 82 102
75 92 118
69 83 105
78 95 121
69 80 95
71 87 111
73 89 111
68 84 108
74 91 118
75 93 121
67 84 108
66 83 108
55 66 82
66 82 106
46 60 82
65 81 105
77 95 121
80 99 127
65 80 102
78 92 111
84 102 127
67 86 115
64 78 99
73 90 115
67 82 105
76 93 118
77 93 118
69 86 111
70 84 106
79 95 118
67 84 108
78 93 115
65 81 103
74 92 118
77 94 118
77 93 118
76 93 118
76 96 127
66 83 108
64 79 102
70 87 111
71 91 121
72 88 111
71 88 115
75 92 118
69 88 118
71 86 108
70 89 118
75 92 118
62 78 102
60 74 96
64 82 108
80 96 121
69 89 118
65 78 99
71 89 115
65 81 105
68 85 111
53 64 81
67 82 106
68 84 108
69 86 111
74 89 111
77 97 127
79 98 127
64 79 102
73 91 118
76 94 121
71 88 115
56 68 87
79 98 127
62 77 100
67 86 115
68 85 111
73 90 115
66 82 105
68 84 108
82 100 127
73 90 115
71 86 109
70 89 118
78 95 121
75 92 118
78 95 121
69 86 111
75 91 115
63 80 106
58 74 99
72 90 118
68 88 118
73 92 121
81 100 127
66 83 108
69 88 115
73 91 118
77 97 127
73 95 127
76 93 118
65 81 105
64 82 108
74 91 115
82 100 127
81 100 127
78 95 121
83 101 127
77 95 121
80 99 127
73 90 116
71 90 118
78 98 127
81 99 127
69 83 103
75 91 115
79 99 127
77 97 127
78 98 127
65 80 102
72 88 111
82 100 127
78 98 127
73 88 111
75 96 127
69 85 108
75 93 121
70 85 108
83 101 127
83 101 127
74 92 118
76 96 127
80 99 127
55 69 89
74 93 121
76 96 127
74 92 118
80 96 121
80 99 127
81 99 127
86 103 127
79 98 127
73 92 121
71 91 121
78 98 127
73 91 118
72 88 111
76 93 118
60 74 96
76 96 127
77 97 127
62 76 96
75 93 121
74 92 118
69 86 111
82 100 127
63 80 105
73 91 118
78 95 121
65 81 106
75 92 118
81 100 127
73 91 118
71 89 116
69 90 121
77 97 127
72 90 118
68 87 115
59 72 92
78 98 127
72 90 115
72 90 118
65 86 118
72 91 118
71 86 108
66 83 108
81 100 127
73 91 118
72 90 118
67 82 103
63 77 99
53 67 88
72 91 118
71 87 111
70 89 118
70 87 111
79 96 121
85 102 127
68 89 121
75 92 118
62 79 103
74 90 115
66 82 106
73 92 121
72 90 118
70 89 118
73 88 111
72 91 118
73 90 115
77 97 127
77 93 118
66 84 111
71 88 115
72 87 108
71 89 115
57 70 89
60 74 96
78 98 127
66 84 111
73 91 118
68 85 110
64 79 102
74 93 121
68 85 111
74 91 118
70 89 118
75 93 121
82 100 127
67 80 100
67 83 108
84 101 127
56 72 96
65 80 102
71 85 106
60 76 99
66 83 108
64 80 105
74 93 121
65 81 105
83 101 127
73 91 118
81 99 127
63 76 96
53 65 84
71 90 118
83 101 127
79 98 127
61 76 99
56 69 88
69 85 108
62 78 102
70 84 107
63 80 105
78 95 121
56 70 92
74 92 118
57 69 87
57 70 91
68 83 105
70 86 109
65 80 102
66 83 108
66 79 99
73 93 121
63 75 93
53 65 84
69 84 105
73 88 111
57 71 93
61 73 92
73 91 118
69 84 105
64 77 97
62 77 99
65 83 110
65 81 105
73 91 118
68 83 105
60 74 95
57 69 87
73 90 115
66 83 108
79 96 121
52 64 83
59 71 90
73 88 110
59 73 92
57 69 87
56 70 90
65 81 105
70 86 110
70 83 103
78 94 118
66 78 95
56 69 87
55 69 89
63 77 99
74 88 109
72 90 118
64 79 102
72 86 108
76 90 111
73 91 118
66 79 99
51 62 80
54 64 79
54 68 87
58 74 96
76 91 115
82 97 121
73 91 118
72 87 108
60 73 92
70 88 115
74 88 109
65 78 99
44 57 76
58 71 90
56 68 86
50 62 81
48 58 73
67 82 105
57 70 89
32 38 47
47 59 76
73 91 118
70 86 108
45 58 79
64 78 100
69 84 108
77 95 121
63 79 102
65 78 99
61 72 90
60 70 87
55 68 87
48 61 80
54 67 87
48 59 77
71 86 109
71 86 108
53 65 84
45 56 73
58 74 97
67 79 96
69 84 108
26 34 45
68 83 107
66 78 95
56 67 84
64 77 96
68 82 103
61 75 95
71 86 108
62 75 95
66 82 105
74 91 116
76 92 115
49 62 80
51 62 80
79 95 118
55 67 86
64 79 102
57 71 92
68 82 103
42 52 66
71 84 103
62 75 93
75 92 118
61 75 96
72 88 111
76 91 115
72 90 116
51 64 83
60 75 97
73 90 115
47 58 75
58 72 94
53 63 78
63 79 102
61 75 95
77 92 115
72 89 115
69 85 108
63 76 96
60 73 94
54 71 95
72 88 111
63 77 99
70 86 109
71 87 111
60 72 90
67 82 105
59 72 92
77 97 127
68 84 108
69 85 109
71 89 115
67 82 105
77 93 118
64 78 99
67 84 108
60 71 87
58 72 92
64 79 102
54 65 83
42 51 65
74 91 116
71 87 111
66 84 111
64 79 102
70 89 118
70 85 108
79 98 127
74 89 111
64 77 95
73 91 118
75 92 118
70 84 105
58 72 93
73 91 118
70 86 109
64 80 104
72 90 118
51 65 85
63 77 99
68 82 102
70 88 116
73 88 111
52 66 86
54 67 87
67 84 108
60 79 106
62 77 99
73 90 115
65 81 105
81 95 115
69 85 110
79 99 127
73 90 115
70 87 111
71 87 111
73 89 111
77 97 127
68 84 108
80 99 127
78 98 127
76 96 127
67 84 109
71 90 118
78 98 127
66 82 105
70 89 118
77 94 118
68 89 121
60 77 102
70 89 118
86 103 127
65 77 95
68 83 105
65 80 102
73 90 115
70 89 118
77 97 127
65 79 102
68 85 110
77 97 127
69 85 109
69 86 111
64 82 108
77 93 118
66 82 105
71 88 115
79 98 127
76 93 118
64 82 108
70 88 115
78 98 127
68 83 105
63 81 108
73 87 108
71 87 111
79 96 121
78 98 127
56 71 94
76 94 121
72 88 111
74 93 121
74 93 121
73 91 118
70 83 103
71 89 116
76 94 121
70 88 115
71 91 121
58 75 99
78 98 127
72 89 115
69 88 118
72 89 115
75 93 121
70 84 105
73 92 121
69 88 116
77 95 121
72 88 111
83 101 127
62 78 102
72 90 118
72 86 108
70 85 108
67 83 108
76 97 127
84 101 127
66 82 105
64 81 106
70 88 115
75 92 118
80 99 127
76 94 121
75 92 118
73 91 118
76 89 108
73 91 118
81 100 127
65 82 108
72 91 118
73 89 115
76 97 127
79 98 127
73 91 118
73 88 111
79 95 118
72 92 121
63 78 102
82 100 127
75 96 127
82 100 127
72 89 115
80 99 127
76 92 118
84 102 127
70 88 115
75 92 118
74 93 121
84 101 127
72 92 121
63 77 99
77 97 127
80 99 127
81 100 127
87 103 127
77 97 127
71 89 115
79 98 127
82 96 118
66 83 108
73 90 115
78 95 121
71 94 127
61 78 102
75 93 121
67 83 107
62 78 102
72 89 115
79 98 127
70 86 108
67 83 108
81 100 127
70 89 118
73 90 115
73 91 118
82 100 127
73 88 111
67 84 109
67 83 106
74 91 118
64 79 102
73 88 111
70 84 105
81 100 127
84 101 127
65 84 111
73 89 111
72 90 116
65 80 102
67 85 111
84 101 127
67 82 105
74 95 127
71 90 118
77 97 127
67 85 111
76 96 127
78 98 127
65 80 102
75 92 118
69 86 111
62 80 106
76 94 121
80 96 121
83 101 127
67 85 111
67 82 105
65 81 106
67 84 108
76 92 116
69 84 107
64 77 96
65 80 102
67 85 111
73 88 111
73 91 118
73 92 121
67 84 110
81 100 127
77 93 118
77 93 118
56 68 85
64 81 107
71 89 118
61 79 106
60 74 95
64 80 105
76 97 127
75 93 121
79 94 118
70 88 115
80 99 127
67 85 111
69 85 109
55 68 87
71 87 111
81 99 127
63 78 102
59 74 95
67 84 109
63 79 102
58 72 93
68 86 111
73 92 121
75 92 118
70 86 109
76 94 121
79 98 127
80 99 127
78 95 121
79 96 121
77 95 121
71 87 111
78 95 121
73 90 115
60 76 99
78 95 121
66 83 108
60 74 94
75 90 111
68 84 108
72 87 110
50 61 77
61 76 99
73 91 118
61 80 108
67 80 99
72 89 115
68 83 105
64 79 102
70 87 111
72 88 111
56 69 89
58 72 92
73 90 115
59 73 94
63 75 92
59 74 96
70 87 111
58 72 93
63 80 105
64 77 97
74 89 111
68 85 109
54 66 83
65 77 96
63 75 94
77 93 118
79 96 121
58 72 94
63 78 100
49 58 73
57 71 92
79 96 121
51 61 75
73 91 118
70 83 102
71 89 115
79 96 121
65 78 97
48 61 81
63 77 98
75 90 111
72 87 108
44 54 68
32 39 50
53 67 89
68 84 108
62 77 99
73 92 121
51 63 81
75 92 118
66 81 104
70 84 106
58 73 96
63 80 105
63 76 95
67 82 105
73 89 111
64 80 105
61 76 99
53 67 87
83 101 127
70 84 106
62 76 95
64 78 99
55 66 84
54 64 80
57 72 94
67 84 108
69 86 111
71 85 106
69 86 111
76 94 121
64 79 102
48 58 73
47 55 67
71 90 118
49 59 74
60 74 95
76 91 115
72 89 115
56 68 87
82 98 121
77 94 118
54 66 83
72 88 111
68 86 111
57 70 89
68 83 106
67 81 103
71 88 115
69 86 111
64 78 99
60 73 92
78 95 121
61 73 92
60 75 97
74 91 116
66 79 99
70 84 105
47 57 73
61 76 99
54 67 87
81 97 121
78 94 118
63 77 99
56 69 89
62 76 96
60 72 91
58 70 87
69 86 110
78 94 118
77 93 118
58 70 88
70 85 108
59 73 92
45 55 68
46 56 71
72 89 115
63 77 99
66 84 111
63 77 99
65 81 106
60 73 92
74 91 118
69 85 109
70 88 116
60 73 93
63 79 102
47 61 81
75 90 111
70 85 108
73 89 111
81 96 118
65 78 96
54 67 87
65 82 107
59 73 95
73 92 121
67 83 107
66 80 100
63 75 92
80 94 115
67 81 102
63 77 97
59 74 95
54 68 90
78 95 121
60 73 93
74 90 115
72 90 118
74 90 115
85 102 127
67 81 103
67 82 105
70 85 108
76 91 115
68 84 108
75 90 111
61 73 90
82 100 127
77 94 118
69 87 115
51 64 83
59 74 96
69 85 108
74 91 116
58 71 89
49 61 78
71 89 115
74 91 118
67 82 106
58 71 90
80 99 127
74 89 111
59 71 90
54 69 92
70 87 111
66 81 104
67 81 102
44 57 76
70 87 111
76 91 115
74 91 118
69 85 108
59 75 99
67 83 108
61 76 99
55 70 92
79 98 127
73 91 118
63 80 105
69 84 105
76 97 127
71 89 116
79 99 127
73 91 118
59 74 95
72 86 107
69 84 107
77 95 121
74 89 111
54 68 90
61 75 96
80 99 127
64 80 104
65 82 108
70 86 111
56 72 95
73 91 118
63 77 99
81 99 127
74 90 115
67 84 108
73 91 118
78 98 127
73 91 118
79 99 127
71 91 121
82 100 127
63 79 102
72 91 118
68 80 99
81 97 121
70 86 111
70 88 115
75 92 118
61 77 102
81 100 127
71 86 108
76 97 127
65 81 105
74 91 118
70 85 108
69 90 121
70 85 108
77 97 127
73 90 115
79 96 121
70 88 115
81 100 127
81 100 127
59 74 95
55 71 94
72 92 121
83 101 127
77 95 121
74 95 127
74 90 115
69 88 115
70 87 111
80 97 121
66 82 106
78 95 121
84 101 127
66 83 108
77 97 127
81 99 127
78 98 127
75 91 115
78 94 118
78 98 127
82 100 127
78 98 127
77 94 118
79 98 127
78 98 127
56 73 99
75 91 115
81 100 127
69 87 115
73 92 121
69 86 111
75 92 118
67 83 108
64 79 103
78 98 127
74 93 121
81 100 127
68 83 106
70 87 111
72 92 121
74 93 121
76 93 118
70 88 115
75 93 121
67 84 108
59 71 90
76 94 121
75 92 118
62 79 105
82 100 127
66 86 116
77 97 127
75 93 121
82 100 127
72 91 118
82 100 127
76 93 118
76 93 118
72 88 111
64 78 99
73 91 118
76 97 127
76 92 116
76 90 111
76 97 127
74 91 118
59 72 92
78 95 121
74 92 118
80 99 127
76 97 127
67 84 108
74 91 118
84 101 127
68 88 118
61 76 99
68 84 108
61 78 102
71 87 111
75 96 127
60 74 95
81 100 127
78 98 127
65 82 109
68 83 107
62 78 102
76 93 118
57 72 96
78 95 121
78 98 127
68 84 108
78 98 127
63 81 108
74 91 118
76 94 121
65 81 106
63 79 102
77 97 127
56 71 94
62 77 99
69 86 111
73 91 118
75 94 121
60 74 95
72 88 111
80 99 127
71 89 118
67 81 102
73 90 116
54 68 90
72 87 109
76 94 121
73 91 118
68 84 108
57 70 89
66 81 103
68 86 111
76 94 121
67 84 108
76 93 118
61 76 99
70 86 111
58 73 96
73 88 111
68 84 108
75 93 121
85 102 127
64 81 105
71 87 111
74 92 118
75 94 121
62 77 99
73 90 115
84 101 127
64 82 108
59 74 97
83 101 127
68 83 105
67 84 109
66 83 108
70 87 111
75 92 118
79 98 127
70 85 108
65 81 105
52 62 77
69 86 111
78 95 121
73 91 118
63 80 105
83 101 127
71 88 115
62 77 99
81 97 121
63 77 99
67 84 108
55 66 83
70 87 111
61 76 97
70 86 109
70 88 115
67 83 108
56 72 96
69 90 121
62 76 96
72 89 115
66 80 100
69 84 106
62 77 99
70 85 108
65 79 99
55 70 92
62 75 95
72 89 115
67 80 99
68 82 103
59 74 95
68 84 108
74 92 118
74 91 118
73 90 115
65 80 102
59 75 99
62 78 102
81 100 127
61 75 96
60 76 99
78 95 121
64 81 106
80 94 115
67 82 105
82 100 127
80 96 121
73 91 118
61 74 92
79 95 118
51 61 75
63 76 96
57 73 97
64 78 99
64 77 95
61 75 97
57 71 92
78 94 118
57 71 91
67 84 108
60 74 95
55 67 85
51 63 81
63 79 102
49 64 85
68 86 111
76 94 121
68 82 102
53 65 83
67 84 108
58 70 89
56 72 95
47 56 71
60 76 99
45 55 70
70 86 110
63 76 97
61 73 92
68 80 99
73 89 115
49 58 71
70 86 111
49 63 83
71 90 118
58 73 96
66 83 108
47 57 72
49 59 74
70 85 108
69 82 102
67 82 104
58 71 92
71 85 105
67 82 105
76 93 118
63 76 96
66 80 102
51 63 80
56 68 86
72 87 109
55 67 84
58 71 89
71 87 111
61 80 107
67 80 99
54 65 83
65 78 97
78 93 115
59 72 92
75 92 118
59 74 95
73 90 115
60 75 96
60 72 89
72 91 121
69 86 111
77 93 118
63 76 95
60 73 93
61 74 94
66 80 102
66 83 108
66 80 99
57 70 90
65 79 102
65 80 103
59 71 90
64 82 108
75 90 111
54 65 83
83 99 121
74 90 115
73 91 118
66 83 108
57 70 90
76 92 115
58 72 93
64 82 108
71 87 111
65 77 96
58 71 89
56 69 89
56 70 91
75 91 115
83 101 127
74 91 115
72 85 105
79 96 121
74 89 111
68 84 108
70 89 118
60 75 97
57 74 99
65 81 105
81 97 121
76 92 118
55 68 88
59 74 95
82 100 127
72 90 118
56 72 96
71 89 115
76 94 121
82 100 127
60 73 93
74 89 111
62 78 102
68 83 105
80 99 127
58 73 95
71 86 108
69 85 108
72 90 116
62 77 99
61 72 89
70 86 111
74 92 118
60 74 95
56 70 92
62 78 103
72 88 111
75 96 127
53 64 80
73 89 115
78 98 127
58 70 88
69 86 111
78 95 121
69 85 108
72 91 118
80 99 127
51 64 84
68 84 108
73 90 115
64 78 99
77 92 115
79 96 121
66 82 105
65 81 105
66 87 118
78 95 121
65 81 105
73 86 105
74 87 108
69 86 111
70 86 108
73 87 107
70 84 105
78 95 121
80 99 127
76 93 118
67 82 106
81 97 121
71 87 111
62 78 102
64 82 108
65 83 111
70 85 108
68 83 106
68 85 111
68 84 108
73 88 111
82 100 127
62 78 102
71 90 118
68 84 108
69 86 111
75 89 111
75 93 121
68 84 108
84 99 121
72 90 118
70 85 108
60 73 94
73 88 110
65 82 107
70 85 108
64 82 108
75 96 127
67 83 106
73 92 121
74 92 118
77 97 127
72 88 111
73 87 108
79 98 127
80 99 127
78 95 121
73 89 115
58 74 99
61 76 99
70 88 116
80 99 127
75 92 118
53 65 81
75 93 121
65 83 108
74 93 121
71 87 111
65 80 102
80 96 121
67 85 111
77 93 118
78 98 127
70 85 108
67 83 108
68 84 108
63 79 103
72 94 127
79 98 127
71 87 110
72 89 115
70 86 108
73 88 111
72 90 118
73 90 115
64 82 109
69 85 109
79 98 127
79 98 127
71 90 118
73 92 121
71 88 115
78 94 118
75 92 118
71 90 118
74 95 127
74 93 121
71 91 121
78 95 121
76 97 127
77 97 127
81 99 127
56 69 87
74 91 118
78 98 127
69 87 115
77 97 127
77 97 127
83 101 127
76 93 118
77 97 127
64 80 102
73 95 127
73 95 127
67 84 108
69 88 116
57 71 93
70 88 115
69 85 108
75 93 121
76 93 118
70 91 121
74 92 118
81 100 127
75 96 127
73 92 121
67 83 107
71 90 118
70 88 115
64 82 108
84 101 127
73 89 111
69 86 111
68 84 108
82 100 127
75 91 116
72 89 115
69 86 111
72 90 118
67 83 108
69 85 108
65 80 102
79 98 127
77 95 121
70 85 108
67 85 111
73 88 111
71 86 108
62 78 102
81 99 127
75 92 118
65 80 102
77 97 127
78 98 127
79 98 127
64 80 103
76 96 127
72 90 118
58 71 90
67 85 111
66 84 111
62 80 106
72 88 111
74 93 121
77 93 118
69 86 111
72 89 115
76 94 121
76 94 121
72 90 118
82 98 121
78 98 127
64 79 102
68 83 105
68 85 111
60 76 99
77 93 118
72 92 121
69 84 105
70 88 115
73 90 115
58 71 91
64 80 103
69 88 118
63 75 94
64 80 103
55 68 88
85 102 127
67 81 102
61 75 96
79 96 121
68 84 109
61 77 102
57 70 89
70 84 105
81 99 127
67 84 109
84 101 127
68 85 111
69 85 109
73 89 111
75 90 111
78 95 121
76 92 115
75 92 118
68 83 107
63 80 106
80 99 127
69 82 102
62 77 99
58 72 92
77 93 118
65 82 106
75 92 118
68 83 105
62 74 92
70 87 111
74 89 111
56 69 90
73 90 115
65 79 99
63 79 102
63 78 99
72 88 111
61 74 93
64 78 99
74 93 121
56 69 89
57 68 85
69 89 118
60 76 99
60 74 95
74 92 118
61 73 92
82 100 127
59 74 95
56 71 93
64 82 108
67 82 105
53 65 83
61 76 99
56 73 99
61 76 99
76 92 115
69 89 118
79 96 121
74 91 118
61 76 97
48 57 71
67 81 103
53 63 79
75 90 111
60 73 92
73 90 115
77 93 118
47 58 75
56 72 96
55 69 90
58 72 93
60 75 99
61 75 96
64 77 98
67 84 110
65 80 102
52 66 87
68 85 110
64 81 105
73 88 111
66 83 108
61 76 99
59 73 92
79 95 118
56 66 79
68 83 105
62 76 99
71 86 109
70 85 108
80 99 127
50 62 79
75 92 118
67 84 109
50 62 80
74 90 115
63 77 99
60 73 92
61 77 103
46 56 71
42 53 68
47 58 74
73 91 118
42 52 66
67 82 105
58 71 90
72 87 108
58 70 87
77 92 115
60 75 97
58 71 89
57 71 91
76 92 118
78 94 118
62 74 92
55 65 82
79 94 118
56 68 86
54 65 80
69 84 107
54 64 78
82 98 121
64 79 102
43 52 67
56 69 89
77 93 118
79 96 121
68 84 108
58 73 96
66 82 105
66 82 105
65 76 92
55 65 80
60 71 86
68 82 102
72 89 115
47 59 77
61 77 102
78 94 118
52 65 83
73 88 111
42 51 65
45 55 71
77 91 111
62 78 102
81 97 121
71 84 105
71 87 111
56 67 85
48 59 76
70 88 115
67 84 108
75 88 108
60 74 95
72 92 121
65 78 99
58 71 90
44 55 70
66 83 108
66 81 105
52 66 87
55 67 85
67 82 105
66 81 102
71 88 115
77 93 118
64 78 99
60 71 89
54 68 89
56 69 89
64 81 105
59 74 95
66 82 105
71 86 109
63 77 99
75 91 115
56 69 88
63 78 99
60 74 95
63 79 103
79 94 118
61 75 95
79 96 121
53 66 86
68 87 115
79 96 121
76 93 118
75 92 118
80 96 121
47 58 75
70 84 106
44 56 73
39 50 65
85 102 127
67 85 111
69 84 108
59 74 95
75 90 111
63 76 95
66 81 102
58 74 96
66 83 108
66 83 108
71 86 108
68 85 111
55 67 86
71 87 110
71 89 116
79 98 127
75 91 115
74 95 127
73 90 115
65 78 97
60 77 102
88 104 127
73 91 118
77 97 127
62 78 103
64 82 108
72 88 111
71 86 109
69 85 108
65 82 108
72 87 109
67 88 118
70 88 115
73 92 121
61 76 99
67 84 108
57 70 90
81 100 127
68 84 109
71 87 111
62 75 95
53 65 83
60 74 94
68 86 111
75 92 118
67 84 109
70 91 121
66 82 106
82 100 127
76 97 127
73 92 121
67 83 107
74 90 115
79 98 127
83 101 127
66 83 108
72 90 118
70 88 115
73 90 115
69 84 105
63 79 103
73 90 115
71 87 111
74 92 118
71 86 109
76 94 121
72 90 118
75 94 121
80 99 127
65 82 108
74 91 118
63 80 105
75 91 115
74 93 121
63 78 99
72 92 121
78 98 127
72 90 118
81 100 127
79 98 127
68 84 108
74 92 118
77 93 118
78 98 127
68 86 111
77 97 127
70 88 115
73 91 118
68 83 105
69 89 118
84 101 127
64 79 102
73 92 121
70 87 111
68 85 110
75 96 127
78 95 121
77 93 118
57 70 89
80 99 127
79 98 127
62 79 105
75 92 118
76 94 121
78 98 127
87 103 127
71 91 121
80 99 127
61 76 97
74 91 116
75 96 127
80 99 127
73 95 127
72 90 115
76 97 127
77 97 127
72 91 118
72 90 118
74 91 118
61 78 103
76 97 127
71 88 115
73 92 121
68 87 115
71 91 121
70 88 115
79 99 127
75 96 127
79 99 127
68 88 118
79 98 127
71 90 118
80 99 127
80 99 127
72 90 115
74 93 121
77 97 127
73 91 118
82 100 127
75 91 115
73 90 115
83 101 127
77 94 118
76 96 127
71 89 116
80 99 127
80 99 127
73 91 118
77 97 127
73 91 118
78 98 127
69 87 115
62 78 102
72 86 108
67 82 105
54 69 92
76 96 127
64 81 106
75 93 121
77 97 127
63 80 106
65 83 110
71 87 111
83 101 127
70 88 115
76 93 118
77 94 118
77 92 115
71 89 116
59 72 93
72 91 118
65 80 102
71 87 111
73 92 121
66 84 111
64 78 99
78 98 127
79 98 127
69 89 118
76 97 127
73 92 121
74 93 121
75 96 127
60 75 96
75 92 118
66 83 108
58 74 99
75 93 121
78 93 115
73 91 118
70 87 111
68 85 111
75 89 111
83 101 127
64 81 105
77 93 118
72 88 111
68 85 111
78 95 121
85 102 127
63 79 102
67 83 108
77 95 121
69 84 105
71 90 118
75 90 111
63 80 105
79 98 127
74 93 121
71 90 118
59 74 96
59 72 92
60 75 99
74 92 118
73 88 111
73 90 115
65 80 102
68 84 108
77 93 118
71 87 111
76 93 118
78 98 127
67 82 105
83 101 127
71 85 106
76 90 111
68 83 105
67 83 108
64 83 111
61 76 99
80 99 127
61 76 97
71 86 108
69 85 108
77 93 116
79 96 121
57 71 93
71 87 110
62 79 105
70 83 102
71 89 115
76 94 121
52 66 87
71 89 115
75 96 127
73 91 116
62 78 102
53 66 86
71 91 121
80 95 118
62 74 93
67 81 102
75 94 121
68 84 108
57 71 92
58 73 94
55 69 89
53 65 83
76 93 118
71 86 110
70 83 103
68 83 105
60 73 92
61 76 99
74 92 118
56 68 86
66 79 99
69 84 107
73 92 121
64 81 106
67 84 108
70 86 109
49 60 76
68 82 102
80 99 127
51 64 83
71 86 108
61 76 99
62 77 99
62 76 99
73 91 118
70 87 111
82 100 127
37 47 62
78 93 116
56 72 96
77 97 127
75 92 118
70 85 107
62 78 102
64 78 99
73 91 118
61 72 88
60 71 89
58 70 87
51 63 80
46 58 75
65 80 102
52 62 78
72 91 118
62 76 96
57 71 91
63 80 106
58 69 86
73 88 109
54 63 77
60 75 96
61 74 93
50 62 80
61 74 92
68 84 108
52 63 79
67 83 108
76 92 116
63 75 92
73 91 118
65 80 103
58 70 89
63 80 105
84 99 121
63 78 102
53 64 80
67 80 100
76 93 118
64 78 99
77 95 121
80 97 121
53 64 80
64 79 102
51 63 81
74 90 115
67 79 97
58 71 91
72 87 109
74 92 118
65 82 107
55 67 86
78 95 121
66 81 105
57 71 93
41 50 64
71 87 111
62 77 99
58 70 89
65 80 102
62 76 96
36 44 56
55 69 89
73 89 111
71 86 108
61 75 95
60 74 95
62 78 102
76 92 115
65 80 102
72 90 115
71 84 103
71 86 108
61 76 99
55 69 89
65 78 96
78 94 118
70 86 109
71 90 118
62 78 102
60 74 95
44 55 73
80 96 121
38 47 61
65 79 99
65 81 105
55 68 86
66 87 118
58 74 99
70 88 115
63 77 99
51 62 78
83 101 127
67 84 108
57 68 86
71 90 118
70 88 115
45 57 74
66 83 108
67 82 105
60 76 99
57 71 91
64 76 95
73 90 116
87 103 127
74 91 115
79 99 127
74 92 118
73 91 118
81 99 127
72 86 108
76 94 121
69 89 118
64 79 102
69 82 102
41 48 60
71 87 110
63 77 99
72 90 118
63 77 99
79 96 121
71 89 115
68 85 109
60 73 91
79 96 121
79 98 127
56 72 96
71 89 115
51 64 83
76 92 115
72 90 118
73 87 109
67 86 115
74 90 115
76 94 121
89 105 127
64 79 102
61 79 105
63 81 108
68 84 108
71 90 118
79 98 127
79 98 127
74 93 121
66 83 108
68 84 107
65 80 103
71 89 115
65 82 108
59 74 96
74 91 118
80 99 127
69 89 118
72 89 115
67 86 115
67 82 106
69 86 111
65 82 109
78 98 127
74 93 121
69 84 107
76 94 121
63 81 108
66 82 105
71 87 110
59 72 92
68 82 103
71 85 105
80 96 121
67 83 108
75 93 121
64 82 108
75 92 118
64 76 96
69 89 118
70 86 109
81 99 127
80 96 121
67 85 111
74 93 121
72 91 118
69 86 111
70 89 118
71 87 111
62 78 102
70 86 111
70 84 107
80 99 127
67 87 115
77 97 127
72 89 115
68 87 115
77 97 127
75 92 118
80 95 118
76 92 116
71 87 111
76 94 121
68 85 111
72 90 118
69 86 111
68 85 111
80 99 127
74 96 127
55 72 97
75 92 118
70 84 105
68 85 111
64 79 102
79 98 127
78 98 127
79 99 127
77 97 127
82 100 127
74 91 118
73 89 111
67 85 111
87 103 127
71 90 118
80 99 127
67 82 105
84 101 127
77 95 121
78 95 121
71 90 118
76 97 127
78 94 118
64 82 109
59 72 92
74 93 121
75 96 127
78 95 121
77 97 127
81 99 127
84 101 127
77 92 115
73 91 118
71 89 116
75 94 121
74 93 121
61 81 110
75 94 121
54 67 87
78 95 121
81 100 127
81 100 127
74 92 118
75 91 115
69 88 115
80 99 127
68 88 118
72 91 121
75 96 127
58 72 92
72 90 118
68 83 105
69 85 110
74 90 115
76 96 127
78 95 121
83 101 127
75 92 118
68 83 105
79 94 118
73 91 118
69 87 115
78 98 127
71 86 108
75 92 118
81 99 127
73 88 111
73 95 127
68 84 108
74 91 118
68 83 105
67 87 118
79 96 121
69 88 116
78 94 118
68 84 108
71 86 108
70 91 121
64 80 105
65 78 96
55 69 90
69 85 108
67 83 108
76 94 121
73 91 118
66 83 108
78 98 127
76 97 127
71 89 116
60 77 102
69 83 105
63 81 108
73 91 118
72 91 118
67 84 108
74 91 116
77 95 121
69 85 109
58 74 97
60 76 99
76 93 118
74 95 127
82 100 127
62 76 97
71 91 121
63 80 105
71 87 111
71 87 111
72 92 121
79 98 127
81 97 121
63 76 96
73 90 115
65 83 109
61 79 105
57 75 102
70 87 111
61 75 96
73 88 111
58 73 96
67 84 110
62 77 99
71 89 115
67 83 108
65 81 105
70 87 111
69 88 115
66 83 109
73 90 115
67 81 102
71 90 118
73 92 121
75 92 118
62 80 107
57 70 90
67 85 111
71 87 111
71 90 118
61 76 99
84 101 127
75 96 127
75 92 118
48 61 80
65 79 99
78 94 118
69 85 108
65 82 108
84 102 127
65 82 108
61 73 92
77 95 121
73 87 108
73 90 116
63 79 102
65 82 108
51 62 78
69 85 108
56 70 92
67 82 105
69 83 105
71 90 118
67 81 102
61 76 99
68 86 111
44 55 71
74 91 118
56 70 90
64 78 99
77 95 121
64 78 99
60 73 93
72 90 118
58 70 89
47 59 76
53 65 83
73 90 115
63 80 105
46 57 74
65 80 103
71 89 115
81 100 127
68 83 105
74 92 118
59 75 99
66 79 99
76 94 121
75 92 118
82 97 121
67 83 107
70 85 108
75 92 118
79 99 127
71 87 111
37 47 63
40 51 67
55 69 90
72 89 115
60 72 90
74 92 118
54 65 83
41 52 67
63 76 95
62 75 96
54 66 84
76 90 111
59 70 87
75 91 115
57 69 87
72 88 111
77 93 118
79 94 118
50 63 81
56 70 92
81 100 127
60 73 92
72 86 107
53 67 87
76 97 127
72 87 109
60 74 96
70 88 115
60 74 95
62 77 99
55 67 86
61 77 102
72 90 118
69 85 108
48 57 71
74 88 108
68 84 108
60 73 92
60 75 99
61 77 102
68 84 108
55 68 87
57 74 99
75 89 111
53 67 89
57 70 89
48 57 70
76 93 118
57 71 92
55 69 90
72 88 111
70 86 109
69 84 105
60 73 92
71 87 111
56 67 83
46 57 73
67 80 99
69 88 115
75 89 111
43 53 67
47 60 78
65 80 102
39 48 62
69 82 102
55 67 86
66 82 105
69 85 108
63 78 99
83 101 127
69 85 108
61 73 92
60 73 92
67 85 111
71 86 108
70 88 115
49 61 78
73 90 115
65 78 97
66 79 99
63 76 97
56 68 86
61 74 94
65 82 107
76 93 118
61 72 89
52 66 88
74 89 111
66 78 96
66 81 102
62 75 95
66 82 105
63 77 99
61 77 102
79 93 115
67 83 108
66 79 100
66 82 106
78 95 121
70 83 103
85 102 127
76 89 109
59 74 96
60 78 105
66 79 99
55 70 92
75 93 121
52 63 79
61 78 103
77 97 127
80 96 121
45 58 78
65 81 106
62 76 95
58 69 86
58 73 95
70 84 105
78 90 109
63 75 93
76 94 121
68 87 115
61 79 104
75 94 121
59 74 96
82 100 127
72 86 108
56 69 88
64 77 97
62 77 99
74 93 121
78 95 121
81 97 121
76 93 118
67 84 108
71 86 108
69 83 105
79 95 118
66 82 105
76 93 118
78 95 121
79 96 121
80 97 121
76 92 115
81 100 127
64 79 102
68 82 102
58 72 92
69 85 108
63 77 99
73 90 115
80 99 127
56 69 89
81 100 127
72 89 115
57 70 89
62 79 105
62 75 96
74 96 127
70 84 105
67 86 115
73 91 118
65 84 111
77 97 127
57 72 95
69 86 111
80 99 127
79 99 127
71 89 115
59 71 91
71 90 118
63 81 107
77 97 127
77 95 121
75 92 118
74 93 121
74 89 111
78 95 121
71 89 115
83 101 127
70 87 111
80 99 127
76 97 127
67 87 118
86 102 127
77 97 127
74 92 118
75 96 127
75 91 115
69 86 111
70 87 111
78 95 121
76 97 127
70 85 108
68 85 111
75 93 121
71 89 115
83 101 127
75 94 121
71 90 118
79 98 127
77 95 121
79 98 127
73 91 118
75 93 121
71 87 111
73 91 118
77 97 127
72 89 115
81 100 127
76 97 127
74 90 115
76 97 127
54 68 89
71 91 121
73 89 115
78 98 127
63 78 100
79 98 127
71 89 115
71 91 121
83 101 127
74 90 115
70 85 108
80 99 127
80 99 127
78 98 127
77 93 118
78 95 121
80 99 127
67 82 106
60 77 102
87 103 127
75 93 121
82 100 127
77 93 116
77 94 118
76 97 127
74 89 111
76 94 121
75 92 118
78 98 127
81 100 127
79 98 127
80 99 127
75 92 118
79 96 121
81 100 127
72 86 108
63 80 105
86 102 127
76 94 121
78 98 127
82 100 127
68 85 111
78 98 127
54 67 87
84 101 127
71 89 115
73 91 118
76 96 127
76 93 118
65 84 111
69 85 108
78 98 127
74 91 118
79 96 121
55 70 93
79 95 118
75 93 121
77 95 121
69 88 115
77 92 115
81 100 127
77 93 118
75 94 121
68 84 108
71 88 115
72 89 115
71 89 115
76 97 127
66 84 110
69 89 118
77 93 116
57 71 92
73 91 118
60 75 99
82 100 127
74 92 118
78 98 127
71 91 121
76 97 127
71 89 115
54 68 89
60 77 102
72 90 118
72 90 118
71 86 108
78 98 127
76 93 118
77 97 127
83 101 127
73 89 111
60 74 96
77 97 127
77 94 121
68 88 118
65 82 108
78 95 121
60 76 100
80 99 127
82 100 127
76 94 121
74 91 118
59 72 90
81 96 118
72 92 121
81 99 127
77 97 127
70 85 108
73 91 118
80 99 127
61 76 99
51 62 79
69 86 111
65 81 105
73 91 118
71 86 108
72 90 118
66 80 102
79 99 127
69 85 108
75 90 111
57 71 92
51 64 83
78 98 127
76 92 115
76 90 111
87 103 127
73 87 108
75 91 115
67 83 107
69 86 111
68 85 109
71 90 118
69 84 106
62 79 105
68 86 111
75 91 116
75 93 121
61 75 95
71 86 108
60 73 94
63 77 99
67 84 108
77 94 118
79 99 127
68 81 99
73 90 115
66 82 106
80 96 121
74 90 115
79 96 121
68 83 105
67 83 108
56 69 89
55 68 87
63 76 96
70 86 111
79 99 127
68 88 118
59 74 96
63 81 108
63 79 102
44 54 70
81 99 127
50 62 80
61 77 99
58 72 93
69 85 108
83 101 127
54 63 77
83 101 127
55 69 89
70 84 105
80 99 127
74 89 111
68 83 105
50 61 78
63 74 91
53 65 82
61 75 95
71 88 115
62 75 95
64 78 99
82 100 127
74 90 115
70 89 118
60 75 98
67 82 105
69 85 108
70 88 115
58 76 102
82 100 127
77 97 127
53 68 90
66 83 108
45 54 68
63 76 95
77 93 118
52 62 77
80 96 121
62 77 99
65 78 97
69 83 105
62 76 99
74 93 121
55 67 86
71 86 108
58 71 91
68 83 105
65 79 99
78 94 118
67 84 109
73 89 111
70 85 108
64 78 99
80 96 121
64 79 100
69 85 108
75 92 116
65 78 99
75 92 118
64 78 99
65 82 108
70 85 108
67 81 102
71 87 111
67 85 111
54 69 92
52 63 80
44 55 70
68 82 103
78 95 121
61 75 97
68 82 104
61 75 96
66 79 99
73 91 118
69 85 108
66 83 108
51 61 77
50 62 79
54 66 83
60 73 93
40 52 69
74 90 115
65 80 102
73 90 116
67 80 99
59 74 96
63 76 96
68 83 105
55 69 89
50 63 82
54 65 83
49 62 80
56 68 86
65 83 110
74 93 121
43 53 67
65 79 99
75 92 118
58 72 92
55 68 86
65 81 105
65 81 105
44 53 67
71 86 108
64 80 105
77 97 127
53 65 83
65 80 102
55 66 83
56 73 99
72 88 111
77 94 121
65 82 108
80 99 127
70 89 118
61 76 99
83 101 127
62 76 99
73 91 118
67 82 105
59 74 95
64 78 99
63 77 97
72 88 111
65 79 99
65 79 99
65 81 105
71 94 127
78 98 127
65 82 108
78 94 118
71 83 102
66 82 106
72 90 118
67 82 106
49 60 77
61 79 106
57 68 84
67 85 111
51 66 89
74 95 127
70 89 118
70 85 108
67 81 102
71 88 115
60 74 96
66 83 108
74 89 111
69 85 109
76 94 121
63 78 99
67 81 102
72 87 109
81 99 127
65 76 94
72 92 121
70 84 105
69 89 118
59 72 92
79 96 121
59 76 102
78 93 115
70 86 111
77 92 115
70 88 115
76 97 127
79 93 115
68 81 102
65 80 104
72 91 118
56 72 95
69 86 111
70 87 111
61 76 99
66 81 105
67 86 115
72 88 111
68 83 105
71 87 111
69 86 111
64 77 96
75 93 121
74 93 121
73 90 116
61 74 93
72 90 118
84 101 127
77 94 118
73 90 116
79 98 127
67 82 105
77 93 116
54 69 90
78 95 121
63 76 95
78 98 127
62 79 105
65 82 108
80 99 127
68 85 109
56 69 89
71 87 111
69 86 111
54 67 86
69 84 107
83 98 121
79 98 127
67 80 99
74 90 115
64 82 109
62 73 89
72 92 121
74 93 121
72 90 118
76 96 127
87 103 127
75 92 118
71 90 118
72 90 118
77 97 127
77 93 118
63 80 106
71 87 111
85 102 127
77 95 121
73 88 111
71 90 118
72 92 121
78 95 121
66 81 103
72 90 118
79 99 127
88 104 127
65 84 111
83 101 127
81 100 127
65 80 102
74 96 127
80 99 127
68 87 115
78 98 127
71 90 118
76 97 127
70 89 118
66 82 105
75 92 118
81 100 127
64 78 100
67 84 108
74 92 118
75 93 121
73 92 121
83 101 127
73 90 115
72 94 127
68 87 115
66 81 105
68 85 111
82 100 127
63 83 111
73 95 127
75 93 121
74 93 121
77 95 121
61 77 102
70 90 121
81 99 127
75 94 121
78 98 127
70 89 118
68 85 111
63 81 108
70 89 116
75 92 118
80 99 127
68 84 109
79 98 127
76 94 121
68 85 110
76 97 127
70 88 115
80 99 127
69 86 111
61 76 99
67 83 108
75 94 121
64 81 106
75 96 127
71 86 108
77 93 116
73 91 118
72 90 118
70 86 108
77 93 118
83 101 127
74 93 121
68 84 108
80 99 127
78 95 121
72 86 108
74 93 121
82 100 127
68 85 111
72 89 115
80 99 127
73 89 111
74 93 121
67 83 108
53 68 90
75 93 121
69 89 118
74 93 121
81 100 127
75 96 127
65 82 109
63 80 105
64 80 104
69 84 108
76 94 121
68 86 111
77 92 116
74 92 118
75 92 118
79 96 121
74 96 127
78 98 127
82 100 127
66 83 108
79 98 127
72 89 115
73 89 111
77 93 118
66 84 111
77 93 118
76 93 118
75 92 118
78 98 127
72 87 108
71 86 108
66 80 102
83 101 127
74 91 118
73 91 118
61 73 92
63 78 100
70 89 116
62 76 96
73 92 121
55 68 87
76 93 118
77 91 111
55 67 86
71 86 108
75 96 127
66 84 111
80 95 118
84 101 127
77 94 121
70 89 118
78 95 121
81 100 127
64 77 96
54 70 94
63 78 99
77 93 118
61 76 99
71 85 106
72 88 111
76 92 115
70 87 111
60 77 102
66 84 111
53 66 86
67 83 108
63 78 99
67 80 99
50 63 83
74 89 111
68 84 108
84 101 127
60 73 93
77 94 121
83 101 127
74 90 115
70 87 111
61 77 102
72 88 111
56 70 91
73 91 116
49 61 80
78 94 118
63 77 99
69 87 115
58 75 99
70 89 118
59 73 96
75 92 118
65 81 105
78 95 121
67 81 102
64 79 103
73 88 111
53 67 89
67 85 111
53 66 84
65 80 102
61 74 92
74 90 115
48 61 80
66 78 95
49 59 75
76 94 121
67 83 108
74 92 118
79 98 127
68 82 102
80 99 127
57 70 90
75 93 121
70 85 108
81 100 127
50 61 77
80 99 127
78 93 115
67 82 106
66 82 106
62 76 98
62 75 95
67 84 109
73 89 111
60 72 89
71 90 118
78 94 118
51 64 83
61 76 99
63 75 94
72 85 105
61 75 96
58 71 91
60 74 95
73 87 108
62 76 96
62 75 95
51 63 82
50 62 80
61 75 95
79 98 127
72 86 108
64 81 106
63 76 96
63 77 99
55 65 81
72 87 109
74 93 121
70 85 108
76 92 116
69 82 102
72 90 118
45 56 73
57 70 90
59 74 96
58 73 96
75 89 111
78 93 115
57 70 90
62 77 99
62 78 102
53 67 87
67 83 105
49 63 83
52 63 80
62 73 91
53 65 83
54 65 83
81 97 121
60 71 87
67 81 102
56 69 89
69 85 110
72 90 118
64 78 97
59 74 95
64 80 105
41 53 70
58 69 87
66 80 102
75 94 121
55 67 85
70 89 116
83 101 127
65 80 102
64 78 100
43 54 71
61 77 102
68 81 102
71 90 118
71 86 109
66 80 102
67 81 103
75 92 118
56 67 83
73 92 121
56 67 84
66 82 106
62 77 99
61 77 102
71 87 111
69 85 110
64 82 108
59 72 91
68 85 111
69 85 108
73 91 118
72 88 111
70 86 108
80 99 127
56 72 96
46 58 77
71 90 118
71 85 105
63 79 102
50 62 81
71 86 109
62 76 97
67 83 107
65 80 102
69 83 105
74 91 115
55 71 93
54 65 81
54 67 86
68 84 108
72 89 115
79 98 127
72 87 108
67 84 108
65 83 109
77 97 127
59 72 91
68 86 111
58 74 99
72 92 121
68 83 105
60 76 99
70 85 108
65 80 102
66 86 116
60 75 96
61 77 100
60 74 95
60 73 92
68 87 115
58 74 99
66 83 108
76 93 118
63 80 106
83 101 127
59 72 92
78 94 118
68 85 111
59 73 94
51 62 78
78 98 127
70 84 107
69 85 108
79 98 127
69 90 121
70 86 111
68 80 99
80 99 127
75 96 127
77 92 115
74 92 118
72 90 118
70 86 109
73 89 115
68 84 108
78 98 127
71 94 127
68 86 111
67 85 111
72 88 111
65 80 102
79 98 127
80 99 127
62 76 99
55 67 86
68 85 111
75 92 118
72 92 121
67 88 118
65 83 108
67 84 110
60 78 105
76 96 127
76 93 118
72 88 111
73 90 115
72 88 111
73 91 118
71 90 118
74 93 121
72 90 118
81 99 127
82 100 127
73 90 115
69 85 108
70 88 115
67 84 110
74 93 121
79 94 118
78 98 127
75 96 127
75 91 115
74 90 115
68 86 111
65 81 105
65 81 105
72 92 121
79 98 127
73 91 118
79 98 127
70 89 118
67 85 111
60 74 96
68 86 111
73 90 115
81 99 127
73 91 118
66 87 118
74 93 121
79 98 127
77 94 121
61 76 99
82 100 127
69 86 111
73 89 111
74 90 115
78 95 121
74 93 121
62 76 96
80 99 127
80 99 127
68 85 111
79 98 127
78 95 121
76 93 118
77 94 118
73 90 115
72 91 121
68 84 108
80 99 127
75 92 118
76 96 127
58 72 93
79 96 121
71 91 121
75 94 121
73 91 118
74 92 118
71 90 118
74 96 127
74 92 118
75 92 118
69 85 108
76 94 121
71 91 121
76 96 127
69 90 121
76 93 118
67 83 108
78 95 121
83 101 127
73 92 121
62 78 102
75 96 127
71 90 118
77 97 127
74 90 115
74 93 121
79 99 127
81 100 127
79 98 127
65 80 102
57 74 99
75 92 118
71 90 118
78 98 127
78 98 127
79 98 127
71 86 108
84 102 127
79 98 127
73 92 121
66 80 103
64 81 107
73 91 118
78 98 127
67 85 111
76 93 118
82 100 127
72 92 121
73 91 118
74 92 118
71 87 111
74 91 118
81 100 127
77 94 118
77 95 121
54 68 88
63 81 108
78 94 118
61 76 97
71 87 111
75 89 111
77 94 121
71 91 121
58 73 95
74 91 118
67 84 109
73 89 115
72 91 118
76 93 118
69 84 106
71 85 105
68 86 111
74 92 118
67 82 106
72 91 121
64 82 108
76 93 118
73 89 115
72 91 118
70 84 104
75 96 127
70 89 118
55 66 84
65 84 111
66 80 103
79 93 115
60 74 95
67 82 105
71 87 111
82 100 127
67 85 111
72 89 115
59 74 96
80 99 127
77 97 127
73 88 111
80 99 127
80 95 118
75 90 111
76 91 115
77 95 121
74 91 116
65 80 102
78 98 127
73 92 121
73 88 111
66 82 105
63 79 102
54 67 86
69 83 105
71 88 115
70 87 111
76 97 127
68 85 111
81 99 127
74 89 111
74 90 115
71 90 118
63 79 102
65 82 107
61 77 102
56 69 89
73 91 118
64 78 99
67 84 108
68 84 108
74 89 111
74 91 118
73 90 115
72 90 118
75 92 118
80 99 127
69 85 108
70 88 115
65 80 102
56 69 89
53 68 90
83 101 127
70 85 108
72 86 107
56 70 92
66 84 111
65 82 108
68 84 108
77 93 118
58 74 99
66 82 107
66 80 102
57 74 99
58 73 95
69 81 99
73 90 115
60 76 100
72 89 115
66 83 108
69 85 110
63 76 97
76 94 121
52 61 74
69 83 105
56 71 92
63 77 99
71 85 107
75 92 118
69 83 103
62 74 92
61 76 99
62 77 99
72 89 115
73 91 118
61 72 89
61 75 95
52 63 80
65 79 100
78 93 115
56 68 87
57 73 95
76 94 121
66 82 106
72 85 105
68 85 111
67 83 108
61 74 92
69 84 106
69 87 115
74 92 118
82 100 127
66 80 100
57 72 95
59 72 91
75 92 118
72 86 108
72 89 115
64 78 99
56 69 87
71 86 108
54 67 87
61 77 102
65 83 108
56 68 86
64 78 99
68 83 106
68 84 108
41 50 65
48 64 87
72 94 127
54 67 87
62 76 95
63 77 99
55 68 86
69 83 105
50 60 75
75 94 121
81 97 121
61 75 95
67 82 105
75 90 111
53 64 81
75 92 118
52 64 82
65 80 102
60 74 96
76 92 116
68 85 110
72 88 111
54 66 85
72 86 108
51 62 78
59 71 89
80 96 121
67 85 111
64 80 105
50 64 86
76 94 121
79 98 127
62 76 97
54 67 86
70 87 111
55 65 80
60 74 95
66 80 102
78 94 118
63 79 103
73 88 111
75 91 115
68 82 102
58 72 92
52 64 82
58 71 91
62 76 99
71 86 108
77 94 118
76 94 121
49 60 78
66 82 105
38 47 62
79 95 118
69 84 108
49 61 80
66 82 107
65 78 97
72 88 111
63 78 102
64 79 102
72 90 118
67 85 111
74 91 118
58 73 96
49 61 78
64 79 102
76 94 121
72 90 118
79 96 121
75 91 116
70 91 121
64 79 102
69 84 106
81 100 127
61 76 99
83 98 121
54 70 95
74 92 118
84 101 127
73 90 115
72 91 118
78 94 118
82 100 127
72 90 118
61 74 93
66 82 105
65 79 99
81 97 121
62 79 106
61 76 99
72 89 115
61 80 108
48 61 80
73 92 121
54 65 83
69 85 108
79 98 127
74 93 121
70 84 105
72 91 118
66 82 105
68 85 111
80 99 127
71 89 115
66 81 105
72 89 115
54 67 86
57 71 92
60 74 94
61 73 92
75 92 118
65 84 111
69 85 108
79 99 127
62 78 102
73 90 115
63 79 102
70 84 105
60 75 99
57 73 95
72 90 118
61 77 102
78 98 127
70 89 118
75 92 118
75 92 118
70 87 111
72 90 118
71 86 109
72 90 116
65 81 105
73 91 118
74 95 127
71 90 118
77 97 127
81 99 127
63 83 111
78 98 127
80 99 127
65 78 97
76 97 127
70 84 105
68 84 109
67 85 111
71 86 108
74 92 118
73 91 118
74 92 118
77 95 121
76 94 121
75 92 118
69 87 115
58 73 94
70 87 111
70 85 108
78 95 121
67 84 110
71 87 111
81 100 127
73 95 127
64 82 109
82 100 127
82 100 127
72 92 121
71 90 118
69 89 118
73 95 127
74 91 118
73 87 108
73 91 118
64 78 99
70 88 115
81 99 127
70 89 118
68 84 108
75 92 118
78 98 127
71 90 118
80 99 127
71 87 111
68 83 105
78 94 118
70 85 108
75 93 121
81 100 127
78 98 127
72 89 115
81 100 127
72 90 118
61 78 104
68 85 111
79 98 127
81 100 127
66 84 111
74 93 121
79 96 121
69 87 115
67 81 102
76 97 127
74 95 127
65 81 105
61 76 99
65 82 108
84 99 121
72 90 118
72 92 121
70 86 111
64 83 111
65 84 111
77 93 118
75 92 118
76 94 121
72 88 111
74 95 127
74 91 116
75 93 121
82 100 127
70 89 118
77 93 118
64 82 108
74 92 118
68 88 118
79 95 118
80 99 127
74 96 127
58 74 97
81 100 127
78 94 118
80 99 127
73 90 115
64 81 106
80 96 121
71 90 118
80 96 121
64 81 105
82 100 127
72 90 116
73 92 121
63 77 98
71 90 118
72 90 118
69 85 110
80 99 127
72 87 108
81 100 127
71 89 115
64 83 111
86 103 127
67 83 108
63 81 108
69 86 111
75 93 121
80 99 127
61 76 99
67 85 111
64 78 99
67 82 105
77 97 127
79 99 127
66 81 105
76 94 121
76 94 121
80 99 127
77 97 127
80 99 127
75 92 118
75 96 127
74 91 116
67 83 106
82 96 118
70 84 105
62 77 99
78 98 127
76 97 127
51 65 87
61 73 92
74 89 111
66 82 107
78 95 121
68 85 111
73 95 127
56 72 96
82 100 127
57 74 99
66 81 105
66 80 102
72 90 118
53 66 86
73 91 118
79 98 127
68 84 108
69 86 111
50 64 84
82 100 127
62 76 96
78 96 121
57 70 91
72 88 111
78 95 121
66 87 118
64 79 102
77 93 118
79 98 127
81 99 127
68 84 108
82 100 127
71 89 115
63 80 105
63 80 106
66 80 102
71 90 118
59 75 99
67 82 105
69 85 108
83 101 127
74 90 115
66 79 99
70 86 111
66 84 111
74 93 121
78 94 118
82 100 127
69 85 108
72 90 116
80 96 121
77 97 127
64 82 108
61 75 96
77 92 115
78 93 115
75 90 111
64 78 99
67 85 111
64 79 102
72 90 118
45 54 68
65 80 103
71 87 111
61 74 93
72 90 118
77 95 121
62 78 103
63 80 105
66 82 105
62 76 96
55 70 92
60 76 99
69 83 104
67 84 108
57 74 99
71 90 118
52 66 86
72 85 106
66 80 102
72 89 115
63 76 97
54 67 85
60 72 90
65 79 99
68 83 105
59 75 99
48 57 70
68 84 108
68 83 105
70 84 105
59 72 93
64 79 102
69 88 118
75 96 127
60 76 99
65 80 102
51 64 82
68 82 103
81 99 127
57 70 90
63 79 103
68 85 110
73 91 118
75 90 111
74 90 115
71 87 111
67 83 108
65 77 95
57 70 91
67 81 102
58 71 90
51 63 81
65 81 105
78 95 121
64 77 96
64 76 94
55 66 83
79 93 115
59 70 87
81 99 127
65 79 99
72 88 111
83 101 127
66 81 104
50 62 81
56 71 92
69 84 106
71 83 102
57 69 87
82 100 127
57 70 88
65 76 93
63 78 99
80 99 127
66 80 102
64 79 102
69 85 108
58 70 88
73 89 111
72 88 111
52 63 78
59 75 99
45 55 71
65 78 99
68 81 102
65 79 99
64 82 108
41 51 65
59 73 93
51 63 81
68 84 108
66 80 102
71 89 115
63 77 99
57 70 90
56 73 99
66 81 103
59 71 89
63 76 97
70 85 109
59 68 83
58 72 94
59 73 93
61 76 99
62 79 105
73 90 115
81 99 127
79 99 127
57 69 87
65 80 102
65 81 105
69 85 108
59 74 98
74 89 111
46 57 73
63 79 103
64 79 102
46 58 75
70 83 102
76 90 111
69 86 111
45 55 70
76 92 116
62 80 108
67 83 107
63 81 107
69 83 105
59 72 93
66 84 111
62 77 99
68 82 103
62 80 106
72 91 121
64 79 102
78 94 118
66 82 106
65 80 103
45 57 75
57 70 89
70 84 107
75 92 118
70 89 116
78 95 121
64 78 99
77 93 118
67 82 105
73 90 115
67 81 103
83 101 127
78 94 118
65 83 108
62 79 105
81 100 127
64 77 96
61 79 105
68 84 108
64 79 103
83 101 127
79 96 121
74 91 115
71 85 107
69 87 115
68 80 99
65 80 102
65 83 108
56 70 92
64 81 105
71 90 118
58 75 99
49 60 76
71 90 118
66 80 102
67 83 106
76 90 111
66 80 102
46 61 83
68 80 99
77 95 121
85 102 127
70 84 105
79 99 127
68 85 111
78 95 121
73 91 118
62 77 99
74 92 118
64 80 105
78 98 127
82 100 127
76 94 121
81 96 118
55 69 90
73 92 121
79 96 121
76 94 121
85 102 127
72 89 115
78 94 118
57 70 89
63 78 102
59 72 92
72 94 127
64 78 99
68 84 108
65 84 111
80 99 127
73 91 118
71 89 116
70 91 121
72 89 115
72 88 111
65 82 108
76 93 118
60 77 102
64 79 102
79 96 121
84 101 127
80 99 127
66 80 102
78 98 127
74 92 118
79 98 127
65 78 99
57 74 99
72 89 115
60 74 96
64 82 108
80 99 127
69 85 108
75 91 115
72 90 118
64 78 99
78 98 127
74 95 127
73 91 118
60 75 97
78 95 121
57 74 99
78 98 127
84 102 127
70 88 115
61 76 99
62 76 97
68 85 111
64 79 102
73 91 118
72 90 118
78 98 127
79 98 127
64 81 108
78 98 127
67 85 111
72 92 121
70 88 115
81 97 121
70 86 111
77 97 127
77 97 127
71 86 108
71 88 115
78 98 127
79 99 127
64 83 111
70 86 111
79 98 127
71 90 118
76 97 127
72 90 118
85 102 127
77 97 127
